( pcb2gcode 2.4.0 )
( Software-independent Gcode )

G94 ( Millimeters per minute feed rate. )
G21 ( Units == Millimeters. )

G90 ( Absolute coordinates. )
G00 S10000 ( RPM spindle speed. )
G64 P0.01000 ( set maximum deviation from commanded toolpath )
G01 F600.00000 ( Feedrate. )


G00 Z50.00000 (Retract to tool change height)
T0
M5      (Spindle stop.)
G04 P1.00000 (Wait for spindle to stop)
(MSG, Change tool bit to mill diameter 0.40000mm)
M6      (Tool change.)
M0      (Temporary machine stop.)
M3 ( Spindle on clockwise. )
G04 P1.00000 (Wait for spindle to get up to speed)
G04 P0 ( dwell for no time -- G64 should not smooth over this point )
G00 Z1.00000 ( retract )

G00 X14.49199 Y40.69154 ( rapid move to begin. )
G01 F300.00000
( Mill infeed pass 1/1 )
G01 Z-0.05000
G04 P0 ( dwell for no time -- G64 should not smooth over this point )
G01 F600.00000
G01 X14.49199 Y40.69154
G01 X14.59999 Y40.69154
G01 X14.59999 Y40.82501
G01 X14.60108 Y40.84592
G01 X14.60436 Y40.87711
G01 X14.61305 Y40.91800
G01 X14.62275 Y40.94782
G01 X14.63974 Y40.98602
G01 X14.64597 Y40.99682
G01 X14.64597 Y41.16873
G01 X14.58521 Y41.10797
G01 X14.52631 Y41.00838
G01 X14.49268 Y40.89268
G01 X14.49199 Y40.88376
G01 X14.49199 Y40.69154
G04 P0 ( dwell for no time -- G64 should not smooth over this point )
G00 Z1.00000 ( retract )

G00 X14.49199 Y39.59154 ( rapid move to begin. )
G01 F300.00000
( Mill infeed pass 1/1 )
G01 Z-0.05000
G04 P0 ( dwell for no time -- G64 should not smooth over this point )
G01 F600.00000
G01 X14.49199 Y39.59154
G01 X14.49270 Y39.58232
G01 X14.52628 Y39.46670
G01 X14.58518 Y39.36713
G01 X14.64597 Y39.30632
G01 X14.64597 Y39.47820
G01 X14.63974 Y39.48900
G01 X14.62275 Y39.52720
G01 X14.61305 Y39.55702
G01 X14.60436 Y39.59791
G01 X14.60108 Y39.62910
G01 X14.59999 Y39.65001
G01 X14.59999 Y39.78351
G01 X14.49199 Y39.78351
G01 X14.49199 Y39.59154
G04 P0 ( dwell for no time -- G64 should not smooth over this point )
G00 Z1.00000 ( retract )

G00 X13.85897 Y27.82405 ( rapid move to begin. )
G01 F300.00000
( Mill infeed pass 1/1 )
G01 Z-0.05000
G04 P0 ( dwell for no time -- G64 should not smooth over this point )
G01 F600.00000
G01 X13.85897 Y27.82405
G01 X13.91462 Y27.94394
G01 X14.02189 Y28.10119
G01 X14.15351 Y28.23896
G01 X14.30578 Y28.35328
G01 X14.47096 Y28.43926
G01 X14.47096 Y28.31213
G01 X14.41864 Y28.28884
G01 X14.38244 Y28.26794
G01 X14.23868 Y28.16349
G01 X14.20759 Y28.13550
G01 X14.08869 Y28.00345
G01 X14.06413 Y27.96964
G01 X13.98005 Y27.82405
G01 X13.85897 Y27.82405
G04 P0 ( dwell for no time -- G64 should not smooth over this point )
G00 Z1.00000 ( retract )

G00 X16.72498 Y27.69176 ( rapid move to begin. )
G01 F300.00000
( Mill infeed pass 1/1 )
G01 Z-0.05000
G04 P0 ( dwell for no time -- G64 should not smooth over this point )
G01 F600.00000
G01 X16.72498 Y27.69176
G01 X16.70141 Y27.61325
G01 X16.69661 Y27.60048
G01 X16.66420 Y27.52948
G01 X16.66052 Y27.52222
G01 X16.66148 Y27.52174
G01 X16.66052 Y27.52222
G01 X16.59376 Y27.40281
G01 X16.58592 Y27.39090
G01 X16.52498 Y27.31115
G01 X16.52498 Y27.05001
G01 X16.72498 Y27.05001
G01 X16.52498 Y27.05001
G01 X16.52691 Y27.01082
G01 X16.52932 Y26.98643
G01 X16.54462 Y26.90952
G01 X16.55173 Y26.88608
G01 X16.58173 Y26.81364
G01 X16.59328 Y26.79202
G01 X16.63684 Y26.72682
G01 X16.65239 Y26.70787
G01 X16.67875 Y26.67879
G01 X18.17895 Y25.17856
G01 X18.20804 Y25.15220
G01 X18.22698 Y25.13665
G01 X18.29219 Y25.09309
G01 X18.31380 Y25.08153
G01 X18.38624 Y25.05154
G01 X18.40969 Y25.04442
G01 X18.48660 Y25.02913
G01 X18.51098 Y25.02672
G01 X18.55020 Y25.02479
G01 X19.45111 Y25.02479
G01 X19.45482 Y25.02068
G01 X19.46132 Y25.01481
G01 X19.61944 Y25.01481
G01 X19.65375 Y25.01481
G01 X19.73346 Y25.01481
G01 X19.76523 Y25.01481
G01 X19.76551 Y25.01481
G01 X19.82668 Y25.01481
G01 X19.82777 Y25.01481
G01 X21.55243 Y25.01481
G01 X21.57821 Y25.01481
G01 X21.63930 Y25.01481
G01 X21.63960 Y25.01481
G01 X21.67166 Y25.01481
G01 X21.71870 Y25.01481
G01 X21.73714 Y25.03660
G01 X21.75047 Y25.05362
G01 X21.75192 Y25.05542
G01 X21.77249 Y25.08044
G01 X21.77397 Y25.08222
G01 X21.81969 Y25.13528
G01 X21.82126 Y25.13708
G01 X21.84232 Y25.16035
G01 X21.84394 Y25.16210
G01 X21.84852 Y25.16690
G01 X21.86574 Y25.18138
G01 X21.86238 Y25.18618
G01 X21.86574 Y25.18138
G01 X21.88575 Y25.19164
G01 X21.91397 Y25.20229
G01 X21.91606 Y25.20305
G01 X21.97785 Y25.22479
G01 X23.55019 Y25.22479
G01 X23.62860 Y25.20127
G01 X23.64140 Y25.19644
G01 X23.64536 Y25.19464
G01 X23.64752 Y25.19848
G01 X23.64536 Y25.19464
G01 X23.66231 Y25.18479
G01 X23.67701 Y25.17183
G01 X23.68890 Y25.15624
G01 X23.69365 Y25.15956
G01 X23.68890 Y25.15624
G01 X23.69751 Y25.13863
G01 X23.72253 Y25.07160
G01 X23.72497 Y25.06358
G01 X23.72253 Y25.07160
G01 X23.69751 Y25.13863
G01 X23.68890 Y25.15624
G01 X23.67701 Y25.17183
G01 X23.66231 Y25.18479
G01 X23.64536 Y25.19464
G01 X23.64140 Y25.19644
G01 X23.62860 Y25.20127
G01 X23.55019 Y25.22479
G01 X23.72497 Y25.22479
G01 X23.72497 Y25.06358
G01 X23.72497 Y19.55002
G01 X23.72593 Y19.53044
G01 X23.72835 Y19.50606
G01 X23.73599 Y19.46760
G01 X23.74310 Y19.44416
G01 X23.75811 Y19.40794
G01 X23.76965 Y19.38632
G01 X23.79144 Y19.35371
G01 X23.80698 Y19.33478
G01 X23.82017 Y19.32023
G01 X24.62497 Y18.51541
G01 X24.62497 Y13.82489
G01 X24.60134 Y13.74620
G01 X24.59652 Y13.73342
G01 X24.59479 Y13.72959
G01 X24.58493 Y13.71265
G01 X24.57196 Y13.69794
G01 X24.58265 Y13.68758
G01 X24.57196 Y13.69794
G01 X24.55636 Y13.68608
G01 X24.53876 Y13.67744
G01 X24.47157 Y13.65240
G01 X24.47211 Y13.65001
G01 X24.47157 Y13.65240
G01 X24.46375 Y13.65001
G01 X24.47157 Y13.65240
G01 X24.53876 Y13.67744
G01 X24.55636 Y13.68608
G01 X24.57196 Y13.69794
G01 X24.58493 Y13.71265
G01 X24.59479 Y13.72959
G01 X24.59652 Y13.73342
G01 X24.60134 Y13.74620
G01 X24.62497 Y13.82489
G01 X24.62497 Y13.65001
G01 X24.47211 Y13.65001
G01 X24.46375 Y13.65001
G01 X23.94999 Y13.65001
G01 X23.91097 Y13.64617
G01 X23.87346 Y13.63480
G01 X23.83886 Y13.61630
G01 X23.80856 Y13.59144
G01 X23.78369 Y13.56114
G01 X23.76520 Y13.52654
G01 X23.75382 Y13.48902
G01 X23.74999 Y13.45001
G01 X23.74999 Y12.04991
G01 X23.72639 Y11.97132
G01 X23.72159 Y11.95852
G01 X23.71981 Y11.95464
G01 X23.70996 Y11.93769
G01 X23.69698 Y11.92299
G01 X23.70790 Y11.91229
G01 X23.69698 Y11.92299
G01 X23.68141 Y11.91110
G01 X23.66378 Y11.90249
G01 X23.59665 Y11.87745
G01 X23.58875 Y11.87503
G01 X23.59665 Y11.87745
G01 X23.66378 Y11.90249
G01 X23.68141 Y11.91110
G01 X23.69698 Y11.92299
G01 X23.70996 Y11.93769
G01 X23.71981 Y11.95464
G01 X23.72159 Y11.95852
G01 X23.72639 Y11.97132
G01 X23.74999 Y12.04991
G01 X23.74999 Y11.87503
G01 X23.58875 Y11.87503
G01 X20.02485 Y11.87503
G01 X19.94616 Y11.89865
G01 X19.93338 Y11.90348
G01 X19.92955 Y11.90521
G01 X19.91260 Y11.91506
G01 X19.90752 Y11.90810
G01 X19.91260 Y11.91506
G01 X19.89790 Y11.92804
G01 X19.88604 Y11.94364
G01 X19.87740 Y11.96124
G01 X19.87542 Y11.96015
G01 X19.87740 Y11.96124
G01 X19.85236 Y12.02842
G01 X19.84999 Y12.03620
G01 X19.85236 Y12.02842
G01 X19.87740 Y11.96124
G01 X19.88604 Y11.94364
G01 X19.89790 Y11.92804
G01 X19.91260 Y11.91506
G01 X19.92955 Y11.90521
G01 X19.93338 Y11.90348
G01 X19.94616 Y11.89865
G01 X20.02485 Y11.87503
G01 X19.84999 Y11.87503
G01 X19.84999 Y12.03620
G01 X19.84999 Y12.30000
G01 X19.84613 Y12.33904
G01 X19.83475 Y12.37656
G01 X19.81629 Y12.41113
G01 X19.79140 Y12.44143
G01 X19.76109 Y12.46632
G01 X19.72652 Y12.48478
G01 X19.68901 Y12.49616
G01 X19.68403 Y12.49665
G01 X19.64999 Y12.50003
G01 X17.65000 Y12.50003
G01 X17.61639 Y12.49670
G01 X17.61096 Y12.49616
G01 X17.57344 Y12.48478
G01 X17.53887 Y12.46632
G01 X17.50857 Y12.44143
G01 X17.48370 Y12.41113
G01 X17.46521 Y12.37656
G01 X17.45383 Y12.33904
G01 X17.45000 Y12.30000
G01 X17.45000 Y11.96764
G01 X17.45000 Y10.80000
G01 X17.45383 Y10.76099
G01 X17.46521 Y10.72347
G01 X17.48370 Y10.68890
G01 X17.50857 Y10.65860
G01 X17.53887 Y10.63371
G01 X17.57344 Y10.61524
G01 X17.61096 Y10.60386
G01 X17.65000 Y10.60000
G01 X19.64999 Y10.60000
G01 X19.68367 Y10.60333
G01 X19.68901 Y10.60386
G01 X19.72652 Y10.61524
G01 X19.76109 Y10.63371
G01 X19.79140 Y10.65860
G01 X19.81629 Y10.68890
G01 X19.83475 Y10.72347
G01 X19.84613 Y10.76099
G01 X19.84999 Y10.80000
G01 X19.84999 Y11.05024
G01 X19.87354 Y11.12868
G01 X19.87834 Y11.14146
G01 X19.88014 Y11.14542
G01 X19.89000 Y11.16238
G01 X19.90298 Y11.17707
G01 X19.91855 Y11.18895
G01 X19.91370 Y11.19535
G01 X19.91855 Y11.18895
G01 X19.93618 Y11.19759
G01 X20.00318 Y11.22258
G01 X20.01116 Y11.22502
G01 X20.00318 Y11.22258
G01 X19.93618 Y11.19759
G01 X19.91855 Y11.18895
G01 X19.90298 Y11.17707
G01 X19.89000 Y11.16238
G01 X19.88014 Y11.14542
G01 X19.87834 Y11.14146
G01 X19.87354 Y11.12868
G01 X19.87077 Y11.13005
G01 X19.87354 Y11.12868
G01 X19.84999 Y11.05024
G01 X19.84999 Y11.22502
G01 X20.01116 Y11.22502
G01 X23.57516 Y11.22502
G01 X23.65380 Y11.20140
G01 X23.66660 Y11.19660
G01 X23.67038 Y11.19485
G01 X23.68735 Y11.18502
G01 X23.70203 Y11.17204
G01 X23.71272 Y11.18296
G01 X23.70203 Y11.17204
G01 X23.71392 Y11.15644
G01 X23.72253 Y11.13884
G01 X23.74760 Y11.07163
G01 X23.74999 Y11.06381
G01 X23.74760 Y11.07163
G01 X23.72253 Y11.13884
G01 X23.71392 Y11.15644
G01 X23.70203 Y11.17204
G01 X23.68735 Y11.18502
G01 X23.67038 Y11.19485
G01 X23.66660 Y11.19660
G01 X23.65380 Y11.20140
G01 X23.57516 Y11.22502
G01 X23.74999 Y11.22502
G01 X23.74999 Y11.06381
G01 X23.74999 Y9.65002
G01 X23.75382 Y9.61100
G01 X23.76520 Y9.57349
G01 X23.78369 Y9.53889
G01 X23.80856 Y9.50859
G01 X23.83886 Y9.48372
G01 X23.87346 Y9.46523
G01 X23.91097 Y9.45385
G01 X23.94999 Y9.45002
G01 X25.94998 Y9.45002
G01 X25.98900 Y9.45385
G01 X26.02651 Y9.46523
G01 X26.06111 Y9.48372
G01 X26.09141 Y9.50859
G01 X26.11628 Y9.53889
G01 X26.13477 Y9.57349
G01 X26.14615 Y9.61100
G01 X26.14998 Y9.65002
G01 X26.14998 Y11.05024
G01 X26.17355 Y11.12873
G01 X26.17835 Y11.14153
G01 X26.18016 Y11.14544
G01 X26.18999 Y11.16238
G01 X26.18305 Y11.16746
G01 X26.18999 Y11.16238
G01 X26.20297 Y11.17709
G01 X26.21856 Y11.18898
G01 X26.23616 Y11.19759
G01 X26.23507 Y11.19960
G01 X26.23616 Y11.19759
G01 X26.30327 Y11.22261
G01 X26.31114 Y11.22502
G01 X26.30327 Y11.22261
G01 X26.23616 Y11.19759
G01 X26.21856 Y11.18898
G01 X26.20297 Y11.17709
G01 X26.18999 Y11.16238
G01 X26.18016 Y11.14544
G01 X26.17835 Y11.14153
G01 X26.17355 Y11.12873
G01 X26.14998 Y11.05024
G01 X26.14998 Y11.22502
G01 X26.31114 Y11.22502
G01 X29.72427 Y11.22502
G01 X29.80291 Y11.20140
G01 X29.81568 Y11.19660
G01 X29.88670 Y11.16416
G01 X29.88706 Y11.16492
G01 X29.88670 Y11.16416
G01 X29.89369 Y11.16063
G01 X30.00811 Y11.09711
G01 X30.02338 Y11.08669
G01 X30.03644 Y11.07366
G01 X30.04370 Y11.08006
G01 X30.03644 Y11.07366
G01 X30.04690 Y11.05845
G01 X30.05437 Y11.04156
G01 X30.05858 Y11.02360
G01 X30.06097 Y11.02423
G01 X30.05858 Y11.02360
G01 X30.07405 Y10.91372
G01 X30.07476 Y10.90694
G01 X30.07987 Y10.83594
G01 X30.07995 Y10.83452
G01 X30.08124 Y10.81207
G01 X30.08551 Y10.81166
G01 X30.08124 Y10.81207
G01 X30.08066 Y10.79406
G01 X30.07682 Y10.77646
G01 X30.06989 Y10.75982
G01 X30.06008 Y10.74468
G01 X30.06359 Y10.74280
G01 X30.06008 Y10.74468
G01 X30.02678 Y10.70214
G01 X30.02498 Y10.69993
G01 X29.97189 Y10.63594
G01 X29.96910 Y10.63274
G01 X29.93141 Y10.59104
G01 X29.96910 Y10.63274
G01 X29.97189 Y10.63594
G01 X30.02498 Y10.69993
G01 X30.02678 Y10.70214
G01 X30.06008 Y10.74468
G01 X30.06989 Y10.75982
G01 X30.07682 Y10.77646
G01 X30.08066 Y10.79406
G01 X30.08124 Y10.81207
G01 X30.07995 Y10.83452
G01 X30.07987 Y10.83594
G01 X30.07476 Y10.90694
G01 X30.07405 Y10.91372
G01 X30.05858 Y11.02360
G01 X30.05437 Y11.04156
G01 X30.04690 Y11.05845
G01 X30.03644 Y11.07366
G01 X30.02338 Y11.08669
G01 X30.00811 Y11.09711
G01 X29.89369 Y11.16063
G01 X29.88670 Y11.16416
G01 X29.81568 Y11.19660
G01 X29.80291 Y11.20140
G01 X29.72427 Y11.22502
G01 X30.17497 Y11.22502
G01 X30.17497 Y10.62502
G01 X30.09999 Y10.62502
G01 X30.08607 Y10.62365
G01 X30.07385 Y10.62365
G01 X30.03227 Y10.61928
G01 X29.98111 Y10.60841
G01 X29.94139 Y10.59548
G01 X29.93141 Y10.59104
G01 X29.89364 Y10.57422
G01 X29.85744 Y10.55332
G01 X29.81515 Y10.52261
G01 X29.78409 Y10.49462
G01 X29.74911 Y10.45578
G01 X29.72450 Y10.42195
G01 X29.69839 Y10.37669
G01 X29.68139 Y10.33851
G01 X29.66524 Y10.28880
G01 X29.65655 Y10.24791
G01 X29.65109 Y10.19591
G01 X29.64997 Y10.17501
G01 X29.64997 Y8.92500
G01 X29.65109 Y8.90410
G01 X29.65655 Y8.85213
G01 X29.66524 Y8.81123
G01 X29.68139 Y8.76153
G01 X29.69839 Y8.72332
G01 X29.72450 Y8.67806
G01 X29.74911 Y8.64423
G01 X29.78409 Y8.60539
G01 X29.81515 Y8.57743
G01 X29.85744 Y8.54669
G01 X29.89364 Y8.52579
G01 X29.94139 Y8.50453
G01 X29.98111 Y8.49163
G01 X30.03227 Y8.48075
G01 X30.06338 Y8.47667
G01 X30.08950 Y8.47529
G01 X30.09999 Y8.47501
G01 X30.26590 Y8.47501
G01 X30.38716 Y8.43161
G01 X30.39958 Y8.42620
G01 X30.39996 Y8.42698
G01 X30.39958 Y8.42620
G01 X30.47057 Y8.38926
G01 X30.47860 Y8.38462
G01 X30.59729 Y8.30811
G01 X30.65678 Y8.31162
G01 X30.66061 Y8.31177
G01 X30.69795 Y8.31250
G01 X30.69998 Y8.31253
G01 X30.89897 Y8.31253
G01 X30.93384 Y8.31324
G01 X30.94995 Y8.31403
G01 X30.97712 Y8.35421
G01 X30.97895 Y8.35680
G01 X31.03501 Y8.43430
G01 X31.03615 Y8.43582
G01 X31.05376 Y8.45922
G01 X31.05492 Y8.46076
G01 X31.07242 Y8.48307
G01 X31.09922 Y8.51995
G01 X31.10179 Y8.52378
G01 X31.05858 Y8.50453
G01 X31.01883 Y8.49163
G01 X30.96770 Y8.48075
G01 X30.92612 Y8.47639
G01 X30.91390 Y8.47639
G01 X30.89998 Y8.47501
G01 X30.26590 Y8.47501
G01 X30.89998 Y8.47501
G01 X30.91390 Y8.47639
G01 X30.92612 Y8.47639
G01 X30.96770 Y8.48075
G01 X31.01883 Y8.49163
G01 X31.05858 Y8.50453
G01 X31.10179 Y8.52378
G01 X31.10633 Y8.52579
G01 X31.14255 Y8.54669
G01 X31.18482 Y8.57743
G01 X31.21591 Y8.60539
G01 X31.25086 Y8.64423
G01 X31.27545 Y8.67806
G01 X31.30158 Y8.72332
G01 X31.31858 Y8.76153
G01 X31.33473 Y8.81123
G01 X31.34342 Y8.85213
G01 X31.34890 Y8.90410
G01 X31.35000 Y8.92500
G01 X31.35000 Y10.17501
G01 X31.34890 Y10.19591
G01 X31.34342 Y10.24791
G01 X31.33473 Y10.28880
G01 X31.31858 Y10.33851
G01 X31.30158 Y10.37669
G01 X31.27545 Y10.42195
G01 X31.25086 Y10.45578
G01 X31.21591 Y10.49462
G01 X31.18482 Y10.52261
G01 X31.14255 Y10.55332
G01 X31.10633 Y10.57422
G01 X31.06638 Y10.59203
G01 X31.02988 Y10.63356
G01 X31.02714 Y10.63678
G01 X30.97430 Y10.70231
G01 X30.97326 Y10.70364
G01 X30.95348 Y10.72904
G01 X30.95246 Y10.73033
G01 X30.93981 Y10.74717
G01 X30.92833 Y10.76668
G01 X30.91911 Y10.76320
G01 X30.92833 Y10.76668
G01 X30.92152 Y10.78827
G01 X30.91975 Y10.81085
G01 X30.92170 Y10.86594
G01 X30.92244 Y10.87514
G01 X30.92124 Y10.87519
G01 X30.92244 Y10.87514
G01 X30.94128 Y11.02223
G01 X30.94532 Y11.04026
G01 X30.95261 Y11.05725
G01 X30.93844 Y11.06612
G01 X30.95261 Y11.05725
G01 X30.96290 Y11.07262
G01 X30.97583 Y11.08580
G01 X30.99099 Y11.09642
G01 X31.07187 Y11.14250
G01 X31.07657 Y11.14499
G01 X31.07590 Y11.14618
G01 X31.07657 Y11.14499
G01 X31.14756 Y11.18057
G01 X31.16008 Y11.18583
G01 X31.27507 Y11.22502
G01 X31.16008 Y11.18583
G01 X31.14756 Y11.18057
G01 X31.07657 Y11.14499
G01 X31.07187 Y11.14250
G01 X30.99099 Y11.09642
G01 X30.97583 Y11.08580
G01 X30.96290 Y11.07262
G01 X30.95261 Y11.05725
G01 X30.94532 Y11.04026
G01 X30.94128 Y11.02223
G01 X30.92244 Y10.87514
G01 X30.92170 Y10.86594
G01 X30.91975 Y10.81085
G01 X30.92152 Y10.78827
G01 X30.92833 Y10.76668
G01 X30.93981 Y10.74717
G01 X30.95246 Y10.73033
G01 X30.95348 Y10.72904
G01 X30.97326 Y10.70364
G01 X30.97430 Y10.70231
G01 X31.02714 Y10.63678
G01 X31.02988 Y10.63356
G01 X31.06638 Y10.59203
G01 X31.05858 Y10.59548
G01 X31.01883 Y10.60841
G01 X30.96770 Y10.61928
G01 X30.93659 Y10.62337
G01 X30.91045 Y10.62474
G01 X30.89998 Y10.62502
G01 X30.82498 Y10.62502
G01 X30.82498 Y11.22502
G01 X31.27507 Y11.22502
G01 X32.09998 Y11.22502
G01 X32.11957 Y11.22599
G01 X32.14395 Y11.22840
G01 X32.18240 Y11.23604
G01 X32.20585 Y11.24316
G01 X32.24209 Y11.25817
G01 X32.26368 Y11.26970
G01 X32.29630 Y11.29149
G01 X32.31525 Y11.30704
G01 X32.32978 Y11.32022
G01 X32.55957 Y11.55001
G01 X33.99998 Y11.55001
G01 X34.03902 Y11.55385
G01 X34.07653 Y11.56523
G01 X34.11110 Y11.58372
G01 X34.14141 Y11.60859
G01 X34.16627 Y11.63889
G01 X34.18476 Y11.67348
G01 X34.19614 Y11.71100
G01 X34.19998 Y11.75001
G01 X34.19998 Y13.45001
G01 X34.19614 Y13.48902
G01 X34.18476 Y13.52654
G01 X34.16627 Y13.56114
G01 X34.14141 Y13.59144
G01 X34.11110 Y13.61630
G01 X34.07653 Y13.63480
G01 X34.03902 Y13.64617
G01 X33.99998 Y13.65001
G01 X33.87186 Y13.65001
G01 X33.85964 Y13.65410
G01 X33.85840 Y13.65001
G01 X33.85964 Y13.65410
G01 X33.84555 Y13.66002
G01 X33.65108 Y13.76012
G01 X33.63976 Y13.76693
G01 X33.58255 Y13.80670
G01 X33.52101 Y13.79695
G01 X33.51578 Y13.79624
G01 X33.33808 Y13.77757
G01 X33.33287 Y13.77716
G01 X33.24407 Y13.77249
G01 X33.23884 Y13.77234
G01 X33.06114 Y13.77234
G01 X33.06112 Y13.77201
G01 X33.06114 Y13.77234
G01 X33.05589 Y13.77249
G01 X32.96709 Y13.77716
G01 X32.96188 Y13.77757
G01 X32.78418 Y13.79624
G01 X32.77895 Y13.79695
G01 X32.71611 Y13.80693
G01 X32.62622 Y13.74706
G01 X32.61964 Y13.74305
G01 X32.54867 Y13.70332
G01 X32.54893 Y13.70282
G01 X32.54867 Y13.70332
G01 X32.53856 Y13.69840
G01 X32.42343 Y13.65001
G01 X33.85840 Y13.65001
G01 X33.87186 Y13.65001
G01 X33.85840 Y13.65001
G01 X32.42343 Y13.65001
G01 X32.29998 Y13.65001
G01 X32.26097 Y13.64617
G01 X32.22345 Y13.63480
G01 X32.18888 Y13.61630
G01 X32.15855 Y13.59144
G01 X32.13369 Y13.56114
G01 X32.11522 Y13.52654
G01 X32.10384 Y13.48902
G01 X32.09998 Y13.45001
G01 X32.09998 Y12.03310
G01 X32.09823 Y12.02609
G01 X32.09236 Y12.00935
G01 X32.08365 Y11.99390
G01 X32.08398 Y11.99368
G01 X32.08365 Y11.99390
G01 X32.08093 Y11.99063
G01 X32.00501 Y11.91468
G01 X31.99183 Y11.90241
G01 X31.97626 Y11.89053
G01 X31.95863 Y11.88192
G01 X31.94677 Y11.87747
G01 X31.93874 Y11.87503
G01 X31.94677 Y11.87747
G01 X31.95863 Y11.88192
G01 X31.97626 Y11.89053
G01 X31.99183 Y11.90241
G01 X32.00501 Y11.91468
G01 X32.08093 Y11.99063
G01 X32.08365 Y11.99390
G01 X32.09236 Y12.00935
G01 X32.09823 Y12.02609
G01 X32.09998 Y12.03310
G01 X32.09998 Y12.00965
G01 X32.00501 Y11.91468
G01 X31.96536 Y11.87503
G01 X31.93874 Y11.87503
G01 X26.32483 Y11.87503
G01 X26.24627 Y11.89860
G01 X26.23350 Y11.90343
G01 X26.22956 Y11.90521
G01 X26.22740 Y11.90137
G01 X26.22956 Y11.90521
G01 X26.21262 Y11.91506
G01 X26.19791 Y11.92804
G01 X26.18602 Y11.94361
G01 X26.18125 Y11.94029
G01 X26.18602 Y11.94361
G01 X26.17741 Y11.96124
G01 X26.15239 Y12.02832
G01 X26.14998 Y12.03617
G01 X26.15239 Y12.02832
G01 X26.17741 Y11.96124
G01 X26.18602 Y11.94361
G01 X26.19791 Y11.92804
G01 X26.21262 Y11.91506
G01 X26.22956 Y11.90521
G01 X26.23350 Y11.90343
G01 X26.24627 Y11.89860
G01 X26.32483 Y11.87503
G01 X26.14998 Y11.87503
G01 X26.14998 Y12.03617
G01 X26.14998 Y13.45001
G01 X26.14615 Y13.48902
G01 X26.13477 Y13.52654
G01 X26.11628 Y13.56114
G01 X26.09141 Y13.59144
G01 X26.06111 Y13.61630
G01 X26.02651 Y13.63480
G01 X25.98900 Y13.64617
G01 X25.94998 Y13.65001
G01 X25.27498 Y13.65001
G01 X25.27498 Y15.87502
G01 X25.41153 Y15.87502
G01 X25.40640 Y15.86349
G01 X25.39024 Y15.81379
G01 X25.38155 Y15.77289
G01 X25.37609 Y15.72092
G01 X25.37498 Y15.70002
G01 X25.37498 Y14.40002
G01 X25.37609 Y14.37912
G01 X25.38155 Y14.32712
G01 X25.39024 Y14.28623
G01 X25.40640 Y14.23652
G01 X25.42339 Y14.19832
G01 X25.44953 Y14.15306
G01 X25.47411 Y14.11925
G01 X25.50906 Y14.08041
G01 X25.54015 Y14.05242
G01 X25.58242 Y14.02171
G01 X25.61864 Y14.00081
G01 X25.66639 Y13.97955
G01 X25.70614 Y13.96662
G01 X25.75727 Y13.95575
G01 X25.78839 Y13.95166
G01 X25.81452 Y13.95029
G01 X25.82499 Y13.95001
G01 X26.32138 Y13.95001
G01 X26.26220 Y13.93312
G01 X26.24970 Y13.92865
G01 X26.17871 Y13.89771
G01 X26.17424 Y13.89563
G01 X26.10487 Y13.86124
G01 X26.10182 Y13.86553
G01 X26.10487 Y13.86124
G01 X26.08864 Y13.85115
G01 X26.07462 Y13.83815
G01 X26.06332 Y13.82273
G01 X26.05516 Y13.80543
G01 X26.04429 Y13.80993
G01 X26.05516 Y13.80543
G01 X26.05046 Y13.78689
G01 X26.04937 Y13.76782
G01 X26.05191 Y13.74887
G01 X26.04988 Y13.74869
G01 X26.05191 Y13.74887
G01 X26.08615 Y13.60254
G01 X26.08768 Y13.59451
G01 X26.09141 Y13.59144
G01 X26.08768 Y13.59451
G01 X26.08615 Y13.60254
G01 X26.05191 Y13.74887
G01 X26.04937 Y13.76782
G01 X26.05046 Y13.78689
G01 X26.05516 Y13.80543
G01 X26.06332 Y13.82273
G01 X26.07462 Y13.83815
G01 X26.08864 Y13.85115
G01 X26.10487 Y13.86124
G01 X26.17424 Y13.89563
G01 X26.17871 Y13.89771
G01 X26.24970 Y13.92865
G01 X26.26220 Y13.93312
G01 X26.32138 Y13.95001
G01 X26.64998 Y13.95001
G01 X26.66390 Y13.95138
G01 X26.67612 Y13.95138
G01 X26.71770 Y13.95575
G01 X26.76883 Y13.96662
G01 X26.80858 Y13.97955
G01 X26.85633 Y14.00081
G01 X26.89255 Y14.02171
G01 X26.93482 Y14.05242
G01 X26.96591 Y14.08041
G01 X27.00088 Y14.11925
G01 X27.02544 Y14.15306
G01 X27.05158 Y14.19832
G01 X27.06860 Y14.23652
G01 X27.08473 Y14.28623
G01 X27.09344 Y14.32712
G01 X27.09890 Y14.37912
G01 X27.09999 Y14.40002
G01 X27.09999 Y15.70002
G01 X27.09890 Y15.72092
G01 X27.09344 Y15.77289
G01 X27.08473 Y15.81379
G01 X27.06860 Y15.86349
G01 X27.05158 Y15.90169
G01 X27.02544 Y15.94696
G01 X27.00088 Y15.98079
G01 X26.96591 Y16.01963
G01 X26.93482 Y16.04759
G01 X26.89255 Y16.07833
G01 X26.85633 Y16.09923
G01 X26.82760 Y16.11201
G01 X26.82034 Y16.12026
G01 X26.81752 Y16.12356
G01 X26.78059 Y16.16911
G01 X26.77805 Y16.17238
G01 X26.72748 Y16.24033
G01 X26.72547 Y16.23918
G01 X26.72748 Y16.24033
G01 X26.71782 Y16.25620
G01 X26.71125 Y16.27358
G01 X26.70802 Y16.29189
G01 X26.69999 Y16.29123
G01 X26.70802 Y16.29189
G01 X26.70825 Y16.31048
G01 X26.71188 Y16.32869
G01 X26.71884 Y16.34594
G01 X26.71404 Y16.34810
G01 X26.71884 Y16.34594
G01 X26.72887 Y16.36159
G01 X26.77934 Y16.42620
G01 X26.78028 Y16.42747
G01 X26.81577 Y16.47401
G01 X26.81843 Y16.47731
G01 X26.82715 Y16.48780
G01 X26.81843 Y16.47731
G01 X26.81577 Y16.47401
G01 X26.78028 Y16.42747
G01 X26.77934 Y16.42620
G01 X26.72887 Y16.36159
G01 X26.71884 Y16.34594
G01 X26.71188 Y16.32869
G01 X26.70825 Y16.31048
G01 X26.70802 Y16.29189
G01 X26.71125 Y16.27358
G01 X26.71782 Y16.25620
G01 X26.72748 Y16.24033
G01 X26.77805 Y16.17238
G01 X26.78059 Y16.16911
G01 X26.81752 Y16.12356
G01 X26.82034 Y16.12026
G01 X26.82760 Y16.11201
G01 X26.80858 Y16.12049
G01 X26.76883 Y16.13342
G01 X26.71770 Y16.14426
G01 X26.68658 Y16.14838
G01 X26.66044 Y16.14975
G01 X26.64998 Y16.15001
G01 X26.56248 Y16.15001
G01 X26.56248 Y16.45000
G01 X26.64998 Y16.45000
G01 X26.66390 Y16.45138
G01 X26.67612 Y16.45138
G01 X26.71770 Y16.45574
G01 X26.76883 Y16.46662
G01 X26.80858 Y16.47954
G01 X26.82715 Y16.48780
G01 X26.85633 Y16.50080
G01 X26.89255 Y16.52171
G01 X26.93482 Y16.55242
G01 X26.96591 Y16.58041
G01 X27.00088 Y16.61924
G01 X27.02544 Y16.65308
G01 X27.05158 Y16.69834
G01 X27.06860 Y16.73652
G01 X27.08473 Y16.78622
G01 X27.09344 Y16.82712
G01 X27.09890 Y16.87911
G01 X27.09999 Y16.90002
G01 X27.09999 Y18.20001
G01 X27.09890 Y18.22092
G01 X27.09344 Y18.27289
G01 X27.08473 Y18.31381
G01 X27.06860 Y18.36349
G01 X27.05158 Y18.40169
G01 X27.02544 Y18.44695
G01 X27.00088 Y18.48079
G01 X26.96591 Y18.51962
G01 X26.93482 Y18.54764
G01 X26.89255 Y18.57832
G01 X26.85633 Y18.59923
G01 X26.80858 Y18.62049
G01 X26.76883 Y18.63341
G01 X26.71770 Y18.64431
G01 X26.68658 Y18.64837
G01 X26.66044 Y18.64975
G01 X26.64998 Y18.65003
G01 X25.82499 Y18.65003
G01 X25.81109 Y18.64865
G01 X25.79885 Y18.64865
G01 X25.75727 Y18.64431
G01 X25.70614 Y18.63341
G01 X25.66639 Y18.62049
G01 X25.61864 Y18.59923
G01 X25.58242 Y18.57832
G01 X25.54091 Y18.54820
G01 X25.49690 Y18.53860
G01 X25.49265 Y18.53776
G01 X25.43284 Y18.52744
G01 X25.41297 Y18.52605
G01 X25.41247 Y18.51967
G01 X25.41297 Y18.52605
G01 X25.39321 Y18.52859
G01 X25.37434 Y18.53499
G01 X25.35712 Y18.54502
G01 X25.35077 Y18.53661
G01 X25.35712 Y18.54502
G01 X25.34224 Y18.55828
G01 X25.33027 Y18.57421
G01 X25.31572 Y18.59823
G01 X25.31480 Y18.59981
G01 X25.31226 Y18.60415
G01 X25.29801 Y18.62765
G01 X25.28427 Y18.64919
G01 X25.27427 Y18.66430
G01 X25.27401 Y18.66961
G01 X25.27160 Y18.69399
G01 X25.26395 Y18.73245
G01 X25.25684 Y18.75589
G01 X25.24183 Y18.79211
G01 X25.23030 Y18.81373
G01 X25.20850 Y18.84634
G01 X25.19296 Y18.86527
G01 X25.17978 Y18.87982
G01 X24.64793 Y19.41170
G01 X24.60909 Y19.48388
G01 X24.60345 Y19.49633
G01 X24.57617 Y19.56943
G01 X24.57549 Y19.56920
G01 X24.57617 Y19.56943
G01 X24.57307 Y19.57921
G01 X24.53647 Y19.71992
G01 X24.52931 Y19.72889
G01 X24.51920 Y19.74449
G01 X24.51656 Y19.74878
G01 X24.46799 Y19.83260
G01 X24.46543 Y19.83732
G01 X24.44943 Y19.86867
G01 X24.44722 Y19.87329
G01 X24.44663 Y19.87301
G01 X24.44722 Y19.87329
G01 X24.41468 Y19.94614
G01 X24.41262 Y19.95109
G01 X24.40058 Y19.98246
G01 X24.39888 Y19.98731
G01 X24.37790 Y20.05170
G01 X24.37638 Y20.05680
G01 X24.37498 Y20.06204
G01 X24.37498 Y19.68464
G01 X25.17978 Y18.87982
G01 X25.19296 Y18.86527
G01 X25.20850 Y18.84634
G01 X25.23030 Y18.81373
G01 X25.24183 Y18.79211
G01 X25.25684 Y18.75589
G01 X25.26395 Y18.73245
G01 X25.27160 Y18.69399
G01 X25.27401 Y18.66961
G01 X25.27427 Y18.66430
G01 X25.28427 Y18.64919
G01 X25.29801 Y18.62765
G01 X25.31226 Y18.60415
G01 X25.31480 Y18.59981
G01 X25.31572 Y18.59823
G01 X25.33027 Y18.57421
G01 X25.34224 Y18.55828
G01 X25.35712 Y18.54502
G01 X25.37434 Y18.53499
G01 X25.39321 Y18.52859
G01 X25.41297 Y18.52605
G01 X25.43284 Y18.52744
G01 X25.49265 Y18.53776
G01 X25.49690 Y18.53860
G01 X25.54091 Y18.54820
G01 X25.54015 Y18.54764
G01 X25.50906 Y18.51962
G01 X25.47411 Y18.48079
G01 X25.44953 Y18.44695
G01 X25.42339 Y18.40169
G01 X25.40640 Y18.36349
G01 X25.39024 Y18.31381
G01 X25.38155 Y18.27289
G01 X25.37609 Y18.22092
G01 X25.37498 Y18.20001
G01 X25.37498 Y16.90002
G01 X25.37609 Y16.87911
G01 X25.38155 Y16.82712
G01 X25.39024 Y16.78622
G01 X25.40640 Y16.73652
G01 X25.42339 Y16.69834
G01 X25.44953 Y16.65308
G01 X25.47411 Y16.61924
G01 X25.50906 Y16.58041
G01 X25.54015 Y16.55242
G01 X25.57785 Y16.52504
G01 X25.27498 Y16.52504
G01 X25.27498 Y18.65000
G01 X25.27427 Y18.66430
G01 X25.27401 Y18.66961
G01 X25.27160 Y18.69399
G01 X25.26395 Y18.73245
G01 X25.25684 Y18.75589
G01 X25.24183 Y18.79211
G01 X25.23030 Y18.81373
G01 X25.20850 Y18.84634
G01 X25.19296 Y18.86527
G01 X25.17978 Y18.87982
G01 X24.64793 Y19.41170
G01 X24.60909 Y19.48388
G01 X24.60345 Y19.49633
G01 X24.57617 Y19.56943
G01 X24.57307 Y19.57921
G01 X24.53647 Y19.71992
G01 X24.52931 Y19.72889
G01 X24.51920 Y19.74449
G01 X24.51656 Y19.74878
G01 X24.46799 Y19.83260
G01 X24.46543 Y19.83732
G01 X24.44943 Y19.86867
G01 X24.44722 Y19.87329
G01 X24.41468 Y19.94614
G01 X24.41262 Y19.95109
G01 X24.40058 Y19.98246
G01 X24.39888 Y19.98731
G01 X24.37790 Y20.05170
G01 X24.37638 Y20.05680
G01 X24.37498 Y20.06204
G01 X24.37498 Y20.87758
G01 X24.37638 Y20.88281
G01 X24.37790 Y20.88792
G01 X24.39888 Y20.95231
G01 X24.40058 Y20.95716
G01 X24.41262 Y20.98853
G01 X24.41468 Y20.99348
G01 X24.44722 Y21.06633
G01 X24.44943 Y21.07095
G01 X24.46543 Y21.10229
G01 X24.46675 Y21.10481
G01 X24.46543 Y21.10732
G01 X24.44943 Y21.13867
G01 X24.44722 Y21.14329
G01 X24.41468 Y21.21614
G01 X24.41262 Y21.22109
G01 X24.40058 Y21.25246
G01 X24.39888 Y21.25731
G01 X24.37790 Y21.32170
G01 X24.37638 Y21.32680
G01 X24.37498 Y21.33204
G01 X24.37498 Y20.87758
G01 X24.37498 Y21.33204
G01 X24.37498 Y22.14758
G01 X24.37638 Y22.15281
G01 X24.37790 Y22.15792
G01 X24.39888 Y22.22231
G01 X24.40058 Y22.22716
G01 X24.41262 Y22.25853
G01 X24.41468 Y22.26348
G01 X24.44722 Y22.33633
G01 X24.44943 Y22.34095
G01 X24.46543 Y22.37229
G01 X24.46675 Y22.37481
G01 X24.46543 Y22.37732
G01 X24.44943 Y22.40867
G01 X24.44722 Y22.41329
G01 X24.41468 Y22.48614
G01 X24.41262 Y22.49109
G01 X24.40058 Y22.52246
G01 X24.39888 Y22.52731
G01 X24.37790 Y22.59170
G01 X24.37638 Y22.59680
G01 X24.37498 Y22.60204
G01 X24.37498 Y22.14758
G01 X24.37498 Y22.60204
G01 X24.37498 Y23.41758
G01 X24.37638 Y23.42281
G01 X24.37790 Y23.42792
G01 X24.39888 Y23.49231
G01 X24.40058 Y23.49716
G01 X24.41262 Y23.52853
G01 X24.41468 Y23.53348
G01 X24.44722 Y23.60633
G01 X24.44943 Y23.61095
G01 X24.46543 Y23.64229
G01 X24.46675 Y23.64481
G01 X24.46543 Y23.64732
G01 X24.44943 Y23.67867
G01 X24.44722 Y23.68329
G01 X24.41468 Y23.75614
G01 X24.41262 Y23.76109
G01 X24.40058 Y23.79246
G01 X24.39888 Y23.79731
G01 X24.37790 Y23.86170
G01 X24.37638 Y23.86680
G01 X24.37498 Y23.87204
G01 X24.37498 Y23.41758
G01 X24.37498 Y23.87204
G01 X24.37498 Y24.68758
G01 X24.37638 Y24.69281
G01 X24.37790 Y24.69792
G01 X24.39888 Y24.76231
G01 X24.40058 Y24.76716
G01 X24.41262 Y24.79853
G01 X24.41468 Y24.80348
G01 X24.44722 Y24.87633
G01 X24.44943 Y24.88095
G01 X24.46543 Y24.91229
G01 X24.46675 Y24.91481
G01 X24.46543 Y24.91732
G01 X24.44943 Y24.94867
G01 X24.44722 Y24.95329
G01 X24.41468 Y25.02614
G01 X24.41262 Y25.03109
G01 X24.40058 Y25.06246
G01 X24.39888 Y25.06731
G01 X24.37790 Y25.13170
G01 X24.37638 Y25.13680
G01 X24.37498 Y25.14204
G01 X24.37498 Y24.68758
G01 X24.37498 Y25.14204
G01 X24.37498 Y25.95758
G01 X24.37638 Y25.96281
G01 X24.37790 Y25.96792
G01 X24.39888 Y26.03231
G01 X24.40058 Y26.03716
G01 X24.41262 Y26.06853
G01 X24.41468 Y26.07348
G01 X24.44722 Y26.14633
G01 X24.44943 Y26.15095
G01 X24.46543 Y26.18229
G01 X24.46675 Y26.18481
G01 X24.46543 Y26.18732
G01 X24.44943 Y26.21867
G01 X24.44722 Y26.22329
G01 X24.41468 Y26.29614
G01 X24.41262 Y26.30109
G01 X24.40058 Y26.33246
G01 X24.39888 Y26.33731
G01 X24.37790 Y26.40170
G01 X24.37638 Y26.40680
G01 X24.37498 Y26.41204
G01 X24.37498 Y25.95758
G01 X24.37498 Y26.41204
G01 X24.37498 Y27.22758
G01 X24.37638 Y27.23281
G01 X24.37790 Y27.23792
G01 X24.39888 Y27.30231
G01 X24.40058 Y27.30716
G01 X24.41262 Y27.33853
G01 X24.41468 Y27.34348
G01 X24.44722 Y27.41633
G01 X24.44943 Y27.42095
G01 X24.46543 Y27.45229
G01 X24.46675 Y27.45481
G01 X24.46543 Y27.45732
G01 X24.44943 Y27.48867
G01 X24.44722 Y27.49329
G01 X24.41468 Y27.56614
G01 X24.41262 Y27.57109
G01 X24.40058 Y27.60246
G01 X24.39888 Y27.60731
G01 X24.37790 Y27.67170
G01 X24.37638 Y27.67680
G01 X24.37498 Y27.68204
G01 X24.37498 Y27.22758
G01 X24.37498 Y27.68204
G01 X24.37498 Y28.49758
G01 X24.37498 Y28.66540
G01 X24.64122 Y28.93164
G01 X24.65989 Y28.91808
G01 X24.69611 Y28.89717
G01 X24.72474 Y28.88442
G01 X24.76451 Y28.87149
G01 X24.79520 Y28.86499
G01 X24.82631 Y28.86088
G01 X24.84198 Y28.86006
G01 X24.85245 Y28.85978
G01 X26.55244 Y28.85978
G01 X26.56080 Y28.86062
G01 X26.56812 Y28.86062
G01 X26.60970 Y28.86499
G01 X26.64038 Y28.87149
G01 X26.68016 Y28.88442
G01 X26.70878 Y28.89717
G01 X26.74500 Y28.91808
G01 X26.77038 Y28.93652
G01 X26.80144 Y28.96448
G01 X26.82242 Y28.98780
G01 X26.84701 Y29.02163
G01 X26.86268 Y29.04879
G01 X26.87970 Y29.08699
G01 X26.88938 Y29.11681
G01 X26.89806 Y29.15770
G01 X26.90134 Y29.18889
G01 X26.90246 Y29.20980
G01 X26.90246 Y29.50980
G01 X26.90134 Y29.53070
G01 X26.89806 Y29.56189
G01 X26.88938 Y29.60278
G01 X26.87970 Y29.63260
G01 X26.86268 Y29.67081
G01 X26.84701 Y29.69796
G01 X26.82242 Y29.73179
G01 X26.80144 Y29.75508
G01 X26.77038 Y29.78307
G01 X26.74500 Y29.80149
G01 X26.70878 Y29.82239
G01 X26.68016 Y29.83517
G01 X26.64038 Y29.84807
G01 X26.60970 Y29.85460
G01 X26.57858 Y29.85869
G01 X26.56291 Y29.85953
G01 X26.55244 Y29.85978
G01 X24.85245 Y29.85978
G01 X24.84409 Y29.85897
G01 X24.83678 Y29.85897
G01 X24.79520 Y29.85460
G01 X24.76451 Y29.84807
G01 X24.72474 Y29.83517
G01 X24.69611 Y29.82239
G01 X24.65989 Y29.80149
G01 X24.63452 Y29.78307
G01 X24.60345 Y29.75508
G01 X24.58247 Y29.73179
G01 X24.55788 Y29.69796
G01 X24.54607 Y29.67751
G01 X24.52733 Y29.67378
G01 X24.50388 Y29.66667
G01 X24.46766 Y29.65165
G01 X24.44605 Y29.64012
G01 X24.41343 Y29.61833
G01 X24.39451 Y29.60278
G01 X24.37996 Y29.58960
G01 X23.82017 Y29.02984
G01 X23.80698 Y29.01531
G01 X23.79144 Y28.99636
G01 X23.76965 Y28.96377
G01 X23.75811 Y28.94216
G01 X23.74310 Y28.90594
G01 X23.73599 Y28.88247
G01 X23.72835 Y28.84401
G01 X23.72593 Y28.81963
G01 X23.72497 Y28.80002
G01 X23.72497 Y25.87480
G01 X21.85461 Y25.87480
G01 X21.84699 Y25.88796
G01 X21.82243 Y25.92179
G01 X21.80145 Y25.94508
G01 X21.77036 Y25.97307
G01 X21.74501 Y25.99149
G01 X21.70879 Y26.01239
G01 X21.68014 Y26.02517
G01 X21.64039 Y26.03807
G01 X21.60971 Y26.04460
G01 X21.57859 Y26.04869
G01 X21.56292 Y26.04953
G01 X21.55245 Y26.04978
G01 X19.85246 Y26.04978
G01 X19.84410 Y26.04897
G01 X19.83676 Y26.04897
G01 X19.79518 Y26.04460
G01 X19.76452 Y26.03807
G01 X19.72475 Y26.02517
G01 X19.69610 Y26.01239
G01 X19.65990 Y25.99149
G01 X19.63453 Y25.97307
G01 X19.60344 Y25.94508
G01 X19.58246 Y25.92179
G01 X19.55789 Y25.88796
G01 X19.55030 Y25.87480
G01 X18.68482 Y25.87480
G01 X17.37499 Y27.18463
G01 X17.37499 Y33.91543
G01 X17.68459 Y34.22503
G01 X20.20054 Y34.22503
G01 X20.54999 Y34.22503
G01 X20.56958 Y34.22599
G01 X20.59396 Y34.22840
G01 X20.63242 Y34.23605
G01 X20.65586 Y34.24316
G01 X20.69211 Y34.25817
G01 X20.71370 Y34.26970
G01 X20.74631 Y34.29150
G01 X20.76526 Y34.30704
G01 X20.77979 Y34.32023
G01 X21.77978 Y35.32022
G01 X21.79297 Y35.33475
G01 X21.80851 Y35.35370
G01 X21.83030 Y35.38631
G01 X21.84184 Y35.40790
G01 X21.85685 Y35.44415
G01 X21.86396 Y35.46759
G01 X21.87161 Y35.50605
G01 X21.87402 Y35.53043
G01 X21.87498 Y35.55002
G01 X21.87498 Y37.23371
G01 X21.89777 Y37.31001
G01 X21.90463 Y37.32710
G01 X21.90031 Y37.32964
G01 X21.90463 Y37.32710
G01 X21.91453 Y37.34265
G01 X21.92710 Y37.35611
G01 X21.94194 Y37.36703
G01 X21.93912 Y37.37117
G01 X21.94194 Y37.36703
G01 X21.95852 Y37.37506
G01 X21.96025 Y37.37569
G01 X22.02545 Y37.40000
G01 X21.96025 Y37.37569
G01 X21.95852 Y37.37506
G01 X21.94194 Y37.36703
G01 X21.92710 Y37.35611
G01 X21.91453 Y37.34265
G01 X21.90463 Y37.32710
G01 X21.89777 Y37.31001
G01 X21.87498 Y37.23371
G01 X21.87498 Y37.40000
G01 X22.02545 Y37.40000
G01 X22.17498 Y37.40000
G01 X22.18890 Y37.40137
G01 X22.20112 Y37.40137
G01 X22.24270 Y37.40574
G01 X22.29383 Y37.41664
G01 X22.33358 Y37.42954
G01 X22.38133 Y37.45080
G01 X22.41755 Y37.47170
G01 X22.45982 Y37.50244
G01 X22.49091 Y37.53040
G01 X22.52586 Y37.56924
G01 X22.55045 Y37.60307
G01 X22.57658 Y37.64836
G01 X22.59357 Y37.68651
G01 X22.59459 Y37.68964
G01 X22.63315 Y37.72517
G01 X22.63620 Y37.72789
G01 X22.68303 Y37.76761
G01 X22.68603 Y37.77008
G01 X22.73825 Y37.81105
G01 X22.75512 Y37.82174
G01 X22.75220 Y37.82814
G01 X22.75512 Y37.82174
G01 X22.77376 Y37.82885
G01 X22.79347 Y37.83213
G01 X22.81341 Y37.83144
G01 X22.81455 Y37.84023
G01 X22.81341 Y37.83144
G01 X22.83284 Y37.82680
G01 X22.85093 Y37.81839
G01 X22.86454 Y37.80836
G01 X22.86574 Y37.81021
G01 X22.86454 Y37.80836
G01 X22.91262 Y37.76820
G01 X22.92911 Y37.75530
G01 X22.93109 Y37.75372
G01 X22.96167 Y37.72855
G01 X22.96365 Y37.72685
G01 X23.00493 Y37.69101
G01 X22.96365 Y37.72685
G01 X22.96167 Y37.72855
G01 X22.93109 Y37.75372
G01 X22.92911 Y37.75530
G01 X22.91262 Y37.76820
G01 X22.86454 Y37.80836
G01 X22.85093 Y37.81839
G01 X22.83284 Y37.82680
G01 X22.81341 Y37.83144
G01 X22.79347 Y37.83213
G01 X22.77376 Y37.82885
G01 X22.75512 Y37.82174
G01 X22.73825 Y37.81105
G01 X22.68603 Y37.77008
G01 X22.68303 Y37.76761
G01 X22.63620 Y37.72789
G01 X22.63315 Y37.72517
G01 X22.59459 Y37.68964
G01 X22.60973 Y37.73622
G01 X22.61842 Y37.77714
G01 X22.62390 Y37.82911
G01 X22.62499 Y37.85001
G01 X22.62499 Y37.92502
G01 X22.97498 Y37.92502
G01 X22.97498 Y37.85001
G01 X22.97607 Y37.82911
G01 X22.98153 Y37.77714
G01 X22.99025 Y37.73622
G01 X23.00493 Y37.69101
G01 X23.00640 Y37.68651
G01 X23.02339 Y37.64836
G01 X23.04953 Y37.60307
G01 X23.07409 Y37.56924
G01 X23.10907 Y37.53040
G01 X23.14016 Y37.50244
G01 X23.18242 Y37.47170
G01 X23.21864 Y37.45080
G01 X23.26640 Y37.42954
G01 X23.30615 Y37.41664
G01 X23.35728 Y37.40574
G01 X23.38839 Y37.40168
G01 X23.41453 Y37.40031
G01 X23.42499 Y37.40000
G01 X24.67498 Y37.40000
G01 X24.68890 Y37.40137
G01 X24.70111 Y37.40137
G01 X24.74269 Y37.40574
G01 X24.79382 Y37.41664
G01 X24.83360 Y37.42954
G01 X24.88133 Y37.45080
G01 X24.91755 Y37.47170
G01 X24.95984 Y37.50244
G01 X24.99090 Y37.53040
G01 X25.02588 Y37.56924
G01 X25.05044 Y37.60307
G01 X25.07658 Y37.64836
G01 X25.09360 Y37.68651
G01 X25.10972 Y37.73622
G01 X25.11844 Y37.77714
G01 X25.12390 Y37.82911
G01 X25.12499 Y37.85001
G01 X25.12499 Y38.65001
G01 X25.12390 Y38.67092
G01 X25.11844 Y38.72291
G01 X25.10972 Y38.76380
G01 X25.09360 Y38.81351
G01 X25.07658 Y38.85169
G01 X25.06312 Y38.87503
G01 X25.06157 Y38.89080
G01 X25.06124 Y38.89507
G01 X25.05806 Y38.95359
G01 X25.05791 Y38.95771
G01 X25.05671 Y39.04734
G01 X25.05671 Y39.04851
G01 X25.05669 Y39.07259
G01 X25.05669 Y39.07373
G01 X25.05715 Y39.11935
G01 X25.05661 Y39.16802
G01 X25.05638 Y39.17465
G01 X25.03510 Y39.19012
G01 X24.96268 Y39.23192
G01 X24.91493 Y39.25318
G01 X24.83540 Y39.27904
G01 X24.78427 Y39.28991
G01 X24.72204 Y39.29809
G01 X24.69593 Y39.29946
G01 X24.67498 Y39.30002
G01 X23.42499 Y39.30002
G01 X23.41107 Y39.29865
G01 X23.39886 Y39.29865
G01 X23.31570 Y39.28991
G01 X23.26457 Y39.27904
G01 X23.18504 Y39.25318
G01 X23.13729 Y39.23192
G01 X23.06487 Y39.19012
G01 X23.02258 Y39.15941
G01 X22.96045 Y39.10345
G01 X22.92548 Y39.06461
G01 X22.87633 Y38.99695
G01 X22.85019 Y38.95169
G01 X22.81618 Y38.87531
G01 X22.79995 Y38.82560
G01 X22.79998 Y38.57503
G01 X22.97498 Y38.57503
G01 X22.97498 Y38.65001
G01 X22.97607 Y38.67092
G01 X22.98153 Y38.72291
G01 X22.99025 Y38.76380
G01 X23.00640 Y38.81351
G01 X23.02339 Y38.85169
G01 X23.04953 Y38.89695
G01 X23.07409 Y38.93078
G01 X23.10907 Y38.96962
G01 X23.14016 Y38.99761
G01 X23.18242 Y39.02832
G01 X23.21864 Y39.04922
G01 X23.26640 Y39.07048
G01 X23.30615 Y39.08341
G01 X23.35728 Y39.09428
G01 X23.39886 Y39.09865
G01 X23.41107 Y39.09865
G01 X23.42499 Y39.10002
G01 X24.67498 Y39.10002
G01 X24.68544 Y39.09974
G01 X24.71158 Y39.09837
G01 X24.74269 Y39.09428
G01 X24.79382 Y39.08341
G01 X24.83360 Y39.07048
G01 X24.88133 Y39.04922
G01 X24.91755 Y39.02832
G01 X24.95984 Y38.99761
G01 X24.99090 Y38.96962
G01 X25.02588 Y38.93078
G01 X25.05044 Y38.89695
G01 X25.07658 Y38.85169
G01 X25.25793 Y38.96103
G01 X25.25788 Y38.96243
G01 X25.25671 Y39.04940
G01 X25.25669 Y39.07231
G01 X25.25715 Y39.11839
G01 X25.25715 Y39.12052
G01 X25.25659 Y39.17127
G01 X25.25654 Y39.17330
G01 X25.25633 Y39.17988
G01 X25.25664 Y39.18016
G01 X25.26296 Y39.18387
G01 X25.33662 Y39.17808
G01 X25.36174 Y39.17574
G01 X25.37587 Y39.17424
G01 X25.37990 Y39.17389
G01 X25.44173 Y39.16982
G01 X25.47193 Y39.15136
G01 X25.52065 Y39.11938
G01 X25.53970 Y39.10691
G01 X25.58282 Y39.07597
G01 X25.58869 Y39.07135
G01 X25.62407 Y39.06307
G01 X25.58704 Y39.07173
G01 X25.54907 Y39.07323
G01 X25.51148 Y39.06751
G01 X25.44262 Y39.05021
G01 X25.40678 Y39.03749
G01 X25.37399 Y39.01821
G01 X25.34546 Y38.99306
G01 X25.29690 Y38.94127
G01 X25.27363 Y38.91117
G01 X25.26263 Y38.88943
G01 X25.26083 Y38.90813
G01 X25.25793 Y38.96103
G01 X25.52065 Y39.11938
G01 X25.70772 Y39.23218
G01 X25.69839 Y39.24833
G01 X25.68140 Y39.28653
G01 X25.66525 Y39.33624
G01 X25.65654 Y39.37714
G01 X25.65107 Y39.42910
G01 X25.64998 Y39.45001
G01 X25.62499 Y39.45001
G01 X25.60538 Y39.45097
G01 X25.58100 Y39.45339
G01 X25.54254 Y39.46103
G01 X25.51910 Y39.46814
G01 X25.48285 Y39.48316
G01 X25.46126 Y39.49469
G01 X25.42865 Y39.51648
G01 X25.40970 Y39.53203
G01 X25.39517 Y39.54521
G01 X24.44036 Y40.50002
G01 X23.42499 Y40.50002
G01 X23.41453 Y40.50030
G01 X23.38839 Y40.50165
G01 X23.35728 Y40.50576
G01 X23.30615 Y40.51663
G01 X23.26640 Y40.52953
G01 X23.21864 Y40.55079
G01 X23.18242 Y40.57170
G01 X23.14016 Y40.60243
G01 X23.10907 Y40.63040
G01 X23.07409 Y40.66923
G01 X23.04953 Y40.70307
G01 X23.02339 Y40.74838
G01 X23.00640 Y40.78653
G01 X22.99025 Y40.83624
G01 X22.98153 Y40.87713
G01 X22.97607 Y40.92910
G01 X22.97498 Y40.95001
G01 X22.89998 Y40.95003
G01 X22.97498 Y40.95001
G01 X22.97498 Y41.75000
G01 X22.97607 Y41.77091
G01 X22.98153 Y41.82290
G01 X22.99025 Y41.86380
G01 X23.00541 Y41.91046
G01 X23.00640 Y41.91350
G01 X23.02339 Y41.95171
G01 X23.04953 Y41.99697
G01 X23.07409 Y42.03078
G01 X23.10907 Y42.06961
G01 X23.14016 Y42.09760
G01 X23.18242 Y42.12831
G01 X23.21864 Y42.14922
G01 X23.26640 Y42.17048
G01 X23.30615 Y42.18340
G01 X23.35728 Y42.19428
G01 X23.39886 Y42.19864
G01 X23.41107 Y42.19864
G01 X23.42499 Y42.20002
G01 X24.67498 Y42.20002
G01 X24.68544 Y42.19974
G01 X24.71158 Y42.19837
G01 X24.74269 Y42.19428
G01 X24.79382 Y42.18340
G01 X24.83360 Y42.17048
G01 X24.88133 Y42.14922
G01 X24.91755 Y42.12831
G01 X24.95984 Y42.09760
G01 X24.99090 Y42.06961
G01 X25.02588 Y42.03078
G01 X25.05044 Y41.99697
G01 X25.07658 Y41.95171
G01 X25.08102 Y41.94170
G01 X25.09360 Y41.91350
G01 X25.10972 Y41.86380
G01 X25.11844 Y41.82290
G01 X25.12390 Y41.77091
G01 X25.12499 Y41.75000
G01 X25.12499 Y40.95001
G01 X25.12390 Y40.92910
G01 X25.11844 Y40.87713
G01 X25.10972 Y40.83624
G01 X25.09360 Y40.78653
G01 X25.08727 Y40.77238
G01 X25.66184 Y40.19779
G01 X25.66525 Y40.21379
G01 X25.68140 Y40.26349
G01 X25.69839 Y40.30170
G01 X25.72453 Y40.34696
G01 X25.74909 Y40.38079
G01 X25.78407 Y40.41963
G01 X25.81516 Y40.44759
G01 X25.85742 Y40.47833
G01 X25.89364 Y40.49923
G01 X25.94140 Y40.52049
G01 X25.98115 Y40.53340
G01 X26.03228 Y40.54427
G01 X26.07386 Y40.54864
G01 X26.08607 Y40.54864
G01 X26.09999 Y40.55001
G01 X26.99999 Y40.55001
G01 X27.01046 Y40.54973
G01 X27.03659 Y40.54838
G01 X27.06771 Y40.54427
G01 X27.11881 Y40.53340
G01 X27.15859 Y40.52049
G01 X27.20634 Y40.49923
G01 X27.24254 Y40.47833
G01 X27.25465 Y40.46954
G01 X27.28483 Y40.44759
G01 X27.31589 Y40.41963
G01 X27.35087 Y40.38079
G01 X27.37545 Y40.34696
G01 X27.40157 Y40.30170
G01 X27.41858 Y40.26349
G01 X27.43474 Y40.21379
G01 X27.44343 Y40.17289
G01 X27.44889 Y40.12092
G01 X27.44998 Y40.10002
G01 X27.44998 Y39.45001
G01 X27.44889 Y39.42910
G01 X27.44343 Y39.37714
G01 X27.43474 Y39.33624
G01 X27.41858 Y39.28653
G01 X27.40157 Y39.24833
G01 X27.37545 Y39.20307
G01 X27.35087 Y39.16924
G01 X27.31589 Y39.13040
G01 X27.28483 Y39.10244
G01 X27.24254 Y39.07170
G01 X27.20634 Y39.05080
G01 X27.15859 Y39.02954
G01 X27.11881 Y39.01661
G01 X27.06771 Y39.00576
G01 X27.02613 Y39.00139
G01 X27.01389 Y39.00139
G01 X26.99999 Y39.00002
G01 X26.09999 Y39.00002
G01 X26.08953 Y39.00028
G01 X26.06339 Y39.00165
G01 X26.03228 Y39.00576
G01 X25.98115 Y39.01661
G01 X25.94140 Y39.02954
G01 X25.89364 Y39.05080
G01 X25.85742 Y39.07170
G01 X25.81516 Y39.10244
G01 X25.78407 Y39.13040
G01 X25.74909 Y39.16924
G01 X25.72453 Y39.20307
G01 X25.70772 Y39.23218
G01 X25.70469 Y39.23457
G01 X25.70119 Y39.23718
G01 X25.65458 Y39.27063
G01 X25.65113 Y39.27300
G01 X25.58028 Y39.31948
G01 X25.57759 Y39.32118
G01 X25.52413 Y39.35384
G01 X25.52606 Y39.35908
G01 X25.52413 Y39.35384
G01 X25.50871 Y39.36154
G01 X25.49217 Y39.36647
G01 X25.47505 Y39.36848
G01 X25.46398 Y39.36881
G01 X25.46311 Y39.36883
G01 X25.39509 Y39.37333
G01 X25.38227 Y39.37470
G01 X25.38089 Y39.37483
G01 X25.35440 Y39.37729
G01 X25.35303 Y39.37739
G01 X25.27617 Y39.38346
G01 X25.25374 Y39.40378
G01 X24.35753 Y40.30002
G01 X24.36370 Y40.31478
G01 X24.35753 Y40.30002
G01 X23.42499 Y40.30002
G01 X23.40406 Y40.30055
G01 X23.37793 Y40.30193
G01 X23.31570 Y40.31013
G01 X23.26457 Y40.32100
G01 X23.18504 Y40.34683
G01 X23.13729 Y40.36809
G01 X23.06487 Y40.40990
G01 X23.02258 Y40.44061
G01 X22.96045 Y40.49657
G01 X22.92548 Y40.53540
G01 X22.89998 Y40.57050
G01 X22.89998 Y40.85808
G01 X22.89998 Y40.91061
G01 X22.89998 Y40.95003
G01 X22.89998 Y41.81904
G01 X22.91394 Y41.82999
G01 X22.91694 Y41.83243
G01 X22.96375 Y41.87218
G01 X22.96683 Y41.87490
G01 X23.00541 Y41.91046
G01 X23.00640 Y41.91350
G01 X23.02339 Y41.95171
G01 X23.04953 Y41.99697
G01 X23.07409 Y42.03078
G01 X23.10907 Y42.06961
G01 X23.14016 Y42.09760
G01 X23.18242 Y42.12831
G01 X23.21864 Y42.14922
G01 X23.26640 Y42.17048
G01 X23.30615 Y42.18340
G01 X23.35728 Y42.19428
G01 X23.39886 Y42.19864
G01 X23.41107 Y42.19864
G01 X23.42499 Y42.20002
G01 X24.67498 Y42.20002
G01 X24.68544 Y42.19974
G01 X24.71158 Y42.19837
G01 X24.74269 Y42.19428
G01 X24.79382 Y42.18340
G01 X24.83360 Y42.17048
G01 X24.88133 Y42.14922
G01 X24.91755 Y42.12831
G01 X24.95984 Y42.09760
G01 X24.99090 Y42.06961
G01 X25.02588 Y42.03078
G01 X25.05044 Y41.99697
G01 X25.07658 Y41.95171
G01 X25.08102 Y41.94170
G01 X25.08905 Y41.93573
G01 X25.09133 Y41.93408
G01 X25.10718 Y41.92295
G01 X25.15001 Y41.89014
G01 X25.16240 Y41.87980
G01 X25.16535 Y41.87746
G01 X25.21552 Y41.83880
G01 X25.21839 Y41.83669
G01 X25.28643 Y41.78803
G01 X25.28747 Y41.74871
G01 X25.28747 Y41.50002
G01 X25.28750 Y41.49740
G01 X25.28877 Y41.44896
G01 X25.28887 Y41.44635
G01 X25.29161 Y41.39407
G01 X25.29118 Y41.39405
G01 X25.29161 Y41.39407
G01 X25.29202 Y41.38882
G01 X25.30243 Y41.29016
G01 X25.30312 Y41.28498
G01 X25.31140 Y41.23273
G01 X25.31237 Y41.22750
G01 X25.32499 Y41.16829
G01 X25.32499 Y40.95001
G01 X25.32280 Y40.90820
G01 X25.31734 Y40.85628
G01 X25.31188 Y40.83058
G01 X25.29486 Y40.82392
G01 X25.31188 Y40.83058
G01 X25.61343 Y40.52900
G01 X25.61104 Y40.45488
G01 X25.61343 Y40.52900
G01 X25.63545 Y40.55346
G01 X25.69758 Y40.60942
G01 X25.73987 Y40.64013
G01 X25.81229 Y40.68193
G01 X25.85290 Y40.70002
G01 X25.92443 Y40.70002
G01 X25.97787 Y40.70002
G01 X27.03670 Y40.70002
G01 X27.12214 Y40.70002
G01 X27.14101 Y40.70002
G01 X27.15425 Y40.67249
G01 X27.17086 Y40.63576
G01 X27.17144 Y40.63449
G01 X27.18341 Y40.60904
G01 X27.18402 Y40.60774
G01 X27.22194 Y40.52989
G01 X27.22384 Y40.52616
G01 X27.25140 Y40.47513
G01 X27.25356 Y40.47134
G01 X27.25465 Y40.46954
G04 P0 ( dwell for no time -- G64 should not smooth over this point )
G00 Z1.00000 ( retract )

G00 X29.81622 Y40.60274 ( rapid move to begin. )
G01 F300.00000
( Mill infeed pass 1/1 )
G01 Z-0.05000
G04 P0 ( dwell for no time -- G64 should not smooth over this point )
G01 F600.00000
G01 X29.81622 Y40.60274
G01 X29.82274 Y40.62283
G01 X29.83976 Y40.66103
G01 X29.85543 Y40.68818
G01 X29.88000 Y40.72202
G01 X29.90098 Y40.74531
G01 X29.93207 Y40.77330
G01 X29.95744 Y40.79171
G01 X29.99364 Y40.81262
G01 X30.02229 Y40.82537
G01 X30.06206 Y40.83830
G01 X30.09272 Y40.84482
G01 X30.13430 Y40.84924
G01 X30.14164 Y40.84924
G01 X30.14997 Y40.85001
G01 X30.77784 Y40.85001
G01 X31.50768 Y41.57982
G01 X31.51726 Y41.58851
G01 X31.52223 Y41.59301
G01 X31.54116 Y41.60855
G01 X31.57377 Y41.63035
G01 X31.59539 Y41.64188
G01 X31.63161 Y41.65689
G01 X31.65505 Y41.66400
G01 X31.69351 Y41.67165
G01 X31.71789 Y41.67406
G01 X31.73750 Y41.67502
G01 X31.97499 Y41.67502
G01 X31.97499 Y41.75000
G01 X31.97608 Y41.77091
G01 X31.98154 Y41.82290
G01 X31.99023 Y41.86380
G01 X32.00638 Y41.91350
G01 X32.02340 Y41.95171
G01 X32.04954 Y41.99697
G01 X32.07410 Y42.03078
G01 X32.10427 Y42.06430
G01 X32.06429 Y42.04894
G01 X32.06038 Y42.04754
G01 X32.00356 Y42.02836
G01 X31.99978 Y42.02719
G01 X31.95480 Y42.01396
G01 X31.95025 Y41.99936
G01 X31.93247 Y41.94000
G01 X31.93211 Y41.93888
G01 X31.92686 Y41.92199
G01 X31.92650 Y41.92087
G01 X31.91672 Y41.89085
G01 X31.91565 Y41.88760
G01 X31.89584 Y41.82750
G01 X31.89894 Y41.82585
G01 X31.89584 Y41.82750
G01 X31.88870 Y41.81102
G01 X31.87872 Y41.79608
G01 X31.86623 Y41.78315
G01 X31.85162 Y41.77269
G01 X31.85419 Y41.76961
G01 X31.85162 Y41.77269
G01 X31.83841 Y41.76489
G01 X31.83768 Y41.76446
G01 X31.80631 Y41.74635
G01 X31.80516 Y41.74569
G01 X31.78634 Y41.73515
G01 X31.78517 Y41.73451
G01 X31.75256 Y41.71683
G01 X31.75132 Y41.71617
G01 X31.73338 Y41.70677
G01 X31.73211 Y41.70611
G01 X31.72749 Y41.70378
G01 X31.70522 Y41.69194
G01 X31.67402 Y41.67454
G01 X31.67225 Y41.67358
G01 X31.65317 Y41.66344
G01 X31.63161 Y41.65689
G01 X31.59539 Y41.64188
G01 X31.57377 Y41.63035
G01 X31.54116 Y41.60855
G01 X31.52223 Y41.59301
G01 X31.51726 Y41.58851
G01 X31.50760 Y41.58310
G01 X31.50583 Y41.58211
G01 X31.48223 Y41.56949
G01 X31.47926 Y41.56789
G01 X31.45386 Y41.55409
G01 X31.44982 Y41.55204
G01 X31.39437 Y41.52511
G01 X31.39074 Y41.52344
G01 X31.36498 Y41.51221
G01 X31.36323 Y41.51145
G01 X31.01025 Y41.36525
G01 X30.69501 Y41.05001
G01 X30.70131 Y41.03484
G01 X30.69501 Y41.05001
G01 X30.14997 Y41.05001
G01 X30.14466 Y41.04950
G01 X30.13016 Y41.03400
G01 X30.11543 Y41.01798
G01 X30.10496 Y41.00634
G01 X30.10425 Y41.00556
G01 X30.08909 Y40.98907
G01 X30.08833 Y40.98828
G01 X30.03534 Y40.93185
G01 X30.02427 Y40.91981
G01 X30.01324 Y40.90756
G01 X30.01251 Y40.90675
G01 X30.00085 Y40.89410
G01 X30.00011 Y40.89329
G01 X29.95828 Y40.84884
G01 X29.94855 Y40.83830
G01 X29.93778 Y40.82633
G01 X29.93704 Y40.82550
G01 X29.92661 Y40.81419
G01 X29.92587 Y40.81338
G01 X29.88863 Y40.77386
G01 X29.87951 Y40.76398
G01 X29.86864 Y40.75189
G01 X29.86791 Y40.75102
G01 X29.85805 Y40.74035
G01 X29.85729 Y40.73954
G01 X29.82005 Y40.69999
G01 X29.81040 Y40.68950
G01 X29.80034 Y40.67833
G01 X29.80664 Y40.64724
G01 X29.80847 Y40.63840
G01 X29.81622 Y40.60274
G01 X29.81302 Y40.59301
G01 X29.80436 Y40.55212
G01 X29.80108 Y40.52092
G01 X29.79999 Y40.50002
G01 X29.79999 Y40.20002
G01 X29.80108 Y40.17912
G01 X29.80436 Y40.14793
G01 X29.81302 Y40.10703
G01 X29.82274 Y40.07721
G01 X29.83976 Y40.03901
G01 X29.85543 Y40.01186
G01 X29.88000 Y39.97802
G01 X29.90098 Y39.95471
G01 X29.93207 Y39.92674
G01 X29.95744 Y39.90830
G01 X29.99364 Y39.88740
G01 X30.02229 Y39.87465
G01 X30.06206 Y39.86172
G01 X30.09272 Y39.85522
G01 X30.12384 Y39.85110
G01 X30.13948 Y39.85029
G01 X30.14997 Y39.85001
G01 X31.32498 Y39.85001
G01 X31.33333 Y39.85085
G01 X31.34067 Y39.85085
G01 X31.38225 Y39.85522
G01 X31.41291 Y39.86172
G01 X31.45269 Y39.87465
G01 X31.48134 Y39.88740
G01 X31.51753 Y39.90830
G01 X31.54291 Y39.92674
G01 X31.57397 Y39.95471
G01 X31.59498 Y39.97802
G01 X31.61954 Y40.01186
G01 X31.63521 Y40.03901
G01 X31.65223 Y40.07721
G01 X31.66191 Y40.10703
G01 X31.67062 Y40.14793
G01 X31.67390 Y40.17912
G01 X31.67499 Y40.20002
G01 X31.67499 Y40.38412
G01 X31.67499 Y40.50002
G01 X31.67390 Y40.52092
G01 X31.67062 Y40.55212
G01 X31.66191 Y40.59301
G01 X31.65223 Y40.62283
G01 X31.63521 Y40.66103
G01 X31.61954 Y40.68818
G01 X31.59498 Y40.72202
G01 X31.58271 Y40.73568
G01 X31.87209 Y41.02501
G01 X31.97499 Y41.02501
G01 X31.97499 Y40.95001
G01 X31.97608 Y40.92910
G01 X31.98154 Y40.87713
G01 X31.99023 Y40.83624
G01 X32.00638 Y40.78653
G01 X32.02340 Y40.74838
G01 X32.04954 Y40.70307
G01 X32.07410 Y40.66923
G01 X32.10908 Y40.63040
G01 X32.11019 Y40.62938
G01 X32.07918 Y40.63959
G01 X32.05807 Y40.64731
G01 X32.05424 Y40.64864
G01 X31.99668 Y40.66715
G01 X31.99297 Y40.66827
G01 X31.89909 Y40.69448
G01 X31.87956 Y40.69789
G01 X31.85975 Y40.69740
G01 X31.84044 Y40.69301
G01 X31.82236 Y40.68488
G01 X31.80626 Y40.67335
G01 X31.79272 Y40.65890
G01 X31.78230 Y40.64203
G01 X31.76953 Y40.61582
G01 X31.76869 Y40.61409
G01 X31.75421 Y40.58290
G01 X31.75340 Y40.58112
G01 X31.75307 Y40.58033
G01 X31.73587 Y40.54394
G01 X31.72063 Y40.51374
G01 X31.71535 Y40.50124
G01 X31.67499 Y40.38412
G01 X31.71535 Y40.50124
G01 X31.72063 Y40.51374
G01 X31.73587 Y40.54394
G01 X31.75307 Y40.58033
G01 X31.75340 Y40.58112
G01 X31.75421 Y40.58290
G01 X31.76869 Y40.61409
G01 X31.76953 Y40.61582
G01 X31.78230 Y40.64203
G01 X31.77799 Y40.64513
G01 X31.78230 Y40.64203
G01 X31.79272 Y40.65890
G01 X31.80626 Y40.67335
G01 X31.82236 Y40.68488
G01 X31.84044 Y40.69301
G01 X31.83582 Y40.70482
G01 X31.84044 Y40.69301
G01 X31.85975 Y40.69740
G01 X31.87956 Y40.69789
G01 X31.89909 Y40.69448
G01 X31.89945 Y40.69712
G01 X31.89909 Y40.69448
G01 X31.99297 Y40.66827
G01 X31.99668 Y40.66715
G01 X32.05424 Y40.64864
G01 X32.05807 Y40.64731
G01 X32.07918 Y40.63959
G01 X32.11019 Y40.62938
G01 X32.14014 Y40.60243
G01 X32.18243 Y40.57170
G01 X32.21865 Y40.55079
G01 X32.26638 Y40.52953
G01 X32.30615 Y40.51663
G01 X32.35728 Y40.50576
G01 X32.38840 Y40.50165
G01 X32.41451 Y40.50030
G01 X32.42497 Y40.50002
G01 X33.67499 Y40.50002
G01 X33.68890 Y40.50139
G01 X33.70112 Y40.50139
G01 X33.74270 Y40.50576
G01 X33.79383 Y40.51663
G01 X33.83358 Y40.52953
G01 X33.88133 Y40.55079
G01 X33.91756 Y40.57170
G01 X33.95982 Y40.60243
G01 X33.99091 Y40.63040
G01 X34.02586 Y40.66923
G01 X34.05045 Y40.70307
G01 X34.07658 Y40.74838
G01 X34.09358 Y40.78653
G01 X34.10973 Y40.83624
G01 X34.11842 Y40.87713
G01 X34.12388 Y40.92910
G01 X34.12500 Y40.95001
G01 X34.12500 Y41.75000
G01 X34.12388 Y41.77091
G01 X34.11842 Y41.82290
G01 X34.10973 Y41.86380
G01 X34.09358 Y41.91350
G01 X34.07658 Y41.95171
G01 X34.05045 Y41.99697
G01 X34.02586 Y42.03078
G01 X33.99091 Y42.06961
G01 X33.95982 Y42.09760
G01 X33.91756 Y42.12831
G01 X33.88133 Y42.14922
G01 X33.83358 Y42.17048
G01 X33.79383 Y42.18340
G01 X33.74270 Y42.19428
G01 X33.71159 Y42.19837
G01 X33.68545 Y42.19974
G01 X33.67499 Y42.20002
G01 X32.42497 Y42.20002
G01 X32.41108 Y42.19864
G01 X32.39886 Y42.19864
G01 X32.35728 Y42.19428
G01 X32.30615 Y42.18340
G01 X32.26638 Y42.17048
G01 X32.21865 Y42.14922
G01 X32.18243 Y42.12831
G01 X32.14014 Y42.09760
G01 X32.10908 Y42.06961
G01 X32.10427 Y42.06430
G04 P0 ( dwell for no time -- G64 should not smooth over this point )
G00 Z1.00000 ( retract )

G00 X29.80626 Y42.70403 ( rapid move to begin. )
G01 F300.00000
( Mill infeed pass 1/1 )
G01 Z-0.05000
G04 P0 ( dwell for no time -- G64 should not smooth over this point )
G01 F600.00000
G01 X29.80626 Y42.70403
G01 X29.86707 Y42.76481
G01 X29.96664 Y42.82371
G01 X30.08241 Y42.85732
G01 X30.09115 Y42.85800
G01 X30.28345 Y42.85800
G01 X30.28345 Y42.75000
G01 X30.14997 Y42.75000
G01 X30.14164 Y42.74919
G01 X30.13430 Y42.74919
G01 X30.09272 Y42.74482
G01 X30.06206 Y42.73829
G01 X30.02229 Y42.72539
G01 X29.99364 Y42.71261
G01 X29.97873 Y42.70403
G01 X29.80626 Y42.70403
G04 P0 ( dwell for no time -- G64 should not smooth over this point )
G00 Z1.00000 ( retract )

G00 X27.94690 Y41.02981 ( rapid move to begin. )
G01 F300.00000
( Mill infeed pass 1/1 )
G01 Z-0.05000
G04 P0 ( dwell for no time -- G64 should not smooth over this point )
G01 F600.00000
G01 X27.94690 Y41.02981
G01 X27.93806 Y41.05702
G01 X27.92935 Y41.09791
G01 X27.92608 Y41.12910
G01 X27.92498 Y41.15001
G01 X27.92498 Y41.45001
G01 X27.92608 Y41.47091
G01 X27.92915 Y41.50002
G01 X27.44998 Y41.50002
G01 X27.44889 Y41.47911
G01 X27.44343 Y41.42712
G01 X27.43474 Y41.38623
G01 X27.41858 Y41.33652
G01 X27.40157 Y41.29832
G01 X27.37545 Y41.25308
G01 X27.35087 Y41.21925
G01 X27.31589 Y41.18041
G01 X27.28483 Y41.15242
G01 X27.24254 Y41.12171
G01 X27.20634 Y41.10081
G01 X27.15859 Y41.07955
G01 X27.11881 Y41.06662
G01 X27.06771 Y41.05575
G01 X27.02613 Y41.05138
G01 X27.01389 Y41.05138
G01 X26.99999 Y41.05001
G01 X26.09999 Y41.05001
G01 X26.08953 Y41.05029
G01 X26.06339 Y41.05166
G01 X26.03228 Y41.05575
G01 X25.98115 Y41.06662
G01 X25.94140 Y41.07955
G01 X25.89364 Y41.10081
G01 X25.85742 Y41.12171
G01 X25.81516 Y41.15242
G01 X25.78407 Y41.18041
G01 X25.74909 Y41.21925
G01 X25.72453 Y41.25308
G01 X25.69839 Y41.29832
G01 X25.68140 Y41.33652
G01 X25.66525 Y41.38623
G01 X25.65654 Y41.42712
G01 X25.65107 Y41.47911
G01 X25.64998 Y41.50002
G01 X25.64998 Y42.09677
G01 X25.64998 Y42.15000
G01 X25.65107 Y42.17091
G01 X25.65654 Y42.22290
G01 X25.66525 Y42.26380
G01 X25.68140 Y42.31350
G01 X25.69839 Y42.35171
G01 X25.72453 Y42.39697
G01 X25.74909 Y42.43078
G01 X25.78407 Y42.46964
G01 X25.81516 Y42.49760
G01 X25.85742 Y42.52831
G01 X25.89364 Y42.54922
G01 X25.94140 Y42.57048
G01 X25.98115 Y42.58340
G01 X26.03228 Y42.59428
G01 X26.07386 Y42.59864
G01 X26.08607 Y42.59864
G01 X26.09999 Y42.60002
G01 X26.99999 Y42.60002
G01 X27.01046 Y42.59974
G01 X27.03659 Y42.59836
G01 X27.06771 Y42.59428
G01 X27.11881 Y42.58340
G01 X27.15859 Y42.57048
G01 X27.20634 Y42.54922
G01 X27.24254 Y42.52831
G01 X27.28483 Y42.49760
G01 X27.31589 Y42.46964
G01 X27.35087 Y42.43078
G01 X27.37545 Y42.39697
G01 X27.40157 Y42.35171
G01 X27.41858 Y42.31350
G01 X27.43474 Y42.26380
G01 X27.44343 Y42.22290
G01 X27.44673 Y42.19153
G01 X27.44889 Y42.17091
G01 X27.44998 Y42.15003
G01 X27.49156 Y42.15003
G01 X27.49349 Y42.15003
G01 X27.49179 Y42.15061
G01 X27.47454 Y42.16067
G01 X27.45966 Y42.17396
G01 X27.44769 Y42.18993
G01 X27.44673 Y42.19153
G01 X27.44769 Y42.18993
G01 X27.45966 Y42.17396
G01 X27.47454 Y42.16067
G01 X27.49179 Y42.15061
G01 X27.49156 Y42.15003
G01 X27.49179 Y42.15061
G01 X27.49349 Y42.15003
G01 X28.33748 Y42.15003
G01 X28.35706 Y42.14906
G01 X28.38145 Y42.14665
G01 X28.41990 Y42.13901
G01 X28.44335 Y42.13189
G01 X28.47957 Y42.11688
G01 X28.50118 Y42.10535
G01 X28.53380 Y42.08356
G01 X28.55272 Y42.06801
G01 X28.56727 Y42.05483
G01 X28.82211 Y41.80002
G01 X29.45000 Y41.80002
G01 X29.46046 Y41.79974
G01 X29.47614 Y41.79892
G01 X29.50725 Y41.79481
G01 X29.53793 Y41.78831
G01 X29.57766 Y41.77538
G01 X29.60631 Y41.76263
G01 X29.64251 Y41.74172
G01 X29.66788 Y41.72328
G01 X29.69900 Y41.69532
G01 X29.71998 Y41.67200
G01 X29.74451 Y41.63817
G01 X29.75190 Y41.62544
G01 X29.78337 Y41.60594
G01 X29.78470 Y41.60512
G01 X29.80349 Y41.59390
G01 X29.80479 Y41.59313
G01 X29.81472 Y41.58739
G01 X29.87271 Y41.54967
G01 X29.87581 Y41.54622
G01 X29.87649 Y41.54543
G01 X29.88851 Y41.53240
G01 X29.88922 Y41.53164
G01 X29.94251 Y41.47492
G01 X29.95668 Y41.45948
G01 X29.96740 Y41.44757
G01 X29.96808 Y41.44680
G01 X29.98325 Y41.43035
G01 X29.98391 Y41.42963
G01 X29.99996 Y41.41246
G01 X29.99996 Y41.18757
G01 X29.98386 Y41.17040
G01 X29.98317 Y41.16967
G01 X29.96780 Y41.15290
G01 X29.96712 Y41.15214
G01 X29.95663 Y41.14053
G01 X29.94218 Y41.12481
G01 X29.88922 Y41.06840
G01 X29.88851 Y41.06763
G01 X29.87675 Y41.05483
G01 X29.87601 Y41.05407
G01 X29.86501 Y41.04183
G01 X29.85406 Y41.02994
G01 X29.81223 Y40.98549
G01 X29.81149 Y40.98468
G01 X29.80105 Y40.97332
G01 X29.80032 Y40.97251
G01 X29.78950 Y40.96055
G01 X29.77990 Y40.95006
G01 X29.74261 Y40.91051
G01 X29.74190 Y40.90970
G01 X29.73204 Y40.89903
G01 X29.73130 Y40.89822
G01 X29.72038 Y40.88613
G01 X29.71132 Y40.87624
G01 X29.67408 Y40.83667
G01 X29.67329 Y40.83588
G01 X29.66288 Y40.82461
G01 X29.66212 Y40.82372
G01 X29.65630 Y40.81724
G01 X29.63788 Y40.81986
G01 X29.63545 Y40.82019
G01 X29.58178 Y40.82646
G01 X29.57766 Y40.82466
G01 X29.60631 Y40.83741
G01 X29.64251 Y40.85836
G01 X29.66788 Y40.87673
G01 X29.69900 Y40.90472
G01 X29.71998 Y40.92801
G01 X29.74451 Y40.96184
G01 X29.76024 Y40.98900
G01 X29.77723 Y41.02720
G01 X29.78693 Y41.05702
G01 X29.79559 Y41.09791
G01 X29.79889 Y41.12910
G01 X29.79999 Y41.15001
G01 X29.79999 Y41.45001
G01 X29.79889 Y41.47091
G01 X29.79559 Y41.50210
G01 X29.78693 Y41.54299
G01 X29.77723 Y41.57281
G01 X29.76024 Y41.61102
G01 X29.75190 Y41.62544
G01 X29.76024 Y41.61102
G01 X29.77723 Y41.57281
G01 X29.78693 Y41.54299
G01 X29.79559 Y41.50210
G01 X29.79889 Y41.47091
G01 X29.79999 Y41.45001
G01 X29.79999 Y41.15001
G01 X29.79889 Y41.12910
G01 X29.79559 Y41.09791
G01 X29.78693 Y41.05702
G01 X29.77723 Y41.02720
G01 X29.76024 Y40.98900
G01 X29.74451 Y40.96184
G01 X29.71998 Y40.92801
G01 X29.69900 Y40.90472
G01 X29.66788 Y40.87673
G01 X29.64251 Y40.85836
G01 X29.60631 Y40.83741
G01 X29.57766 Y40.82466
G01 X29.53793 Y40.81173
G01 X29.50725 Y40.80520
G01 X29.46567 Y40.80083
G01 X29.45833 Y40.80083
G01 X29.45000 Y40.80002
G01 X28.27500 Y40.80002
G01 X28.26453 Y40.80030
G01 X28.24883 Y40.80111
G01 X28.21772 Y40.80520
G01 X28.18706 Y40.81173
G01 X28.14728 Y40.82466
G01 X28.11863 Y40.83741
G01 X28.08244 Y40.85836
G01 X28.05706 Y40.87673
G01 X28.02600 Y40.90472
G01 X28.00499 Y40.92801
G01 X27.98043 Y40.96184
G01 X27.96476 Y40.98900
G01 X27.94774 Y41.02720
G01 X27.94690 Y41.02981
G01 X27.90611 Y41.06634
G01 X27.90426 Y41.06796
G01 X27.87627 Y41.09184
G01 X27.87444 Y41.09336
G01 X27.79831 Y41.15516
G01 X27.79786 Y41.15554
G01 X27.78742 Y41.16390
G01 X27.78696 Y41.16428
G01 X27.76344 Y41.18292
G01 X27.72498 Y41.21513
G01 X27.72498 Y41.30002
G01 X27.78356 Y41.35859
G01 X27.72498 Y41.30002
G01 X27.61701 Y41.30002
G01 X27.59346 Y41.33464
G01 X27.61701 Y41.30002
G01 X27.60880 Y41.27472
G01 X27.59303 Y41.23934
G01 X27.58567 Y41.23515
G01 X27.54289 Y41.20505
G01 X27.54083 Y41.20355
G01 X27.46255 Y41.14546
G01 X27.46014 Y41.14361
G01 X27.41853 Y41.11071
G01 X27.41615 Y41.10876
G01 X27.37340 Y41.07276
G01 X27.35059 Y41.05430
G01 X27.31996 Y41.03040
G01 X27.31937 Y41.02994
G01 X27.30957 Y41.02217
G01 X27.30898 Y41.02168
G01 X27.23873 Y40.96517
G01 X27.23642 Y40.96326
G01 X27.19496 Y40.92783
G01 X27.19278 Y40.92590
G01 X27.16423 Y40.90002
G01 X25.85288 Y40.90002
G01 X25.81229 Y40.91808
G01 X25.73987 Y40.95991
G01 X25.69758 Y40.99062
G01 X25.63545 Y41.04658
G01 X25.60048 Y41.08541
G01 X25.55133 Y41.15305
G01 X25.52519 Y41.19832
G01 X25.52113 Y41.20744
G01 X25.50850 Y41.26664
G01 X25.50106 Y41.31371
G01 X25.49121 Y41.40718
G01 X25.48867 Y41.45552
G01 X25.48747 Y41.50134
G01 X25.64998 Y41.50002
G01 X25.48747 Y41.50134
G01 X25.48747 Y41.75003
G01 X25.48745 Y41.75265
G01 X25.48618 Y41.80108
G01 X25.48608 Y41.80370
G01 X25.48567 Y41.81129
G01 X25.51234 Y41.84815
G01 X25.51452 Y41.85127
G01 X25.56189 Y41.92227
G01 X25.56817 Y41.93306
G01 X25.56855 Y41.93286
G01 X25.56817 Y41.93306
G01 X25.64998 Y42.09677
G04 P0 ( dwell for no time -- G64 should not smooth over this point )
G00 Z1.00000 ( retract )

G00 X22.59505 Y41.90901 ( rapid move to begin. )
G01 F300.00000
( Mill infeed pass 1/1 )
G01 Z-0.05000
G04 P0 ( dwell for no time -- G64 should not smooth over this point )
G01 F600.00000
G01 X22.59505 Y41.90901
G01 X22.63627 Y41.87322
G01 X22.63828 Y41.87152
G01 X22.66886 Y41.84635
G01 X22.67084 Y41.84475
G01 X22.68730 Y41.83187
G01 X22.69998 Y41.82120
G01 X22.69998 Y40.57048
G01 X22.67450 Y40.53540
G01 X22.63952 Y40.49657
G01 X22.57739 Y40.44061
G01 X22.53510 Y40.40990
G01 X22.46269 Y40.36809
G01 X22.41494 Y40.34683
G01 X22.33541 Y40.32100
G01 X22.28428 Y40.31013
G01 X22.20112 Y40.30139
G01 X22.18890 Y40.30139
G01 X22.17498 Y40.30002
G01 X21.24242 Y40.30002
G01 X21.23622 Y40.31480
G01 X21.24242 Y40.30002
G01 X20.34621 Y39.40378
G01 X20.31713 Y39.37742
G01 X20.29818 Y39.36187
G01 X20.23297 Y39.31831
G01 X20.21136 Y39.30675
G01 X20.13892 Y39.27676
G01 X20.12426 Y39.27231
G01 X20.11380 Y39.28298
G01 X20.12426 Y39.27231
G01 X20.10879 Y39.22471
G01 X20.07478 Y39.14833
G01 X20.04865 Y39.10307
G01 X19.99950 Y39.03540
G01 X19.96452 Y38.99657
G01 X19.90239 Y38.94061
G01 X19.86010 Y38.90990
G01 X19.78769 Y38.86810
G01 X19.73994 Y38.84684
G01 X19.66041 Y38.82098
G01 X19.60928 Y38.81013
G01 X19.52612 Y38.80139
G01 X19.51390 Y38.80139
G01 X19.49998 Y38.80002
G01 X18.59998 Y38.80002
G01 X18.57905 Y38.80056
G01 X18.55292 Y38.80193
G01 X18.49069 Y38.81013
G01 X18.43956 Y38.82098
G01 X18.36003 Y38.84684
G01 X18.31230 Y38.86810
G01 X18.23986 Y38.90990
G01 X18.19760 Y38.94061
G01 X18.13544 Y38.99657
G01 X18.10047 Y39.03540
G01 X18.05132 Y39.10307
G01 X18.02518 Y39.14833
G01 X17.99117 Y39.22471
G01 X17.97502 Y39.27442
G01 X17.95764 Y39.35623
G01 X17.95218 Y39.40820
G01 X17.95000 Y39.45001
G01 X17.95000 Y40.10002
G01 X17.95218 Y40.14183
G01 X17.95764 Y40.19380
G01 X17.97502 Y40.27559
G01 X17.99117 Y40.32529
G01 X18.02518 Y40.40170
G01 X18.05132 Y40.44696
G01 X18.10047 Y40.51460
G01 X18.13544 Y40.55346
G01 X18.19760 Y40.60942
G01 X18.23986 Y40.64013
G01 X18.31230 Y40.68193
G01 X18.35292 Y40.70002
G01 X19.74707 Y40.70002
G01 X19.78769 Y40.68193
G01 X19.86010 Y40.64013
G01 X19.90239 Y40.60942
G01 X19.96452 Y40.55346
G01 X19.98652 Y40.52903
G01 X19.98891 Y40.45491
G01 X19.98652 Y40.52903
G01 X20.28809 Y40.83060
G01 X20.30511 Y40.82392
G01 X20.28809 Y40.83060
G01 X20.28263 Y40.85628
G01 X20.27717 Y40.90820
G01 X20.27499 Y40.95001
G01 X20.27499 Y41.16842
G01 X20.28758 Y41.22750
G01 X20.28855 Y41.23273
G01 X20.29683 Y41.28498
G01 X20.29752 Y41.29016
G01 X20.30793 Y41.38882
G01 X20.30834 Y41.39407
G01 X20.30877 Y41.39405
G01 X20.30834 Y41.39407
G01 X20.31108 Y41.44635
G01 X20.31118 Y41.44896
G01 X20.31245 Y41.49740
G01 X20.31248 Y41.50002
G01 X20.31248 Y41.74871
G01 X20.31357 Y41.79070
G01 X20.32906 Y41.80256
G01 X20.37707 Y41.83713
G01 X20.40026 Y41.85275
G01 X20.40194 Y41.85392
G01 X20.43160 Y41.87479
G01 X20.43330 Y41.87604
G01 X20.49528 Y41.92166
G01 X20.49879 Y41.92438
G01 X20.51819 Y41.94002
G01 X20.50638 Y41.91350
G01 X20.49025 Y41.86380
G01 X20.48154 Y41.82290
G01 X20.47608 Y41.77091
G01 X20.47499 Y41.75000
G01 X20.47499 Y40.95001
G01 X20.47608 Y40.92910
G01 X20.48154 Y40.87713
G01 X20.49025 Y40.83624
G01 X20.50638 Y40.78653
G01 X20.51271 Y40.77241
G01 X19.93813 Y40.19779
G01 X19.93473 Y40.21379
G01 X19.91857 Y40.26349
G01 X19.90158 Y40.30170
G01 X19.87544 Y40.34696
G01 X19.85088 Y40.38079
G01 X19.81591 Y40.41963
G01 X19.78482 Y40.44759
G01 X19.74255 Y40.47833
G01 X19.70633 Y40.49923
G01 X19.65858 Y40.52049
G01 X19.61883 Y40.53340
G01 X19.56770 Y40.54427
G01 X19.53658 Y40.54838
G01 X19.51045 Y40.54973
G01 X19.49998 Y40.55001
G01 X18.59998 Y40.55001
G01 X18.58609 Y40.54864
G01 X18.57385 Y40.54864
G01 X18.53227 Y40.54427
G01 X18.48116 Y40.53340
G01 X18.44139 Y40.52049
G01 X18.39363 Y40.49923
G01 X18.35744 Y40.47833
G01 X18.31515 Y40.44759
G01 X18.28408 Y40.41963
G01 X18.24911 Y40.38079
G01 X18.22452 Y40.34696
G01 X18.19838 Y40.30170
G01 X18.18139 Y40.26349
G01 X18.16524 Y40.21379
G01 X18.15655 Y40.17289
G01 X18.15109 Y40.12092
G01 X18.15000 Y40.10002
G01 X18.15000 Y39.45001
G01 X17.95000 Y39.45001
G01 X18.15000 Y39.45001
G01 X18.15109 Y39.42910
G01 X18.15655 Y39.37714
G01 X18.16524 Y39.33624
G01 X18.18139 Y39.28653
G01 X18.19838 Y39.24833
G01 X18.22452 Y39.20307
G01 X18.24911 Y39.16924
G01 X18.28408 Y39.13040
G01 X18.31515 Y39.10244
G01 X18.35744 Y39.07170
G01 X18.39363 Y39.05080
G01 X18.44139 Y39.02954
G01 X18.48116 Y39.01661
G01 X18.53227 Y39.00576
G01 X18.56338 Y39.00165
G01 X18.58952 Y39.00028
G01 X18.59998 Y39.00002
G01 X19.49998 Y39.00002
G01 X19.51390 Y39.00139
G01 X19.52612 Y39.00139
G01 X19.56770 Y39.00576
G01 X19.61883 Y39.01661
G01 X19.65858 Y39.02954
G01 X19.70633 Y39.05080
G01 X19.74255 Y39.07170
G01 X19.78482 Y39.10244
G01 X19.81591 Y39.13040
G01 X19.85088 Y39.16924
G01 X19.87544 Y39.20307
G01 X19.90158 Y39.24833
G01 X19.91857 Y39.28653
G01 X19.93473 Y39.33624
G01 X19.94344 Y39.37714
G01 X19.94890 Y39.42910
G01 X19.94999 Y39.45001
G01 X19.97499 Y39.45001
G01 X19.99457 Y39.45097
G01 X20.01895 Y39.45339
G01 X20.05741 Y39.46103
G01 X20.08085 Y39.46814
G01 X20.11710 Y39.48316
G01 X20.13869 Y39.49469
G01 X20.17130 Y39.51648
G01 X20.19025 Y39.53203
G01 X20.20478 Y39.54521
G01 X21.15959 Y40.50002
G01 X22.17498 Y40.50002
G01 X22.18890 Y40.50139
G01 X22.20112 Y40.50139
G01 X22.24270 Y40.50576
G01 X22.29383 Y40.51663
G01 X22.33358 Y40.52953
G01 X22.38133 Y40.55079
G01 X22.41755 Y40.57170
G01 X22.45982 Y40.60243
G01 X22.49091 Y40.63040
G01 X22.52586 Y40.66923
G01 X22.55045 Y40.70307
G01 X22.57658 Y40.74838
G01 X22.59357 Y40.78653
G01 X22.60973 Y40.83624
G01 X22.61842 Y40.87713
G01 X22.62390 Y40.92910
G01 X22.62499 Y40.95001
G01 X22.62499 Y41.75000
G01 X22.62390 Y41.77091
G01 X22.61842 Y41.82290
G01 X22.60973 Y41.86380
G01 X22.59505 Y41.90901
G01 X22.59357 Y41.91350
G01 X22.57658 Y41.95171
G01 X22.55045 Y41.99697
G01 X22.52586 Y42.03078
G01 X22.49091 Y42.06961
G01 X22.45982 Y42.09760
G01 X22.41755 Y42.12831
G01 X22.38133 Y42.14922
G01 X22.33358 Y42.17048
G01 X22.29383 Y42.18340
G01 X22.24270 Y42.19428
G01 X22.21158 Y42.19837
G01 X22.18545 Y42.19974
G01 X22.17498 Y42.20002
G01 X20.92500 Y42.20002
G01 X20.91108 Y42.19864
G01 X20.89886 Y42.19864
G01 X20.85728 Y42.19428
G01 X20.80615 Y42.18340
G01 X20.76638 Y42.17048
G01 X20.71865 Y42.14922
G01 X20.68243 Y42.12831
G01 X20.64014 Y42.09760
G01 X20.60907 Y42.06961
G01 X20.57410 Y42.03078
G01 X20.54954 Y41.99697
G01 X20.52340 Y41.95171
G01 X20.51819 Y41.94002
G01 X20.27057 Y42.00654
G01 X20.21669 Y42.02102
G01 X19.94999 Y42.09268
G01 X19.96640 Y42.05597
G01 X19.96828 Y42.05196
G01 X20.00387 Y41.98097
G01 X20.01012 Y41.97020
G01 X20.00973 Y41.96997
G01 X20.01012 Y41.97020
G01 X20.11443 Y41.81411
G01 X20.11387 Y41.80370
G01 X20.11377 Y41.80108
G01 X20.11250 Y41.75265
G01 X20.11248 Y41.75003
G01 X20.11248 Y41.50134
G01 X20.11128 Y41.45552
G01 X20.10874 Y41.40718
G01 X20.09889 Y41.31371
G01 X20.09145 Y41.26664
G01 X20.07880 Y41.20733
G01 X20.07478 Y41.19832
G01 X20.04865 Y41.15305
G01 X19.99950 Y41.08541
G01 X19.96452 Y41.04658
G01 X19.90239 Y40.99062
G01 X19.86010 Y40.95991
G01 X19.78769 Y40.91808
G01 X19.74710 Y40.90002
G01 X18.35287 Y40.90002
G01 X18.31230 Y40.91808
G01 X18.23986 Y40.95991
G01 X18.19760 Y40.99062
G01 X18.13544 Y41.04658
G01 X18.10047 Y41.08541
G01 X18.05132 Y41.15305
G01 X18.02518 Y41.19832
G01 X17.99117 Y41.27472
G01 X17.98297 Y41.30002
G01 X18.00296 Y41.33139
G01 X17.98297 Y41.30002
G01 X17.70169 Y41.30002
G01 X17.66735 Y41.31757
G01 X17.66249 Y41.31991
G01 X17.63113 Y41.33388
G01 X17.62638 Y41.33583
G01 X17.53412 Y41.37137
G01 X17.52907 Y41.37314
G01 X17.49773 Y41.38333
G01 X17.49277 Y41.38480
G01 X17.40921 Y41.40723
G01 X17.40954 Y41.40858
G01 X17.40921 Y41.40723
G01 X17.40408 Y41.40848
G01 X17.37271 Y41.41513
G01 X17.36760 Y41.41607
G01 X17.28911 Y41.42854
G01 X17.28388 Y41.42925
G01 X17.25254 Y41.43253
G01 X17.24812 Y41.43291
G01 X17.18325 Y41.43685
G01 X17.17908 Y41.43700
G01 X17.15185 Y41.43751
G01 X17.15000 Y41.43753
G01 X17.15000 Y41.43789
G01 X17.15000 Y41.43753
G01 X16.84997 Y41.43753
G01 X16.84809 Y41.43751
G01 X16.82092 Y41.43700
G01 X16.81673 Y41.43685
G01 X16.81673 Y41.43715
G01 X16.81673 Y41.43685
G01 X16.75180 Y41.43291
G01 X16.74741 Y41.43253
G01 X16.71607 Y41.42925
G01 X16.71083 Y41.42854
G01 X16.63235 Y41.41607
G01 X16.62724 Y41.41513
G01 X16.62706 Y41.41599
G01 X16.62724 Y41.41513
G01 X16.59587 Y41.40848
G01 X16.59326 Y41.40787
G01 X16.55107 Y41.39773
G01 X16.53138 Y41.39075
G01 X16.51358 Y41.37983
G01 X16.50644 Y41.38943
G01 X16.51358 Y41.37983
G01 X16.49844 Y41.36542
G01 X16.48660 Y41.34820
G01 X16.46509 Y41.30855
G01 X16.46387 Y41.30627
G01 X16.46290 Y41.30680
G01 X16.46387 Y41.30627
G01 X16.44789 Y41.27492
G01 X16.44568 Y41.27030
G01 X16.41327 Y41.19778
G01 X16.41121 Y41.19280
G01 X16.39918 Y41.16144
G01 X16.39745 Y41.15658
G01 X16.37657 Y41.09247
G01 X16.37507 Y41.08737
G01 X16.37497 Y41.08701
G01 X16.37497 Y39.38803
G01 X16.37507 Y39.38768
G01 X16.37657 Y39.38255
G01 X16.39752 Y39.31828
G01 X16.39925 Y39.31341
G01 X16.41053 Y39.28405
G01 X16.42089 Y39.26411
G01 X16.43545 Y39.24699
G01 X16.43684 Y39.24569
G01 X16.46085 Y39.22306
G01 X16.46311 Y39.21717
G01 X16.48239 Y39.15804
G01 X16.48371 Y39.15311
G01 X16.49455 Y39.13817
G01 X16.48371 Y39.15311
G01 X16.48239 Y39.15804
G01 X16.46311 Y39.21717
G01 X16.46085 Y39.22306
G01 X16.43684 Y39.24569
G01 X16.43545 Y39.24699
G01 X16.42089 Y39.26411
G01 X16.41713 Y39.26174
G01 X16.42089 Y39.26411
G01 X16.41053 Y39.28405
G01 X16.39925 Y39.31341
G01 X16.39752 Y39.31828
G01 X16.37657 Y39.38255
G01 X16.37507 Y39.38768
G01 X16.37497 Y39.38803
G01 X16.37497 Y39.25186
G01 X16.39255 Y39.24173
G01 X16.41792 Y39.22329
G01 X16.44898 Y39.19530
G01 X16.46996 Y39.17201
G01 X16.49455 Y39.13817
G01 X16.51022 Y39.11102
G01 X16.52724 Y39.07282
G01 X16.53692 Y39.04300
G01 X16.54561 Y39.00211
G01 X16.54888 Y38.97091
G01 X16.54997 Y38.95001
G01 X16.54997 Y37.89652
G01 X16.56234 Y37.85593
G01 X16.56387 Y37.85133
G01 X16.57263 Y37.82685
G01 X16.57350 Y37.82454
G01 X16.58566 Y37.79301
G01 X16.58655 Y37.79075
G01 X16.59572 Y37.76863
G01 X16.55686 Y37.72068
G01 X16.55267 Y37.71557
G01 X16.54108 Y37.70157
G01 X16.53692 Y37.68202
G01 X16.54561 Y37.72291
G01 X16.54888 Y37.75410
G01 X16.54997 Y37.77501
G01 X16.54997 Y37.89652
G01 X16.54997 Y37.77501
G01 X16.54888 Y37.75410
G01 X16.54561 Y37.72291
G01 X16.53692 Y37.68202
G01 X16.52724 Y37.65220
G01 X16.51022 Y37.61400
G01 X16.49455 Y37.58684
G01 X16.46996 Y37.55301
G01 X16.44898 Y37.52972
G01 X16.41792 Y37.50175
G01 X16.39255 Y37.48331
G01 X16.35633 Y37.46243
G01 X16.32770 Y37.44968
G01 X16.28792 Y37.43673
G01 X16.25724 Y37.43020
G01 X16.21566 Y37.42583
G01 X16.20832 Y37.42583
G01 X16.19999 Y37.42502
G01 X15.89999 Y37.42502
G01 X15.88952 Y37.42530
G01 X15.87385 Y37.42611
G01 X15.84274 Y37.43020
G01 X15.81205 Y37.43673
G01 X15.77228 Y37.44968
G01 X15.74365 Y37.46243
G01 X15.70743 Y37.48331
G01 X15.68206 Y37.50175
G01 X15.65099 Y37.52972
G01 X15.63001 Y37.55301
G01 X15.60543 Y37.58684
G01 X15.58975 Y37.61400
G01 X15.57274 Y37.65220
G01 X15.56306 Y37.68202
G01 X15.55437 Y37.72291
G01 X15.55109 Y37.75410
G01 X15.54998 Y37.77501
G01 X15.54998 Y38.95001
G01 X15.55109 Y38.97091
G01 X15.55437 Y39.00211
G01 X15.56306 Y39.04300
G01 X15.57274 Y39.07282
G01 X15.58975 Y39.11102
G01 X15.60543 Y39.13817
G01 X15.63001 Y39.17201
G01 X15.65099 Y39.19530
G01 X15.68206 Y39.22329
G01 X15.70743 Y39.24173
G01 X15.72402 Y39.25128
G01 X15.72496 Y39.25184
G01 X15.72496 Y39.25308
G01 X15.72402 Y39.25128
G01 X15.72496 Y39.25308
G01 X15.72496 Y41.55000
G01 X15.72592 Y41.56961
G01 X15.72834 Y41.59400
G01 X15.73598 Y41.63245
G01 X15.74309 Y41.65590
G01 X15.75810 Y41.69214
G01 X15.76964 Y41.71373
G01 X15.79143 Y41.74635
G01 X15.80697 Y41.76530
G01 X15.82016 Y41.77982
G01 X16.09516 Y42.05483
G01 X16.10969 Y42.06801
G01 X16.12864 Y42.08356
G01 X16.16125 Y42.10535
G01 X16.18284 Y42.11688
G01 X16.21909 Y42.13189
G01 X16.24253 Y42.13901
G01 X16.28099 Y42.14665
G01 X16.30537 Y42.14906
G01 X16.32498 Y42.15003
G01 X18.10283 Y42.15003
G01 X18.15000 Y42.15003
G01 X18.15109 Y42.17091
G01 X18.15355 Y42.19448
G01 X18.15272 Y42.19301
G01 X18.14073 Y42.17624
G01 X18.12556 Y42.16230
G01 X18.10786 Y42.15176
G01 X18.10283 Y42.15003
G01 X18.10786 Y42.15176
G01 X18.12556 Y42.16230
G01 X18.14073 Y42.17624
G01 X18.15272 Y42.19301
G01 X18.15355 Y42.19448
G01 X18.15655 Y42.22290
G01 X18.16524 Y42.26380
G01 X18.18139 Y42.31350
G01 X18.19838 Y42.35171
G01 X18.22452 Y42.39697
G01 X18.24911 Y42.43078
G01 X18.28408 Y42.46964
G01 X18.31515 Y42.49760
G01 X18.35744 Y42.52831
G01 X18.39363 Y42.54922
G01 X18.44139 Y42.57048
G01 X18.48116 Y42.58340
G01 X18.53227 Y42.59428
G01 X18.57385 Y42.59864
G01 X18.58609 Y42.59864
G01 X18.59998 Y42.60002
G01 X19.49998 Y42.60002
G01 X19.51045 Y42.59974
G01 X19.53658 Y42.59836
G01 X19.56770 Y42.59428
G01 X19.61883 Y42.58340
G01 X19.65858 Y42.57048
G01 X19.70633 Y42.54922
G01 X19.74255 Y42.52831
G01 X19.78482 Y42.49760
G01 X19.81591 Y42.46964
G01 X19.85088 Y42.43078
G01 X19.87544 Y42.39697
G01 X19.90158 Y42.35171
G01 X19.91857 Y42.31350
G01 X19.93473 Y42.26380
G01 X19.94344 Y42.22290
G01 X19.94890 Y42.17091
G01 X19.94999 Y42.15000
G01 X19.94999 Y42.09268
G01 X19.94999 Y41.50002
G01 X19.94890 Y41.47911
G01 X19.94344 Y41.42712
G01 X19.93473 Y41.38623
G01 X19.91857 Y41.33652
G01 X19.90158 Y41.29832
G01 X19.87544 Y41.25308
G01 X19.85088 Y41.21925
G01 X19.81591 Y41.18041
G01 X19.78482 Y41.15242
G01 X19.74255 Y41.12171
G01 X19.70633 Y41.10081
G01 X19.65858 Y41.07955
G01 X19.61883 Y41.06662
G01 X19.56770 Y41.05575
G01 X19.52612 Y41.05138
G01 X19.51390 Y41.05138
G01 X19.49998 Y41.05001
G01 X18.59998 Y41.05001
G01 X18.58952 Y41.05029
G01 X18.56338 Y41.05166
G01 X18.53227 Y41.05575
G01 X18.48116 Y41.06662
G01 X18.44139 Y41.07955
G01 X18.39363 Y41.10081
G01 X18.35744 Y41.12171
G01 X18.31515 Y41.15242
G01 X18.28408 Y41.18041
G01 X18.24911 Y41.21925
G01 X18.22452 Y41.25308
G01 X18.19838 Y41.29832
G01 X18.18139 Y41.33652
G01 X18.16524 Y41.38623
G01 X18.15655 Y41.42712
G01 X18.15109 Y41.47911
G01 X18.15000 Y41.50002
G01 X16.45958 Y41.50002
G01 X16.37497 Y41.41541
G01 X16.37497 Y41.08701
G01 X16.56621 Y41.02803
G01 X16.56755 Y41.03306
G01 X16.58683 Y41.09220
G01 X16.59696 Y41.11864
G01 X16.62724 Y41.18635
G01 X16.64114 Y41.21363
G01 X16.66628 Y41.21897
G01 X16.73961 Y41.23063
G01 X16.76613 Y41.23342
G01 X16.82673 Y41.23708
G01 X16.85091 Y41.23753
G01 X17.14906 Y41.23753
G01 X17.17324 Y41.23708
G01 X17.23379 Y41.23342
G01 X17.26034 Y41.23063
G01 X17.33367 Y41.21897
G01 X17.35990 Y41.21338
G01 X17.43842 Y41.19230
G01 X17.46478 Y41.18376
G01 X17.55211 Y41.15013
G01 X17.57868 Y41.13830
G01 X17.61182 Y41.12133
G01 X17.61774 Y41.11318
G01 X17.63344 Y41.08602
G01 X17.66745 Y41.00962
G01 X17.67713 Y40.97980
G01 X17.69452 Y40.89801
G01 X17.69780 Y40.86687
G01 X17.69999 Y40.82501
G01 X17.69999 Y39.65001
G01 X17.69780 Y39.60820
G01 X17.69452 Y39.57701
G01 X17.67713 Y39.49522
G01 X17.66745 Y39.46540
G01 X17.63344 Y39.38900
G01 X17.61774 Y39.36185
G01 X17.56859 Y39.29418
G01 X17.54761 Y39.27089
G01 X17.52498 Y39.25049
G01 X17.51304 Y39.25484
G01 X17.52498 Y39.25049
G01 X17.52498 Y38.36749
G01 X17.50974 Y38.36119
G01 X17.52498 Y38.36749
G01 X18.74245 Y37.15001
G01 X18.73623 Y37.13521
G01 X18.74245 Y37.15001
G01 X19.67499 Y37.15001
G01 X19.69592 Y37.14945
G01 X19.72205 Y37.14808
G01 X19.78428 Y37.13990
G01 X19.83541 Y37.12903
G01 X19.91494 Y37.10320
G01 X19.96269 Y37.08194
G01 X20.03511 Y37.04013
G01 X20.07737 Y37.00940
G01 X20.13953 Y36.95344
G01 X20.17450 Y36.91461
G01 X20.22365 Y36.84697
G01 X20.24979 Y36.80170
G01 X20.28380 Y36.72530
G01 X20.29995 Y36.67559
G01 X20.31733 Y36.59380
G01 X20.32279 Y36.54184
G01 X20.32500 Y36.50000
G01 X20.32500 Y35.70000
G01 X20.32279 Y35.65820
G01 X20.31733 Y35.60623
G01 X20.29995 Y35.52444
G01 X20.28380 Y35.47473
G01 X20.24979 Y35.39833
G01 X20.22365 Y35.35307
G01 X20.17450 Y35.28543
G01 X20.15192 Y35.26036
G01 X20.08154 Y35.23323
G01 X20.03427 Y35.21789
G01 X19.94824 Y35.19477
G01 X19.90112 Y35.18476
G01 X19.82195 Y35.17219
G01 X19.77468 Y35.16721
G01 X19.70443 Y35.16320
G01 X19.67390 Y35.16254
G01 X18.42604 Y35.16254
G01 X18.39549 Y35.16320
G01 X18.32533 Y35.16721
G01 X18.27804 Y35.17219
G01 X18.20156 Y35.18433
G01 X18.18452 Y35.22891
G01 X18.18091 Y35.23965
G01 X18.17989 Y35.24252
G01 X18.16265 Y35.28913
G01 X18.16150 Y35.29208
G01 X18.13511 Y35.35695
G01 X18.14014 Y35.35243
G01 X18.18243 Y35.32170
G01 X18.21863 Y35.30079
G01 X18.26638 Y35.27953
G01 X18.30616 Y35.26663
G01 X18.35726 Y35.25576
G01 X18.38838 Y35.25167
G01 X18.41451 Y35.25030
G01 X18.42498 Y35.25002
G01 X19.67499 Y35.25002
G01 X19.68888 Y35.25139
G01 X19.70112 Y35.25139
G01 X19.74270 Y35.25576
G01 X19.79383 Y35.26663
G01 X19.83359 Y35.27953
G01 X19.88134 Y35.30079
G01 X19.91753 Y35.32170
G01 X19.95982 Y35.35243
G01 X19.99089 Y35.38040
G01 X20.02586 Y35.41923
G01 X20.05045 Y35.45307
G01 X20.07659 Y35.49833
G01 X20.09358 Y35.53653
G01 X20.10973 Y35.58624
G01 X20.11842 Y35.62713
G01 X20.12388 Y35.67910
G01 X20.12500 Y35.70000
G01 X20.12500 Y36.50000
G01 X20.12388 Y36.52091
G01 X20.11842 Y36.57290
G01 X20.10973 Y36.61379
G01 X20.09358 Y36.66350
G01 X20.07659 Y36.70170
G01 X20.05045 Y36.74697
G01 X20.02586 Y36.78077
G01 X19.99089 Y36.81964
G01 X19.95982 Y36.84760
G01 X19.91753 Y36.87831
G01 X19.88134 Y36.89924
G01 X19.83359 Y36.92047
G01 X19.79383 Y36.93340
G01 X19.74270 Y36.94427
G01 X19.71159 Y36.94836
G01 X19.68545 Y36.94973
G01 X19.67499 Y36.95001
G01 X18.65960 Y36.95001
G01 X17.32498 Y38.28463
G01 X17.32498 Y39.34816
G01 X17.34256 Y39.35832
G01 X17.36791 Y39.37673
G01 X17.39900 Y39.40472
G01 X17.41998 Y39.42801
G01 X17.44454 Y39.46185
G01 X17.46023 Y39.48900
G01 X17.47723 Y39.52720
G01 X17.48693 Y39.55702
G01 X17.49562 Y39.59791
G01 X17.49889 Y39.62910
G01 X17.49999 Y39.65001
G01 X17.49999 Y40.82501
G01 X17.49889 Y40.84592
G01 X17.49562 Y40.87711
G01 X17.48693 Y40.91800
G01 X17.47723 Y40.94782
G01 X17.46023 Y40.98602
G01 X17.44454 Y41.01318
G01 X17.41998 Y41.04701
G01 X17.39900 Y41.07030
G01 X17.36791 Y41.09829
G01 X17.34256 Y41.11673
G01 X17.30634 Y41.13764
G01 X17.27768 Y41.15039
G01 X17.23791 Y41.16329
G01 X17.20723 Y41.16982
G01 X17.17614 Y41.17391
G01 X17.16044 Y41.17475
G01 X17.15000 Y41.17502
G01 X16.84997 Y41.17502
G01 X16.84162 Y41.17419
G01 X16.83428 Y41.17419
G01 X16.79270 Y41.16982
G01 X16.76206 Y41.16329
G01 X16.72229 Y41.15039
G01 X16.69364 Y41.13764
G01 X16.65744 Y41.11673
G01 X16.63207 Y41.09829
G01 X16.60098 Y41.07030
G01 X16.58000 Y41.04701
G01 X16.56621 Y41.02803
G01 X16.55544 Y41.01318
G01 X16.53974 Y40.98602
G01 X16.52275 Y40.94782
G01 X16.51304 Y40.91800
G01 X16.50436 Y40.87711
G01 X16.50108 Y40.84592
G01 X16.49999 Y40.82501
G01 X16.49999 Y39.65001
G01 X16.50108 Y39.62910
G01 X16.50436 Y39.59791
G01 X16.51304 Y39.55702
G01 X16.52275 Y39.52720
G01 X16.53974 Y39.48900
G01 X16.55544 Y39.46185
G01 X16.56623 Y39.44696
G01 X16.58000 Y39.42801
G01 X16.60098 Y39.40472
G01 X16.63207 Y39.37673
G01 X16.65744 Y39.35832
G01 X16.67497 Y39.34818
G01 X16.67497 Y39.21201
G01 X16.67487 Y39.21237
G01 X16.67337 Y39.21747
G01 X16.65249 Y39.28156
G01 X16.65076 Y39.28641
G01 X16.63941 Y39.31602
G01 X16.62905 Y39.33599
G01 X16.61449 Y39.35311
G01 X16.61327 Y39.35425
G01 X16.58904 Y39.37706
G01 X16.58688 Y39.38270
G01 X16.56755 Y39.44198
G01 X16.56623 Y39.44696
G01 X16.56755 Y39.44198
G01 X16.58688 Y39.38270
G01 X16.58904 Y39.37706
G01 X16.61327 Y39.35425
G01 X16.61449 Y39.35311
G01 X16.62905 Y39.33599
G01 X16.63941 Y39.31602
G01 X16.64228 Y39.31765
G01 X16.63941 Y39.31602
G01 X16.65076 Y39.28641
G01 X16.65249 Y39.28156
G01 X16.67337 Y39.21747
G01 X16.67487 Y39.21237
G01 X16.67497 Y39.21201
G01 X16.67497 Y38.15001
G01 X16.67593 Y38.13043
G01 X16.67835 Y38.10604
G01 X16.68599 Y38.06759
G01 X16.69310 Y38.04414
G01 X16.70812 Y38.00790
G01 X16.71965 Y37.98631
G01 X16.74144 Y37.95370
G01 X16.74177 Y37.95326
G01 X16.75698 Y37.93475
G01 X16.77014 Y37.92022
G01 X16.91911 Y37.77127
G01 X16.77014 Y37.92022
G01 X16.75698 Y37.93475
G01 X16.74177 Y37.95326
G01 X16.75297 Y37.91648
G01 X16.76052 Y37.89543
G01 X16.77179 Y37.86619
G01 X16.78769 Y37.82776
G01 X16.83687 Y37.80914
G01 X16.84299 Y37.80658
G01 X16.91190 Y37.77511
G01 X16.91911 Y37.77127
G01 X18.01271 Y36.67768
G01 X18.00639 Y36.66350
G01 X17.99023 Y36.61379
G01 X17.98154 Y36.57290
G01 X17.97608 Y36.52091
G01 X17.97499 Y36.50000
G01 X17.97499 Y35.70000
G01 X17.97608 Y35.67910
G01 X17.98154 Y35.62713
G01 X17.99023 Y35.58624
G01 X18.00639 Y35.53653
G01 X18.02340 Y35.49833
G01 X18.04954 Y35.45307
G01 X18.07410 Y35.41923
G01 X18.10908 Y35.38040
G01 X18.13511 Y35.35695
G01 X17.89935 Y34.87504
G01 X17.90382 Y34.87636
G01 X17.97481 Y34.90252
G01 X17.98744 Y34.90818
G01 X18.14393 Y34.99195
G01 X18.15980 Y34.98858
G01 X18.16491 Y34.98764
G01 X18.24929 Y34.97425
G01 X18.25449 Y34.97356
G01 X18.30677 Y34.96805
G01 X18.31152 Y34.96767
G01 X18.38584 Y34.96343
G01 X18.38939 Y34.96328
G01 X18.42282 Y34.96257
G01 X18.42279 Y34.96229
G01 X18.42282 Y34.96257
G01 X18.42498 Y34.96254
G01 X19.67499 Y34.96254
G01 X19.67712 Y34.96257
G01 X19.71052 Y34.96328
G01 X19.71055 Y34.96287
G01 X19.71052 Y34.96328
G01 X19.71410 Y34.96343
G01 X19.78850 Y34.96770
G01 X19.79322 Y34.96808
G01 X19.84547 Y34.97356
G01 X19.85071 Y34.97425
G01 X19.93503 Y34.98764
G01 X19.94014 Y34.98858
G01 X19.99239 Y34.99968
G01 X19.99256 Y34.99886
G01 X19.99239 Y34.99968
G01 X19.99757 Y35.00092
G01 X20.08865 Y35.02541
G01 X20.09361 Y35.02688
G01 X20.14590 Y35.04385
G01 X20.15093 Y35.04565
G01 X20.22723 Y35.07504
G01 X20.33252 Y35.07504
G01 X20.33882 Y35.05980
G01 X20.33252 Y35.07504
G01 X21.02497 Y35.76749
G01 X21.04021 Y35.76119
G01 X21.02497 Y35.76749
G01 X21.02497 Y37.20000
G01 X21.07798 Y37.24892
G01 X21.02497 Y37.20000
G01 X20.92500 Y37.20000
G01 X20.90404 Y37.20056
G01 X20.87793 Y37.20193
G01 X20.81570 Y37.21014
G01 X20.76457 Y37.22098
G01 X20.68504 Y37.24684
G01 X20.63729 Y37.26810
G01 X20.56488 Y37.30991
G01 X20.52259 Y37.34062
G01 X20.46046 Y37.39657
G01 X20.42548 Y37.43541
G01 X20.37633 Y37.50307
G01 X20.35020 Y37.54834
G01 X20.31619 Y37.62471
G01 X20.30003 Y37.67445
G01 X20.28263 Y37.75624
G01 X20.27717 Y37.80820
G01 X20.27499 Y37.85001
G01 X20.27499 Y38.65001
G01 X20.27717 Y38.69182
G01 X20.28263 Y38.74381
G01 X20.30003 Y38.82560
G01 X20.31619 Y38.87531
G01 X20.35020 Y38.95169
G01 X20.37633 Y38.99695
G01 X20.42548 Y39.06461
G01 X20.46046 Y39.10345
G01 X20.52259 Y39.15941
G01 X20.56488 Y39.19012
G01 X20.63729 Y39.23192
G01 X20.68504 Y39.25318
G01 X20.76457 Y39.27904
G01 X20.81570 Y39.28991
G01 X20.89886 Y39.29865
G01 X20.91108 Y39.29865
G01 X20.92500 Y39.30002
G01 X22.17498 Y39.30002
G01 X22.19591 Y39.29946
G01 X22.22205 Y39.29809
G01 X22.28428 Y39.28991
G01 X22.33541 Y39.27904
G01 X22.41494 Y39.25318
G01 X22.46269 Y39.23192
G01 X22.53510 Y39.19012
G01 X22.57739 Y39.15941
G01 X22.63952 Y39.10345
G01 X22.67450 Y39.06461
G01 X22.72365 Y38.99695
G01 X22.74978 Y38.95169
G01 X22.78380 Y38.87531
G01 X22.79995 Y38.82560
G01 X22.79998 Y38.57503
G01 X22.62499 Y38.57503
G01 X22.62499 Y38.65001
G01 X22.62390 Y38.67092
G01 X22.61842 Y38.72291
G01 X22.60973 Y38.76380
G01 X22.59357 Y38.81351
G01 X22.57658 Y38.85169
G01 X22.55045 Y38.89695
G01 X22.52586 Y38.93078
G01 X22.49091 Y38.96962
G01 X22.45982 Y38.99761
G01 X22.41755 Y39.02832
G01 X22.38133 Y39.04922
G01 X22.33358 Y39.07048
G01 X22.29383 Y39.08341
G01 X22.24270 Y39.09428
G01 X22.21158 Y39.09837
G01 X22.18545 Y39.09974
G01 X22.17498 Y39.10002
G01 X20.92500 Y39.10002
G01 X20.91108 Y39.09865
G01 X20.89886 Y39.09865
G01 X20.85728 Y39.09428
G01 X20.80615 Y39.08341
G01 X20.76638 Y39.07048
G01 X20.71865 Y39.04922
G01 X20.68243 Y39.02832
G01 X20.64014 Y38.99761
G01 X20.60907 Y38.96962
G01 X20.57410 Y38.93078
G01 X20.54954 Y38.89695
G01 X20.52340 Y38.85169
G01 X20.50638 Y38.81351
G01 X20.49025 Y38.76380
G01 X20.48154 Y38.72291
G01 X20.47608 Y38.67092
G01 X20.47499 Y38.65001
G01 X20.47499 Y37.85001
G01 X20.47608 Y37.82911
G01 X20.48154 Y37.77714
G01 X20.49025 Y37.73622
G01 X20.50638 Y37.68651
G01 X20.52340 Y37.64836
G01 X20.54954 Y37.60307
G01 X20.57410 Y37.56924
G01 X20.60907 Y37.53040
G01 X20.64014 Y37.50244
G01 X20.68243 Y37.47170
G01 X20.71865 Y37.45080
G01 X20.76638 Y37.42954
G01 X20.80615 Y37.41664
G01 X20.85728 Y37.40574
G01 X20.88840 Y37.40168
G01 X20.91451 Y37.40031
G01 X20.92500 Y37.40000
G01 X21.22497 Y37.40000
G01 X21.22497 Y35.68464
G01 X20.41537 Y34.87504
G01 X17.89935 Y34.87504
G01 X17.55000 Y34.87504
G01 X17.53039 Y34.87407
G01 X17.50601 Y34.87166
G01 X17.46755 Y34.86401
G01 X17.44411 Y34.85690
G01 X17.40786 Y34.84189
G01 X17.38627 Y34.83036
G01 X17.35363 Y34.80857
G01 X17.33471 Y34.79302
G01 X17.32018 Y34.77984
G01 X16.82015 Y34.27984
G01 X16.80700 Y34.26531
G01 X16.79143 Y34.24636
G01 X16.76966 Y34.21375
G01 X16.75813 Y34.19216
G01 X16.74312 Y34.15591
G01 X16.73600 Y34.13247
G01 X16.72836 Y34.09401
G01 X16.72595 Y34.06963
G01 X16.72498 Y34.05002
G01 X16.72498 Y27.69176
G01 X16.72498 Y27.05001
G01 X16.72595 Y27.03043
G01 X16.72836 Y27.00604
G01 X16.73600 Y26.96759
G01 X16.74312 Y26.94414
G01 X16.75813 Y26.90790
G01 X16.76966 Y26.88631
G01 X16.79143 Y26.85369
G01 X16.80700 Y26.83474
G01 X16.82015 Y26.82021
G01 X18.32038 Y25.31999
G01 X18.33491 Y25.30681
G01 X18.35386 Y25.29126
G01 X18.38647 Y25.26947
G01 X18.40806 Y25.25794
G01 X18.44428 Y25.24293
G01 X18.46775 Y25.23581
G01 X18.50621 Y25.22817
G01 X18.53059 Y25.22576
G01 X18.55020 Y25.22479
G01 X19.55027 Y25.22479
G01 X19.55789 Y25.21163
G01 X19.58246 Y25.17780
G01 X19.60344 Y25.15448
G01 X19.63453 Y25.12652
G01 X19.65990 Y25.10808
G01 X19.69610 Y25.08717
G01 X19.72475 Y25.07442
G01 X19.76452 Y25.06149
G01 X19.79518 Y25.05499
G01 X19.82630 Y25.05088
G01 X19.84197 Y25.05006
G01 X19.85246 Y25.04978
G01 X21.55245 Y25.04978
G01 X21.56079 Y25.05062
G01 X21.56813 Y25.05062
G01 X21.60971 Y25.05499
G01 X21.64039 Y25.06149
G01 X21.68014 Y25.07442
G01 X21.70879 Y25.08717
G01 X21.74501 Y25.10808
G01 X21.77036 Y25.12652
G01 X21.80145 Y25.15448
G01 X21.82243 Y25.17780
G01 X21.84699 Y25.21163
G01 X21.85461 Y25.22479
G01 X21.97785 Y25.22479
G04 P0 ( dwell for no time -- G64 should not smooth over this point )
G00 Z1.00000 ( retract )

G00 X18.92498 Y29.86151 ( rapid move to begin. )
G01 F300.00000
( Mill infeed pass 1/1 )
G01 Z-0.05000
G04 P0 ( dwell for no time -- G64 should not smooth over this point )
G01 F600.00000
G01 X18.92498 Y29.86151
G01 X18.92498 Y27.63464
G01 X19.41482 Y27.14480
G01 X19.55030 Y27.14480
G01 X19.55789 Y27.15796
G01 X19.58246 Y27.19179
G01 X19.60344 Y27.21508
G01 X19.63453 Y27.24307
G01 X19.65990 Y27.26149
G01 X19.69610 Y27.28239
G01 X19.72475 Y27.29517
G01 X19.76452 Y27.30807
G01 X19.79518 Y27.31460
G01 X19.83676 Y27.31897
G01 X19.84410 Y27.31897
G01 X19.85246 Y27.31978
G01 X21.55245 Y27.31978
G01 X21.56292 Y27.31953
G01 X21.57859 Y27.31869
G01 X21.60971 Y27.31460
G01 X21.64039 Y27.30807
G01 X21.68014 Y27.29517
G01 X21.70879 Y27.28239
G01 X21.74501 Y27.26149
G01 X21.77036 Y27.24307
G01 X21.80145 Y27.21508
G01 X21.82243 Y27.19179
G01 X21.84699 Y27.15796
G01 X21.85461 Y27.14480
G01 X22.18514 Y27.14480
G01 X22.72497 Y27.68463
G01 X22.72497 Y28.00977
G01 X22.72497 Y29.30002
G01 X22.72593 Y29.31963
G01 X22.72835 Y29.34401
G01 X22.73599 Y29.38247
G01 X22.74310 Y29.40591
G01 X22.75812 Y29.44216
G01 X22.76965 Y29.46375
G01 X22.79144 Y29.49636
G01 X22.80699 Y29.51531
G01 X22.82017 Y29.52984
G01 X27.32016 Y34.02983
G01 X27.33469 Y34.04301
G01 X27.35364 Y34.05855
G01 X27.38625 Y34.08035
G01 X27.40784 Y34.09188
G01 X27.44409 Y34.10689
G01 X27.46753 Y34.11400
G01 X27.50599 Y34.12165
G01 X27.53037 Y34.12406
G01 X27.54998 Y34.12503
G01 X27.59585 Y34.12503
G01 X32.26998 Y34.12503
G01 X32.28957 Y34.12406
G01 X32.31395 Y34.12165
G01 X32.35241 Y34.11400
G01 X32.37585 Y34.10689
G01 X32.41207 Y34.09188
G01 X32.43369 Y34.08035
G01 X32.46630 Y34.05855
G01 X32.48522 Y34.04301
G01 X32.49978 Y34.02983
G01 X32.67626 Y33.85337
G01 X32.80597 Y33.91111
G01 X32.84575 Y33.92404
G01 X33.01956 Y33.96099
G01 X33.06114 Y33.96536
G01 X33.23884 Y33.96536
G01 X33.28042 Y33.96099
G01 X33.45423 Y33.92404
G01 X33.49401 Y33.91111
G01 X33.65634 Y33.83884
G01 X33.69254 Y33.81794
G01 X33.83630 Y33.71350
G01 X33.86736 Y33.68550
G01 X33.98629 Y33.55345
G01 X34.01085 Y33.51964
G01 X34.09970 Y33.36574
G01 X34.11672 Y33.32754
G01 X34.17163 Y33.15853
G01 X34.18032 Y33.11764
G01 X34.19889 Y32.94093
G01 X34.19889 Y32.89910
G01 X34.18032 Y32.72239
G01 X34.17163 Y32.68149
G01 X34.11672 Y32.51248
G01 X34.09970 Y32.47428
G01 X34.01085 Y32.32041
G01 X33.98629 Y32.28657
G01 X33.86736 Y32.15452
G01 X33.83630 Y32.12653
G01 X33.69254 Y32.02208
G01 X33.65634 Y32.00118
G01 X33.49856 Y31.93092
G01 X33.49401 Y31.92892
G01 X33.45423 Y31.91599
G01 X33.28042 Y31.87903
G01 X33.23884 Y31.87466
G01 X33.06114 Y31.87466
G01 X33.01956 Y31.87903
G01 X32.84575 Y31.91599
G01 X32.80597 Y31.92892
G01 X32.64364 Y32.00118
G01 X32.60742 Y32.02208
G01 X32.46366 Y32.12653
G01 X32.43259 Y32.15452
G01 X32.31370 Y32.28657
G01 X32.28911 Y32.32041
G01 X32.20026 Y32.47428
G01 X32.18327 Y32.51248
G01 X32.12835 Y32.68149
G01 X32.11967 Y32.72239
G01 X32.10107 Y32.89910
G01 X32.10107 Y32.94093
G01 X32.11967 Y33.11764
G01 X32.12835 Y33.15853
G01 X32.18327 Y33.32754
G01 X32.20026 Y33.36574
G01 X32.21652 Y33.39386
G01 X32.13536 Y33.47501
G01 X27.68457 Y33.47501
G01 X23.37498 Y29.16542
G01 X23.37498 Y27.55001
G01 X23.37402 Y27.53042
G01 X23.37160 Y27.50604
G01 X23.36396 Y27.46758
G01 X23.35684 Y27.44414
G01 X23.34183 Y27.40789
G01 X23.33030 Y27.38630
G01 X23.30851 Y27.35369
G01 X23.29296 Y27.33474
G01 X23.27978 Y27.32021
G01 X22.54956 Y26.58999
G01 X22.53503 Y26.57681
G01 X22.51608 Y26.56126
G01 X22.48347 Y26.53947
G01 X22.46188 Y26.52794
G01 X22.42563 Y26.51293
G01 X22.40219 Y26.50581
G01 X22.36373 Y26.49817
G01 X22.33935 Y26.49576
G01 X22.31976 Y26.49479
G01 X21.85461 Y26.49479
G01 X21.84699 Y26.48163
G01 X21.82243 Y26.44780
G01 X21.80145 Y26.42448
G01 X21.77036 Y26.39652
G01 X21.74501 Y26.37808
G01 X21.70879 Y26.35717
G01 X21.68014 Y26.34442
G01 X21.64039 Y26.33149
G01 X21.60971 Y26.32499
G01 X21.56813 Y26.32062
G01 X21.56079 Y26.32062
G01 X21.55245 Y26.31978
G01 X19.85246 Y26.31978
G01 X19.84197 Y26.32006
G01 X19.82630 Y26.32088
G01 X19.79518 Y26.32499
G01 X19.76452 Y26.33149
G01 X19.72475 Y26.34442
G01 X19.69610 Y26.35717
G01 X19.65990 Y26.37808
G01 X19.63453 Y26.39652
G01 X19.60344 Y26.42448
G01 X19.58246 Y26.44780
G01 X19.55789 Y26.48163
G01 X19.55027 Y26.49479
G01 X19.28020 Y26.49479
G01 X19.26059 Y26.49576
G01 X19.23620 Y26.49817
G01 X19.19775 Y26.50581
G01 X19.17428 Y26.51293
G01 X19.13806 Y26.52794
G01 X19.11644 Y26.53947
G01 X19.08385 Y26.56126
G01 X19.06491 Y26.57681
G01 X19.05038 Y26.58999
G01 X18.37016 Y27.27023
G01 X18.35698 Y27.28478
G01 X18.34144 Y27.30370
G01 X18.31964 Y27.33632
G01 X18.30811 Y27.35793
G01 X18.29310 Y27.39415
G01 X18.28599 Y27.41760
G01 X18.27834 Y27.45605
G01 X18.27593 Y27.48044
G01 X18.27497 Y27.50002
G01 X18.27497 Y32.17674
G01 X18.26638 Y32.17954
G01 X18.21863 Y32.20080
G01 X18.18243 Y32.22170
G01 X18.14014 Y32.25241
G01 X18.10908 Y32.28040
G01 X18.07410 Y32.31924
G01 X18.04954 Y32.35307
G01 X18.02340 Y32.39833
G01 X18.00639 Y32.43654
G01 X17.99023 Y32.48624
G01 X17.98154 Y32.52714
G01 X17.97608 Y32.57911
G01 X17.97499 Y32.60001
G01 X17.77504 Y32.59902
G01 X17.97499 Y32.60001
G01 X17.97499 Y33.40001
G01 X17.97608 Y33.42091
G01 X17.98154 Y33.47291
G01 X17.99023 Y33.51380
G01 X18.00639 Y33.56351
G01 X18.02340 Y33.60168
G01 X18.04954 Y33.64695
G01 X18.07410 Y33.68078
G01 X18.10908 Y33.71962
G01 X18.14014 Y33.74761
G01 X18.18243 Y33.77832
G01 X18.21863 Y33.79922
G01 X18.26638 Y33.82048
G01 X18.30616 Y33.83341
G01 X18.35726 Y33.84428
G01 X18.39887 Y33.84865
G01 X18.41108 Y33.84865
G01 X18.42498 Y33.85002
G01 X19.67499 Y33.85002
G01 X19.68545 Y33.84974
G01 X19.71159 Y33.84837
G01 X19.74270 Y33.84428
G01 X19.79383 Y33.83341
G01 X19.83359 Y33.82048
G01 X19.88134 Y33.79922
G01 X19.91753 Y33.77832
G01 X19.95982 Y33.74761
G01 X19.96485 Y33.74309
G01 X19.99089 Y33.71962
G01 X20.02586 Y33.68078
G01 X20.05045 Y33.64695
G01 X20.07659 Y33.60168
G01 X20.09358 Y33.56351
G01 X20.10973 Y33.51380
G01 X20.11842 Y33.47291
G01 X20.12388 Y33.42091
G01 X20.12500 Y33.40001
G01 X20.12500 Y32.60001
G01 X20.12388 Y32.57911
G01 X20.11842 Y32.52714
G01 X20.10973 Y32.48624
G01 X20.09358 Y32.43654
G01 X20.07659 Y32.39833
G01 X20.05045 Y32.35307
G01 X20.02586 Y32.31924
G01 X19.99089 Y32.28040
G01 X19.95982 Y32.25241
G01 X19.91753 Y32.22170
G01 X19.88134 Y32.20080
G01 X19.83359 Y32.17954
G01 X19.79383 Y32.16661
G01 X19.74270 Y32.15576
G01 X19.70112 Y32.15137
G01 X19.68888 Y32.15137
G01 X19.67499 Y32.15002
G01 X19.08611 Y32.15002
G01 X19.07819 Y32.14759
G01 X19.07766 Y32.15002
G01 X19.07819 Y32.14759
G01 X19.01116 Y32.12259
G01 X18.99356 Y32.11396
G01 X18.97796 Y32.10207
G01 X18.96727 Y32.11243
G01 X18.97796 Y32.10207
G01 X18.96498 Y32.08736
G01 X18.95515 Y32.07042
G01 X18.95332 Y32.06646
G01 X18.94852 Y32.05368
G01 X18.92498 Y31.97522
G01 X18.94852 Y32.05368
G01 X18.95332 Y32.06646
G01 X18.95515 Y32.07042
G01 X18.96498 Y32.08736
G01 X18.97796 Y32.10207
G01 X18.99356 Y32.11396
G01 X19.01116 Y32.12259
G01 X19.07819 Y32.14759
G01 X19.08611 Y32.15002
G01 X19.07766 Y32.15002
G01 X18.92498 Y32.15002
G01 X18.92498 Y31.97522
G01 X18.92498 Y29.86151
G01 X18.93834 Y29.81325
G01 X18.94265 Y29.80090
G01 X18.97278 Y29.72991
G01 X18.97992 Y29.71615
G01 X18.97908 Y29.71571
G01 X18.97992 Y29.71615
G01 X19.11370 Y29.50116
G01 X19.11370 Y29.20980
G01 X19.11372 Y29.20718
G01 X19.11507 Y29.15600
G01 X19.11517 Y29.15338
G01 X19.11682 Y29.12201
G01 X19.11723 Y29.11676
G01 X19.12498 Y29.04340
G01 X19.12498 Y28.40622
G01 X19.11723 Y28.33286
G01 X19.11682 Y28.32760
G01 X19.11517 Y28.29623
G01 X19.11507 Y28.29362
G01 X19.11372 Y28.24244
G01 X19.11370 Y28.23982
G01 X19.11370 Y27.93982
G01 X19.11372 Y27.93718
G01 X19.11507 Y27.88600
G01 X19.11517 Y27.88338
G01 X19.11682 Y27.85201
G01 X19.11720 Y27.84709
G01 X19.12498 Y27.77101
G01 X19.12498 Y27.71750
G01 X19.11405 Y27.71363
G01 X19.12498 Y27.71750
G01 X19.15132 Y27.69116
G01 X19.16176 Y27.67411
G01 X19.16457 Y27.66979
G01 X19.22256 Y27.58531
G01 X19.22566 Y27.58105
G01 X19.24491 Y27.55595
G01 X19.24819 Y27.55191
G01 X19.31154 Y27.47767
G01 X19.31507 Y27.47378
G01 X19.33666 Y27.45100
G01 X19.33623 Y27.45062
G01 X19.33666 Y27.45100
G01 X19.34027 Y27.44739
G01 X19.40859 Y27.38237
G01 X19.42353 Y27.37063
G01 X19.42084 Y27.36591
G01 X19.42353 Y27.37063
G01 X19.44042 Y27.36195
G01 X19.45863 Y27.35661
G01 X19.47753 Y27.35481
G01 X19.47725 Y27.35283
G01 X19.47753 Y27.35481
G01 X19.48098 Y27.35481
G01 X19.51972 Y27.35481
G01 X19.61908 Y27.35481
G01 X19.65340 Y27.35478
G01 X19.65373 Y27.35478
G01 X19.73320 Y27.35478
G01 X19.73351 Y27.35478
G01 X19.76526 Y27.35481
G01 X19.82614 Y27.35481
G01 X19.82724 Y27.35478
G01 X21.57768 Y27.35478
G01 X21.63927 Y27.35481
G01 X21.67130 Y27.35478
G01 X21.67161 Y27.35478
G01 X21.75129 Y27.35478
G01 X21.75162 Y27.35478
G01 X21.78563 Y27.35481
G01 X21.94354 Y27.35481
G01 X21.95007 Y27.34892
G01 X21.95377 Y27.34480
G01 X22.10229 Y27.34480
G01 X22.10864 Y27.32941
G01 X22.10229 Y27.34480
G01 X22.13798 Y27.38049
G01 X22.17732 Y27.39791
G01 X22.17958 Y27.39895
G01 X22.20310 Y27.41008
G01 X22.20742 Y27.41226
G01 X22.28951 Y27.45608
G01 X22.29385 Y27.45852
G01 X22.31550 Y27.47152
G01 X22.31961 Y27.47411
G01 X22.31997 Y27.47355
G01 X22.31961 Y27.47411
G01 X22.39070 Y27.52156
G01 X22.39477 Y27.52443
G01 X22.41466 Y27.53919
G01 X22.41852 Y27.54218
G01 X22.48108 Y27.59352
G01 X22.48143 Y27.59311
G01 X22.48108 Y27.59352
G01 X22.48481 Y27.59672
G01 X22.50300 Y27.61320
G01 X22.50480 Y27.61488
G01 X22.53373 Y27.64241
G01 X22.53548 Y27.64414
G01 X22.59035 Y27.69900
G01 X22.60277 Y27.71414
G01 X22.60612 Y27.71191
G01 X22.60277 Y27.71414
G01 X22.61202 Y27.73144
G01 X22.70302 Y27.95115
