( pcb2gcode 2.4.0 )
( Software-independent Gcode )

G94 ( Millimeters per minute feed rate. )
G21 ( Units == Millimeters. )

G90 ( Absolute coordinates. )
G00 S10000 ( RPM spindle speed. )
G64 P0.01000 ( set maximum deviation from commanded toolpath )
G01 F600.00000 ( Feedrate. )


G00 Z50.00000 (Retract to tool change height)
T0
M5      (Spindle stop.)
G04 P1.00000 (Wait for spindle to stop)
(MSG, Change tool bit to cutter diameter 4.00000mm)
M6      (Tool change.)
M0      (Temporary machine stop.)
M3 ( Spindle on clockwise. )
G04 P1.00000 (Wait for spindle to get up to speed)
G04 P0 ( dwell for no time -- G64 should not smooth over this point )
G00 Z1.00000 ( retract )

G00 X2.05000 Y4.05000 ( rapid move to begin. )
G01 Z-0.43333 F60.00000 ( plunge. )
G04 P0 ( dwell for no time -- G64 should not smooth over this point )
G01 F600.00000
G01 X2.05000 Y44.05000
G01 X2.08843 Y44.44017
G01 X2.20225 Y44.81535
G01 X2.38706 Y45.16112
G01 X2.63580 Y45.46420
G01 X2.93888 Y45.71294
G01 X3.28465 Y45.89775
G01 X3.65983 Y46.01157
G01 X4.05000 Y46.05000
G01 X44.05000 Y46.05000
G01 X44.44017 Y46.01157
G01 X44.81535 Y45.89775
G01 X45.16112 Y45.71294
G01 X45.46419 Y45.46420
G01 X45.71293 Y45.16112
G01 X45.89774 Y44.81535
G01 X46.01156 Y44.44017
G01 X46.04999 Y44.05000
G01 X46.04999 Y4.05000
G01 X46.01156 Y3.65983
G01 X45.89774 Y3.28465
G01 X45.71293 Y2.93888
G01 X45.46419 Y2.63581
G01 X45.16112 Y2.38707
G01 X44.81535 Y2.20226
G01 X44.44017 Y2.08844
G01 X44.05000 Y2.05001
G01 X4.05000 Y2.05001
G01 X3.65983 Y2.08844
G01 X3.28465 Y2.20226
G01 X2.93888 Y2.38707
G01 X2.63580 Y2.63581
G01 X2.38706 Y2.93888
G01 X2.20225 Y3.28465
G01 X2.08843 Y3.65983
G01 X2.05000 Y4.05000
G01 Z-0.86667 F60.00000 ( plunge. )
G04 P0 ( dwell for no time -- G64 should not smooth over this point )
G01 F600.00000
G01 X2.05000 Y44.05000
G01 X2.08843 Y44.44017
G01 X2.20225 Y44.81535
G01 X2.38706 Y45.16112
G01 X2.63580 Y45.46420
G01 X2.93888 Y45.71294
G01 X3.28465 Y45.89775
G01 X3.65983 Y46.01157
G01 X4.05000 Y46.05000
G01 X44.05000 Y46.05000
G01 X44.44017 Y46.01157
G01 X44.81535 Y45.89775
G01 X45.16112 Y45.71294
G01 X45.46419 Y45.46420
G01 X45.71293 Y45.16112
G01 X45.89774 Y44.81535
G01 X46.01156 Y44.44017
G01 X46.04999 Y44.05000
G01 X46.04999 Y4.05000
G01 X46.01156 Y3.65983
G01 X45.89774 Y3.28465
G01 X45.71293 Y2.93888
G01 X45.46419 Y2.63581
G01 X45.16112 Y2.38707
G01 X44.81535 Y2.20226
G01 X44.44017 Y2.08844
G01 X44.05000 Y2.05001
G01 X4.05000 Y2.05001
G01 X3.65983 Y2.08844
G01 X3.28465 Y2.20226
G01 X2.93888 Y2.38707
G01 X2.63580 Y2.63581
G01 X2.38706 Y2.93888
G01 X2.20225 Y3.28465
G01 X2.08843 Y3.65983
G01 X2.05000 Y4.05000
G01 Z-1.30000 F60.00000 ( plunge. )
G04 P0 ( dwell for no time -- G64 should not smooth over this point )
G01 F600.00000
G01 X2.05000 Y44.05000
G01 X2.08843 Y44.44017
G01 X2.20225 Y44.81535
G01 X2.38706 Y45.16112
G01 X2.63580 Y45.46420
G01 X2.93888 Y45.71294
G01 X3.28465 Y45.89775
G01 X3.65983 Y46.01157
G01 X4.05000 Y46.05000
G01 X44.05000 Y46.05000
G01 X44.44017 Y46.01157
G01 X44.81535 Y45.89775
G01 X45.16112 Y45.71294
G01 X45.46419 Y45.46420
G01 X45.71293 Y45.16112
G01 X45.89774 Y44.81535
G01 X46.01156 Y44.44017
G01 X46.04999 Y44.05000
G01 X46.04999 Y4.05000
G01 X46.01156 Y3.65983
G01 X45.89774 Y3.28465
G01 X45.71293 Y2.93888
G01 X45.46419 Y2.63581
G01 X45.16112 Y2.38707
G01 X44.81535 Y2.20226
G01 X44.44017 Y2.08844
G01 X44.05000 Y2.05001
G01 X4.05000 Y2.05001
G01 X3.65983 Y2.08844
G01 X3.28465 Y2.20226
G01 X2.93888 Y2.38707
G01 X2.63580 Y2.63581
G01 X2.38706 Y2.93888
G01 X2.20225 Y3.28465
G01 X2.08843 Y3.65983
G01 X2.05000 Y4.05000

G04 P0 ( dwell for no time -- G64 should not smooth over this point )
G00 Z50.000000 ( retract )

M5 ( Spindle off. )
G04 P1.000000
M9 ( Coolant off. )
M2 ( Program end. )

