( pcb2gcode 2.5.0 )
( Software-independent Gcode )

G94 ( Millimeters per minute feed rate. )
G21 ( Units == Millimeters. )

G90 ( Absolute coordinates. )
G00 S10000 ( RPM spindle speed. )
G64 P0.01000 ( set maximum deviation from commanded toolpath )
G01 F500.00000 ( Feedrate. )


G00 Z30.00000 (Retract to tool change height)
T1
M5      (Spindle stop.)
G04 P1.00000 (Wait for spindle to stop)
(MSG, Change tool bit to mill diameter 0.20000mm)
M6      (Tool change.)
M0      (Temporary machine stop.)
M3 ( Spindle on clockwise. )
G04 P1.00000 (Wait for spindle to get up to speed)
G04 P0 ( dwell for no time -- G64 should not smooth over this point )
G00 Z5.00000 ( retract )

G00 X99.99954 Y0.32446 ( rapid move to begin. )
G01 F250.00000
( Mill infeed pass 1/1 )
G01 Z-0.05000
G04 P0 ( dwell for no time -- G64 should not smooth over this point )
G01 F500.00000
G01 X99.99954 Y0.32446
G01 X99.99782 Y0.29837
G01 X99.99274 Y0.27272
G01 X99.97615 Y0.21069
G01 X99.96419 Y0.17795
G01 X99.94676 Y0.14775
G01 X99.92436 Y0.12106
G01 X99.87894 Y0.07564
G01 X99.85225 Y0.05324
G01 X99.82205 Y0.03581
G01 X99.78931 Y0.02385
G01 X99.72728 Y0.00726
G01 X99.70163 Y0.00218
G01 X99.67554 Y0.00046
G01 X0.32456 Y0.00046
G01 X0.29842 Y0.00218
G01 X0.27277 Y0.00726
G01 X0.21077 Y0.02385
G01 X0.17800 Y0.03581
G01 X0.14782 Y0.05324
G01 X0.12110 Y0.07564
G01 X0.07577 Y0.12106
G01 X0.05331 Y0.14775
G01 X0.03589 Y0.17795
G01 X0.02395 Y0.21069
G01 X0.00734 Y0.27272
G01 X0.00223 Y0.29837
G01 X0.00056 Y0.32446
G01 X0.00056 Y69.67548
G01 X0.00223 Y69.70154
G01 X0.00734 Y69.72722
G01 X0.02395 Y69.78919
G01 X0.03589 Y69.82193
G01 X0.05331 Y69.85218
G01 X0.07577 Y69.87883
G01 X0.12110 Y69.92427
G01 X0.14782 Y69.94670
G01 X0.17800 Y69.96412
G01 X0.21077 Y69.97601
G01 X0.27277 Y69.99262
G01 X0.29842 Y69.99770
G01 X0.32456 Y69.99948
G01 X99.67554 Y69.99948
G01 X99.70163 Y69.99770
G01 X99.72728 Y69.99262
G01 X99.78931 Y69.97601
G01 X99.82205 Y69.96412
G01 X99.85225 Y69.94670
G01 X99.87894 Y69.92427
G01 X99.92436 Y69.87883
G01 X99.94676 Y69.85218
G01 X99.96419 Y69.82193
G01 X99.97615 Y69.78919
G01 X99.99274 Y69.72722
G01 X99.99782 Y69.70154
G01 X99.99954 Y69.67548
G01 X99.99954 Y0.32446
G01 X99.89954 Y0.32446
G01 X99.89954 Y69.67548
G01 X99.89868 Y69.68848
G01 X99.89616 Y69.70131
G01 X99.87955 Y69.76334
G01 X99.87361 Y69.77972
G01 X99.86485 Y69.79483
G01 X99.85367 Y69.80814
G01 X99.80823 Y69.85356
G01 X99.79489 Y69.86478
G01 X99.77978 Y69.87349
G01 X99.76340 Y69.87941
G01 X99.70140 Y69.89602
G01 X99.68860 Y69.89862
G01 X99.67554 Y69.89948
G01 X0.32456 Y69.89948
G01 X0.31148 Y69.89862
G01 X0.29865 Y69.89602
G01 X0.23667 Y69.87941
G01 X0.22029 Y69.87349
G01 X0.20520 Y69.86478
G01 X0.19182 Y69.85356
G01 X0.14645 Y69.80814
G01 X0.13523 Y69.79483
G01 X0.12651 Y69.77972
G01 X0.12055 Y69.76334
G01 X0.10393 Y69.70131
G01 X0.10142 Y69.68848
G01 X0.10053 Y69.67548
G01 X0.10053 Y0.32446
G01 X0.10142 Y0.31140
G01 X0.10393 Y0.29860
G01 X0.12055 Y0.23660
G01 X0.12651 Y0.22022
G01 X0.13523 Y0.20511
G01 X0.14645 Y0.19177
G01 X0.19182 Y0.14633
G01 X0.20520 Y0.13515
G01 X0.22029 Y0.12639
G01 X0.23667 Y0.12045
G01 X0.29865 Y0.10384
G01 X0.31148 Y0.10132
G01 X0.32456 Y0.10046
G01 X99.67554 Y0.10046
G01 X99.68860 Y0.10132
G01 X99.70140 Y0.10384
G01 X99.76340 Y0.12045
G01 X99.77978 Y0.12639
G01 X99.79489 Y0.13515
G01 X99.80823 Y0.14633
G01 X99.85367 Y0.19177
G01 X99.86485 Y0.20511
G01 X99.87361 Y0.22022
G01 X99.87955 Y0.23660
G01 X99.89616 Y0.29860
G01 X99.89868 Y0.31140
G01 X99.89954 Y0.32446
G04 P0 ( dwell for no time -- G64 should not smooth over this point )
G00 Z5.00000 ( retract )

G00 X95.75480 Y3.25994 ( rapid move to begin. )
G01 F250.00000
( Mill infeed pass 1/1 )
G01 Z-0.05000
G04 P0 ( dwell for no time -- G64 should not smooth over this point )
G01 F500.00000
G01 X95.75480 Y3.25994
G01 X95.73575 Y3.47779
G01 X95.67916 Y3.68915
G01 X95.59808 Y3.86296
G01 X95.37138 Y3.63637
G01 X95.37349 Y3.63235
G01 X95.37771 Y3.62354
G01 X95.38101 Y3.61429
G01 X95.42942 Y3.45478
G01 X95.43321 Y3.43555
G01 X95.44954 Y3.26979
G01 X95.45005 Y3.25994
G01 X95.44954 Y3.25013
G01 X95.43321 Y3.08430
G01 X95.43176 Y3.07464
G01 X95.42942 Y3.06512
G01 X95.38101 Y2.90563
G01 X95.37771 Y2.89639
G01 X95.37349 Y2.88755
G01 X95.37138 Y2.88359
G01 X95.59808 Y2.65694
G01 X95.67916 Y2.83080
G01 X95.73575 Y3.04203
G01 X95.75480 Y3.25994
G01 X95.65480 Y3.25994
G01 X95.65447 Y3.25994
G01 X95.63689 Y3.05951
G01 X95.63745 Y3.05940
G01 X95.63689 Y3.05951
G01 X95.58479 Y2.86509
G01 X95.56778 Y2.82862
G01 X95.59104 Y2.73637
G01 X95.56778 Y2.82862
G01 X95.48672 Y2.90967
G01 X95.47090 Y2.90561
G01 X95.48672 Y2.90967
G01 X95.52508 Y3.03606
G01 X95.52983 Y3.05509
G01 X95.53272 Y3.07457
G01 X95.54906 Y3.24033
G01 X95.54906 Y3.27960
G01 X95.53272 Y3.44536
G01 X95.52983 Y3.46484
G01 X95.52508 Y3.48386
G01 X95.48672 Y3.61028
G01 X95.47090 Y3.61429
G01 X95.48672 Y3.61028
G01 X95.56778 Y3.69133
G01 X95.59107 Y3.78353
G01 X95.56778 Y3.69133
G01 X95.58479 Y3.65476
G01 X95.63689 Y3.46037
G01 X95.63745 Y3.46052
G01 X95.63689 Y3.46037
G01 X95.65447 Y3.25994
G04 P0 ( dwell for no time -- G64 should not smooth over this point )
G00 Z5.00000 ( retract )

G00 X95.10311 Y2.16190 ( rapid move to begin. )
G01 F250.00000
( Mill infeed pass 1/1 )
G01 Z-0.05000
G04 P0 ( dwell for no time -- G64 should not smooth over this point )
G01 F500.00000
G01 X95.10311 Y2.16190
G01 X94.92919 Y2.08082
G01 X94.71792 Y2.02425
G01 X94.50004 Y2.00520
G01 X94.28216 Y2.02425
G01 X94.07090 Y2.08082
G01 X93.89704 Y2.16190
G01 X94.12363 Y2.38857
G01 X94.12760 Y2.38646
G01 X94.14576 Y2.37894
G01 X94.30522 Y2.33063
G01 X94.32440 Y2.32679
G01 X94.49021 Y2.31046
G01 X94.50001 Y2.30993
G01 X94.50982 Y2.31046
G01 X94.67565 Y2.32679
G01 X94.69493 Y2.33063
G01 X94.85437 Y2.37894
G01 X94.86356 Y2.38224
G01 X94.87248 Y2.38646
G01 X94.87641 Y2.38857
G01 X95.10311 Y2.16190
G01 X95.02358 Y2.16891
G01 X94.93138 Y2.19217
G01 X94.89485 Y2.17521
G01 X94.70054 Y2.12306
G01 X94.70065 Y2.12260
G01 X94.70054 Y2.12306
G01 X94.50004 Y2.10553
G01 X94.50004 Y2.10515
G01 X94.50004 Y2.10553
G01 X94.29960 Y2.12306
G01 X94.29953 Y2.12260
G01 X94.29960 Y2.12306
G01 X94.10519 Y2.17521
G01 X94.06867 Y2.19217
G01 X93.97652 Y2.16888
G01 X94.06867 Y2.19217
G01 X94.14972 Y2.27322
G01 X94.14576 Y2.28910
G01 X94.14972 Y2.27322
G01 X94.27619 Y2.23487
G01 X94.29521 Y2.23017
G01 X94.31459 Y2.22728
G01 X94.48040 Y2.21089
G01 X94.50001 Y2.20998
G01 X94.51962 Y2.21089
G01 X94.68543 Y2.22728
G01 X94.70491 Y2.23017
G01 X94.72394 Y2.23487
G01 X94.85033 Y2.27322
G01 X94.85439 Y2.28910
G01 X94.85033 Y2.27322
G01 X94.93138 Y2.19217
G04 P0 ( dwell for no time -- G64 should not smooth over this point )
G00 Z5.00000 ( retract )

G00 X93.01005 Y3.25994 ( rapid move to begin. )
G01 F250.00000
( Mill infeed pass 1/1 )
G01 Z-0.05000
G04 P0 ( dwell for no time -- G64 should not smooth over this point )
G01 F500.00000
G01 X93.01005 Y3.25994
G01 X93.00908 Y3.27960
G01 X92.99275 Y3.44536
G01 X92.98510 Y3.48386
G01 X92.93669 Y3.64333
G01 X92.92171 Y3.67949
G01 X92.84314 Y3.82651
G01 X92.83496 Y3.84010
G01 X92.82961 Y3.84795
G01 X92.82138 Y3.85910
G01 X92.71566 Y3.98790
G01 X92.68795 Y4.01561
G01 X92.55915 Y4.12133
G01 X92.54817 Y4.12940
G01 X92.54012 Y4.13494
G01 X92.52653 Y4.14312
G01 X92.37959 Y4.22161
G01 X92.34335 Y4.23667
G01 X92.18389 Y4.28498
G01 X92.16486 Y4.28981
G01 X92.14546 Y4.29265
G01 X91.97962 Y4.30898
G01 X91.96001 Y4.31000
G01 X91.94040 Y4.30898
G01 X91.77462 Y4.29265
G01 X91.75519 Y4.28981
G01 X91.73616 Y4.28498
G01 X91.57667 Y4.23667
G01 X91.54048 Y4.22161
G01 X91.39349 Y4.14312
G01 X91.36093 Y4.12133
G01 X91.23210 Y4.01561
G01 X91.21754 Y4.00240
G01 X91.20436 Y3.98790
G01 X91.09870 Y3.85910
G01 X91.08696 Y3.84332
G01 X91.07688 Y3.82651
G01 X90.99837 Y3.67949
G01 X90.98993 Y3.66177
G01 X90.98336 Y3.64333
G01 X90.93497 Y3.48386
G01 X90.92732 Y3.44536
G01 X90.91099 Y3.27960
G01 X90.91000 Y3.25994
G01 X90.91099 Y3.24033
G01 X90.92732 Y3.07457
G01 X90.93497 Y3.03606
G01 X90.98336 Y2.87663
G01 X90.98993 Y2.85816
G01 X90.99837 Y2.84038
G01 X91.07688 Y2.69342
G01 X91.08506 Y2.67985
G01 X91.09049 Y2.67188
G01 X91.09870 Y2.66088
G01 X91.20436 Y2.53202
G01 X91.23210 Y2.50434
G01 X91.36093 Y2.39862
G01 X91.37205 Y2.39032
G01 X91.37980 Y2.38501
G01 X91.39349 Y2.37683
G01 X91.54048 Y2.29824
G01 X91.57667 Y2.28331
G01 X91.73616 Y2.23487
G01 X91.75519 Y2.23017
G01 X91.77462 Y2.22728
G01 X91.94040 Y2.21089
G01 X91.96001 Y2.20998
G01 X91.97962 Y2.21089
G01 X92.14546 Y2.22728
G01 X92.16486 Y2.23017
G01 X92.18389 Y2.23487
G01 X92.34335 Y2.28331
G01 X92.37959 Y2.29824
G01 X92.52653 Y2.37683
G01 X92.54043 Y2.38516
G01 X92.54772 Y2.39017
G01 X92.55915 Y2.39862
G01 X92.68795 Y2.50434
G01 X92.71566 Y2.53202
G01 X92.82138 Y2.66088
G01 X92.82981 Y2.67221
G01 X92.83486 Y2.67960
G01 X92.84314 Y2.69342
G01 X92.92171 Y2.84038
G01 X92.93009 Y2.85816
G01 X92.93669 Y2.87663
G01 X92.98510 Y3.03606
G01 X92.99275 Y3.07457
G01 X93.00908 Y3.24033
G01 X93.01005 Y3.25994
G01 X92.91002 Y3.25994
G01 X92.90954 Y3.26979
G01 X92.89321 Y3.43555
G01 X92.88942 Y3.45478
G01 X92.84104 Y3.61429
G01 X92.83771 Y3.62354
G01 X92.83349 Y3.63235
G01 X92.75498 Y3.77937
G01 X92.74993 Y3.78777
G01 X92.74406 Y3.79565
G01 X92.63834 Y3.92448
G01 X92.62450 Y3.93827
G01 X92.49570 Y4.04398
G01 X92.48780 Y4.04988
G01 X92.47942 Y4.05493
G01 X92.33243 Y4.13342
G01 X92.31432 Y4.14099
G01 X92.15491 Y4.18930
G01 X92.14535 Y4.19174
G01 X92.13565 Y4.19318
G01 X91.96982 Y4.20947
G01 X91.95021 Y4.20947
G01 X91.78442 Y4.19318
G01 X91.77467 Y4.19174
G01 X91.76519 Y4.18930
G01 X91.60571 Y4.14099
G01 X91.58760 Y4.13342
G01 X91.44066 Y4.05493
G01 X91.42438 Y4.04398
G01 X91.29552 Y3.93827
G01 X91.28168 Y3.92448
G01 X91.17596 Y3.79565
G01 X91.16509 Y3.77937
G01 X91.08653 Y3.63235
G01 X91.08236 Y3.62354
G01 X91.07904 Y3.61429
G01 X91.03068 Y3.45478
G01 X91.02681 Y3.43555
G01 X91.01048 Y3.26979
G01 X91.01000 Y3.25994
G01 X91.01048 Y3.25013
G01 X91.02681 Y3.08430
G01 X91.03068 Y3.06512
G01 X91.07904 Y2.90563
G01 X91.08236 Y2.89639
G01 X91.08653 Y2.88755
G01 X91.16509 Y2.74058
G01 X91.17012 Y2.73215
G01 X91.17596 Y2.72430
G01 X91.28168 Y2.59545
G01 X91.29552 Y2.58161
G01 X91.42438 Y2.47589
G01 X91.43222 Y2.47010
G01 X91.44066 Y2.46499
G01 X91.58760 Y2.38646
G01 X91.60571 Y2.37894
G01 X91.76519 Y2.33063
G01 X91.77467 Y2.32819
G01 X91.78442 Y2.32679
G01 X91.95021 Y2.31046
G01 X91.96982 Y2.31046
G01 X92.13565 Y2.32679
G01 X92.14535 Y2.32819
G01 X92.15491 Y2.33063
G01 X92.31432 Y2.37894
G01 X92.33243 Y2.38646
G01 X92.47942 Y2.46499
G01 X92.48780 Y2.47010
G01 X92.49570 Y2.47589
G01 X92.62450 Y2.58161
G01 X92.63834 Y2.59545
G01 X92.74406 Y2.72430
G01 X92.74993 Y2.73215
G01 X92.75498 Y2.74058
G01 X92.83349 Y2.88755
G01 X92.83771 Y2.89639
G01 X92.84104 Y2.90563
G01 X92.88942 Y3.06512
G01 X92.89321 Y3.08430
G01 X92.90954 Y3.25013
G01 X92.91002 Y3.25994
G04 P0 ( dwell for no time -- G64 should not smooth over this point )
G00 Z5.00000 ( retract )

G00 X94.97443 Y4.37078 ( rapid move to begin. )
G01 F250.00000
( Mill infeed pass 1/1 )
G01 Z-0.05000
G04 P0 ( dwell for no time -- G64 should not smooth over this point )
G01 F500.00000
G01 X94.97443 Y4.37078
G01 X94.96194 Y4.39486
G01 X94.95185 Y4.42519
G01 X94.93786 Y4.48244
G01 X94.93278 Y4.51401
G01 X94.93278 Y4.54589
G01 X94.93786 Y4.57744
G01 X94.95185 Y4.63466
G01 X94.96194 Y4.66501
G01 X94.97443 Y4.68912
G01 X94.98843 Y4.69308
G01 X94.97443 Y4.68912
G01 X94.85033 Y4.81327
G01 X94.85439 Y4.82910
G01 X94.85033 Y4.81327
G01 X94.72394 Y4.77487
G01 X94.70491 Y4.77012
G01 X94.68543 Y4.76722
G01 X94.51962 Y4.75089
G01 X94.50001 Y4.74998
G01 X94.48040 Y4.75089
G01 X94.31459 Y4.76722
G01 X94.29521 Y4.77012
G01 X94.27619 Y4.77487
G01 X94.14972 Y4.81327
G01 X94.14576 Y4.82910
G01 X94.14972 Y4.81327
G01 X94.02562 Y4.68912
G01 X94.00992 Y4.69313
G01 X94.02562 Y4.68912
G01 X94.03814 Y4.66507
G01 X94.04820 Y4.63474
G01 X94.06222 Y4.57749
G01 X94.06730 Y4.54591
G01 X94.06730 Y4.51399
G01 X94.06222 Y4.48236
G01 X94.04820 Y4.42516
G01 X94.03814 Y4.39484
G01 X94.02562 Y4.37078
G01 X94.01162 Y4.36677
G01 X94.02562 Y4.37078
G01 X94.14972 Y4.24670
G01 X94.14573 Y4.23134
G01 X94.14972 Y4.24670
G01 X94.27619 Y4.28498
G01 X94.31459 Y4.29265
G01 X94.48040 Y4.30898
G01 X94.51962 Y4.30898
G01 X94.68543 Y4.29265
G01 X94.70491 Y4.28981
G01 X94.72394 Y4.28498
G01 X94.85033 Y4.24668
G01 X94.85439 Y4.23078
G01 X94.85033 Y4.24668
G01 X94.97443 Y4.37078
G01 X94.99015 Y4.36672
G01 X95.10880 Y4.36367
G01 X95.07093 Y4.40680
G01 X95.06143 Y4.41957
G01 X95.05401 Y4.43375
G01 X95.04898 Y4.44899
G01 X95.03499 Y4.50624
G01 X95.03250 Y4.52194
G01 X95.03250 Y4.53796
G01 X95.03499 Y4.55366
G01 X95.04898 Y4.61096
G01 X95.05401 Y4.62610
G01 X95.06143 Y4.64028
G01 X95.07093 Y4.65310
G01 X95.10880 Y4.69628
G01 X94.87641 Y4.92857
G01 X94.87248 Y4.92646
G01 X94.85437 Y4.91894
G01 X94.69493 Y4.87063
G01 X94.67565 Y4.86674
G01 X94.50982 Y4.85041
G01 X94.50001 Y4.84998
G01 X94.49021 Y4.85041
G01 X94.32440 Y4.86674
G01 X94.30522 Y4.87063
G01 X94.14576 Y4.91894
G01 X94.12760 Y4.92646
G01 X94.12363 Y4.92857
G01 X93.89135 Y4.69628
G01 X93.92912 Y4.65310
G01 X93.93867 Y4.64030
G01 X93.94604 Y4.62613
G01 X93.95112 Y4.61101
G01 X93.96509 Y4.55371
G01 X93.96763 Y4.53796
G01 X93.96763 Y4.52194
G01 X93.96509 Y4.50619
G01 X93.95112 Y4.44894
G01 X93.94604 Y4.43372
G01 X93.93867 Y4.41955
G01 X93.92912 Y4.40680
G01 X93.89135 Y4.36367
G01 X94.12363 Y4.13131
G01 X94.12760 Y4.13342
G01 X94.13651 Y4.13763
G01 X94.14576 Y4.14099
G01 X94.30522 Y4.18930
G01 X94.32440 Y4.19318
G01 X94.49021 Y4.20947
G01 X94.50001 Y4.21000
G01 X94.50982 Y4.20947
G01 X94.67565 Y4.19318
G01 X94.69493 Y4.18930
G01 X94.85437 Y4.14099
G01 X94.86356 Y4.13763
G01 X94.87248 Y4.13342
G01 X94.87641 Y4.13128
G01 X95.10880 Y4.36367
G04 P0 ( dwell for no time -- G64 should not smooth over this point )
G00 Z5.00000 ( retract )

G00 X95.65447 Y5.79991 ( rapid move to begin. )
G01 F250.00000
( Mill infeed pass 1/1 )
G01 Z-0.05000
G04 P0 ( dwell for no time -- G64 should not smooth over this point )
G01 F500.00000
G01 X95.65447 Y5.79991
G01 X95.63689 Y5.59951
G01 X95.63745 Y5.59940
G01 X95.63689 Y5.59951
G01 X95.58479 Y5.40509
G01 X95.56778 Y5.36857
G01 X95.59104 Y5.27642
G01 X95.56778 Y5.36857
G01 X95.48672 Y5.44962
G01 X95.47090 Y5.44566
G01 X95.48672 Y5.44962
G01 X95.52508 Y5.57611
G01 X95.52983 Y5.59514
G01 X95.53272 Y5.61452
G01 X95.54906 Y5.78033
G01 X95.55007 Y5.79994
G01 X95.54906 Y5.81955
G01 X95.53272 Y5.98536
G01 X95.52983 Y6.00484
G01 X95.52508 Y6.02386
G01 X95.48672 Y6.15023
G01 X95.47090 Y6.15429
G01 X95.48672 Y6.15023
G01 X95.56778 Y6.23128
G01 X95.59107 Y6.32353
G01 X95.56778 Y6.23128
G01 X95.58479 Y6.19476
G01 X95.63689 Y6.00042
G01 X95.63745 Y6.00052
G01 X95.63689 Y6.00042
G01 X95.65447 Y5.79991
G01 X95.65480 Y5.79991
G01 X95.75480 Y5.79991
G01 X95.73575 Y5.58203
G01 X95.67916 Y5.37075
G01 X95.59808 Y5.19694
G01 X95.37138 Y5.42353
G01 X95.37349 Y5.42757
G01 X95.38101 Y5.44568
G01 X95.42942 Y5.60512
G01 X95.43321 Y5.62430
G01 X95.44954 Y5.79013
G01 X95.45005 Y5.79994
G01 X95.44954 Y5.80974
G01 X95.43321 Y5.97555
G01 X95.42942 Y5.99483
G01 X95.38101 Y6.15429
G01 X95.37771 Y6.16354
G01 X95.37349 Y6.17240
G01 X95.37138 Y6.17631
G01 X95.59808 Y6.40301
G01 X95.67916 Y6.22910
G01 X95.73575 Y6.01779
G01 X95.75480 Y5.79991
G04 P0 ( dwell for no time -- G64 should not smooth over this point )
G00 Z5.00000 ( retract )

G00 X94.93138 Y6.86770 ( rapid move to begin. )
G01 F250.00000
( Mill infeed pass 1/1 )
G01 Z-0.05000
G04 P0 ( dwell for no time -- G64 should not smooth over this point )
G01 F500.00000
G01 X94.93138 Y6.86770
G01 X94.85033 Y6.78665
G01 X94.85439 Y6.77083
G01 X94.85033 Y6.78665
G01 X94.72394 Y6.82501
G01 X94.70491 Y6.82981
G01 X94.68543 Y6.83270
G01 X94.51962 Y6.84903
G01 X94.50001 Y6.85000
G01 X94.48040 Y6.84903
G01 X94.31459 Y6.83270
G01 X94.27619 Y6.82501
G01 X94.14972 Y6.78670
G01 X94.14573 Y6.77136
G01 X94.14972 Y6.78670
G01 X94.06867 Y6.86770
G01 X93.97652 Y6.89099
G01 X94.06867 Y6.86770
G01 X94.10519 Y6.88472
G01 X94.29960 Y6.93684
G01 X94.29953 Y6.93732
G01 X94.29960 Y6.93684
G01 X94.50004 Y6.95434
G01 X94.50004 Y6.95475
G01 X94.50004 Y6.95434
G01 X94.70054 Y6.93684
G01 X94.70065 Y6.93732
G01 X94.70054 Y6.93684
G01 X94.89485 Y6.88472
G01 X94.93138 Y6.86770
G01 X95.02358 Y6.89099
G01 X95.10311 Y6.89800
G01 X94.87641 Y6.67134
G01 X94.87248 Y6.67344
G01 X94.85437 Y6.68099
G01 X94.69493 Y6.72932
G01 X94.68535 Y6.73174
G01 X94.67565 Y6.73316
G01 X94.50982 Y6.74949
G01 X94.50001 Y6.74997
G01 X94.49021 Y6.74949
G01 X94.32440 Y6.73316
G01 X94.30522 Y6.72932
G01 X94.14576 Y6.68099
G01 X94.13651 Y6.67766
G01 X94.12760 Y6.67344
G01 X94.12363 Y6.67134
G01 X93.89704 Y6.89800
G01 X94.07090 Y6.97906
G01 X94.28216 Y7.03570
G01 X94.50004 Y7.05472
G01 X94.71792 Y7.03570
G01 X94.92919 Y6.97906
G01 X95.10311 Y6.89800
G04 P0 ( dwell for no time -- G64 should not smooth over this point )
G00 Z5.00000 ( retract )

G00 X97.60412 Y10.06145 ( rapid move to begin. )
G01 F250.00000
( Mill infeed pass 1/1 )
G01 Z-0.05000
G04 P0 ( dwell for no time -- G64 should not smooth over this point )
G01 F500.00000
G01 X97.60412 Y10.06145
G01 X97.57593 Y10.30557
G01 X97.51075 Y10.54255
G01 X97.41029 Y10.76678
G01 X97.27669 Y10.97310
G01 X97.11316 Y11.15654
G01 X96.92353 Y11.31291
G01 X96.71233 Y11.43848
G01 X96.48436 Y11.53038
G01 X96.24512 Y11.58636
G01 X96.06137 Y11.60043
G01 X95.87720 Y11.60043
G01 X95.63427 Y11.56297
G01 X95.40001 Y11.48880
G01 X95.17977 Y11.37973
G01 X94.97872 Y11.23838
G01 X94.80164 Y11.06795
G01 X94.65272 Y10.87250
G01 X94.53527 Y10.65660
G01 X94.45221 Y10.42530
G01 X94.40540 Y10.18408
G01 X94.39605 Y9.93846
G01 X94.42424 Y9.69432
G01 X94.48932 Y9.45739
G01 X94.58988 Y9.23313
G01 X94.72343 Y9.02683
G01 X94.88693 Y8.84339
G01 X95.07651 Y8.68703
G01 X95.28782 Y8.56140
G01 X95.51571 Y8.46958
G01 X95.75503 Y8.41357
G01 X95.93867 Y8.39945
G01 X96.12294 Y8.39945
G01 X96.36579 Y8.43697
G01 X96.60006 Y8.51111
G01 X96.82038 Y8.62020
G01 X96.86617 Y8.65241
G01 X97.02132 Y8.76153
G01 X97.19846 Y8.93196
G01 X97.34743 Y9.12744
G01 X97.46483 Y9.34334
G01 X97.54786 Y9.57463
G01 X97.59465 Y9.81588
G01 X97.60412 Y10.06145
G01 X97.50415 Y10.05761
G01 X97.50384 Y10.05761
G01 X97.49500 Y9.82736
G01 X97.49531 Y9.82736
G01 X97.49500 Y9.82736
G01 X97.45116 Y9.60120
G01 X97.45149 Y9.60112
G01 X97.45116 Y9.60120
G01 X97.37326 Y9.38433
G01 X97.37359 Y9.38423
G01 X97.37326 Y9.38433
G01 X97.26325 Y9.18192
G01 X97.26345 Y9.18177
G01 X97.26325 Y9.18192
G01 X97.12353 Y8.99869
G01 X97.12375 Y8.99848
G01 X97.12353 Y8.99869
G01 X96.95751 Y8.83895
G01 X96.95771 Y8.83869
G01 X96.95751 Y8.83895
G01 X96.80874 Y8.73402
G01 X96.76907 Y8.70641
G01 X96.56257 Y8.60412
G01 X96.56274 Y8.60377
G01 X96.56257 Y8.60412
G01 X96.34298 Y8.53463
G01 X96.34306 Y8.53435
G01 X96.34298 Y8.53463
G01 X96.11527 Y8.49948
G01 X96.11530 Y8.49899
G01 X96.11527 Y8.49948
G01 X95.94255 Y8.49948
G01 X95.77029 Y8.51268
G01 X95.77024 Y8.51223
G01 X95.77029 Y8.51268
G01 X95.54596 Y8.56518
G01 X95.54591 Y8.56493
G01 X95.54596 Y8.56518
G01 X95.33232 Y8.65129
G01 X95.33217 Y8.65104
G01 X95.33232 Y8.65129
G01 X95.13425 Y8.76907
G01 X95.13410 Y8.76882
G01 X95.13425 Y8.76907
G01 X94.95653 Y8.91563
G01 X94.95632 Y8.91543
G01 X94.95653 Y8.91563
G01 X94.80319 Y9.08764
G01 X94.80296 Y9.08748
G01 X94.80319 Y9.08764
G01 X94.67799 Y9.28103
G01 X94.67768 Y9.28088
G01 X94.67799 Y9.28103
G01 X94.58370 Y9.49127
G01 X94.58348 Y9.49117
G01 X94.58370 Y9.49127
G01 X94.52264 Y9.71344
G01 X94.52236 Y9.71339
G01 X94.52264 Y9.71344
G01 X94.49628 Y9.94232
G01 X94.49597 Y9.94232
G01 X94.49628 Y9.94232
G01 X94.50504 Y10.17255
G01 X94.50474 Y10.17260
G01 X94.50504 Y10.17255
G01 X94.54896 Y10.39873
G01 X94.54863 Y10.39884
G01 X94.54896 Y10.39873
G01 X94.62678 Y10.61560
G01 X94.62655 Y10.61570
G01 X94.62678 Y10.61560
G01 X94.73684 Y10.81801
G01 X94.73664 Y10.81816
G01 X94.73684 Y10.81801
G01 X94.87652 Y11.00120
G01 X94.87631 Y11.00140
G01 X94.87652 Y11.00120
G01 X95.04258 Y11.16101
G01 X95.04240 Y11.16124
G01 X95.04258 Y11.16101
G01 X95.23097 Y11.29355
G01 X95.23082 Y11.29378
G01 X95.23097 Y11.29355
G01 X95.43745 Y11.39579
G01 X95.43737 Y11.39607
G01 X95.43745 Y11.39579
G01 X95.65718 Y11.46531
G01 X95.65711 Y11.46556
G01 X95.65718 Y11.46531
G01 X95.88487 Y11.50046
G01 X95.88484 Y11.50094
G01 X95.88487 Y11.50046
G01 X96.05759 Y11.50046
G01 X96.22975 Y11.48723
G01 X96.22983 Y11.48771
G01 X96.22975 Y11.48723
G01 X96.45411 Y11.43475
G01 X96.45419 Y11.43500
G01 X96.45411 Y11.43475
G01 X96.66777 Y11.34862
G01 X96.66795 Y11.34890
G01 X96.66777 Y11.34862
G01 X96.86582 Y11.23089
G01 X96.86605 Y11.23112
G01 X96.86582 Y11.23089
G01 X97.04362 Y11.08428
G01 X97.04377 Y11.08451
G01 X97.04362 Y11.08428
G01 X97.19693 Y10.91227
G01 X97.19711 Y10.91245
G01 X97.19693 Y10.91227
G01 X97.32215 Y10.71888
G01 X97.32243 Y10.71903
G01 X97.32215 Y10.71888
G01 X97.41636 Y10.50867
G01 X97.41664 Y10.50877
G01 X97.41636 Y10.50867
G01 X97.47748 Y10.28649
G01 X97.47770 Y10.28654
G01 X97.47748 Y10.28649
G01 X97.50384 Y10.05761
G04 P0 ( dwell for no time -- G64 should not smooth over this point )
G00 Z5.00000 ( retract )

G00 X93.01005 Y5.79994 ( rapid move to begin. )
G01 F250.00000
( Mill infeed pass 1/1 )
G01 Z-0.05000
G04 P0 ( dwell for no time -- G64 should not smooth over this point )
G01 F500.00000
G01 X93.01005 Y5.79994
G01 X93.00908 Y5.81955
G01 X92.99275 Y5.98536
G01 X92.98510 Y6.02386
G01 X92.93669 Y6.18327
G01 X92.92171 Y6.21949
G01 X92.84314 Y6.36648
G01 X92.83496 Y6.38012
G01 X92.82961 Y6.38797
G01 X92.82138 Y6.39910
G01 X92.71566 Y6.52790
G01 X92.70728 Y6.53712
G01 X92.69717 Y6.54723
G01 X92.68795 Y6.55561
G01 X92.55915 Y6.66133
G01 X92.54812 Y6.66951
G01 X92.54012 Y6.67497
G01 X92.52653 Y6.68310
G01 X92.37959 Y6.76166
G01 X92.34335 Y6.77664
G01 X92.18389 Y6.82501
G01 X92.16486 Y6.82981
G01 X92.14546 Y6.83270
G01 X91.97962 Y6.84903
G01 X91.96001 Y6.85000
G01 X91.94040 Y6.84903
G01 X91.77462 Y6.83270
G01 X91.73616 Y6.82501
G01 X91.57667 Y6.77664
G01 X91.55818 Y6.77004
G01 X91.54048 Y6.76166
G01 X91.39349 Y6.68310
G01 X91.36093 Y6.66133
G01 X91.23210 Y6.55561
G01 X91.22313 Y6.54746
G01 X91.21254 Y6.53687
G01 X91.20436 Y6.52790
G01 X91.09870 Y6.39910
G01 X91.07688 Y6.36648
G01 X90.99837 Y6.21949
G01 X90.98993 Y6.20177
G01 X90.98336 Y6.18327
G01 X90.93497 Y6.02386
G01 X90.92732 Y5.98536
G01 X90.91099 Y5.81955
G01 X90.91000 Y5.79994
G01 X90.91099 Y5.78033
G01 X90.92732 Y5.61452
G01 X90.93497 Y5.57611
G01 X90.98336 Y5.41660
G01 X90.99837 Y5.38038
G01 X91.07688 Y5.23347
G01 X91.08696 Y5.21663
G01 X91.09870 Y5.20083
G01 X91.20436 Y5.07208
G01 X91.23210 Y5.04429
G01 X91.36093 Y4.93857
G01 X91.39349 Y4.91681
G01 X91.54048 Y4.83827
G01 X91.57667 Y4.82331
G01 X91.73616 Y4.77487
G01 X91.75519 Y4.77012
G01 X91.77462 Y4.76722
G01 X91.94040 Y4.75089
G01 X91.96001 Y4.74998
G01 X91.97962 Y4.75089
G01 X92.14546 Y4.76722
G01 X92.16486 Y4.77012
G01 X92.18389 Y4.77487
G01 X92.34335 Y4.82331
G01 X92.37959 Y4.83827
G01 X92.52653 Y4.91681
G01 X92.54043 Y4.92514
G01 X92.54772 Y4.93009
G01 X92.55915 Y4.93857
G01 X92.68795 Y5.04429
G01 X92.71566 Y5.07208
G01 X92.82138 Y5.20083
G01 X92.82981 Y5.21218
G01 X92.83486 Y5.21962
G01 X92.84314 Y5.23347
G01 X92.92171 Y5.38038
G01 X92.93669 Y5.41660
G01 X92.98510 Y5.57611
G01 X92.99275 Y5.61452
G01 X93.00908 Y5.78033
G01 X93.01005 Y5.79994
G01 X92.91002 Y5.79994
G01 X92.90954 Y5.79013
G01 X92.89321 Y5.62430
G01 X92.88942 Y5.60512
G01 X92.84104 Y5.44568
G01 X92.83771 Y5.43644
G01 X92.83349 Y5.42757
G01 X92.75498 Y5.28056
G01 X92.74993 Y5.27220
G01 X92.74406 Y5.26425
G01 X92.63834 Y5.13550
G01 X92.62450 Y5.12166
G01 X92.49570 Y5.01592
G01 X92.48780 Y5.01010
G01 X92.47942 Y5.00504
G01 X92.33243 Y4.92646
G01 X92.31432 Y4.91894
G01 X92.15491 Y4.87063
G01 X92.14535 Y4.86824
G01 X92.13565 Y4.86674
G01 X91.96982 Y4.85041
G01 X91.95021 Y4.85041
G01 X91.78442 Y4.86674
G01 X91.77467 Y4.86824
G01 X91.76519 Y4.87063
G01 X91.60571 Y4.91894
G01 X91.58760 Y4.92646
G01 X91.44066 Y5.00504
G01 X91.42438 Y5.01592
G01 X91.29552 Y5.12166
G01 X91.28168 Y5.13550
G01 X91.17596 Y5.26425
G01 X91.17012 Y5.27220
G01 X91.16509 Y5.28056
G01 X91.08653 Y5.42757
G01 X91.08236 Y5.43644
G01 X91.07904 Y5.44568
G01 X91.03068 Y5.60512
G01 X91.02681 Y5.62430
G01 X91.01048 Y5.79013
G01 X91.01000 Y5.79994
G01 X91.01048 Y5.80974
G01 X91.02681 Y5.97555
G01 X91.03068 Y5.99483
G01 X91.07904 Y6.15429
G01 X91.08236 Y6.16354
G01 X91.08653 Y6.17240
G01 X91.16509 Y6.31932
G01 X91.17596 Y6.33560
G01 X91.28168 Y6.46445
G01 X91.28826 Y6.47172
G01 X91.29552 Y6.47832
G01 X91.42438 Y6.58401
G01 X91.44066 Y6.59493
G01 X91.58760 Y6.67344
G01 X91.59649 Y6.67766
G01 X91.60571 Y6.68099
G01 X91.76519 Y6.72932
G01 X91.78442 Y6.73316
G01 X91.95021 Y6.74949
G01 X91.96001 Y6.74997
G01 X91.96982 Y6.74949
G01 X92.13565 Y6.73316
G01 X92.15491 Y6.72932
G01 X92.31432 Y6.68099
G01 X92.33243 Y6.67344
G01 X92.47942 Y6.59493
G01 X92.48780 Y6.58988
G01 X92.49570 Y6.58401
G01 X92.62450 Y6.47832
G01 X92.63834 Y6.46445
G01 X92.74406 Y6.33560
G01 X92.74993 Y6.32777
G01 X92.75498 Y6.31932
G01 X92.83349 Y6.17240
G01 X92.83771 Y6.16354
G01 X92.84104 Y6.15429
G01 X92.88942 Y5.99483
G01 X92.89321 Y5.97555
G01 X92.90954 Y5.80974
G01 X92.91002 Y5.79994
G04 P0 ( dwell for no time -- G64 should not smooth over this point )
G00 Z5.00000 ( retract )

G00 X90.46906 Y5.78033 ( rapid move to begin. )
G01 F250.00000
( Mill infeed pass 1/1 )
G01 Z-0.05000
G04 P0 ( dwell for no time -- G64 should not smooth over this point )
G01 F500.00000
G01 X90.46906 Y5.78033
G01 X90.46906 Y5.81955
G01 X90.45272 Y5.98536
G01 X90.44983 Y6.00484
G01 X90.44508 Y6.02386
G01 X90.39669 Y6.18327
G01 X90.38173 Y6.21949
G01 X90.30317 Y6.36648
G01 X90.29494 Y6.38018
G01 X90.28968 Y6.38792
G01 X90.28140 Y6.39910
G01 X90.17569 Y6.52790
G01 X90.16730 Y6.53712
G01 X90.15720 Y6.54723
G01 X90.14792 Y6.55561
G01 X90.01912 Y6.66133
G01 X90.00815 Y6.66951
G01 X90.00015 Y6.67497
G01 X89.98656 Y6.68310
G01 X89.83957 Y6.76166
G01 X89.80337 Y6.77664
G01 X89.64389 Y6.82501
G01 X89.62489 Y6.82981
G01 X89.60543 Y6.83270
G01 X89.43965 Y6.84903
G01 X89.42004 Y6.85000
G01 X89.40043 Y6.84903
G01 X89.23459 Y6.83270
G01 X89.19616 Y6.82501
G01 X89.03670 Y6.77664
G01 X89.01821 Y6.77004
G01 X89.00045 Y6.76166
G01 X88.85351 Y6.68310
G01 X88.82090 Y6.66133
G01 X88.69210 Y6.55561
G01 X88.68311 Y6.54746
G01 X88.67251 Y6.53687
G01 X88.66439 Y6.52790
G01 X88.55867 Y6.39910
G01 X88.53690 Y6.36648
G01 X88.45834 Y6.21949
G01 X88.44996 Y6.20177
G01 X88.44336 Y6.18327
G01 X88.39499 Y6.02386
G01 X88.38730 Y5.98536
G01 X88.37097 Y5.81955
G01 X88.37097 Y5.78033
G01 X88.38730 Y5.61452
G01 X88.39019 Y5.59514
G01 X88.39499 Y5.57611
G01 X88.44336 Y5.41660
G01 X88.45834 Y5.38038
G01 X88.53690 Y5.23347
G01 X88.54696 Y5.21663
G01 X88.55867 Y5.20083
G01 X88.66439 Y5.07208
G01 X88.69210 Y5.04429
G01 X88.82090 Y4.93857
G01 X88.85351 Y4.91681
G01 X89.00045 Y4.83827
G01 X89.03670 Y4.82331
G01 X89.19616 Y4.77487
G01 X89.21519 Y4.77012
G01 X89.23459 Y4.76722
G01 X89.40043 Y4.75089
G01 X89.42004 Y4.74998
G01 X89.43965 Y4.75089
G01 X89.60543 Y4.76722
G01 X89.64389 Y4.77487
G01 X89.80337 Y4.82331
G01 X89.82186 Y4.82986
G01 X89.83957 Y4.83827
G01 X89.98656 Y4.91681
G01 X90.01912 Y4.93857
G01 X90.14792 Y5.04429
G01 X90.16250 Y5.05750
G01 X90.17569 Y5.07208
G01 X90.28140 Y5.20083
G01 X90.29309 Y5.21663
G01 X90.30317 Y5.23347
G01 X90.38173 Y5.38038
G01 X90.38524 Y5.38881
G01 X90.39669 Y5.41660
G01 X90.44508 Y5.57611
G01 X90.44983 Y5.59514
G01 X90.45272 Y5.61452
G01 X90.46906 Y5.78033
G01 X90.36956 Y5.79013
G01 X90.35323 Y5.62430
G01 X90.35176 Y5.61459
G01 X90.34937 Y5.60512
G01 X90.30101 Y5.44568
G01 X90.29352 Y5.42757
G01 X90.21495 Y5.28056
G01 X90.20993 Y5.27220
G01 X90.20408 Y5.26425
G01 X90.09837 Y5.13550
G01 X90.08453 Y5.12166
G01 X89.95572 Y5.01592
G01 X89.94782 Y5.01010
G01 X89.93939 Y5.00504
G01 X89.79245 Y4.92646
G01 X89.77434 Y4.91894
G01 X89.61491 Y4.87063
G01 X89.60538 Y4.86824
G01 X89.59568 Y4.86674
G01 X89.42984 Y4.85041
G01 X89.41023 Y4.85041
G01 X89.24440 Y4.86674
G01 X89.23469 Y4.86824
G01 X89.22517 Y4.87063
G01 X89.06573 Y4.91894
G01 X89.04762 Y4.92646
G01 X88.90063 Y5.00504
G01 X88.88435 Y5.01592
G01 X88.75555 Y5.12166
G01 X88.74170 Y5.13550
G01 X88.63599 Y5.26425
G01 X88.63012 Y5.27220
G01 X88.62507 Y5.28056
G01 X88.54656 Y5.42757
G01 X88.53901 Y5.44568
G01 X88.49065 Y5.60512
G01 X88.48826 Y5.61459
G01 X88.48684 Y5.62430
G01 X88.47051 Y5.79013
G01 X88.47051 Y5.80974
G01 X88.48684 Y5.97555
G01 X88.49065 Y5.99483
G01 X88.53901 Y6.15429
G01 X88.54234 Y6.16354
G01 X88.54656 Y6.17240
G01 X88.62507 Y6.31932
G01 X88.63599 Y6.33560
G01 X88.74170 Y6.46445
G01 X88.74828 Y6.47172
G01 X88.75555 Y6.47832
G01 X88.88435 Y6.58401
G01 X88.90063 Y6.59493
G01 X89.04762 Y6.67344
G01 X89.05646 Y6.67766
G01 X89.06573 Y6.68099
G01 X89.22517 Y6.72932
G01 X89.24440 Y6.73316
G01 X89.41023 Y6.74949
G01 X89.42004 Y6.74997
G01 X89.42984 Y6.74949
G01 X89.59568 Y6.73316
G01 X89.61491 Y6.72932
G01 X89.77434 Y6.68099
G01 X89.79245 Y6.67344
G01 X89.93939 Y6.59493
G01 X89.94782 Y6.58988
G01 X89.95572 Y6.58401
G01 X90.08453 Y6.47832
G01 X90.09837 Y6.46445
G01 X90.20408 Y6.33560
G01 X90.20993 Y6.32777
G01 X90.21495 Y6.31932
G01 X90.29352 Y6.17240
G01 X90.30101 Y6.15429
G01 X90.34937 Y5.99483
G01 X90.35176 Y5.98528
G01 X90.35323 Y5.97555
G01 X90.36956 Y5.80974
G01 X90.36956 Y5.79013
G01 X90.38524 Y5.38881
G01 X90.46654 Y3.30533
G01 X90.46906 Y3.24033
G01 X90.45272 Y3.07457
G01 X90.44983 Y3.05509
G01 X90.44508 Y3.03606
G01 X90.39669 Y2.87663
G01 X90.38173 Y2.84038
G01 X90.30317 Y2.69342
G01 X90.29484 Y2.67957
G01 X90.28988 Y2.67226
G01 X90.28140 Y2.66088
G01 X90.17569 Y2.53202
G01 X90.16710 Y2.52260
G01 X90.15740 Y2.51287
G01 X90.14792 Y2.50434
G01 X90.01912 Y2.39862
G01 X89.98656 Y2.37683
G01 X89.83957 Y2.29824
G01 X89.82186 Y2.28986
G01 X89.80337 Y2.28331
G01 X89.64389 Y2.23487
G01 X89.60543 Y2.22728
G01 X89.43965 Y2.21089
G01 X89.42004 Y2.20998
G01 X89.40043 Y2.21089
G01 X89.23459 Y2.22728
G01 X89.21519 Y2.23017
G01 X89.19616 Y2.23487
G01 X89.03670 Y2.28331
G01 X89.00045 Y2.29824
G01 X88.85351 Y2.37683
G01 X88.83982 Y2.38501
G01 X88.83208 Y2.39032
G01 X88.82090 Y2.39862
G01 X88.69210 Y2.50434
G01 X88.66439 Y2.53202
G01 X88.55867 Y2.66088
G01 X88.55049 Y2.67188
G01 X88.54508 Y2.67985
G01 X88.53690 Y2.69342
G01 X88.45834 Y2.84038
G01 X88.44336 Y2.87663
G01 X88.39499 Y3.03606
G01 X88.39019 Y3.05509
G01 X88.38730 Y3.07457
G01 X88.37097 Y3.24033
G01 X88.37097 Y3.27960
G01 X88.38730 Y3.44536
G01 X88.39499 Y3.48386
G01 X88.44336 Y3.64333
G01 X88.44996 Y3.66177
G01 X88.45834 Y3.67949
G01 X88.53690 Y3.82651
G01 X88.54696 Y3.84332
G01 X88.55867 Y3.85910
G01 X88.66439 Y3.98790
G01 X88.67757 Y4.00240
G01 X88.69210 Y4.01561
G01 X88.82090 Y4.12133
G01 X88.85351 Y4.14312
G01 X89.00045 Y4.22161
G01 X89.03670 Y4.23667
G01 X89.19616 Y4.28498
G01 X89.21519 Y4.28981
G01 X89.23459 Y4.29265
G01 X89.40043 Y4.30898
G01 X89.42004 Y4.31000
G01 X89.43965 Y4.30898
G01 X89.60543 Y4.29265
G01 X89.62489 Y4.28981
G01 X89.64389 Y4.28498
G01 X89.80337 Y4.23667
G01 X89.83957 Y4.22161
G01 X89.98656 Y4.14312
G01 X90.00340 Y4.13304
G01 X90.01912 Y4.12133
G01 X90.14792 Y4.01561
G01 X90.17569 Y3.98790
G01 X90.28140 Y3.85910
G01 X90.29309 Y3.84332
G01 X90.30317 Y3.82651
G01 X90.38173 Y3.67949
G01 X90.39669 Y3.64333
G01 X90.44508 Y3.48386
G01 X90.44983 Y3.46484
G01 X90.45272 Y3.44536
G01 X90.46654 Y3.30533
G01 X90.46906 Y3.27960
G01 X90.46906 Y3.24033
G01 X90.36956 Y3.25013
G01 X90.35323 Y3.08430
G01 X90.35176 Y3.07464
G01 X90.34937 Y3.06512
G01 X90.30101 Y2.90563
G01 X90.29352 Y2.88755
G01 X90.21495 Y2.74058
G01 X90.20993 Y2.73215
G01 X90.20408 Y2.72430
G01 X90.09837 Y2.59545
G01 X90.08453 Y2.58161
G01 X89.95572 Y2.47589
G01 X89.94782 Y2.47010
G01 X89.93939 Y2.46499
G01 X89.79245 Y2.38646
G01 X89.77434 Y2.37894
G01 X89.61491 Y2.33063
G01 X89.60538 Y2.32819
G01 X89.59568 Y2.32679
G01 X89.42984 Y2.31046
G01 X89.41023 Y2.31046
G01 X89.24440 Y2.32679
G01 X89.23469 Y2.32819
G01 X89.22517 Y2.33063
G01 X89.06573 Y2.37894
G01 X89.04762 Y2.38646
G01 X88.90063 Y2.46499
G01 X88.89225 Y2.47010
G01 X88.88435 Y2.47589
G01 X88.75555 Y2.58161
G01 X88.74170 Y2.59545
G01 X88.63599 Y2.72430
G01 X88.63012 Y2.73215
G01 X88.62507 Y2.74058
G01 X88.54656 Y2.88755
G01 X88.53901 Y2.90563
G01 X88.49065 Y3.06512
G01 X88.48826 Y3.07464
G01 X88.48684 Y3.08430
G01 X88.47051 Y3.25013
G01 X88.47051 Y3.26979
G01 X88.48684 Y3.43555
G01 X88.49065 Y3.45478
G01 X88.53901 Y3.61429
G01 X88.54234 Y3.62354
G01 X88.54656 Y3.63235
G01 X88.62507 Y3.77937
G01 X88.63599 Y3.79565
G01 X88.74170 Y3.92448
G01 X88.75555 Y3.93827
G01 X88.88435 Y4.04398
G01 X88.90063 Y4.05493
G01 X89.04762 Y4.13342
G01 X89.06573 Y4.14099
G01 X89.22517 Y4.18930
G01 X89.23469 Y4.19174
G01 X89.24440 Y4.19318
G01 X89.41023 Y4.20947
G01 X89.42984 Y4.20947
G01 X89.59568 Y4.19318
G01 X89.60538 Y4.19174
G01 X89.61491 Y4.18930
G01 X89.77434 Y4.14099
G01 X89.79245 Y4.13342
G01 X89.93939 Y4.05493
G01 X89.94782 Y4.04988
G01 X89.95572 Y4.04398
G01 X90.08453 Y3.93827
G01 X90.09837 Y3.92448
G01 X90.20408 Y3.79565
G01 X90.20993 Y3.78777
G01 X90.21495 Y3.77937
G01 X90.29352 Y3.63235
G01 X90.30101 Y3.61429
G01 X90.34937 Y3.45478
G01 X90.35176 Y3.44533
G01 X90.35323 Y3.43555
G01 X90.36956 Y3.26979
G01 X90.36956 Y3.25013
G04 P0 ( dwell for no time -- G64 should not smooth over this point )
G00 Z5.00000 ( retract )

G00 X87.92908 Y5.78033 ( rapid move to begin. )
G01 F250.00000
( Mill infeed pass 1/1 )
G01 Z-0.05000
G04 P0 ( dwell for no time -- G64 should not smooth over this point )
G01 F500.00000
G01 X87.92908 Y5.78033
G01 X87.92908 Y5.81955
G01 X87.91275 Y5.98536
G01 X87.90985 Y6.00484
G01 X87.90510 Y6.02386
G01 X87.85672 Y6.18327
G01 X87.84171 Y6.21949
G01 X87.76314 Y6.36648
G01 X87.75496 Y6.38018
G01 X87.74968 Y6.38792
G01 X87.74138 Y6.39910
G01 X87.63566 Y6.52790
G01 X87.62728 Y6.53712
G01 X87.61720 Y6.54723
G01 X87.60792 Y6.55561
G01 X87.47915 Y6.66133
G01 X87.44656 Y6.68310
G01 X87.29957 Y6.76166
G01 X87.26337 Y6.77664
G01 X87.10394 Y6.82501
G01 X87.06548 Y6.83270
G01 X86.89965 Y6.84903
G01 X86.88004 Y6.85000
G01 X86.86043 Y6.84903
G01 X86.69459 Y6.83270
G01 X86.65616 Y6.82501
G01 X86.49670 Y6.77664
G01 X86.47818 Y6.77004
G01 X86.46050 Y6.76166
G01 X86.31351 Y6.68310
G01 X86.28095 Y6.66133
G01 X86.15210 Y6.55561
G01 X86.14311 Y6.54746
G01 X86.13251 Y6.53687
G01 X86.12436 Y6.52790
G01 X86.01872 Y6.39910
G01 X85.99688 Y6.36648
G01 X85.91839 Y6.21949
G01 X85.90333 Y6.18327
G01 X85.85497 Y6.02386
G01 X85.85024 Y6.00484
G01 X85.84730 Y5.98536
G01 X85.83102 Y5.81955
G01 X85.83005 Y5.79994
G01 X85.83102 Y5.78033
G01 X85.84730 Y5.61452
G01 X85.85024 Y5.59514
G01 X85.85497 Y5.57611
G01 X85.90333 Y5.41660
G01 X85.91839 Y5.38038
G01 X85.99688 Y5.23347
G01 X86.01872 Y5.20083
G01 X86.12436 Y5.07208
G01 X86.13277 Y5.06283
G01 X86.14288 Y5.05267
G01 X86.15210 Y5.04429
G01 X86.28095 Y4.93857
G01 X86.31351 Y4.91681
G01 X86.46050 Y4.83827
G01 X86.47818 Y4.82986
G01 X86.49670 Y4.82331
G01 X86.65616 Y4.77487
G01 X86.69459 Y4.76722
G01 X86.86043 Y4.75089
G01 X86.89965 Y4.75089
G01 X87.06548 Y4.76722
G01 X87.10394 Y4.77487
G01 X87.26337 Y4.82331
G01 X87.28184 Y4.82986
G01 X87.29957 Y4.83827
G01 X87.44656 Y4.91681
G01 X87.47915 Y4.93857
G01 X87.60792 Y5.04429
G01 X87.62248 Y5.05750
G01 X87.63566 Y5.07208
G01 X87.74138 Y5.20083
G01 X87.75306 Y5.21663
G01 X87.76314 Y5.23347
G01 X87.84171 Y5.38038
G01 X87.84521 Y5.38881
G01 X87.85672 Y5.41660
G01 X87.90510 Y5.57611
G01 X87.90985 Y5.59514
G01 X87.91275 Y5.61452
G01 X87.92908 Y5.78033
G01 X87.82954 Y5.79013
G01 X87.81321 Y5.62430
G01 X87.81176 Y5.61459
G01 X87.80940 Y5.60512
G01 X87.76101 Y5.44568
G01 X87.75349 Y5.42757
G01 X87.67495 Y5.28056
G01 X87.66990 Y5.27220
G01 X87.66406 Y5.26425
G01 X87.55834 Y5.13550
G01 X87.54453 Y5.12166
G01 X87.41570 Y5.01592
G01 X87.40782 Y5.01010
G01 X87.39939 Y5.00504
G01 X87.25243 Y4.92646
G01 X87.24359 Y4.92224
G01 X87.23437 Y4.91894
G01 X87.07491 Y4.87063
G01 X87.05568 Y4.86674
G01 X86.88984 Y4.85041
G01 X86.87023 Y4.85041
G01 X86.70440 Y4.86674
G01 X86.68519 Y4.87063
G01 X86.52573 Y4.91894
G01 X86.51651 Y4.92224
G01 X86.50760 Y4.92646
G01 X86.36068 Y5.00504
G01 X86.34440 Y5.01592
G01 X86.21555 Y5.12166
G01 X86.20828 Y5.12818
G01 X86.20173 Y5.13550
G01 X86.09599 Y5.26425
G01 X86.09012 Y5.27220
G01 X86.08512 Y5.28056
G01 X86.00656 Y5.42757
G01 X85.99901 Y5.44568
G01 X85.95068 Y5.60512
G01 X85.94831 Y5.61459
G01 X85.94684 Y5.62430
G01 X85.93048 Y5.79013
G01 X85.93000 Y5.79994
G01 X85.93048 Y5.80974
G01 X85.94684 Y5.97555
G01 X85.94831 Y5.98528
G01 X85.95068 Y5.99483
G01 X85.99901 Y6.15429
G01 X86.00234 Y6.16354
G01 X86.00656 Y6.17240
G01 X86.08512 Y6.31932
G01 X86.09599 Y6.33560
G01 X86.20173 Y6.46445
G01 X86.20828 Y6.47172
G01 X86.21555 Y6.47832
G01 X86.34440 Y6.58401
G01 X86.36068 Y6.59493
G01 X86.50760 Y6.67344
G01 X86.51651 Y6.67766
G01 X86.52573 Y6.68099
G01 X86.68519 Y6.72932
G01 X86.70440 Y6.73316
G01 X86.87023 Y6.74949
G01 X86.88984 Y6.74949
G01 X87.05568 Y6.73316
G01 X87.06538 Y6.73174
G01 X87.07491 Y6.72932
G01 X87.23437 Y6.68099
G01 X87.25243 Y6.67344
G01 X87.39939 Y6.59493
G01 X87.40782 Y6.58988
G01 X87.41570 Y6.58401
G01 X87.54453 Y6.47832
G01 X87.55834 Y6.46445
G01 X87.66406 Y6.33560
G01 X87.66990 Y6.32777
G01 X87.67495 Y6.31932
G01 X87.75349 Y6.17240
G01 X87.76101 Y6.15429
G01 X87.80940 Y5.99483
G01 X87.81176 Y5.98528
G01 X87.81321 Y5.97555
G01 X87.82954 Y5.80974
G01 X87.82954 Y5.79013
G01 X87.84521 Y5.38881
G01 X87.92657 Y3.30535
G01 X87.92908 Y3.24033
G01 X87.91275 Y3.07457
G01 X87.90985 Y3.05509
G01 X87.90510 Y3.03606
G01 X87.85672 Y2.87663
G01 X87.84171 Y2.84038
G01 X87.76314 Y2.69342
G01 X87.75481 Y2.67957
G01 X87.74986 Y2.67226
G01 X87.74138 Y2.66088
G01 X87.63566 Y2.53202
G01 X87.62713 Y2.52260
G01 X87.61742 Y2.51287
G01 X87.60792 Y2.50434
G01 X87.47915 Y2.39862
G01 X87.44656 Y2.37683
G01 X87.29957 Y2.29824
G01 X87.28184 Y2.28986
G01 X87.26337 Y2.28331
G01 X87.10394 Y2.23487
G01 X87.06548 Y2.22728
G01 X86.89965 Y2.21089
G01 X86.86043 Y2.21089
G01 X86.69459 Y2.22728
G01 X86.65616 Y2.23487
G01 X86.49670 Y2.28331
G01 X86.47818 Y2.28986
G01 X86.46050 Y2.29824
G01 X86.31351 Y2.37683
G01 X86.28095 Y2.39862
G01 X86.15210 Y2.50434
G01 X86.14288 Y2.51272
G01 X86.13277 Y2.52278
G01 X86.12436 Y2.53202
G01 X86.01872 Y2.66088
G01 X85.99688 Y2.69342
G01 X85.91839 Y2.84038
G01 X85.90333 Y2.87663
G01 X85.85497 Y3.03606
G01 X85.85024 Y3.05509
G01 X85.84730 Y3.07457
G01 X85.83102 Y3.24033
G01 X85.83005 Y3.25994
G01 X85.83102 Y3.27960
G01 X85.84730 Y3.44536
G01 X85.85024 Y3.46484
G01 X85.85497 Y3.48386
G01 X85.90333 Y3.64333
G01 X85.91839 Y3.67949
G01 X85.99688 Y3.82651
G01 X86.01872 Y3.85910
G01 X86.12436 Y3.98790
G01 X86.13251 Y3.99684
G01 X86.14311 Y4.00743
G01 X86.15210 Y4.01561
G01 X86.28095 Y4.12133
G01 X86.31351 Y4.14312
G01 X86.46050 Y4.22161
G01 X86.47818 Y4.23001
G01 X86.49670 Y4.23667
G01 X86.65616 Y4.28498
G01 X86.69459 Y4.29265
G01 X86.86043 Y4.30898
G01 X86.89965 Y4.30898
G01 X87.06548 Y4.29265
G01 X87.10394 Y4.28498
G01 X87.26337 Y4.23667
G01 X87.28184 Y4.23001
G01 X87.29957 Y4.22161
G01 X87.44656 Y4.14312
G01 X87.46337 Y4.13304
G01 X87.47915 Y4.12133
G01 X87.60792 Y4.01561
G01 X87.63566 Y3.98790
G01 X87.74138 Y3.85910
G01 X87.75306 Y3.84332
G01 X87.76314 Y3.82651
G01 X87.84171 Y3.67949
G01 X87.85672 Y3.64333
G01 X87.90510 Y3.48386
G01 X87.90985 Y3.46484
G01 X87.91275 Y3.44536
G01 X87.92657 Y3.30535
G01 X87.92908 Y3.27960
G01 X87.92908 Y3.24033
G01 X87.82954 Y3.25013
G01 X87.81321 Y3.08430
G01 X87.81176 Y3.07464
G01 X87.80940 Y3.06512
G01 X87.76101 Y2.90563
G01 X87.75349 Y2.88755
G01 X87.67495 Y2.74058
G01 X87.66990 Y2.73215
G01 X87.66406 Y2.72430
G01 X87.55834 Y2.59545
G01 X87.54453 Y2.58161
G01 X87.41570 Y2.47589
G01 X87.40782 Y2.47010
G01 X87.39939 Y2.46499
G01 X87.25243 Y2.38646
G01 X87.24359 Y2.38224
G01 X87.23437 Y2.37894
G01 X87.07491 Y2.33063
G01 X87.05568 Y2.32679
G01 X86.88984 Y2.31046
G01 X86.87023 Y2.31046
G01 X86.70440 Y2.32679
G01 X86.68519 Y2.33063
G01 X86.52573 Y2.37894
G01 X86.51651 Y2.38224
G01 X86.50760 Y2.38646
G01 X86.36068 Y2.46499
G01 X86.34440 Y2.47589
G01 X86.21555 Y2.58161
G01 X86.20828 Y2.58823
G01 X86.20173 Y2.59545
G01 X86.09599 Y2.72430
G01 X86.08512 Y2.74058
G01 X86.00656 Y2.88755
G01 X85.99901 Y2.90563
G01 X85.95068 Y3.06512
G01 X85.94684 Y3.08430
G01 X85.93048 Y3.25013
G01 X85.93000 Y3.25994
G01 X85.93048 Y3.26979
G01 X85.94684 Y3.43555
G01 X85.94831 Y3.44533
G01 X85.95068 Y3.45478
G01 X85.99901 Y3.61429
G01 X86.00234 Y3.62354
G01 X86.00656 Y3.63235
G01 X86.08512 Y3.77937
G01 X86.09599 Y3.79565
G01 X86.20173 Y3.92448
G01 X86.20828 Y3.93172
G01 X86.21555 Y3.93827
G01 X86.34440 Y4.04398
G01 X86.36068 Y4.05493
G01 X86.50760 Y4.13342
G01 X86.51651 Y4.13763
G01 X86.52573 Y4.14099
G01 X86.68519 Y4.18930
G01 X86.70440 Y4.19318
G01 X86.87023 Y4.20947
G01 X86.88984 Y4.20947
G01 X87.05568 Y4.19318
G01 X87.07491 Y4.18930
G01 X87.23437 Y4.14099
G01 X87.25243 Y4.13342
G01 X87.39939 Y4.05493
G01 X87.40782 Y4.04988
G01 X87.41570 Y4.04398
G01 X87.54453 Y3.93827
G01 X87.55834 Y3.92448
G01 X87.66406 Y3.79565
G01 X87.66990 Y3.78777
G01 X87.67495 Y3.77937
G01 X87.75349 Y3.63235
G01 X87.76101 Y3.61429
G01 X87.80940 Y3.45478
G01 X87.81176 Y3.44533
G01 X87.81321 Y3.43555
G01 X87.82954 Y3.26979
G01 X87.82954 Y3.25013
G04 P0 ( dwell for no time -- G64 should not smooth over this point )
G00 Z5.00000 ( retract )

G00 X85.39002 Y3.25994 ( rapid move to begin. )
G01 F250.00000
( Mill infeed pass 1/1 )
G01 Z-0.05000
G04 P0 ( dwell for no time -- G64 should not smooth over this point )
G01 F500.00000
G01 X85.39002 Y3.25994
G01 X85.38906 Y3.27960
G01 X85.37275 Y3.44536
G01 X85.36983 Y3.46484
G01 X85.36510 Y3.48386
G01 X85.31669 Y3.64333
G01 X85.30176 Y3.67949
G01 X85.22314 Y3.82651
G01 X85.20138 Y3.85910
G01 X85.09566 Y3.98790
G01 X85.08738 Y3.99707
G01 X85.07709 Y4.00728
G01 X85.06798 Y4.01561
G01 X84.93912 Y4.12133
G01 X84.90656 Y4.14312
G01 X84.75957 Y4.22161
G01 X84.74189 Y4.23001
G01 X84.72337 Y4.23667
G01 X84.56391 Y4.28498
G01 X84.52546 Y4.29265
G01 X84.35965 Y4.30898
G01 X84.32040 Y4.30898
G01 X84.15459 Y4.29265
G01 X84.11614 Y4.28498
G01 X83.95667 Y4.23667
G01 X83.93818 Y4.23001
G01 X83.92050 Y4.22161
G01 X83.77349 Y4.14312
G01 X83.74093 Y4.12133
G01 X83.61210 Y4.01561
G01 X83.60316 Y4.00743
G01 X83.59257 Y3.99684
G01 X83.58441 Y3.98790
G01 X83.47870 Y3.85910
G01 X83.45693 Y3.82651
G01 X83.37839 Y3.67949
G01 X83.36338 Y3.64333
G01 X83.31497 Y3.48386
G01 X83.31022 Y3.46484
G01 X83.30730 Y3.44536
G01 X83.29102 Y3.27960
G01 X83.29003 Y3.25994
G01 X83.29102 Y3.24033
G01 X83.30730 Y3.07457
G01 X83.31022 Y3.05509
G01 X83.31497 Y3.03606
G01 X83.36338 Y2.87663
G01 X83.37839 Y2.84038
G01 X83.45693 Y2.69342
G01 X83.47870 Y2.66088
G01 X83.58441 Y2.53202
G01 X83.59277 Y2.52278
G01 X83.60285 Y2.51272
G01 X83.61210 Y2.50434
G01 X83.74093 Y2.39862
G01 X83.77349 Y2.37683
G01 X83.92050 Y2.29824
G01 X83.93818 Y2.28986
G01 X83.95667 Y2.28331
G01 X84.11614 Y2.23487
G01 X84.15459 Y2.22728
G01 X84.32040 Y2.21089
G01 X84.35965 Y2.21089
G01 X84.52546 Y2.22728
G01 X84.56391 Y2.23487
G01 X84.72337 Y2.28331
G01 X84.74189 Y2.28986
G01 X84.75957 Y2.29824
G01 X84.90656 Y2.37683
G01 X84.93912 Y2.39862
G01 X85.06798 Y2.50434
G01 X85.07740 Y2.51287
G01 X85.08710 Y2.52260
G01 X85.09566 Y2.53202
G01 X85.20138 Y2.66088
G01 X85.22314 Y2.69342
G01 X85.30176 Y2.84038
G01 X85.31669 Y2.87663
G01 X85.36510 Y3.03606
G01 X85.36983 Y3.05509
G01 X85.37275 Y3.07457
G01 X85.38906 Y3.24033
G01 X85.39002 Y3.25994
G01 X85.29002 Y3.25994
G01 X85.28954 Y3.26979
G01 X85.27323 Y3.43555
G01 X85.27176 Y3.44533
G01 X85.26940 Y3.45478
G01 X85.22106 Y3.61429
G01 X85.21349 Y3.63235
G01 X85.13495 Y3.77937
G01 X85.12995 Y3.78777
G01 X85.12406 Y3.79565
G01 X85.01834 Y3.92448
G01 X85.01179 Y3.93172
G01 X85.00453 Y3.93827
G01 X84.87570 Y4.04398
G01 X84.85939 Y4.05493
G01 X84.71248 Y4.13342
G01 X84.70356 Y4.13763
G01 X84.69434 Y4.14099
G01 X84.53488 Y4.18930
G01 X84.51565 Y4.19318
G01 X84.34984 Y4.20947
G01 X84.33021 Y4.20947
G01 X84.16440 Y4.19318
G01 X84.14517 Y4.18930
G01 X83.98571 Y4.14099
G01 X83.97649 Y4.13763
G01 X83.96760 Y4.13342
G01 X83.82066 Y4.05493
G01 X83.80438 Y4.04398
G01 X83.67552 Y3.93827
G01 X83.66826 Y3.93172
G01 X83.66170 Y3.92448
G01 X83.55599 Y3.79565
G01 X83.54509 Y3.77937
G01 X83.46656 Y3.63235
G01 X83.46234 Y3.62354
G01 X83.45901 Y3.61429
G01 X83.41065 Y3.45478
G01 X83.40829 Y3.44533
G01 X83.40681 Y3.43555
G01 X83.39053 Y3.26979
G01 X83.39005 Y3.25994
G01 X83.39053 Y3.25013
G01 X83.40681 Y3.08430
G01 X83.41065 Y3.06512
G01 X83.45901 Y2.90563
G01 X83.46656 Y2.88755
G01 X83.54509 Y2.74058
G01 X83.55599 Y2.72430
G01 X83.66170 Y2.59545
G01 X83.66826 Y2.58823
G01 X83.67552 Y2.58161
G01 X83.80438 Y2.47589
G01 X83.82066 Y2.46499
G01 X83.96760 Y2.38646
G01 X83.97649 Y2.38224
G01 X83.98571 Y2.37894
G01 X84.14517 Y2.33063
G01 X84.16440 Y2.32679
G01 X84.33021 Y2.31046
G01 X84.34984 Y2.31046
G01 X84.51565 Y2.32679
G01 X84.53488 Y2.33063
G01 X84.69434 Y2.37894
G01 X84.70356 Y2.38224
G01 X84.71248 Y2.38646
G01 X84.85939 Y2.46499
G01 X84.87570 Y2.47589
G01 X85.00453 Y2.58161
G01 X85.01179 Y2.58823
G01 X85.01834 Y2.59545
G01 X85.12406 Y2.72430
G01 X85.13495 Y2.74058
G01 X85.21349 Y2.88755
G01 X85.22106 Y2.90563
G01 X85.26940 Y3.06512
G01 X85.27323 Y3.08430
G01 X85.28954 Y3.25013
G01 X85.29002 Y3.25994
G04 P0 ( dwell for no time -- G64 should not smooth over this point )
G00 Z5.00000 ( retract )

G00 X84.94306 Y6.89800 ( rapid move to begin. )
G01 F250.00000
( Mill infeed pass 1/1 )
G01 Z-0.05000
G04 P0 ( dwell for no time -- G64 should not smooth over this point )
G01 F500.00000
G01 X84.94306 Y6.89800
G01 X84.76919 Y6.97906
G01 X84.55792 Y7.03570
G01 X84.34004 Y7.05472
G01 X84.12216 Y7.03570
G01 X83.91088 Y6.97906
G01 X83.73701 Y6.89800
G01 X83.96363 Y6.67134
G01 X83.96760 Y6.67344
G01 X83.97649 Y6.67766
G01 X83.98571 Y6.68099
G01 X84.14517 Y6.72932
G01 X84.16440 Y6.73316
G01 X84.33021 Y6.74949
G01 X84.34984 Y6.74949
G01 X84.51565 Y6.73316
G01 X84.52538 Y6.73174
G01 X84.53488 Y6.72932
G01 X84.69434 Y6.68099
G01 X84.70356 Y6.67766
G01 X84.71248 Y6.67344
G01 X84.71641 Y6.67134
G01 X84.94306 Y6.89800
G01 X84.86361 Y6.89099
G01 X84.77143 Y6.86770
G01 X84.73485 Y6.88472
G01 X84.54049 Y6.93684
G01 X84.54059 Y6.93732
G01 X84.54049 Y6.93684
G01 X84.34004 Y6.95434
G01 X84.34004 Y6.95475
G01 X84.34004 Y6.95434
G01 X84.13958 Y6.93684
G01 X84.13948 Y6.93732
G01 X84.13958 Y6.93684
G01 X83.94522 Y6.88472
G01 X83.90872 Y6.86770
G01 X83.81647 Y6.89099
G01 X83.90872 Y6.86770
G01 X83.98972 Y6.78670
G01 X83.98571 Y6.77136
G01 X83.98972 Y6.78670
G01 X84.11614 Y6.82501
G01 X84.15459 Y6.83270
G01 X84.32040 Y6.84903
G01 X84.34001 Y6.85000
G01 X84.35965 Y6.84903
G01 X84.52546 Y6.83270
G01 X84.56391 Y6.82501
G01 X84.69033 Y6.78665
G01 X84.69434 Y6.77136
G01 X84.69033 Y6.78665
G01 X84.77143 Y6.86770
G04 P0 ( dwell for no time -- G64 should not smooth over this point )
G00 Z5.00000 ( retract )

G00 X82.85002 Y5.79994 ( rapid move to begin. )
G01 F250.00000
( Mill infeed pass 1/1 )
G01 Z-0.05000
G04 P0 ( dwell for no time -- G64 should not smooth over this point )
G01 F500.00000
G01 X82.85002 Y5.79994
G01 X82.84906 Y5.81955
G01 X82.83275 Y5.98536
G01 X82.82983 Y6.00484
G01 X82.82510 Y6.02386
G01 X82.77674 Y6.18327
G01 X82.76173 Y6.21949
G01 X82.68319 Y6.36648
G01 X82.67496 Y6.38012
G01 X82.66958 Y6.38797
G01 X82.66143 Y6.39910
G01 X82.55571 Y6.52790
G01 X82.54728 Y6.53712
G01 X82.53717 Y6.54723
G01 X82.52795 Y6.55561
G01 X82.39912 Y6.66133
G01 X82.36653 Y6.68310
G01 X82.21957 Y6.76166
G01 X82.18335 Y6.77664
G01 X82.02389 Y6.82501
G01 X81.98546 Y6.83270
G01 X81.81962 Y6.84903
G01 X81.80001 Y6.85000
G01 X81.78040 Y6.84903
G01 X81.61459 Y6.83270
G01 X81.57614 Y6.82501
G01 X81.41667 Y6.77664
G01 X81.39823 Y6.77004
G01 X81.38048 Y6.76166
G01 X81.23349 Y6.68310
G01 X81.20093 Y6.66133
G01 X81.07215 Y6.55561
G01 X81.06313 Y6.54746
G01 X81.05254 Y6.53687
G01 X81.04441 Y6.52790
G01 X80.93870 Y6.39910
G01 X80.91690 Y6.36648
G01 X80.83837 Y6.21949
G01 X80.82336 Y6.18327
G01 X80.77502 Y6.02386
G01 X80.77022 Y6.00484
G01 X80.76730 Y5.98536
G01 X80.75099 Y5.81955
G01 X80.75000 Y5.79994
G01 X80.75099 Y5.78033
G01 X80.76730 Y5.61452
G01 X80.77022 Y5.59514
G01 X80.77502 Y5.57611
G01 X80.82336 Y5.41660
G01 X80.83837 Y5.38038
G01 X80.91690 Y5.23347
G01 X80.93870 Y5.20083
G01 X81.04441 Y5.07208
G01 X81.05754 Y5.05750
G01 X81.07215 Y5.04429
G01 X81.20093 Y4.93857
G01 X81.23349 Y4.91681
G01 X81.38048 Y4.83827
G01 X81.39823 Y4.82986
G01 X81.41667 Y4.82331
G01 X81.57614 Y4.77487
G01 X81.61459 Y4.76722
G01 X81.78040 Y4.75089
G01 X81.81962 Y4.75089
G01 X81.98546 Y4.76722
G01 X82.02389 Y4.77487
G01 X82.18335 Y4.82331
G01 X82.20189 Y4.82986
G01 X82.21957 Y4.83827
G01 X82.36653 Y4.91681
G01 X82.39912 Y4.93857
G01 X82.52795 Y5.04429
G01 X82.53740 Y5.05287
G01 X82.54708 Y5.06255
G01 X82.55571 Y5.07208
G01 X82.66143 Y5.20083
G01 X82.68319 Y5.23347
G01 X82.76173 Y5.38038
G01 X82.77674 Y5.41660
G01 X82.82510 Y5.57611
G01 X82.82983 Y5.59514
G01 X82.83275 Y5.61452
G01 X82.84906 Y5.78033
G01 X82.85002 Y5.79994
G01 X82.75007 Y5.79994
G01 X82.74959 Y5.79013
G01 X82.73321 Y5.62430
G01 X82.73176 Y5.61459
G01 X82.72937 Y5.60512
G01 X82.68104 Y5.44568
G01 X82.67349 Y5.42757
G01 X82.59495 Y5.28056
G01 X82.58993 Y5.27220
G01 X82.58406 Y5.26425
G01 X82.47834 Y5.13550
G01 X82.47176 Y5.12818
G01 X82.46450 Y5.12166
G01 X82.33575 Y5.01592
G01 X82.31939 Y5.00504
G01 X82.17245 Y4.92646
G01 X82.16356 Y4.92224
G01 X82.15432 Y4.91894
G01 X81.99488 Y4.87063
G01 X81.97565 Y4.86674
G01 X81.80982 Y4.85041
G01 X81.79021 Y4.85041
G01 X81.62440 Y4.86674
G01 X81.60517 Y4.87063
G01 X81.44571 Y4.91894
G01 X81.43646 Y4.92224
G01 X81.42765 Y4.92646
G01 X81.28063 Y5.00504
G01 X81.26438 Y5.01592
G01 X81.13552 Y5.12166
G01 X81.12826 Y5.12818
G01 X81.12168 Y5.13550
G01 X81.01596 Y5.26425
G01 X81.01017 Y5.27220
G01 X81.00507 Y5.28056
G01 X80.92653 Y5.42757
G01 X80.91906 Y5.44568
G01 X80.87065 Y5.60512
G01 X80.86826 Y5.61459
G01 X80.86682 Y5.62430
G01 X80.85053 Y5.79013
G01 X80.85003 Y5.79994
G01 X80.85053 Y5.80974
G01 X80.86682 Y5.97555
G01 X80.86826 Y5.98528
G01 X80.87065 Y5.99483
G01 X80.91906 Y6.15429
G01 X80.92234 Y6.16354
G01 X80.92653 Y6.17240
G01 X81.00507 Y6.31932
G01 X81.01596 Y6.33560
G01 X81.12168 Y6.46445
G01 X81.12826 Y6.47172
G01 X81.13552 Y6.47832
G01 X81.26438 Y6.58401
G01 X81.28063 Y6.59493
G01 X81.42765 Y6.67344
G01 X81.43646 Y6.67766
G01 X81.44571 Y6.68099
G01 X81.60517 Y6.72932
G01 X81.62440 Y6.73316
G01 X81.79021 Y6.74949
G01 X81.80982 Y6.74949
G01 X81.97565 Y6.73316
G01 X81.98535 Y6.73174
G01 X81.99488 Y6.72932
G01 X82.15432 Y6.68099
G01 X82.16356 Y6.67766
G01 X82.17245 Y6.67344
G01 X82.31939 Y6.59493
G01 X82.33575 Y6.58401
G01 X82.46450 Y6.47832
G01 X82.47176 Y6.47172
G01 X82.47834 Y6.46445
G01 X82.58406 Y6.33560
G01 X82.58993 Y6.32777
G01 X82.59495 Y6.31932
G01 X82.67349 Y6.17240
G01 X82.68104 Y6.15429
G01 X82.72937 Y5.99483
G01 X82.73176 Y5.98528
G01 X82.73321 Y5.97555
G01 X82.74959 Y5.80974
G01 X82.75007 Y5.79994
G04 P0 ( dwell for no time -- G64 should not smooth over this point )
G00 Z5.00000 ( retract )

G00 X82.85002 Y3.25994 ( rapid move to begin. )
G01 F250.00000
( Mill infeed pass 1/1 )
G01 Z-0.05000
G04 P0 ( dwell for no time -- G64 should not smooth over this point )
G01 F500.00000
G01 X82.85002 Y3.25994
G01 X82.84906 Y3.27960
G01 X82.83275 Y3.44536
G01 X82.82983 Y3.46484
G01 X82.82510 Y3.48386
G01 X82.77674 Y3.64333
G01 X82.76173 Y3.67949
G01 X82.68319 Y3.82651
G01 X82.66143 Y3.85910
G01 X82.55571 Y3.98790
G01 X82.54738 Y3.99707
G01 X82.53709 Y4.00728
G01 X82.52795 Y4.01561
G01 X82.39912 Y4.12133
G01 X82.36653 Y4.14312
G01 X82.21957 Y4.22161
G01 X82.20189 Y4.23001
G01 X82.18335 Y4.23667
G01 X82.02389 Y4.28498
G01 X81.98546 Y4.29265
G01 X81.81962 Y4.30898
G01 X81.78040 Y4.30898
G01 X81.61459 Y4.29265
G01 X81.57614 Y4.28498
G01 X81.41667 Y4.23667
G01 X81.39823 Y4.23001
G01 X81.38048 Y4.22161
G01 X81.23349 Y4.14312
G01 X81.20093 Y4.12133
G01 X81.07215 Y4.01561
G01 X81.05754 Y4.00240
G01 X81.04441 Y3.98790
G01 X80.93870 Y3.85910
G01 X80.91690 Y3.82651
G01 X80.83837 Y3.67949
G01 X80.82336 Y3.64333
G01 X80.77502 Y3.48386
G01 X80.77022 Y3.46484
G01 X80.76730 Y3.44536
G01 X80.75099 Y3.27960
G01 X80.75000 Y3.25994
G01 X80.75099 Y3.24033
G01 X80.76730 Y3.07457
G01 X80.77022 Y3.05509
G01 X80.77502 Y3.03606
G01 X80.82336 Y2.87663
G01 X80.83837 Y2.84038
G01 X80.91690 Y2.69342
G01 X80.93870 Y2.66088
G01 X81.04441 Y2.53202
G01 X81.05274 Y2.52278
G01 X81.06285 Y2.51272
G01 X81.07215 Y2.50434
G01 X81.20093 Y2.39862
G01 X81.23349 Y2.37683
G01 X81.38048 Y2.29824
G01 X81.39823 Y2.28986
G01 X81.41667 Y2.28331
G01 X81.57614 Y2.23487
G01 X81.61459 Y2.22728
G01 X81.78040 Y2.21089
G01 X81.81962 Y2.21089
G01 X81.98546 Y2.22728
G01 X82.02389 Y2.23487
G01 X82.18335 Y2.28331
G01 X82.20189 Y2.28986
G01 X82.21957 Y2.29824
G01 X82.36653 Y2.37683
G01 X82.39912 Y2.39862
G01 X82.52795 Y2.50434
G01 X82.53740 Y2.51287
G01 X82.54708 Y2.52260
G01 X82.55571 Y2.53202
G01 X82.66143 Y2.66088
G01 X82.68319 Y2.69342
G01 X82.76173 Y2.84038
G01 X82.77674 Y2.87663
G01 X82.82510 Y3.03606
G01 X82.82983 Y3.05509
G01 X82.83275 Y3.07457
G01 X82.84906 Y3.24033
G01 X82.85002 Y3.25994
G01 X82.75007 Y3.25994
G01 X82.74959 Y3.26979
G01 X82.73321 Y3.43555
G01 X82.73176 Y3.44533
G01 X82.72937 Y3.45478
G01 X82.68104 Y3.61429
G01 X82.67349 Y3.63235
G01 X82.59495 Y3.77937
G01 X82.58993 Y3.78777
G01 X82.58406 Y3.79565
G01 X82.47834 Y3.92448
G01 X82.47176 Y3.93172
G01 X82.46450 Y3.93827
G01 X82.33575 Y4.04398
G01 X82.31939 Y4.05493
G01 X82.17245 Y4.13342
G01 X82.16356 Y4.13763
G01 X82.15432 Y4.14099
G01 X81.99488 Y4.18930
G01 X81.97565 Y4.19318
G01 X81.80982 Y4.20947
G01 X81.79021 Y4.20947
G01 X81.62440 Y4.19318
G01 X81.60517 Y4.18930
G01 X81.44571 Y4.14099
G01 X81.43646 Y4.13763
G01 X81.42765 Y4.13342
G01 X81.28063 Y4.05493
G01 X81.26438 Y4.04398
G01 X81.13552 Y3.93827
G01 X81.12826 Y3.93172
G01 X81.12168 Y3.92448
G01 X81.01596 Y3.79565
G01 X81.00507 Y3.77937
G01 X80.92653 Y3.63235
G01 X80.92234 Y3.62354
G01 X80.91906 Y3.61429
G01 X80.87065 Y3.45478
G01 X80.86826 Y3.44533
G01 X80.86682 Y3.43555
G01 X80.85053 Y3.26979
G01 X80.85003 Y3.25994
G01 X80.85053 Y3.25013
G01 X80.86682 Y3.08430
G01 X80.87065 Y3.06512
G01 X80.91906 Y2.90563
G01 X80.92653 Y2.88755
G01 X81.00507 Y2.74058
G01 X81.01596 Y2.72430
G01 X81.12168 Y2.59545
G01 X81.12826 Y2.58823
G01 X81.13552 Y2.58161
G01 X81.26438 Y2.47589
G01 X81.28063 Y2.46499
G01 X81.42765 Y2.38646
G01 X81.43646 Y2.38224
G01 X81.44571 Y2.37894
G01 X81.60517 Y2.33063
G01 X81.62440 Y2.32679
G01 X81.79021 Y2.31046
G01 X81.80982 Y2.31046
G01 X81.97565 Y2.32679
G01 X81.99488 Y2.33063
G01 X82.15432 Y2.37894
G01 X82.16356 Y2.38224
G01 X82.17245 Y2.38646
G01 X82.31939 Y2.46499
G01 X82.33575 Y2.47589
G01 X82.46450 Y2.58161
G01 X82.47176 Y2.58823
G01 X82.47834 Y2.59545
G01 X82.58406 Y2.72430
G01 X82.59495 Y2.74058
G01 X82.67349 Y2.88755
G01 X82.68104 Y2.90563
G01 X82.72937 Y3.06512
G01 X82.73321 Y3.08430
G01 X82.74959 Y3.25013
G01 X82.75007 Y3.25994
G04 P0 ( dwell for no time -- G64 should not smooth over this point )
G00 Z5.00000 ( retract )

G00 X80.31007 Y3.25994 ( rapid move to begin. )
G01 F250.00000
( Mill infeed pass 1/1 )
G01 Z-0.05000
G04 P0 ( dwell for no time -- G64 should not smooth over this point )
G01 F500.00000
G01 X80.31007 Y3.25994
G01 X80.30911 Y3.24033
G01 X80.29272 Y3.07457
G01 X80.28988 Y3.05509
G01 X80.28508 Y3.03606
G01 X80.23672 Y2.87663
G01 X80.22173 Y2.84038
G01 X80.14317 Y2.69342
G01 X80.12140 Y2.66088
G01 X80.01569 Y2.53202
G01 X80.00708 Y2.52260
G01 X79.99745 Y2.51287
G01 X79.98792 Y2.50434
G01 X79.85917 Y2.39862
G01 X79.82653 Y2.37683
G01 X79.67962 Y2.29824
G01 X79.66186 Y2.28986
G01 X79.64335 Y2.28331
G01 X79.48389 Y2.23487
G01 X79.44543 Y2.22728
G01 X79.27962 Y2.21089
G01 X79.24040 Y2.21089
G01 X79.07464 Y2.22728
G01 X79.03619 Y2.23487
G01 X78.87667 Y2.28331
G01 X78.85821 Y2.28986
G01 X78.84045 Y2.29824
G01 X78.69349 Y2.37683
G01 X78.66090 Y2.39862
G01 X78.53212 Y2.50434
G01 X78.52285 Y2.51272
G01 X78.51274 Y2.52278
G01 X78.50439 Y2.53202
G01 X78.39867 Y2.66088
G01 X78.37690 Y2.69342
G01 X78.29834 Y2.84038
G01 X78.28333 Y2.87663
G01 X78.23499 Y3.03606
G01 X78.23019 Y3.05509
G01 X78.22735 Y3.07457
G01 X78.21097 Y3.24033
G01 X78.21000 Y3.25994
G01 X78.21097 Y3.27960
G01 X78.22735 Y3.44536
G01 X78.23019 Y3.46484
G01 X78.23499 Y3.48386
G01 X78.28333 Y3.64333
G01 X78.29834 Y3.67949
G01 X78.37690 Y3.82651
G01 X78.39867 Y3.85910
G01 X78.50439 Y3.98790
G01 X78.51754 Y4.00240
G01 X78.53212 Y4.01561
G01 X78.66090 Y4.12133
G01 X78.69349 Y4.14312
G01 X78.84045 Y4.22161
G01 X78.85821 Y4.23001
G01 X78.87667 Y4.23667
G01 X79.03619 Y4.28498
G01 X79.07464 Y4.29265
G01 X79.24040 Y4.30898
G01 X79.27962 Y4.30898
G01 X79.44543 Y4.29265
G01 X79.48389 Y4.28498
G01 X79.64335 Y4.23667
G01 X79.66186 Y4.23001
G01 X79.67962 Y4.22161
G01 X79.82653 Y4.14312
G01 X79.85917 Y4.12133
G01 X79.98792 Y4.01561
G01 X80.00248 Y4.00240
G01 X80.01569 Y3.98790
G01 X80.12140 Y3.85910
G01 X80.14317 Y3.82651
G01 X80.22173 Y3.67949
G01 X80.23672 Y3.64333
G01 X80.28508 Y3.48386
G01 X80.28988 Y3.46484
G01 X80.29272 Y3.44536
G01 X80.30911 Y3.27960
G01 X80.31007 Y3.25994
G01 X80.21005 Y3.25994
G01 X80.20956 Y3.25013
G01 X80.19321 Y3.08430
G01 X80.18937 Y3.06512
G01 X80.14101 Y2.90563
G01 X80.13349 Y2.88755
G01 X80.05501 Y2.74058
G01 X80.04406 Y2.72430
G01 X79.93834 Y2.59545
G01 X79.93176 Y2.58823
G01 X79.92450 Y2.58161
G01 X79.79572 Y2.47589
G01 X79.77944 Y2.46499
G01 X79.63245 Y2.38646
G01 X79.62361 Y2.38224
G01 X79.61432 Y2.37894
G01 X79.45493 Y2.33063
G01 X79.43565 Y2.32679
G01 X79.26982 Y2.31046
G01 X79.25021 Y2.31046
G01 X79.08445 Y2.32679
G01 X79.06522 Y2.33063
G01 X78.90571 Y2.37894
G01 X78.89646 Y2.38224
G01 X78.88762 Y2.38646
G01 X78.74063 Y2.46499
G01 X78.72435 Y2.47589
G01 X78.59552 Y2.58161
G01 X78.58826 Y2.58823
G01 X78.58168 Y2.59545
G01 X78.47596 Y2.72430
G01 X78.46507 Y2.74058
G01 X78.38653 Y2.88755
G01 X78.37906 Y2.90563
G01 X78.33070 Y3.06512
G01 X78.32681 Y3.08430
G01 X78.31051 Y3.25013
G01 X78.31003 Y3.25994
G01 X78.31051 Y3.26979
G01 X78.32681 Y3.43555
G01 X78.32826 Y3.44533
G01 X78.33070 Y3.45478
G01 X78.37906 Y3.61429
G01 X78.38239 Y3.62354
G01 X78.38653 Y3.63235
G01 X78.46507 Y3.77937
G01 X78.47596 Y3.79565
G01 X78.58168 Y3.92448
G01 X78.58826 Y3.93172
G01 X78.59552 Y3.93827
G01 X78.72435 Y4.04398
G01 X78.74063 Y4.05493
G01 X78.88762 Y4.13342
G01 X78.89646 Y4.13763
G01 X78.90571 Y4.14099
G01 X79.06522 Y4.18930
G01 X79.08445 Y4.19318
G01 X79.25021 Y4.20947
G01 X79.26982 Y4.20947
G01 X79.43565 Y4.19318
G01 X79.45493 Y4.18930
G01 X79.61432 Y4.14099
G01 X79.62361 Y4.13763
G01 X79.63245 Y4.13342
G01 X79.77944 Y4.05493
G01 X79.79572 Y4.04398
G01 X79.92450 Y3.93827
G01 X79.93176 Y3.93172
G01 X79.93834 Y3.92448
G01 X80.04406 Y3.79565
G01 X80.04990 Y3.78777
G01 X80.05501 Y3.77937
G01 X80.13349 Y3.63235
G01 X80.14101 Y3.61429
G01 X80.18937 Y3.45478
G01 X80.19181 Y3.44533
G01 X80.19321 Y3.43555
G01 X80.20956 Y3.26979
G01 X80.21005 Y3.25994
G01 X80.31007 Y3.25994
G01 X80.31007 Y5.79994
G01 X80.30911 Y5.81955
G01 X80.29272 Y5.98536
G01 X80.28988 Y6.00484
G01 X80.28508 Y6.02386
G01 X80.23672 Y6.18327
G01 X80.22173 Y6.21949
G01 X80.14317 Y6.36648
G01 X80.13494 Y6.38018
G01 X80.12966 Y6.38792
G01 X80.12140 Y6.39910
G01 X80.01569 Y6.52790
G01 X80.00728 Y6.53712
G01 X79.99717 Y6.54723
G01 X79.98792 Y6.55561
G01 X79.85917 Y6.66133
G01 X79.82653 Y6.68310
G01 X79.67962 Y6.76166
G01 X79.64335 Y6.77664
G01 X79.48389 Y6.82501
G01 X79.44543 Y6.83270
G01 X79.27962 Y6.84903
G01 X79.26001 Y6.85000
G01 X79.24040 Y6.84903
G01 X79.07464 Y6.83270
G01 X79.03619 Y6.82501
G01 X78.87667 Y6.77664
G01 X78.85821 Y6.77004
G01 X78.84045 Y6.76166
G01 X78.69349 Y6.68310
G01 X78.66090 Y6.66133
G01 X78.53212 Y6.55561
G01 X78.52311 Y6.54746
G01 X78.51251 Y6.53687
G01 X78.50439 Y6.52790
G01 X78.39867 Y6.39910
G01 X78.37690 Y6.36648
G01 X78.29834 Y6.21949
G01 X78.28333 Y6.18327
G01 X78.23499 Y6.02386
G01 X78.23019 Y6.00484
G01 X78.22735 Y5.98536
G01 X78.21097 Y5.81955
G01 X78.21000 Y5.79994
G01 X78.21097 Y5.78033
G01 X78.22735 Y5.61452
G01 X78.23019 Y5.59514
G01 X78.23499 Y5.57611
G01 X78.28333 Y5.41660
G01 X78.29834 Y5.38038
G01 X78.37690 Y5.23347
G01 X78.39867 Y5.20083
G01 X78.50439 Y5.07208
G01 X78.51754 Y5.05750
G01 X78.53212 Y5.04429
G01 X78.66090 Y4.93857
G01 X78.69349 Y4.91681
G01 X78.84045 Y4.83827
G01 X78.85821 Y4.82986
G01 X78.87667 Y4.82331
G01 X79.03619 Y4.77487
G01 X79.07464 Y4.76722
G01 X79.24040 Y4.75089
G01 X79.27962 Y4.75089
G01 X79.44543 Y4.76722
G01 X79.48389 Y4.77487
G01 X79.64335 Y4.82331
G01 X79.66186 Y4.82986
G01 X79.67962 Y4.83827
G01 X79.82653 Y4.91681
G01 X79.85917 Y4.93857
G01 X79.98792 Y5.04429
G01 X80.00248 Y5.05750
G01 X80.01569 Y5.07208
G01 X80.12140 Y5.20083
G01 X80.14317 Y5.23347
G01 X80.22173 Y5.38038
G01 X80.23672 Y5.41660
G01 X80.28508 Y5.57611
G01 X80.28988 Y5.59514
G01 X80.29272 Y5.61452
G01 X80.30911 Y5.78033
G01 X80.31007 Y5.79994
G01 X80.21005 Y5.79994
G01 X80.20956 Y5.80974
G01 X80.19321 Y5.97555
G01 X80.19181 Y5.98528
G01 X80.18937 Y5.99483
G01 X80.14101 Y6.15429
G01 X80.13349 Y6.17240
G01 X80.05501 Y6.31932
G01 X80.04990 Y6.32777
G01 X80.04406 Y6.33560
G01 X79.93834 Y6.46445
G01 X79.93176 Y6.47172
G01 X79.92450 Y6.47832
G01 X79.79572 Y6.58401
G01 X79.77944 Y6.59493
G01 X79.63245 Y6.67344
G01 X79.62361 Y6.67766
G01 X79.61432 Y6.68099
G01 X79.45493 Y6.72932
G01 X79.44535 Y6.73174
G01 X79.43565 Y6.73316
G01 X79.26982 Y6.74949
G01 X79.25021 Y6.74949
G01 X79.08445 Y6.73316
G01 X79.06522 Y6.72932
G01 X78.90571 Y6.68099
G01 X78.89646 Y6.67766
G01 X78.88762 Y6.67344
G01 X78.74063 Y6.59493
G01 X78.72435 Y6.58401
G01 X78.59552 Y6.47832
G01 X78.58826 Y6.47172
G01 X78.58168 Y6.46445
G01 X78.47596 Y6.33560
G01 X78.46507 Y6.31932
G01 X78.38653 Y6.17240
G01 X78.38239 Y6.16354
G01 X78.37906 Y6.15429
G01 X78.33070 Y5.99483
G01 X78.32826 Y5.98528
G01 X78.32681 Y5.97555
G01 X78.31051 Y5.80974
G01 X78.31003 Y5.79994
G01 X78.31051 Y5.79013
G01 X78.32681 Y5.62430
G01 X78.32826 Y5.61459
G01 X78.33070 Y5.60512
G01 X78.37906 Y5.44568
G01 X78.38653 Y5.42757
G01 X78.46507 Y5.28056
G01 X78.47015 Y5.27220
G01 X78.47596 Y5.26425
G01 X78.58168 Y5.13550
G01 X78.58826 Y5.12818
G01 X78.59552 Y5.12166
G01 X78.72435 Y5.01592
G01 X78.74063 Y5.00504
G01 X78.88762 Y4.92646
G01 X78.89646 Y4.92224
G01 X78.90571 Y4.91894
G01 X79.06522 Y4.87063
G01 X79.08445 Y4.86674
G01 X79.25021 Y4.85041
G01 X79.26982 Y4.85041
G01 X79.43565 Y4.86674
G01 X79.45493 Y4.87063
G01 X79.61432 Y4.91894
G01 X79.62361 Y4.92224
G01 X79.63245 Y4.92646
G01 X79.77944 Y5.00504
G01 X79.79572 Y5.01592
G01 X79.92450 Y5.12166
G01 X79.93176 Y5.12818
G01 X79.93834 Y5.13550
G01 X80.04406 Y5.26425
G01 X80.04990 Y5.27220
G01 X80.05501 Y5.28056
G01 X80.13349 Y5.42757
G01 X80.14101 Y5.44568
G01 X80.18937 Y5.60512
G01 X80.19181 Y5.61459
G01 X80.19321 Y5.62430
G01 X80.20956 Y5.79013
G01 X80.21005 Y5.79994
G04 P0 ( dwell for no time -- G64 should not smooth over this point )
G00 Z5.00000 ( retract )

G00 X77.77007 Y3.25994 ( rapid move to begin. )
G01 F250.00000
( Mill infeed pass 1/1 )
G01 Z-0.05000
G04 P0 ( dwell for no time -- G64 should not smooth over this point )
G01 F500.00000
G01 X77.77007 Y3.25994
G01 X77.76908 Y3.24033
G01 X77.75272 Y3.07457
G01 X77.74985 Y3.05509
G01 X77.74508 Y3.03606
G01 X77.69672 Y2.87663
G01 X77.68171 Y2.84038
G01 X77.60314 Y2.69342
G01 X77.58138 Y2.66088
G01 X77.47566 Y2.53202
G01 X77.46713 Y2.52260
G01 X77.45742 Y2.51287
G01 X77.44792 Y2.50434
G01 X77.31915 Y2.39862
G01 X77.28658 Y2.37683
G01 X77.13959 Y2.29824
G01 X77.12184 Y2.28986
G01 X77.10340 Y2.28331
G01 X76.94389 Y2.23487
G01 X76.90543 Y2.22728
G01 X76.73967 Y2.21089
G01 X76.70045 Y2.21089
G01 X76.53462 Y2.22728
G01 X76.49619 Y2.23487
G01 X76.33673 Y2.28331
G01 X76.31818 Y2.28986
G01 X76.30045 Y2.29824
G01 X76.15354 Y2.37683
G01 X76.12090 Y2.39862
G01 X75.99212 Y2.50434
G01 X75.98290 Y2.51272
G01 X75.97279 Y2.52278
G01 X75.96436 Y2.53202
G01 X75.85867 Y2.66088
G01 X75.83688 Y2.69342
G01 X75.75834 Y2.84038
G01 X75.74333 Y2.87663
G01 X75.69497 Y3.03606
G01 X75.69019 Y3.05509
G01 X75.68732 Y3.07457
G01 X75.67097 Y3.24033
G01 X75.67000 Y3.25994
G01 X75.67097 Y3.27960
G01 X75.68732 Y3.44536
G01 X75.69019 Y3.46484
G01 X75.69497 Y3.48386
G01 X75.74333 Y3.64333
G01 X75.75834 Y3.67949
G01 X75.83688 Y3.82651
G01 X75.85867 Y3.85910
G01 X75.96436 Y3.98790
G01 X75.97759 Y4.00240
G01 X75.99212 Y4.01561
G01 X76.12090 Y4.12133
G01 X76.15354 Y4.14312
G01 X76.30045 Y4.22161
G01 X76.31818 Y4.23001
G01 X76.33673 Y4.23667
G01 X76.49619 Y4.28498
G01 X76.53462 Y4.29265
G01 X76.70045 Y4.30898
G01 X76.73967 Y4.30898
G01 X76.90543 Y4.29265
G01 X76.94389 Y4.28498
G01 X77.10340 Y4.23667
G01 X77.12184 Y4.23001
G01 X77.13959 Y4.22161
G01 X77.28658 Y4.14312
G01 X77.31915 Y4.12133
G01 X77.44792 Y4.01561
G01 X77.46253 Y4.00240
G01 X77.47566 Y3.98790
G01 X77.58138 Y3.85910
G01 X77.60314 Y3.82651
G01 X77.68171 Y3.67949
G01 X77.69672 Y3.64333
G01 X77.74508 Y3.48386
G01 X77.74985 Y3.46484
G01 X77.75272 Y3.44536
G01 X77.76908 Y3.27960
G01 X77.77007 Y3.25994
G01 X77.67002 Y3.25994
G01 X77.66954 Y3.25013
G01 X77.65326 Y3.08430
G01 X77.64937 Y3.06512
G01 X77.60101 Y2.90563
G01 X77.59354 Y2.88755
G01 X77.51498 Y2.74058
G01 X77.50411 Y2.72430
G01 X77.39839 Y2.59545
G01 X77.39182 Y2.58823
G01 X77.38455 Y2.58161
G01 X77.25570 Y2.47589
G01 X77.23942 Y2.46499
G01 X77.09243 Y2.38646
G01 X77.08359 Y2.38224
G01 X77.07437 Y2.37894
G01 X76.91493 Y2.33063
G01 X76.89570 Y2.32679
G01 X76.72987 Y2.31046
G01 X76.71026 Y2.31046
G01 X76.54442 Y2.32679
G01 X76.52519 Y2.33063
G01 X76.36576 Y2.37894
G01 X76.35646 Y2.38224
G01 X76.34760 Y2.38646
G01 X76.20063 Y2.46499
G01 X76.18435 Y2.47589
G01 X76.05557 Y2.58161
G01 X76.04831 Y2.58823
G01 X76.04173 Y2.59545
G01 X75.93601 Y2.72430
G01 X75.92507 Y2.74058
G01 X75.84658 Y2.88755
G01 X75.83904 Y2.90563
G01 X75.79068 Y3.06512
G01 X75.78687 Y3.08430
G01 X75.77048 Y3.25013
G01 X75.77000 Y3.25994
G01 X75.77048 Y3.26979
G01 X75.78687 Y3.43555
G01 X75.78826 Y3.44533
G01 X75.79068 Y3.45478
G01 X75.83904 Y3.61429
G01 X75.84236 Y3.62354
G01 X75.84658 Y3.63235
G01 X75.92507 Y3.77937
G01 X75.93601 Y3.79565
G01 X76.04173 Y3.92448
G01 X76.04831 Y3.93172
G01 X76.05557 Y3.93827
G01 X76.18435 Y4.04398
G01 X76.20063 Y4.05493
G01 X76.34760 Y4.13342
G01 X76.35646 Y4.13763
G01 X76.36576 Y4.14099
G01 X76.52519 Y4.18930
G01 X76.54442 Y4.19318
G01 X76.71026 Y4.20947
G01 X76.72987 Y4.20947
G01 X76.89570 Y4.19318
G01 X76.91493 Y4.18930
G01 X77.07437 Y4.14099
G01 X77.08359 Y4.13763
G01 X77.09243 Y4.13342
G01 X77.23942 Y4.05493
G01 X77.25570 Y4.04398
G01 X77.38455 Y3.93827
G01 X77.39182 Y3.93172
G01 X77.39839 Y3.92448
G01 X77.50411 Y3.79565
G01 X77.50990 Y3.78777
G01 X77.51498 Y3.77937
G01 X77.59354 Y3.63235
G01 X77.60101 Y3.61429
G01 X77.64937 Y3.45478
G01 X77.65178 Y3.44533
G01 X77.65326 Y3.43555
G01 X77.66954 Y3.26979
G01 X77.67002 Y3.25994
G01 X77.77007 Y3.25994
G01 X77.77007 Y5.79994
G01 X77.76908 Y5.81955
G01 X77.75272 Y5.98536
G01 X77.74985 Y6.00484
G01 X77.74508 Y6.02386
G01 X77.69672 Y6.18327
G01 X77.68171 Y6.21949
G01 X77.60314 Y6.36648
G01 X77.59494 Y6.38018
G01 X77.58971 Y6.38792
G01 X77.58138 Y6.39910
G01 X77.47566 Y6.52790
G01 X77.46733 Y6.53712
G01 X77.45722 Y6.54723
G01 X77.44792 Y6.55561
G01 X77.31915 Y6.66133
G01 X77.28658 Y6.68310
G01 X77.13959 Y6.76166
G01 X77.10340 Y6.77664
G01 X76.94389 Y6.82501
G01 X76.90543 Y6.83270
G01 X76.73967 Y6.84903
G01 X76.72006 Y6.85000
G01 X76.70045 Y6.84903
G01 X76.53462 Y6.83270
G01 X76.49619 Y6.82501
G01 X76.33673 Y6.77664
G01 X76.31818 Y6.77004
G01 X76.30045 Y6.76166
G01 X76.15354 Y6.68310
G01 X76.12090 Y6.66133
G01 X75.99212 Y6.55561
G01 X75.98311 Y6.54746
G01 X75.97251 Y6.53687
G01 X75.96436 Y6.52790
G01 X75.85867 Y6.39910
G01 X75.83688 Y6.36648
G01 X75.75834 Y6.21949
G01 X75.74333 Y6.18327
G01 X75.69497 Y6.02386
G01 X75.69019 Y6.00484
G01 X75.68732 Y5.98536
G01 X75.67097 Y5.81955
G01 X75.67000 Y5.79994
G01 X75.67097 Y5.78033
G01 X75.68732 Y5.61452
G01 X75.69019 Y5.59514
G01 X75.69497 Y5.57611
G01 X75.74333 Y5.41660
G01 X75.75834 Y5.38038
G01 X75.83688 Y5.23347
G01 X75.85867 Y5.20083
G01 X75.96436 Y5.07208
G01 X75.97759 Y5.05750
G01 X75.99212 Y5.04429
G01 X76.12090 Y4.93857
G01 X76.15354 Y4.91681
G01 X76.30045 Y4.83827
G01 X76.31818 Y4.82986
G01 X76.33673 Y4.82331
G01 X76.49619 Y4.77487
G01 X76.53462 Y4.76722
G01 X76.70045 Y4.75089
G01 X76.73967 Y4.75089
G01 X76.90543 Y4.76722
G01 X76.94389 Y4.77487
G01 X77.10340 Y4.82331
G01 X77.12184 Y4.82986
G01 X77.13959 Y4.83827
G01 X77.28658 Y4.91681
G01 X77.31915 Y4.93857
G01 X77.44792 Y5.04429
G01 X77.46253 Y5.05750
G01 X77.47566 Y5.07208
G01 X77.58138 Y5.20083
G01 X77.60314 Y5.23347
G01 X77.68171 Y5.38038
G01 X77.69672 Y5.41660
G01 X77.74508 Y5.57611
G01 X77.74985 Y5.59514
G01 X77.75272 Y5.61452
G01 X77.76908 Y5.78033
G01 X77.77007 Y5.79994
G01 X77.67002 Y5.79994
G01 X77.66954 Y5.80974
G01 X77.65326 Y5.97555
G01 X77.65178 Y5.98528
G01 X77.64937 Y5.99483
G01 X77.60101 Y6.15429
G01 X77.59354 Y6.17240
G01 X77.51498 Y6.31932
G01 X77.50990 Y6.32777
G01 X77.50411 Y6.33560
G01 X77.39839 Y6.46445
G01 X77.39182 Y6.47172
G01 X77.38455 Y6.47832
G01 X77.25570 Y6.58401
G01 X77.23942 Y6.59493
G01 X77.09243 Y6.67344
G01 X77.08359 Y6.67766
G01 X77.07437 Y6.68099
G01 X76.91493 Y6.72932
G01 X76.90541 Y6.73174
G01 X76.89570 Y6.73316
G01 X76.72987 Y6.74949
G01 X76.71026 Y6.74949
G01 X76.54442 Y6.73316
G01 X76.52519 Y6.72932
G01 X76.36576 Y6.68099
G01 X76.35646 Y6.67766
G01 X76.34760 Y6.67344
G01 X76.20063 Y6.59493
G01 X76.18435 Y6.58401
G01 X76.05557 Y6.47832
G01 X76.04831 Y6.47172
G01 X76.04173 Y6.46445
G01 X75.93601 Y6.33560
G01 X75.92507 Y6.31932
G01 X75.84658 Y6.17240
G01 X75.84236 Y6.16354
G01 X75.83904 Y6.15429
G01 X75.79068 Y5.99483
G01 X75.78826 Y5.98528
G01 X75.78687 Y5.97555
G01 X75.77048 Y5.80974
G01 X75.77000 Y5.79994
G01 X75.77048 Y5.79013
G01 X75.78687 Y5.62430
G01 X75.78826 Y5.61459
G01 X75.79068 Y5.60512
G01 X75.83904 Y5.44568
G01 X75.84658 Y5.42757
G01 X75.92507 Y5.28056
G01 X75.93015 Y5.27220
G01 X75.93601 Y5.26425
G01 X76.04173 Y5.13550
G01 X76.04831 Y5.12818
G01 X76.05557 Y5.12166
G01 X76.18435 Y5.01592
G01 X76.20063 Y5.00504
G01 X76.34760 Y4.92646
G01 X76.35646 Y4.92224
G01 X76.36576 Y4.91894
G01 X76.52519 Y4.87063
G01 X76.54442 Y4.86674
G01 X76.71026 Y4.85041
G01 X76.72987 Y4.85041
G01 X76.89570 Y4.86674
G01 X76.91493 Y4.87063
G01 X77.07437 Y4.91894
G01 X77.08359 Y4.92224
G01 X77.09243 Y4.92646
G01 X77.23942 Y5.00504
G01 X77.25570 Y5.01592
G01 X77.38455 Y5.12166
G01 X77.39182 Y5.12818
G01 X77.39839 Y5.13550
G01 X77.50411 Y5.26425
G01 X77.50990 Y5.27220
G01 X77.51498 Y5.28056
G01 X77.59354 Y5.42757
G01 X77.60101 Y5.44568
G01 X77.64937 Y5.60512
G01 X77.65178 Y5.61459
G01 X77.65326 Y5.62430
G01 X77.66954 Y5.79013
G01 X77.67002 Y5.79994
G04 P0 ( dwell for no time -- G64 should not smooth over this point )
G00 Z5.00000 ( retract )

G00 X75.23005 Y3.25994 ( rapid move to begin. )
G01 F250.00000
( Mill infeed pass 1/1 )
G01 Z-0.05000
G04 P0 ( dwell for no time -- G64 should not smooth over this point )
G01 F500.00000
G01 X75.23005 Y3.25994
G01 X75.22906 Y3.24033
G01 X75.21277 Y3.07457
G01 X75.20983 Y3.05509
G01 X75.20513 Y3.03606
G01 X75.15669 Y2.87663
G01 X75.14171 Y2.84038
G01 X75.06314 Y2.69342
G01 X75.04138 Y2.66088
G01 X74.93566 Y2.53202
G01 X74.92710 Y2.52260
G01 X74.91740 Y2.51287
G01 X74.90792 Y2.50434
G01 X74.77912 Y2.39862
G01 X74.74658 Y2.37683
G01 X74.59959 Y2.29824
G01 X74.58184 Y2.28986
G01 X74.56335 Y2.28331
G01 X74.40389 Y2.23487
G01 X74.36543 Y2.22728
G01 X74.19965 Y2.21089
G01 X74.16043 Y2.21089
G01 X73.99459 Y2.22728
G01 X73.95614 Y2.23487
G01 X73.79667 Y2.28331
G01 X73.76048 Y2.29824
G01 X73.61349 Y2.37683
G01 X73.59667 Y2.38694
G01 X73.58093 Y2.39862
G01 X73.45210 Y2.50434
G01 X73.42441 Y2.53202
G01 X73.31870 Y2.66088
G01 X73.31052 Y2.67185
G01 X73.30503 Y2.67990
G01 X73.29688 Y2.69342
G01 X73.21834 Y2.84038
G01 X73.20338 Y2.87663
G01 X73.15497 Y3.03606
G01 X73.15019 Y3.05509
G01 X73.14730 Y3.07457
G01 X73.13099 Y3.24033
G01 X73.13099 Y3.27960
G01 X73.14730 Y3.44536
G01 X73.15019 Y3.46484
G01 X73.15497 Y3.48386
G01 X73.20338 Y3.64333
G01 X73.21834 Y3.67949
G01 X73.29688 Y3.82651
G01 X73.30490 Y3.83990
G01 X73.31075 Y3.84838
G01 X73.31870 Y3.85910
G01 X73.42441 Y3.98790
G01 X73.45210 Y4.01561
G01 X73.58093 Y4.12133
G01 X73.59162 Y4.12923
G01 X73.60013 Y4.13504
G01 X73.61349 Y4.14312
G01 X73.76048 Y4.22161
G01 X73.79667 Y4.23667
G01 X73.95614 Y4.28498
G01 X73.99459 Y4.29265
G01 X74.16043 Y4.30898
G01 X74.19965 Y4.30898
G01 X74.36543 Y4.29265
G01 X74.40389 Y4.28498
G01 X74.56335 Y4.23667
G01 X74.58184 Y4.23001
G01 X74.59959 Y4.22161
G01 X74.74658 Y4.14312
G01 X74.77912 Y4.12133
G01 X74.90792 Y4.01561
G01 X74.92250 Y4.00240
G01 X74.93566 Y3.98790
G01 X75.04138 Y3.85910
G01 X75.06314 Y3.82651
G01 X75.14171 Y3.67949
G01 X75.15669 Y3.64333
G01 X75.20513 Y3.48386
G01 X75.20983 Y3.46484
G01 X75.21277 Y3.44536
G01 X75.22906 Y3.27960
G01 X75.23005 Y3.25994
G01 X75.13002 Y3.25994
G01 X75.12954 Y3.25013
G01 X75.11323 Y3.08430
G01 X75.10942 Y3.06512
G01 X75.06101 Y2.90563
G01 X75.05352 Y2.88755
G01 X74.97498 Y2.74058
G01 X74.96408 Y2.72430
G01 X74.85837 Y2.59545
G01 X74.85179 Y2.58823
G01 X74.84455 Y2.58161
G01 X74.71570 Y2.47589
G01 X74.69942 Y2.46499
G01 X74.55243 Y2.38646
G01 X74.53434 Y2.37894
G01 X74.37488 Y2.33063
G01 X74.36535 Y2.32819
G01 X74.35568 Y2.32679
G01 X74.18984 Y2.31046
G01 X74.17023 Y2.31046
G01 X74.00440 Y2.32679
G01 X73.99467 Y2.32819
G01 X73.98519 Y2.33063
G01 X73.82573 Y2.37894
G01 X73.80762 Y2.38646
G01 X73.66066 Y2.46499
G01 X73.65222 Y2.47010
G01 X73.64435 Y2.47589
G01 X73.51552 Y2.58161
G01 X73.50168 Y2.59545
G01 X73.39596 Y2.72430
G01 X73.39012 Y2.73215
G01 X73.38507 Y2.74058
G01 X73.30656 Y2.88755
G01 X73.29901 Y2.90563
G01 X73.25068 Y3.06512
G01 X73.24829 Y3.07464
G01 X73.24684 Y3.08430
G01 X73.23053 Y3.25013
G01 X73.23053 Y3.26979
G01 X73.24684 Y3.43555
G01 X73.24829 Y3.44533
G01 X73.25068 Y3.45478
G01 X73.29901 Y3.61429
G01 X73.30236 Y3.62354
G01 X73.30656 Y3.63235
G01 X73.38507 Y3.77937
G01 X73.39012 Y3.78777
G01 X73.39596 Y3.79565
G01 X73.50168 Y3.92448
G01 X73.51552 Y3.93827
G01 X73.64435 Y4.04398
G01 X73.65222 Y4.04988
G01 X73.66066 Y4.05493
G01 X73.80762 Y4.13342
G01 X73.82573 Y4.14099
G01 X73.98519 Y4.18930
G01 X73.99467 Y4.19174
G01 X74.00440 Y4.19318
G01 X74.17023 Y4.20947
G01 X74.18984 Y4.20947
G01 X74.35568 Y4.19318
G01 X74.36535 Y4.19174
G01 X74.37488 Y4.18930
G01 X74.53434 Y4.14099
G01 X74.55243 Y4.13342
G01 X74.69942 Y4.05493
G01 X74.71570 Y4.04398
G01 X74.84455 Y3.93827
G01 X74.85179 Y3.93172
G01 X74.85837 Y3.92448
G01 X74.96408 Y3.79565
G01 X74.96990 Y3.78777
G01 X74.97498 Y3.77937
G01 X75.05352 Y3.63235
G01 X75.06101 Y3.61429
G01 X75.10942 Y3.45478
G01 X75.11178 Y3.44533
G01 X75.11323 Y3.43555
G01 X75.12954 Y3.26979
G01 X75.13002 Y3.25994
G01 X75.23005 Y3.25994
G01 X75.23005 Y5.79994
G01 X75.22906 Y5.81955
G01 X75.21277 Y5.98536
G01 X75.20983 Y6.00484
G01 X75.20513 Y6.02386
G01 X75.15669 Y6.18327
G01 X75.14171 Y6.21949
G01 X75.06314 Y6.36648
G01 X75.05499 Y6.38018
G01 X75.04971 Y6.38792
G01 X75.04138 Y6.39910
G01 X74.93566 Y6.52790
G01 X74.92730 Y6.53712
G01 X74.91722 Y6.54723
G01 X74.90792 Y6.55561
G01 X74.77912 Y6.66133
G01 X74.74658 Y6.68310
G01 X74.59959 Y6.76166
G01 X74.56335 Y6.77664
G01 X74.40389 Y6.82501
G01 X74.38489 Y6.82981
G01 X74.36543 Y6.83270
G01 X74.19965 Y6.84903
G01 X74.16043 Y6.84903
G01 X73.99459 Y6.83270
G01 X73.95614 Y6.82501
G01 X73.79667 Y6.77664
G01 X73.77823 Y6.77004
G01 X73.76048 Y6.76166
G01 X73.61349 Y6.68310
G01 X73.60010 Y6.67504
G01 X73.59167 Y6.66928
G01 X73.58093 Y6.66133
G01 X73.45210 Y6.55561
G01 X73.42441 Y6.52790
G01 X73.31870 Y6.39910
G01 X73.29688 Y6.36648
G01 X73.21834 Y6.21949
G01 X73.20338 Y6.18327
G01 X73.15497 Y6.02386
G01 X73.15019 Y6.00484
G01 X73.14730 Y5.98536
G01 X73.13099 Y5.81955
G01 X73.13099 Y5.78033
G01 X73.14730 Y5.61452
G01 X73.15019 Y5.59514
G01 X73.15497 Y5.57611
G01 X73.20338 Y5.41660
G01 X73.21834 Y5.38038
G01 X73.29688 Y5.23347
G01 X73.30506 Y5.21980
G01 X73.31047 Y5.21188
G01 X73.31870 Y5.20083
G01 X73.42441 Y5.07208
G01 X73.45210 Y5.04429
G01 X73.58093 Y4.93857
G01 X73.59203 Y4.93042
G01 X73.59985 Y4.92498
G01 X73.61349 Y4.91681
G01 X73.76048 Y4.83827
G01 X73.79667 Y4.82331
G01 X73.95614 Y4.77487
G01 X73.99459 Y4.76722
G01 X74.16043 Y4.75089
G01 X74.19965 Y4.75089
G01 X74.36543 Y4.76722
G01 X74.40389 Y4.77487
G01 X74.56335 Y4.82331
G01 X74.58184 Y4.82986
G01 X74.59959 Y4.83827
G01 X74.74658 Y4.91681
G01 X74.77912 Y4.93857
G01 X74.90792 Y5.04429
G01 X74.92250 Y5.05750
G01 X74.93566 Y5.07208
G01 X75.04138 Y5.20083
G01 X75.06314 Y5.23347
G01 X75.14171 Y5.38038
G01 X75.15669 Y5.41660
G01 X75.20513 Y5.57611
G01 X75.20983 Y5.59514
G01 X75.21277 Y5.61452
G01 X75.22906 Y5.78033
G01 X75.23005 Y5.79994
G01 X75.13002 Y5.79994
G01 X75.12954 Y5.80974
G01 X75.11323 Y5.97555
G01 X75.11178 Y5.98528
G01 X75.10942 Y5.99483
G01 X75.06101 Y6.15429
G01 X75.05352 Y6.17240
G01 X74.97498 Y6.31932
G01 X74.96990 Y6.32777
G01 X74.96408 Y6.33560
G01 X74.85837 Y6.46445
G01 X74.85179 Y6.47172
G01 X74.84455 Y6.47832
G01 X74.71570 Y6.58401
G01 X74.69942 Y6.59493
G01 X74.55243 Y6.67344
G01 X74.53434 Y6.68099
G01 X74.37488 Y6.72932
G01 X74.36535 Y6.73174
G01 X74.35568 Y6.73316
G01 X74.18984 Y6.74949
G01 X74.17023 Y6.74949
G01 X74.00440 Y6.73316
G01 X73.99467 Y6.73174
G01 X73.98519 Y6.72932
G01 X73.82573 Y6.68099
G01 X73.80762 Y6.67344
G01 X73.66066 Y6.59493
G01 X73.65222 Y6.58988
G01 X73.64435 Y6.58401
G01 X73.51552 Y6.47832
G01 X73.50168 Y6.46445
G01 X73.39596 Y6.33560
G01 X73.39012 Y6.32777
G01 X73.38507 Y6.31932
G01 X73.30656 Y6.17240
G01 X73.30236 Y6.16354
G01 X73.29901 Y6.15429
G01 X73.25068 Y5.99483
G01 X73.24829 Y5.98528
G01 X73.24684 Y5.97555
G01 X73.23053 Y5.80974
G01 X73.23053 Y5.79013
G01 X73.24684 Y5.62430
G01 X73.24829 Y5.61459
G01 X73.25068 Y5.60512
G01 X73.29901 Y5.44568
G01 X73.30656 Y5.42757
G01 X73.38507 Y5.28056
G01 X73.39012 Y5.27220
G01 X73.39596 Y5.26425
G01 X73.50168 Y5.13550
G01 X73.51552 Y5.12166
G01 X73.64435 Y5.01592
G01 X73.65222 Y5.01010
G01 X73.66066 Y5.00504
G01 X73.80762 Y4.92646
G01 X73.82573 Y4.91894
G01 X73.98519 Y4.87063
G01 X73.99467 Y4.86824
G01 X74.00440 Y4.86674
G01 X74.17023 Y4.85041
G01 X74.18984 Y4.85041
G01 X74.35568 Y4.86674
G01 X74.36535 Y4.86824
G01 X74.37488 Y4.87063
G01 X74.53434 Y4.91894
G01 X74.55243 Y4.92646
G01 X74.69942 Y5.00504
G01 X74.71570 Y5.01592
G01 X74.84455 Y5.12166
G01 X74.85179 Y5.12818
G01 X74.85837 Y5.13550
G01 X74.96408 Y5.26425
G01 X74.96990 Y5.27220
G01 X74.97498 Y5.28056
G01 X75.05352 Y5.42757
G01 X75.06101 Y5.44568
G01 X75.10942 Y5.60512
G01 X75.11178 Y5.61459
G01 X75.11323 Y5.62430
G01 X75.12954 Y5.79013
G01 X75.13002 Y5.79994
G04 P0 ( dwell for no time -- G64 should not smooth over this point )
G00 Z5.00000 ( retract )

G00 X72.68906 Y5.78033 ( rapid move to begin. )
G01 F250.00000
( Mill infeed pass 1/1 )
G01 Z-0.05000
G04 P0 ( dwell for no time -- G64 should not smooth over this point )
G01 F500.00000
G01 X72.68906 Y5.78033
G01 X72.67275 Y5.61452
G01 X72.66985 Y5.59514
G01 X72.66508 Y5.57611
G01 X72.61674 Y5.41660
G01 X72.60173 Y5.38038
G01 X72.52314 Y5.23347
G01 X72.51486 Y5.21957
G01 X72.50986 Y5.21231
G01 X72.50143 Y5.20083
G01 X72.39571 Y5.07208
G01 X72.36795 Y5.04429
G01 X72.23912 Y4.93857
G01 X72.22782 Y4.93017
G01 X72.22040 Y4.92509
G01 X72.20656 Y4.91681
G01 X72.05957 Y4.83827
G01 X72.02337 Y4.82331
G01 X71.86391 Y4.77487
G01 X71.82546 Y4.76722
G01 X71.65962 Y4.75089
G01 X71.62040 Y4.75089
G01 X71.45464 Y4.76722
G01 X71.41616 Y4.77487
G01 X71.25670 Y4.82331
G01 X71.22045 Y4.83827
G01 X71.07351 Y4.91681
G01 X71.05988 Y4.92498
G01 X71.05200 Y4.93039
G01 X71.04090 Y4.93857
G01 X70.91215 Y5.04429
G01 X70.88439 Y5.07208
G01 X70.77867 Y5.20083
G01 X70.77049 Y5.21188
G01 X70.76508 Y5.21980
G01 X70.75688 Y5.23347
G01 X70.67837 Y5.38038
G01 X70.66336 Y5.41660
G01 X70.61502 Y5.57611
G01 X70.61022 Y5.59514
G01 X70.60735 Y5.61452
G01 X70.59097 Y5.78033
G01 X70.59097 Y5.81955
G01 X70.60735 Y5.98536
G01 X70.61022 Y6.00484
G01 X70.61502 Y6.02386
G01 X70.66336 Y6.18327
G01 X70.67837 Y6.21949
G01 X70.75688 Y6.36648
G01 X70.77867 Y6.39910
G01 X70.88439 Y6.52790
G01 X70.91215 Y6.55561
G01 X71.04090 Y6.66133
G01 X71.05165 Y6.66928
G01 X71.06008 Y6.67504
G01 X71.07351 Y6.68310
G01 X71.22045 Y6.76166
G01 X71.23818 Y6.77004
G01 X71.25670 Y6.77664
G01 X71.41616 Y6.82501
G01 X71.45464 Y6.83270
G01 X71.62040 Y6.84903
G01 X71.65962 Y6.84903
G01 X71.82546 Y6.83270
G01 X71.84486 Y6.82981
G01 X71.86391 Y6.82501
G01 X72.02337 Y6.77664
G01 X72.05957 Y6.76166
G01 X72.20656 Y6.68310
G01 X72.22012 Y6.67497
G01 X72.22815 Y6.66951
G01 X72.23912 Y6.66133
G01 X72.36795 Y6.55561
G01 X72.39571 Y6.52790
G01 X72.50143 Y6.39910
G01 X72.50966 Y6.38792
G01 X72.51494 Y6.38018
G01 X72.52314 Y6.36648
G01 X72.60173 Y6.21949
G01 X72.61674 Y6.18327
G01 X72.66508 Y6.02386
G01 X72.66985 Y6.00484
G01 X72.67275 Y5.98536
G01 X72.68906 Y5.81955
G01 X72.68906 Y5.78033
G01 X72.58959 Y5.79013
G01 X72.57321 Y5.62430
G01 X72.57176 Y5.61459
G01 X72.56937 Y5.60512
G01 X72.52104 Y5.44568
G01 X72.51349 Y5.42757
G01 X72.43498 Y5.28056
G01 X72.42993 Y5.27220
G01 X72.42408 Y5.26425
G01 X72.31837 Y5.13550
G01 X72.30453 Y5.12166
G01 X72.17570 Y5.01592
G01 X72.16782 Y5.01010
G01 X72.15939 Y5.00504
G01 X72.01243 Y4.92646
G01 X71.99432 Y4.91894
G01 X71.83491 Y4.87063
G01 X71.82538 Y4.86824
G01 X71.81565 Y4.86674
G01 X71.64982 Y4.85041
G01 X71.63021 Y4.85041
G01 X71.46442 Y4.86674
G01 X71.45469 Y4.86824
G01 X71.44517 Y4.87063
G01 X71.28571 Y4.91894
G01 X71.26760 Y4.92646
G01 X71.12063 Y5.00504
G01 X71.11225 Y5.01010
G01 X71.10438 Y5.01592
G01 X70.97555 Y5.12166
G01 X70.96170 Y5.13550
G01 X70.85599 Y5.26425
G01 X70.85017 Y5.27220
G01 X70.84509 Y5.28056
G01 X70.76653 Y5.42757
G01 X70.75906 Y5.44568
G01 X70.71065 Y5.60512
G01 X70.70826 Y5.61459
G01 X70.70681 Y5.62430
G01 X70.69051 Y5.79013
G01 X70.69051 Y5.80974
G01 X70.70681 Y5.97555
G01 X70.70826 Y5.98528
G01 X70.71065 Y5.99483
G01 X70.75906 Y6.15429
G01 X70.76234 Y6.16354
G01 X70.76653 Y6.17240
G01 X70.84509 Y6.31932
G01 X70.85017 Y6.32777
G01 X70.85599 Y6.33560
G01 X70.96170 Y6.46445
G01 X70.97555 Y6.47832
G01 X71.10438 Y6.58401
G01 X71.11225 Y6.58988
G01 X71.12063 Y6.59493
G01 X71.26760 Y6.67344
G01 X71.28571 Y6.68099
G01 X71.44517 Y6.72932
G01 X71.45469 Y6.73174
G01 X71.46442 Y6.73316
G01 X71.63021 Y6.74949
G01 X71.64982 Y6.74949
G01 X71.81565 Y6.73316
G01 X71.82538 Y6.73174
G01 X71.83491 Y6.72932
G01 X71.99432 Y6.68099
G01 X72.01243 Y6.67344
G01 X72.15939 Y6.59493
G01 X72.16782 Y6.58988
G01 X72.17570 Y6.58401
G01 X72.30453 Y6.47832
G01 X72.31837 Y6.46445
G01 X72.42408 Y6.33560
G01 X72.42993 Y6.32777
G01 X72.43498 Y6.31932
G01 X72.51349 Y6.17240
G01 X72.52104 Y6.15429
G01 X72.56937 Y5.99483
G01 X72.57176 Y5.98528
G01 X72.57321 Y5.97555
G01 X72.58959 Y5.80974
G01 X72.58959 Y5.79013
G04 P0 ( dwell for no time -- G64 should not smooth over this point )
G00 Z5.00000 ( retract )

G00 X72.24311 Y2.16190 ( rapid move to begin. )
G01 F250.00000
( Mill infeed pass 1/1 )
G01 Z-0.05000
G04 P0 ( dwell for no time -- G64 should not smooth over this point )
G01 F500.00000
G01 X72.24311 Y2.16190
G01 X72.06925 Y2.08082
G01 X71.85794 Y2.02425
G01 X71.64009 Y2.00520
G01 X71.42221 Y2.02425
G01 X71.21085 Y2.08082
G01 X71.03699 Y2.16190
G01 X71.26363 Y2.38857
G01 X71.26760 Y2.38646
G01 X71.28571 Y2.37894
G01 X71.44517 Y2.33063
G01 X71.45469 Y2.32819
G01 X71.46442 Y2.32679
G01 X71.63021 Y2.31046
G01 X71.64982 Y2.31046
G01 X71.81565 Y2.32679
G01 X71.82538 Y2.32819
G01 X71.83491 Y2.33063
G01 X71.99432 Y2.37894
G01 X72.01243 Y2.38646
G01 X72.01646 Y2.38857
G01 X72.24311 Y2.16190
G01 X72.16358 Y2.16891
G01 X72.07138 Y2.19217
G01 X72.03490 Y2.17521
G01 X71.84054 Y2.12306
G01 X71.84059 Y2.12260
G01 X71.84054 Y2.12306
G01 X71.64009 Y2.10553
G01 X71.64009 Y2.10515
G01 X71.64009 Y2.10553
G01 X71.43961 Y2.12306
G01 X71.43948 Y2.12260
G01 X71.43961 Y2.12306
G01 X71.24519 Y2.17521
G01 X71.20867 Y2.19217
G01 X71.11652 Y2.16888
G01 X71.20867 Y2.19217
G01 X71.28974 Y2.27322
G01 X71.28571 Y2.28857
G01 X71.28974 Y2.27322
G01 X71.41616 Y2.23487
G01 X71.45464 Y2.22728
G01 X71.62040 Y2.21089
G01 X71.65962 Y2.21089
G01 X71.82546 Y2.22728
G01 X71.86391 Y2.23487
G01 X71.99033 Y2.27322
G01 X71.99437 Y2.28859
G01 X71.99033 Y2.27322
G01 X72.07138 Y2.19217
G04 P0 ( dwell for no time -- G64 should not smooth over this point )
G00 Z5.00000 ( retract )

G00 X70.14911 Y3.24033 ( rapid move to begin. )
G01 F250.00000
( Mill infeed pass 1/1 )
G01 Z-0.05000
G04 P0 ( dwell for no time -- G64 should not smooth over this point )
G01 F500.00000
G01 X70.14911 Y3.24033
G01 X70.13272 Y3.07457
G01 X70.12983 Y3.05509
G01 X70.12510 Y3.03606
G01 X70.07672 Y2.87663
G01 X70.06171 Y2.84038
G01 X69.98314 Y2.69342
G01 X69.97489 Y2.67960
G01 X69.96983 Y2.67221
G01 X69.96140 Y2.66088
G01 X69.85569 Y2.53202
G01 X69.82792 Y2.50434
G01 X69.69917 Y2.39862
G01 X69.68772 Y2.39017
G01 X69.68040 Y2.38516
G01 X69.66653 Y2.37683
G01 X69.51962 Y2.29824
G01 X69.48335 Y2.28331
G01 X69.32389 Y2.23487
G01 X69.28543 Y2.22728
G01 X69.11965 Y2.21089
G01 X69.08045 Y2.21089
G01 X68.91459 Y2.22728
G01 X68.87614 Y2.23487
G01 X68.71667 Y2.28331
G01 X68.68048 Y2.29824
G01 X68.53349 Y2.37683
G01 X68.51980 Y2.38501
G01 X68.51205 Y2.39032
G01 X68.50093 Y2.39862
G01 X68.37212 Y2.50434
G01 X68.34436 Y2.53202
G01 X68.23870 Y2.66088
G01 X68.23047 Y2.67188
G01 X68.22506 Y2.67985
G01 X68.21690 Y2.69342
G01 X68.13834 Y2.84038
G01 X68.12333 Y2.87663
G01 X68.07499 Y3.03606
G01 X68.07019 Y3.05509
G01 X68.06730 Y3.07457
G01 X68.05099 Y3.24033
G01 X68.05099 Y3.27960
G01 X68.06730 Y3.44536
G01 X68.07019 Y3.46484
G01 X68.07499 Y3.48386
G01 X68.12333 Y3.64333
G01 X68.13834 Y3.67949
G01 X68.21690 Y3.82651
G01 X68.22699 Y3.84332
G01 X68.23870 Y3.85910
G01 X68.34436 Y3.98790
G01 X68.37212 Y4.01561
G01 X68.50093 Y4.12133
G01 X68.51670 Y4.13304
G01 X68.53349 Y4.14312
G01 X68.68048 Y4.22161
G01 X68.71667 Y4.23667
G01 X68.87614 Y4.28498
G01 X68.91459 Y4.29265
G01 X69.08045 Y4.30898
G01 X69.11965 Y4.30898
G01 X69.28543 Y4.29265
G01 X69.32389 Y4.28498
G01 X69.48335 Y4.23667
G01 X69.51962 Y4.22161
G01 X69.66653 Y4.14312
G01 X69.68010 Y4.13494
G01 X69.68820 Y4.12940
G01 X69.69917 Y4.12133
G01 X69.82792 Y4.01561
G01 X69.85569 Y3.98790
G01 X69.96140 Y3.85910
G01 X69.96963 Y3.84795
G01 X69.97496 Y3.84010
G01 X69.98314 Y3.82651
G01 X70.06171 Y3.67949
G01 X70.07672 Y3.64333
G01 X70.12510 Y3.48386
G01 X70.12983 Y3.46484
G01 X70.13272 Y3.44536
G01 X70.14911 Y3.27960
G01 X70.14911 Y3.24033
G01 X70.04956 Y3.25013
G01 X70.03323 Y3.08430
G01 X70.03181 Y3.07464
G01 X70.02940 Y3.06512
G01 X69.98101 Y2.90563
G01 X69.97352 Y2.88755
G01 X69.89495 Y2.74058
G01 X69.88990 Y2.73215
G01 X69.88406 Y2.72430
G01 X69.77834 Y2.59545
G01 X69.76450 Y2.58161
G01 X69.63570 Y2.47589
G01 X69.62780 Y2.47010
G01 X69.61944 Y2.46499
G01 X69.47245 Y2.38646
G01 X69.45434 Y2.37894
G01 X69.29488 Y2.33063
G01 X69.28535 Y2.32819
G01 X69.27570 Y2.32679
G01 X69.10984 Y2.31046
G01 X69.09023 Y2.31046
G01 X68.92440 Y2.32679
G01 X68.91467 Y2.32819
G01 X68.90522 Y2.33063
G01 X68.74576 Y2.37894
G01 X68.72760 Y2.38646
G01 X68.58066 Y2.46499
G01 X68.57222 Y2.47010
G01 X68.56435 Y2.47589
G01 X68.43552 Y2.58161
G01 X68.42168 Y2.59545
G01 X68.31596 Y2.72430
G01 X68.31015 Y2.73215
G01 X68.30507 Y2.74058
G01 X68.22656 Y2.88755
G01 X68.21904 Y2.90563
G01 X68.17070 Y3.06512
G01 X68.16829 Y3.07464
G01 X68.16687 Y3.08430
G01 X68.15048 Y3.25013
G01 X68.15048 Y3.26979
G01 X68.16687 Y3.43555
G01 X68.16829 Y3.44533
G01 X68.17070 Y3.45478
G01 X68.21904 Y3.61429
G01 X68.22239 Y3.62354
G01 X68.22656 Y3.63235
G01 X68.30507 Y3.77937
G01 X68.31015 Y3.78777
G01 X68.31596 Y3.79565
G01 X68.42168 Y3.92448
G01 X68.43552 Y3.93827
G01 X68.56435 Y4.04398
G01 X68.57222 Y4.04988
G01 X68.58066 Y4.05493
G01 X68.72760 Y4.13342
G01 X68.74576 Y4.14099
G01 X68.90522 Y4.18930
G01 X68.91467 Y4.19174
G01 X68.92440 Y4.19318
G01 X69.09023 Y4.20947
G01 X69.10984 Y4.20947
G01 X69.27570 Y4.19318
G01 X69.28535 Y4.19174
G01 X69.29488 Y4.18930
G01 X69.45434 Y4.14099
G01 X69.47245 Y4.13342
G01 X69.61944 Y4.05493
G01 X69.62780 Y4.04988
G01 X69.63570 Y4.04398
G01 X69.76450 Y3.93827
G01 X69.77834 Y3.92448
G01 X69.88406 Y3.79565
G01 X69.88990 Y3.78777
G01 X69.89495 Y3.77937
G01 X69.97352 Y3.63235
G01 X69.98101 Y3.61429
G01 X70.02940 Y3.45478
G01 X70.03181 Y3.44533
G01 X70.03323 Y3.43555
G01 X70.04956 Y3.26979
G01 X70.04956 Y3.25013
G04 P0 ( dwell for no time -- G64 should not smooth over this point )
G00 Z5.00000 ( retract )

G00 X70.14911 Y5.78033 ( rapid move to begin. )
G01 F250.00000
( Mill infeed pass 1/1 )
G01 Z-0.05000
G04 P0 ( dwell for no time -- G64 should not smooth over this point )
G01 F500.00000
G01 X70.14911 Y5.78033
G01 X70.13272 Y5.61452
G01 X70.12983 Y5.59514
G01 X70.12510 Y5.57611
G01 X70.07672 Y5.41660
G01 X70.06171 Y5.38038
G01 X69.98314 Y5.23347
G01 X69.97484 Y5.21957
G01 X69.96988 Y5.21231
G01 X69.96140 Y5.20083
G01 X69.85569 Y5.07208
G01 X69.82792 Y5.04429
G01 X69.69917 Y4.93857
G01 X69.68772 Y4.93009
G01 X69.68045 Y4.92514
G01 X69.66653 Y4.91681
G01 X69.51962 Y4.83827
G01 X69.48335 Y4.82331
G01 X69.32389 Y4.77487
G01 X69.28543 Y4.76722
G01 X69.11965 Y4.75089
G01 X69.08045 Y4.75089
G01 X68.91459 Y4.76722
G01 X68.87614 Y4.77487
G01 X68.71667 Y4.82331
G01 X68.68048 Y4.83827
G01 X68.53349 Y4.91681
G01 X68.51670 Y4.92694
G01 X68.50093 Y4.93857
G01 X68.37212 Y5.04429
G01 X68.34436 Y5.07208
G01 X68.23870 Y5.20083
G01 X68.22699 Y5.21663
G01 X68.21690 Y5.23347
G01 X68.13834 Y5.38038
G01 X68.12333 Y5.41660
G01 X68.07499 Y5.57611
G01 X68.07019 Y5.59514
G01 X68.06730 Y5.61452
G01 X68.05099 Y5.78033
G01 X68.05099 Y5.81955
G01 X68.06730 Y5.98536
G01 X68.07019 Y6.00484
G01 X68.07499 Y6.02386
G01 X68.12333 Y6.18327
G01 X68.13834 Y6.21949
G01 X68.21690 Y6.36648
G01 X68.23870 Y6.39910
G01 X68.34436 Y6.52790
G01 X68.37212 Y6.55561
G01 X68.50093 Y6.66133
G01 X68.51165 Y6.66928
G01 X68.52008 Y6.67504
G01 X68.53349 Y6.68310
G01 X68.68048 Y6.76166
G01 X68.69818 Y6.77004
G01 X68.71667 Y6.77664
G01 X68.87614 Y6.82501
G01 X68.91459 Y6.83270
G01 X69.08045 Y6.84903
G01 X69.11965 Y6.84903
G01 X69.28543 Y6.83270
G01 X69.30489 Y6.82981
G01 X69.32389 Y6.82501
G01 X69.48335 Y6.77664
G01 X69.51962 Y6.76166
G01 X69.66653 Y6.68310
G01 X69.68012 Y6.67497
G01 X69.68812 Y6.66951
G01 X69.69917 Y6.66133
G01 X69.82792 Y6.55561
G01 X69.85569 Y6.52790
G01 X69.96140 Y6.39910
G01 X69.96968 Y6.38792
G01 X69.97496 Y6.38018
G01 X69.98314 Y6.36648
G01 X70.06171 Y6.21949
G01 X70.07672 Y6.18327
G01 X70.12510 Y6.02386
G01 X70.12983 Y6.00484
G01 X70.13272 Y5.98536
G01 X70.14911 Y5.81955
G01 X70.14911 Y5.78033
G01 X70.04956 Y5.79013
G01 X70.03323 Y5.62430
G01 X70.03181 Y5.61459
G01 X70.02940 Y5.60512
G01 X69.98101 Y5.44568
G01 X69.97352 Y5.42757
G01 X69.89495 Y5.28056
G01 X69.88990 Y5.27220
G01 X69.88406 Y5.26425
G01 X69.77834 Y5.13550
G01 X69.76450 Y5.12166
G01 X69.63570 Y5.01592
G01 X69.62780 Y5.01010
G01 X69.61944 Y5.00504
G01 X69.47245 Y4.92646
G01 X69.45434 Y4.91894
G01 X69.29488 Y4.87063
G01 X69.28535 Y4.86824
G01 X69.27570 Y4.86674
G01 X69.10984 Y4.85041
G01 X69.09023 Y4.85041
G01 X68.92440 Y4.86674
G01 X68.91467 Y4.86824
G01 X68.90522 Y4.87063
G01 X68.74576 Y4.91894
G01 X68.72760 Y4.92646
G01 X68.58066 Y5.00504
G01 X68.57222 Y5.01010
G01 X68.56435 Y5.01592
G01 X68.43552 Y5.12166
G01 X68.42168 Y5.13550
G01 X68.31596 Y5.26425
G01 X68.31015 Y5.27220
G01 X68.30507 Y5.28056
G01 X68.22656 Y5.42757
G01 X68.21904 Y5.44568
G01 X68.17070 Y5.60512
G01 X68.16829 Y5.61459
G01 X68.16687 Y5.62430
G01 X68.15048 Y5.79013
G01 X68.15048 Y5.80974
G01 X68.16687 Y5.97555
G01 X68.16829 Y5.98528
G01 X68.17070 Y5.99483
G01 X68.21904 Y6.15429
G01 X68.22239 Y6.16354
G01 X68.22656 Y6.17240
G01 X68.30507 Y6.31932
G01 X68.31015 Y6.32777
G01 X68.31596 Y6.33560
G01 X68.42168 Y6.46445
G01 X68.43552 Y6.47832
G01 X68.56435 Y6.58401
G01 X68.57222 Y6.58988
G01 X68.58066 Y6.59493
G01 X68.72760 Y6.67344
G01 X68.74576 Y6.68099
G01 X68.90522 Y6.72932
G01 X68.91467 Y6.73174
G01 X68.92440 Y6.73316
G01 X69.09023 Y6.74949
G01 X69.10984 Y6.74949
G01 X69.27570 Y6.73316
G01 X69.28535 Y6.73174
G01 X69.29488 Y6.72932
G01 X69.45434 Y6.68099
G01 X69.47245 Y6.67344
G01 X69.61944 Y6.59493
G01 X69.62780 Y6.58988
G01 X69.63570 Y6.58401
G01 X69.76450 Y6.47832
G01 X69.77834 Y6.46445
G01 X69.88406 Y6.33560
G01 X69.88990 Y6.32777
G01 X69.89495 Y6.31932
G01 X69.97352 Y6.17240
G01 X69.98101 Y6.15429
G01 X70.02940 Y5.99483
G01 X70.03181 Y5.98528
G01 X70.03323 Y5.97555
G01 X70.04956 Y5.80974
G01 X70.04956 Y5.79013
G04 P0 ( dwell for no time -- G64 should not smooth over this point )
G00 Z5.00000 ( retract )

G00 X67.60908 Y5.78033 ( rapid move to begin. )
G01 F250.00000
( Mill infeed pass 1/1 )
G01 Z-0.05000
G04 P0 ( dwell for no time -- G64 should not smooth over this point )
G01 F500.00000
G01 X67.60908 Y5.78033
G01 X67.60908 Y5.81955
G01 X67.59275 Y5.98536
G01 X67.58983 Y6.00484
G01 X67.58508 Y6.02386
G01 X67.53669 Y6.18327
G01 X67.52173 Y6.21949
G01 X67.44317 Y6.36648
G01 X67.43494 Y6.38018
G01 X67.42966 Y6.38792
G01 X67.42138 Y6.39910
G01 X67.31566 Y6.52790
G01 X67.28795 Y6.55561
G01 X67.15915 Y6.66133
G01 X67.14817 Y6.66951
G01 X67.14015 Y6.67497
G01 X67.12658 Y6.68310
G01 X66.97959 Y6.76166
G01 X66.94340 Y6.77664
G01 X66.78394 Y6.82501
G01 X66.76486 Y6.82981
G01 X66.74546 Y6.83270
G01 X66.57962 Y6.84903
G01 X66.54040 Y6.84903
G01 X66.37459 Y6.83270
G01 X66.33614 Y6.82501
G01 X66.17673 Y6.77664
G01 X66.15821 Y6.77004
G01 X66.14045 Y6.76166
G01 X65.99354 Y6.68310
G01 X65.98010 Y6.67504
G01 X65.97167 Y6.66928
G01 X65.96090 Y6.66133
G01 X65.83210 Y6.55561
G01 X65.80439 Y6.52790
G01 X65.69867 Y6.39910
G01 X65.67688 Y6.36648
G01 X65.59837 Y6.21949
G01 X65.58336 Y6.18327
G01 X65.53497 Y6.02386
G01 X65.53022 Y6.00484
G01 X65.52730 Y5.98536
G01 X65.51097 Y5.81955
G01 X65.51097 Y5.78033
G01 X65.52730 Y5.61452
G01 X65.53022 Y5.59514
G01 X65.53497 Y5.57611
G01 X65.58336 Y5.41660
G01 X65.59837 Y5.38038
G01 X65.67688 Y5.23347
G01 X65.68696 Y5.21663
G01 X65.69867 Y5.20083
G01 X65.80439 Y5.07208
G01 X65.83210 Y5.04429
G01 X65.96090 Y4.93857
G01 X65.97667 Y4.92694
G01 X65.99354 Y4.91681
G01 X66.14045 Y4.83827
G01 X66.17673 Y4.82331
G01 X66.33614 Y4.77487
G01 X66.37459 Y4.76722
G01 X66.54040 Y4.75089
G01 X66.57962 Y4.75089
G01 X66.74546 Y4.76722
G01 X66.78394 Y4.77487
G01 X66.94340 Y4.82331
G01 X66.97959 Y4.83827
G01 X67.12658 Y4.91681
G01 X67.14337 Y4.92694
G01 X67.15915 Y4.93857
G01 X67.28795 Y5.04429
G01 X67.31566 Y5.07208
G01 X67.42138 Y5.20083
G01 X67.43309 Y5.21663
G01 X67.44317 Y5.23347
G01 X67.52173 Y5.38038
G01 X67.52521 Y5.38879
G01 X67.53669 Y5.41660
G01 X67.58508 Y5.57611
G01 X67.58983 Y5.59514
G01 X67.59275 Y5.61452
G01 X67.60908 Y5.78033
G01 X67.50954 Y5.79013
G01 X67.49321 Y5.62430
G01 X67.49178 Y5.61459
G01 X67.48937 Y5.60512
G01 X67.44104 Y5.44568
G01 X67.43349 Y5.42757
G01 X67.35495 Y5.28056
G01 X67.34993 Y5.27220
G01 X67.34411 Y5.26425
G01 X67.23839 Y5.13550
G01 X67.22455 Y5.12166
G01 X67.09572 Y5.01592
G01 X67.08785 Y5.01010
G01 X67.07942 Y5.00504
G01 X66.93243 Y4.92646
G01 X66.91432 Y4.91894
G01 X66.75488 Y4.87063
G01 X66.74541 Y4.86824
G01 X66.73565 Y4.86674
G01 X66.56982 Y4.85041
G01 X66.55021 Y4.85041
G01 X66.38440 Y4.86674
G01 X66.37472 Y4.86824
G01 X66.36519 Y4.87063
G01 X66.20571 Y4.91894
G01 X66.18762 Y4.92646
G01 X66.04063 Y5.00504
G01 X66.03228 Y5.01010
G01 X66.02438 Y5.01592
G01 X65.89557 Y5.12166
G01 X65.88173 Y5.13550
G01 X65.77601 Y5.26425
G01 X65.77012 Y5.27220
G01 X65.76509 Y5.28056
G01 X65.68653 Y5.42757
G01 X65.67901 Y5.44568
G01 X65.63068 Y5.60512
G01 X65.62826 Y5.61459
G01 X65.62681 Y5.62430
G01 X65.61051 Y5.79013
G01 X65.61051 Y5.80974
G01 X65.62681 Y5.97555
G01 X65.62826 Y5.98528
G01 X65.63068 Y5.99483
G01 X65.67901 Y6.15429
G01 X65.68236 Y6.16354
G01 X65.68653 Y6.17240
G01 X65.76509 Y6.31932
G01 X65.77012 Y6.32777
G01 X65.77601 Y6.33560
G01 X65.88173 Y6.46445
G01 X65.89557 Y6.47832
G01 X66.02438 Y6.58401
G01 X66.03228 Y6.58988
G01 X66.04063 Y6.59493
G01 X66.18762 Y6.67344
G01 X66.20571 Y6.68099
G01 X66.36519 Y6.72932
G01 X66.37472 Y6.73174
G01 X66.38440 Y6.73316
G01 X66.55021 Y6.74949
G01 X66.56982 Y6.74949
G01 X66.73565 Y6.73316
G01 X66.74541 Y6.73174
G01 X66.75488 Y6.72932
G01 X66.91432 Y6.68099
G01 X66.93243 Y6.67344
G01 X67.07942 Y6.59493
G01 X67.08785 Y6.58988
G01 X67.09572 Y6.58401
G01 X67.22455 Y6.47832
G01 X67.23839 Y6.46445
G01 X67.34411 Y6.33560
G01 X67.34993 Y6.32777
G01 X67.35495 Y6.31932
G01 X67.43349 Y6.17240
G01 X67.44104 Y6.15429
G01 X67.48937 Y5.99483
G01 X67.49178 Y5.98528
G01 X67.49321 Y5.97555
G01 X67.50954 Y5.80974
G01 X67.50954 Y5.79013
G01 X67.52521 Y5.38879
G01 X67.60657 Y3.30535
G01 X67.60908 Y3.24033
G01 X67.59275 Y3.07457
G01 X67.58983 Y3.05509
G01 X67.58508 Y3.03606
G01 X67.53669 Y2.87663
G01 X67.52173 Y2.84038
G01 X67.44317 Y2.69342
G01 X67.43481 Y2.67957
G01 X67.42986 Y2.67226
G01 X67.42138 Y2.66088
G01 X67.31566 Y2.53202
G01 X67.28795 Y2.50434
G01 X67.15915 Y2.39862
G01 X67.14777 Y2.39017
G01 X67.14043 Y2.38516
G01 X67.12658 Y2.37683
G01 X66.97959 Y2.29824
G01 X66.94340 Y2.28331
G01 X66.78394 Y2.23487
G01 X66.74546 Y2.22728
G01 X66.57962 Y2.21089
G01 X66.54040 Y2.21089
G01 X66.37459 Y2.22728
G01 X66.33614 Y2.23487
G01 X66.17673 Y2.28331
G01 X66.14045 Y2.29824
G01 X65.99354 Y2.37683
G01 X65.97982 Y2.38501
G01 X65.97208 Y2.39032
G01 X65.96090 Y2.39862
G01 X65.83210 Y2.50434
G01 X65.80439 Y2.53202
G01 X65.69867 Y2.66088
G01 X65.69047 Y2.67188
G01 X65.68511 Y2.67985
G01 X65.67688 Y2.69342
G01 X65.59837 Y2.84038
G01 X65.58336 Y2.87663
G01 X65.53497 Y3.03606
G01 X65.53022 Y3.05509
G01 X65.52730 Y3.07457
G01 X65.51097 Y3.24033
G01 X65.51097 Y3.27960
G01 X65.52730 Y3.44536
G01 X65.53022 Y3.46484
G01 X65.53497 Y3.48386
G01 X65.58336 Y3.64333
G01 X65.59837 Y3.67949
G01 X65.67688 Y3.82651
G01 X65.68696 Y3.84332
G01 X65.69867 Y3.85910
G01 X65.80439 Y3.98790
G01 X65.83210 Y4.01561
G01 X65.96090 Y4.12133
G01 X65.97667 Y4.13304
G01 X65.99354 Y4.14312
G01 X66.14045 Y4.22161
G01 X66.17673 Y4.23667
G01 X66.33614 Y4.28498
G01 X66.37459 Y4.29265
G01 X66.54040 Y4.30898
G01 X66.57962 Y4.30898
G01 X66.74546 Y4.29265
G01 X66.78394 Y4.28498
G01 X66.94340 Y4.23667
G01 X66.97959 Y4.22161
G01 X67.12658 Y4.14312
G01 X67.14337 Y4.13304
G01 X67.15915 Y4.12133
G01 X67.28795 Y4.01561
G01 X67.31566 Y3.98790
G01 X67.42138 Y3.85910
G01 X67.43309 Y3.84332
G01 X67.44317 Y3.82651
G01 X67.52173 Y3.67949
G01 X67.53669 Y3.64333
G01 X67.58508 Y3.48386
G01 X67.58983 Y3.46484
G01 X67.59275 Y3.44536
G01 X67.60657 Y3.30535
G01 X67.60908 Y3.27960
G01 X67.60908 Y3.24033
G01 X67.50954 Y3.25013
G01 X67.49321 Y3.08430
G01 X67.49178 Y3.07464
G01 X67.48937 Y3.06512
G01 X67.44104 Y2.90563
G01 X67.43349 Y2.88755
G01 X67.35495 Y2.74058
G01 X67.34993 Y2.73215
G01 X67.34411 Y2.72430
G01 X67.23839 Y2.59545
G01 X67.22455 Y2.58161
G01 X67.09572 Y2.47589
G01 X67.08785 Y2.47010
G01 X67.07942 Y2.46499
G01 X66.93243 Y2.38646
G01 X66.91432 Y2.37894
G01 X66.75488 Y2.33063
G01 X66.74541 Y2.32819
G01 X66.73565 Y2.32679
G01 X66.56982 Y2.31046
G01 X66.55021 Y2.31046
G01 X66.38440 Y2.32679
G01 X66.37472 Y2.32819
G01 X66.36519 Y2.33063
G01 X66.20571 Y2.37894
G01 X66.18762 Y2.38646
G01 X66.04063 Y2.46499
G01 X66.03228 Y2.47010
G01 X66.02438 Y2.47589
G01 X65.89557 Y2.58161
G01 X65.88173 Y2.59545
G01 X65.77601 Y2.72430
G01 X65.77012 Y2.73215
G01 X65.76509 Y2.74058
G01 X65.68653 Y2.88755
G01 X65.67901 Y2.90563
G01 X65.63068 Y3.06512
G01 X65.62826 Y3.07464
G01 X65.62681 Y3.08430
G01 X65.61051 Y3.25013
G01 X65.61051 Y3.26979
G01 X65.62681 Y3.43555
G01 X65.62826 Y3.44533
G01 X65.63068 Y3.45478
G01 X65.67901 Y3.61429
G01 X65.68236 Y3.62354
G01 X65.68653 Y3.63235
G01 X65.76509 Y3.77937
G01 X65.77012 Y3.78777
G01 X65.77601 Y3.79565
G01 X65.88173 Y3.92448
G01 X65.89557 Y3.93827
G01 X66.02438 Y4.04398
G01 X66.03228 Y4.04988
G01 X66.04063 Y4.05493
G01 X66.18762 Y4.13342
G01 X66.20571 Y4.14099
G01 X66.36519 Y4.18930
G01 X66.37472 Y4.19174
G01 X66.38440 Y4.19318
G01 X66.55021 Y4.20947
G01 X66.56982 Y4.20947
G01 X66.73565 Y4.19318
G01 X66.74541 Y4.19174
G01 X66.75488 Y4.18930
G01 X66.91432 Y4.14099
G01 X66.93243 Y4.13342
G01 X67.07942 Y4.05493
G01 X67.08785 Y4.04988
G01 X67.09572 Y4.04398
G01 X67.22455 Y3.93827
G01 X67.23839 Y3.92448
G01 X67.34411 Y3.79565
G01 X67.34993 Y3.78777
G01 X67.35495 Y3.77937
G01 X67.43349 Y3.63235
G01 X67.44104 Y3.61429
G01 X67.48937 Y3.45478
G01 X67.49178 Y3.44533
G01 X67.49321 Y3.43555
G01 X67.50954 Y3.26979
G01 X67.50954 Y3.25013
G04 P0 ( dwell for no time -- G64 should not smooth over this point )
G00 Z5.00000 ( retract )

G00 X65.06906 Y5.78033 ( rapid move to begin. )
G01 F250.00000
( Mill infeed pass 1/1 )
G01 Z-0.05000
