( pcb2gcode 2.5.0 )
( Software-independent Gcode )

G94 ( Millimeters per minute feed rate. )
G21 ( Units == Millimeters. )

G90 ( Absolute coordinates. )
G00 S10000 ( RPM spindle speed. )
G64 P0.01000 ( set maximum deviation from commanded toolpath )
G01 F600.00000 ( Feedrate. )


G00 Z10.00000 (Retract to tool change height)
T1
M5      (Spindle stop.)
G04 P1.00000 (Wait for spindle to stop)
(MSG, Change tool bit to mill diameter 0.20000mm)
M6      (Tool change.)
M0      (Temporary machine stop.)
M3 ( Spindle on clockwise. )
G04 P1.00000 (Wait for spindle to get up to speed)
G04 P0 ( dwell for no time -- G64 should not smooth over this point )
G00 Z5.00000 ( retract )

G00 X100.00000 Y0.05621 ( rapid move to begin. )
G01 F300.00000
( Mill infeed pass 1/1 )
G01 Z-0.05000
G04 P0 ( dwell for no time -- G64 should not smooth over this point )
G01 F600.00000
G01 X100.00000 Y0.05621
G01 X100.00000 Y69.94365
G01 X99.99510 Y69.94959
G01 X99.94968 Y69.99496
G01 X99.94371 Y69.99996
G01 X0.05633 Y69.99996
G01 X0.05042 Y69.99496
G01 X0.00500 Y69.94959
G01 X0.00007 Y69.94365
G01 X0.00007 Y0.05621
G01 X0.00500 Y0.05032
G01 X0.05042 Y0.00490
G01 X0.05631 Y0.00000
G01 X99.94379 Y0.00000
G01 X99.94968 Y0.00490
G01 X99.99510 Y0.05032
G01 X100.00000 Y0.05621
G01 X99.99954 Y0.32446
G01 X99.99954 Y69.67548
G01 X99.99782 Y69.70154
G01 X99.99274 Y69.72722
G01 X99.97615 Y69.78919
G01 X99.96419 Y69.82193
G01 X99.94676 Y69.85218
G01 X99.92436 Y69.87883
G01 X99.87894 Y69.92427
G01 X99.85225 Y69.94670
G01 X99.82205 Y69.96412
G01 X99.78931 Y69.97601
G01 X99.72728 Y69.99262
G01 X99.70163 Y69.99770
G01 X99.67554 Y69.99948
G01 X0.32456 Y69.99948
G01 X0.29842 Y69.99770
G01 X0.27277 Y69.99262
G01 X0.21077 Y69.97601
G01 X0.17800 Y69.96412
G01 X0.14782 Y69.94670
G01 X0.12110 Y69.92427
G01 X0.07577 Y69.87883
G01 X0.05331 Y69.85218
G01 X0.03589 Y69.82193
G01 X0.02395 Y69.78919
G01 X0.00734 Y69.72722
G01 X0.00223 Y69.70154
G01 X0.00056 Y69.67548
G01 X0.00056 Y0.32446
G01 X0.00223 Y0.29837
G01 X0.00734 Y0.27272
G01 X0.02395 Y0.21069
G01 X0.03589 Y0.17795
G01 X0.05331 Y0.14775
G01 X0.07577 Y0.12106
G01 X0.12110 Y0.07564
G01 X0.14782 Y0.05324
G01 X0.17800 Y0.03581
G01 X0.21077 Y0.02385
G01 X0.27277 Y0.00726
G01 X0.29842 Y0.00218
G01 X0.32456 Y0.00046
G01 X99.67554 Y0.00046
G01 X99.70163 Y0.00218
G01 X99.72728 Y0.00726
G01 X99.78931 Y0.02385
G01 X99.82205 Y0.03581
G01 X99.85225 Y0.05324
G01 X99.87894 Y0.07564
G01 X99.92436 Y0.12106
G01 X99.94676 Y0.14775
G01 X99.96419 Y0.17795
G01 X99.97615 Y0.21069
G01 X99.99274 Y0.27272
G01 X99.99782 Y0.29837
G01 X99.99954 Y0.32446
G01 X99.89954 Y0.32446
G01 X99.89868 Y0.31140
G01 X99.89616 Y0.29860
G01 X99.87955 Y0.23660
G01 X99.87361 Y0.22022
G01 X99.86485 Y0.20511
G01 X99.85367 Y0.19177
G01 X99.80823 Y0.14633
G01 X99.79489 Y0.13515
G01 X99.77978 Y0.12639
G01 X99.76340 Y0.12045
G01 X99.70140 Y0.10384
G01 X99.68860 Y0.10132
G01 X99.67554 Y0.10046
G01 X0.32456 Y0.10046
G01 X0.31148 Y0.10132
G01 X0.29865 Y0.10384
G01 X0.23667 Y0.12045
G01 X0.22029 Y0.12639
G01 X0.20520 Y0.13515
G01 X0.19182 Y0.14633
G01 X0.14645 Y0.19177
G01 X0.13523 Y0.20511
G01 X0.12651 Y0.22022
G01 X0.12055 Y0.23660
G01 X0.10393 Y0.29860
G01 X0.10142 Y0.31140
G01 X0.10053 Y0.32446
G01 X0.10053 Y69.67548
G01 X0.10142 Y69.68848
G01 X0.10393 Y69.70131
G01 X0.12055 Y69.76334
G01 X0.12651 Y69.77972
G01 X0.13523 Y69.79483
G01 X0.14645 Y69.80814
G01 X0.19182 Y69.85356
G01 X0.20520 Y69.86478
G01 X0.22029 Y69.87349
G01 X0.23667 Y69.87941
G01 X0.29865 Y69.89602
G01 X0.31148 Y69.89862
G01 X0.32456 Y69.89948
G01 X99.67554 Y69.89948
G01 X99.68860 Y69.89862
G01 X99.70140 Y69.89602
G01 X99.76340 Y69.87941
G01 X99.77978 Y69.87349
G01 X99.79489 Y69.86478
G01 X99.80823 Y69.85356
G01 X99.85367 Y69.80814
G01 X99.86485 Y69.79483
G01 X99.87361 Y69.77972
G01 X99.87955 Y69.76334
G01 X99.89616 Y69.70131
G01 X99.89868 Y69.68848
G01 X99.89954 Y69.67548
G01 X99.89954 Y0.32446
G04 P0 ( dwell for no time -- G64 should not smooth over this point )
G00 Z5.00000 ( retract )

G00 X95.75480 Y3.25994 ( rapid move to begin. )
G01 F300.00000
( Mill infeed pass 1/1 )
G01 Z-0.05000
G04 P0 ( dwell for no time -- G64 should not smooth over this point )
G01 F600.00000
G01 X95.75480 Y3.25994
G01 X95.73575 Y3.47779
G01 X95.67916 Y3.68915
G01 X95.59808 Y3.86296
G01 X95.37138 Y3.63637
G01 X95.37349 Y3.63235
G01 X95.37771 Y3.62354
G01 X95.38101 Y3.61429
G01 X95.42942 Y3.45478
G01 X95.43321 Y3.43555
G01 X95.44954 Y3.26979
G01 X95.45005 Y3.25994
G01 X95.44954 Y3.25013
G01 X95.43321 Y3.08430
G01 X95.43176 Y3.07464
G01 X95.42942 Y3.06512
G01 X95.38101 Y2.90563
G01 X95.37771 Y2.89639
G01 X95.37349 Y2.88755
G01 X95.37138 Y2.88359
G01 X95.59808 Y2.65694
G01 X95.67916 Y2.83080
G01 X95.73575 Y3.04203
G01 X95.75480 Y3.25994
G01 X95.65480 Y3.25994
G01 X95.65447 Y3.25994
G01 X95.63689 Y3.05951
G01 X95.63745 Y3.05940
G01 X95.63689 Y3.05951
G01 X95.58479 Y2.86509
G01 X95.56778 Y2.82862
G01 X95.59104 Y2.73637
G01 X95.56778 Y2.82862
G01 X95.48672 Y2.90967
G01 X95.47090 Y2.90561
G01 X95.48672 Y2.90967
G01 X95.52508 Y3.03606
G01 X95.52983 Y3.05509
G01 X95.53272 Y3.07457
G01 X95.54906 Y3.24033
G01 X95.54906 Y3.27960
G01 X95.53272 Y3.44536
G01 X95.52983 Y3.46484
G01 X95.52508 Y3.48386
G01 X95.48672 Y3.61028
G01 X95.47090 Y3.61429
G01 X95.48672 Y3.61028
G01 X95.56778 Y3.69133
G01 X95.59107 Y3.78353
G01 X95.56778 Y3.69133
G01 X95.58479 Y3.65476
G01 X95.63689 Y3.46037
G01 X95.63745 Y3.46052
G01 X95.63689 Y3.46037
G01 X95.65447 Y3.25994
G04 P0 ( dwell for no time -- G64 should not smooth over this point )
G00 Z5.00000 ( retract )

G00 X95.10311 Y2.16190 ( rapid move to begin. )
G01 F300.00000
( Mill infeed pass 1/1 )
G01 Z-0.05000
G04 P0 ( dwell for no time -- G64 should not smooth over this point )
G01 F600.00000
G01 X95.10311 Y2.16190
G01 X94.92919 Y2.08082
G01 X94.71792 Y2.02425
G01 X94.50004 Y2.00520
G01 X94.28216 Y2.02425
G01 X94.07090 Y2.08082
G01 X93.89704 Y2.16190
G01 X94.12363 Y2.38857
G01 X94.12760 Y2.38646
G01 X94.14576 Y2.37894
G01 X94.30522 Y2.33063
G01 X94.32440 Y2.32679
G01 X94.49021 Y2.31046
G01 X94.50001 Y2.30993
G01 X94.50982 Y2.31046
G01 X94.67565 Y2.32679
G01 X94.69493 Y2.33063
G01 X94.85437 Y2.37894
G01 X94.86356 Y2.38224
G01 X94.87248 Y2.38646
G01 X94.87641 Y2.38857
G01 X95.10311 Y2.16190
G01 X95.02358 Y2.16891
G01 X94.93138 Y2.19217
G01 X94.89485 Y2.17521
G01 X94.70054 Y2.12306
G01 X94.70065 Y2.12260
G01 X94.70054 Y2.12306
G01 X94.50004 Y2.10553
G01 X94.50004 Y2.10515
G01 X94.50004 Y2.10553
G01 X94.29960 Y2.12306
G01 X94.29953 Y2.12260
G01 X94.29960 Y2.12306
G01 X94.10519 Y2.17521
G01 X94.06867 Y2.19217
G01 X93.97652 Y2.16888
G01 X94.06867 Y2.19217
G01 X94.14972 Y2.27322
G01 X94.14576 Y2.28910
G01 X94.14972 Y2.27322
G01 X94.27619 Y2.23487
G01 X94.29521 Y2.23017
G01 X94.31459 Y2.22728
G01 X94.48040 Y2.21089
G01 X94.50001 Y2.20998
G01 X94.51962 Y2.21089
G01 X94.68543 Y2.22728
G01 X94.70491 Y2.23017
G01 X94.72394 Y2.23487
G01 X94.85033 Y2.27322
G01 X94.85439 Y2.28910
G01 X94.85033 Y2.27322
G01 X94.93138 Y2.19217
G04 P0 ( dwell for no time -- G64 should not smooth over this point )
G00 Z5.00000 ( retract )

G00 X93.11007 Y3.25994 ( rapid move to begin. )
G01 F300.00000
( Mill infeed pass 1/1 )
G01 Z-0.05000
G04 P0 ( dwell for no time -- G64 should not smooth over this point )
G01 F600.00000
G01 X93.11007 Y3.25994
G01 X93.10857 Y3.28940
G01 X93.09224 Y3.45519
G01 X93.08076 Y3.51290
G01 X93.07492 Y3.53223
G01 X93.05963 Y3.54670
G01 X93.05683 Y3.54960
G01 X92.98053 Y3.63446
G01 X92.97779 Y3.63784
G01 X92.95313 Y3.67071
G01 X92.94449 Y3.68191
G01 X92.91665 Y3.71696
G01 X92.91482 Y3.71940
G01 X92.87903 Y3.77045
G01 X92.87738 Y3.77302
G01 X92.84642 Y3.82336
G01 X92.83496 Y3.84010
G01 X92.83364 Y3.84208
G01 X92.82961 Y3.84795
G01 X92.82000 Y3.86197
G01 X92.76445 Y3.93525
G01 X92.71876 Y3.98562
G01 X92.68574 Y4.01864
G01 X92.63535 Y4.06430
G01 X92.56209 Y4.11996
G01 X92.54081 Y4.13451
G01 X92.54012 Y4.13494
G01 X92.52346 Y4.14632
G01 X92.47352 Y4.17706
G01 X92.47098 Y4.17866
G01 X92.41993 Y4.21444
G01 X92.41754 Y4.21627
G01 X92.38198 Y4.24449
G01 X92.37121 Y4.25277
G01 X92.33796 Y4.27784
G01 X92.33458 Y4.28061
G01 X92.25033 Y4.35633
G01 X92.24744 Y4.35912
G01 X92.23273 Y4.37469
G01 X92.21292 Y4.38074
G01 X92.18439 Y4.38785
G01 X92.15526 Y4.39217
G01 X91.98942 Y4.40850
G01 X91.93060 Y4.40850
G01 X91.76481 Y4.39217
G01 X91.73568 Y4.38785
G01 X91.70710 Y4.38074
G01 X91.54764 Y4.33233
G01 X91.51993 Y4.32239
G01 X91.49331 Y4.30982
G01 X91.34635 Y4.23131
G01 X91.29748 Y4.19865
G01 X91.16870 Y4.09293
G01 X91.12707 Y4.05135
G01 X91.02135 Y3.92255
G01 X91.00385 Y3.89885
G01 X90.98871 Y3.87365
G01 X90.91015 Y3.72664
G01 X90.89755 Y3.70002
G01 X90.88765 Y3.67231
G01 X90.83926 Y3.51290
G01 X90.82778 Y3.45519
G01 X90.81145 Y3.28940
G01 X90.81003 Y3.25994
G01 X90.81145 Y3.23052
G01 X90.82778 Y3.06476
G01 X90.83926 Y3.00703
G01 X90.84528 Y2.98729
G01 X90.86083 Y2.97254
G01 X90.86367 Y2.96967
G01 X90.93939 Y2.88544
G01 X90.94223 Y2.88219
G01 X90.96718 Y2.84879
G01 X90.97551 Y2.83797
G01 X91.00375 Y2.80246
G01 X91.00553 Y2.80007
G01 X91.04132 Y2.74899
G01 X91.04299 Y2.74648
G01 X91.07363 Y2.69651
G01 X91.08506 Y2.67985
G01 X91.09049 Y2.67188
G01 X91.10007 Y2.65788
G01 X91.15562 Y2.58465
G01 X91.20131 Y2.53429
G01 X91.23436 Y2.50124
G01 X91.28473 Y2.45552
G01 X91.35798 Y2.40000
G01 X91.37157 Y2.39067
G01 X91.38033 Y2.38470
G01 X91.39661 Y2.37358
G01 X91.43403 Y2.35052
G01 X91.53779 Y2.29867
G01 X91.58064 Y2.27988
G01 X91.59928 Y2.27274
G01 X91.73382 Y2.23431
G01 X91.77672 Y2.22423
G01 X91.93936 Y2.20911
G01 X91.96006 Y2.20769
G01 X91.98071 Y2.20911
G01 X92.14335 Y2.22423
G01 X92.18625 Y2.23431
G01 X92.32079 Y2.27274
G01 X92.33944 Y2.27988
G01 X92.38229 Y2.29867
G01 X92.48599 Y2.35052
G01 X92.52346 Y2.37358
G01 X92.54022 Y2.38498
G01 X92.54043 Y2.38516
G01 X92.54772 Y2.39017
G01 X92.56209 Y2.40000
G01 X92.63535 Y2.45552
G01 X92.68574 Y2.50124
G01 X92.71876 Y2.53429
G01 X92.76440 Y2.58465
G01 X92.82000 Y2.65788
G01 X92.82961 Y2.67185
G01 X92.82981 Y2.67221
G01 X92.83486 Y2.67960
G01 X92.82981 Y2.67221
G01 X92.82961 Y2.67185
G01 X92.82138 Y2.66088
G01 X92.71566 Y2.53202
G01 X92.68795 Y2.50434
G01 X92.55915 Y2.39862
G01 X92.54772 Y2.39017
G01 X92.54043 Y2.38516
G01 X92.54022 Y2.38498
G01 X92.52653 Y2.37683
G01 X92.37959 Y2.29824
G01 X92.34335 Y2.28331
G01 X92.18389 Y2.23487
G01 X92.16486 Y2.23017
G01 X92.14546 Y2.22728
G01 X91.97962 Y2.21089
G01 X91.96001 Y2.20998
G01 X91.94040 Y2.21089
G01 X91.77462 Y2.22728
G01 X91.75519 Y2.23017
G01 X91.73616 Y2.23487
G01 X91.57667 Y2.28331
G01 X91.54048 Y2.29824
G01 X91.39349 Y2.37683
G01 X91.38033 Y2.38470
G01 X91.37980 Y2.38501
G01 X91.37205 Y2.39032
G01 X91.37157 Y2.39067
G01 X91.36093 Y2.39862
G01 X91.23210 Y2.50434
G01 X91.20436 Y2.53202
G01 X91.09870 Y2.66088
G01 X91.09049 Y2.67188
G01 X91.08506 Y2.67985
G01 X91.07688 Y2.69342
G01 X90.99837 Y2.84038
G01 X90.98993 Y2.85816
G01 X90.98336 Y2.87663
G01 X90.93497 Y3.03606
G01 X90.92732 Y3.07457
G01 X90.91099 Y3.24033
G01 X90.91000 Y3.25994
G01 X90.91099 Y3.27960
G01 X90.92732 Y3.44536
G01 X90.93497 Y3.48386
G01 X90.98336 Y3.64333
G01 X90.98993 Y3.66177
G01 X90.99837 Y3.67949
G01 X91.07688 Y3.82651
G01 X91.08696 Y3.84332
G01 X91.09870 Y3.85910
G01 X91.20436 Y3.98790
G01 X91.21754 Y4.00240
G01 X91.23210 Y4.01561
G01 X91.36093 Y4.12133
G01 X91.39349 Y4.14312
G01 X91.54048 Y4.22161
G01 X91.57667 Y4.23667
G01 X91.73616 Y4.28498
G01 X91.75519 Y4.28981
G01 X91.77462 Y4.29265
G01 X91.94040 Y4.30898
G01 X91.96001 Y4.31000
G01 X91.97962 Y4.30898
G01 X92.14546 Y4.29265
G01 X92.16486 Y4.28981
G01 X92.18389 Y4.28498
G01 X92.34335 Y4.23667
G01 X92.37959 Y4.22161
G01 X92.52653 Y4.14312
G01 X92.54012 Y4.13494
G01 X92.54081 Y4.13451
G01 X92.54817 Y4.12940
G01 X92.55915 Y4.12133
G01 X92.68795 Y4.01561
G01 X92.71566 Y3.98790
G01 X92.82138 Y3.85910
G01 X92.82961 Y3.84795
G01 X92.83364 Y3.84208
G01 X92.83496 Y3.84010
G01 X92.84314 Y3.82651
G01 X92.92171 Y3.67949
G01 X92.93669 Y3.64333
G01 X92.98510 Y3.48386
G01 X92.99275 Y3.44536
G01 X93.00908 Y3.27960
G01 X93.01005 Y3.25994
G01 X93.00908 Y3.24033
G01 X92.99275 Y3.07457
G01 X92.98510 Y3.03606
G01 X92.93669 Y2.87663
G01 X92.93009 Y2.85816
G01 X92.92171 Y2.84038
G01 X92.84314 Y2.69342
G01 X92.83486 Y2.67960
G01 X92.84642 Y2.69651
G01 X92.87738 Y2.74691
G01 X92.87903 Y2.74940
G01 X92.91482 Y2.80050
G01 X92.91665 Y2.80294
G01 X92.94449 Y2.83799
G01 X92.95313 Y2.84919
G01 X92.97779 Y2.88201
G01 X92.98053 Y2.88544
G01 X93.05683 Y2.97035
G01 X93.05963 Y2.97320
G01 X93.07487 Y2.98765
G01 X93.08076 Y3.00703
G01 X93.09224 Y3.06476
G01 X93.10857 Y3.23052
G01 X93.11007 Y3.25994
G01 X93.01005 Y3.25994
G01 X92.91002 Y3.25994
G01 X92.90954 Y3.26979
G01 X92.89321 Y3.43555
G01 X92.88942 Y3.45478
G01 X92.84104 Y3.61429
G01 X92.83771 Y3.62354
G01 X92.83349 Y3.63235
G01 X92.75498 Y3.77937
G01 X92.74993 Y3.78777
G01 X92.74406 Y3.79565
G01 X92.63834 Y3.92448
G01 X92.62450 Y3.93827
G01 X92.49570 Y4.04398
G01 X92.48780 Y4.04988
G01 X92.47942 Y4.05493
G01 X92.33243 Y4.13342
G01 X92.31432 Y4.14099
G01 X92.15491 Y4.18930
G01 X92.14535 Y4.19174
G01 X92.13565 Y4.19318
G01 X91.96982 Y4.20947
G01 X91.95021 Y4.20947
G01 X91.78442 Y4.19318
G01 X91.77467 Y4.19174
G01 X91.76519 Y4.18930
G01 X91.60571 Y4.14099
G01 X91.58760 Y4.13342
G01 X91.44066 Y4.05493
G01 X91.42438 Y4.04398
G01 X91.29552 Y3.93827
G01 X91.28168 Y3.92448
G01 X91.17596 Y3.79565
G01 X91.16509 Y3.77937
G01 X91.08653 Y3.63235
G01 X91.08236 Y3.62354
G01 X91.07904 Y3.61429
G01 X91.03068 Y3.45478
G01 X91.02681 Y3.43555
G01 X91.01048 Y3.26979
G01 X91.01000 Y3.25994
G01 X91.01048 Y3.25013
G01 X91.02681 Y3.08430
G01 X91.03068 Y3.06512
G01 X91.07904 Y2.90563
G01 X91.08236 Y2.89639
G01 X91.08653 Y2.88755
G01 X91.16509 Y2.74058
G01 X91.17012 Y2.73215
G01 X91.17596 Y2.72430
G01 X91.28168 Y2.59545
G01 X91.29552 Y2.58161
G01 X91.42438 Y2.47589
G01 X91.43222 Y2.47010
G01 X91.44066 Y2.46499
G01 X91.58760 Y2.38646
G01 X91.60571 Y2.37894
G01 X91.76519 Y2.33063
G01 X91.77467 Y2.32819
G01 X91.78442 Y2.32679
G01 X91.95021 Y2.31046
G01 X91.96982 Y2.31046
G01 X92.13565 Y2.32679
G01 X92.14535 Y2.32819
G01 X92.15491 Y2.33063
G01 X92.31432 Y2.37894
G01 X92.33243 Y2.38646
G01 X92.47942 Y2.46499
G01 X92.48780 Y2.47010
G01 X92.49570 Y2.47589
G01 X92.62450 Y2.58161
G01 X92.63834 Y2.59545
G01 X92.74406 Y2.72430
G01 X92.74993 Y2.73215
G01 X92.75498 Y2.74058
G01 X92.83349 Y2.88755
G01 X92.83771 Y2.89639
G01 X92.84104 Y2.90563
G01 X92.88942 Y3.06512
G01 X92.89321 Y3.08430
G01 X92.90954 Y3.25013
G01 X92.91002 Y3.25994
G04 P0 ( dwell for no time -- G64 should not smooth over this point )
G00 Z5.00000 ( retract )

G00 X94.85698 Y4.39473 ( rapid move to begin. )
G01 F300.00000
( Mill infeed pass 1/1 )
G01 Z-0.05000
G04 P0 ( dwell for no time -- G64 should not smooth over this point )
G01 F600.00000
G01 X94.85698 Y4.39473
G01 X94.82201 Y4.35973
G01 X94.82605 Y4.34523
G01 X94.82201 Y4.35973
G01 X94.75292 Y4.38074
G01 X94.72442 Y4.38785
G01 X94.69524 Y4.39217
G01 X94.52942 Y4.40850
G01 X94.47065 Y4.40850
G01 X94.30479 Y4.39217
G01 X94.27565 Y4.38785
G01 X94.24715 Y4.38074
G01 X94.17809 Y4.35973
G01 X94.17408 Y4.34416
G01 X94.17809 Y4.35973
G01 X94.14312 Y4.39471
G01 X94.13176 Y4.39090
G01 X94.14312 Y4.39471
G01 X94.14533 Y4.40131
G01 X94.15935 Y4.45856
G01 X94.16704 Y4.50599
G01 X94.16704 Y4.55397
G01 X94.15935 Y4.60134
G01 X94.14533 Y4.65854
G01 X94.14312 Y4.66524
G01 X94.12983 Y4.66910
G01 X94.14312 Y4.66524
G01 X94.17812 Y4.70014
G01 X94.17410 Y4.71475
G01 X94.17812 Y4.70014
G01 X94.24715 Y4.67919
G01 X94.27565 Y4.67203
G01 X94.30479 Y4.66771
G01 X94.47065 Y4.65143
G01 X94.52942 Y4.65143
G01 X94.69524 Y4.66771
G01 X94.72442 Y4.67203
G01 X94.75292 Y4.67919
G01 X94.82198 Y4.70014
G01 X94.82607 Y4.71571
G01 X94.82198 Y4.70014
G01 X94.85698 Y4.66517
G01 X94.86839 Y4.66898
G01 X94.85698 Y4.66517
G01 X94.85470 Y4.65846
G01 X94.84075 Y4.60121
G01 X94.83313 Y4.55392
G01 X94.83313 Y4.50604
G01 X94.84075 Y4.45874
G01 X94.85470 Y4.40144
G01 X94.85698 Y4.39473
G01 X94.87022 Y4.39075
G01 X94.97370 Y4.37002
G01 X94.99015 Y4.36672
G01 X94.97443 Y4.37078
G01 X94.96194 Y4.39486
G01 X94.95185 Y4.42519
G01 X94.93786 Y4.48244
G01 X94.93278 Y4.51401
G01 X94.93278 Y4.54589
G01 X94.93786 Y4.57744
G01 X94.95185 Y4.63466
G01 X94.96194 Y4.66501
G01 X94.97443 Y4.68912
G01 X94.98843 Y4.69308
G01 X94.97443 Y4.68912
G01 X94.85033 Y4.81327
G01 X94.85439 Y4.82910
G01 X94.85033 Y4.81327
G01 X94.72394 Y4.77487
G01 X94.70491 Y4.77012
G01 X94.68543 Y4.76722
G01 X94.51962 Y4.75089
G01 X94.50001 Y4.74998
G01 X94.48040 Y4.75089
G01 X94.31459 Y4.76722
G01 X94.29521 Y4.77012
G01 X94.27619 Y4.77487
G01 X94.14972 Y4.81327
G01 X94.14576 Y4.82910
G01 X94.14972 Y4.81327
G01 X94.02562 Y4.68912
G01 X94.00992 Y4.69313
G01 X94.02562 Y4.68912
G01 X94.03814 Y4.66507
G01 X94.04820 Y4.63474
G01 X94.06222 Y4.57749
G01 X94.06730 Y4.54591
G01 X94.06730 Y4.51399
G01 X94.06222 Y4.48236
G01 X94.04820 Y4.42516
G01 X94.03814 Y4.39484
G01 X94.02562 Y4.37078
G01 X94.01162 Y4.36677
G01 X94.02562 Y4.37078
G01 X94.14972 Y4.24670
G01 X94.14573 Y4.23134
G01 X94.14972 Y4.24670
G01 X94.27619 Y4.28498
G01 X94.31459 Y4.29265
G01 X94.48040 Y4.30898
G01 X94.51962 Y4.30898
G01 X94.68543 Y4.29265
G01 X94.70491 Y4.28981
G01 X94.72394 Y4.28498
G01 X94.85033 Y4.24668
G01 X94.85439 Y4.23078
G01 X94.85033 Y4.24668
G01 X94.97370 Y4.37002
G01 X94.97443 Y4.37078
G01 X94.99015 Y4.36672
G01 X95.10880 Y4.36367
G01 X94.87641 Y4.13128
G01 X94.87248 Y4.13342
G01 X94.86356 Y4.13763
G01 X94.85437 Y4.14099
G01 X94.69493 Y4.18930
G01 X94.67565 Y4.19318
G01 X94.50982 Y4.20947
G01 X94.50001 Y4.21000
G01 X94.49021 Y4.20947
G01 X94.32440 Y4.19318
G01 X94.30522 Y4.18930
G01 X94.14576 Y4.14099
G01 X94.13651 Y4.13763
G01 X94.12760 Y4.13342
G01 X94.12363 Y4.13131
G01 X93.89135 Y4.36367
G01 X93.92912 Y4.40680
G01 X93.93867 Y4.41955
G01 X93.94604 Y4.43372
G01 X93.95112 Y4.44894
G01 X93.96509 Y4.50619
G01 X93.96763 Y4.52194
G01 X93.96763 Y4.53796
G01 X93.96509 Y4.55371
G01 X93.95112 Y4.61101
G01 X93.94604 Y4.62613
G01 X93.93867 Y4.64030
G01 X93.92912 Y4.65310
G01 X93.89135 Y4.69628
G01 X94.12363 Y4.92857
G01 X94.12760 Y4.92646
G01 X94.14576 Y4.91894
G01 X94.30522 Y4.87063
G01 X94.32440 Y4.86674
G01 X94.49021 Y4.85041
G01 X94.50001 Y4.84998
G01 X94.50982 Y4.85041
G01 X94.67565 Y4.86674
G01 X94.69493 Y4.87063
G01 X94.85437 Y4.91894
G01 X94.87248 Y4.92646
G01 X94.87641 Y4.92857
G01 X95.10880 Y4.69628
G01 X95.07093 Y4.65310
G01 X95.06143 Y4.64028
G01 X95.05401 Y4.62610
G01 X95.04898 Y4.61096
G01 X95.03499 Y4.55366
G01 X95.03250 Y4.53796
G01 X95.03250 Y4.52194
G01 X95.03499 Y4.50624
G01 X95.04898 Y4.44899
G01 X95.05401 Y4.43375
G01 X95.06143 Y4.41957
G01 X95.07093 Y4.40680
G01 X95.10880 Y4.36367
G04 P0 ( dwell for no time -- G64 should not smooth over this point )
G00 Z5.00000 ( retract )

G00 X95.65447 Y5.79991 ( rapid move to begin. )
G01 F300.00000
( Mill infeed pass 1/1 )
G01 Z-0.05000
G04 P0 ( dwell for no time -- G64 should not smooth over this point )
G01 F600.00000
G01 X95.65447 Y5.79991
G01 X95.63689 Y5.59951
G01 X95.63745 Y5.59940
G01 X95.63689 Y5.59951
G01 X95.58479 Y5.40509
G01 X95.56778 Y5.36857
G01 X95.59104 Y5.27642
G01 X95.56778 Y5.36857
G01 X95.48672 Y5.44962
G01 X95.47090 Y5.44566
G01 X95.48672 Y5.44962
G01 X95.52508 Y5.57611
G01 X95.52983 Y5.59514
G01 X95.53272 Y5.61452
G01 X95.54906 Y5.78033
G01 X95.55007 Y5.79994
G01 X95.54906 Y5.81955
G01 X95.53272 Y5.98536
G01 X95.52983 Y6.00484
G01 X95.52508 Y6.02386
G01 X95.48672 Y6.15023
G01 X95.47090 Y6.15429
G01 X95.48672 Y6.15023
G01 X95.56778 Y6.23128
G01 X95.59107 Y6.32353
G01 X95.56778 Y6.23128
G01 X95.58479 Y6.19476
G01 X95.63689 Y6.00042
G01 X95.63745 Y6.00052
G01 X95.63689 Y6.00042
G01 X95.65447 Y5.79991
G01 X95.65480 Y5.79991
G01 X95.75480 Y5.79991
G01 X95.73575 Y5.58203
G01 X95.67916 Y5.37075
G01 X95.59808 Y5.19694
G01 X95.37138 Y5.42353
G01 X95.37349 Y5.42757
G01 X95.38101 Y5.44568
G01 X95.42942 Y5.60512
G01 X95.43321 Y5.62430
G01 X95.44954 Y5.79013
G01 X95.45005 Y5.79994
G01 X95.44954 Y5.80974
G01 X95.43321 Y5.97555
G01 X95.42942 Y5.99483
G01 X95.38101 Y6.15429
G01 X95.37771 Y6.16354
G01 X95.37349 Y6.17240
G01 X95.37138 Y6.17631
G01 X95.59808 Y6.40301
G01 X95.67916 Y6.22910
G01 X95.73575 Y6.01779
G01 X95.75480 Y5.79991
G04 P0 ( dwell for no time -- G64 should not smooth over this point )
G00 Z5.00000 ( retract )

G00 X94.93138 Y6.86770 ( rapid move to begin. )
G01 F300.00000
( Mill infeed pass 1/1 )
G01 Z-0.05000
G04 P0 ( dwell for no time -- G64 should not smooth over this point )
G01 F600.00000
G01 X94.93138 Y6.86770
G01 X94.85033 Y6.78665
G01 X94.85439 Y6.77083
G01 X94.85033 Y6.78665
G01 X94.72394 Y6.82501
G01 X94.70491 Y6.82981
G01 X94.68543 Y6.83270
G01 X94.51962 Y6.84903
G01 X94.50001 Y6.85000
G01 X94.48040 Y6.84903
G01 X94.31459 Y6.83270
G01 X94.27619 Y6.82501
G01 X94.14972 Y6.78670
G01 X94.14573 Y6.77136
G01 X94.14972 Y6.78670
G01 X94.06867 Y6.86770
G01 X93.97652 Y6.89099
G01 X94.06867 Y6.86770
G01 X94.10519 Y6.88472
G01 X94.29960 Y6.93684
G01 X94.29953 Y6.93732
G01 X94.29960 Y6.93684
G01 X94.50004 Y6.95434
G01 X94.50004 Y6.95475
G01 X94.50004 Y6.95434
G01 X94.70054 Y6.93684
G01 X94.70065 Y6.93732
G01 X94.70054 Y6.93684
G01 X94.89485 Y6.88472
G01 X94.93138 Y6.86770
G01 X95.02358 Y6.89099
G01 X95.10311 Y6.89800
G01 X94.87641 Y6.67134
G01 X94.87248 Y6.67344
G01 X94.85437 Y6.68099
G01 X94.69493 Y6.72932
G01 X94.68535 Y6.73174
G01 X94.67565 Y6.73316
G01 X94.50982 Y6.74949
G01 X94.50001 Y6.74997
G01 X94.49021 Y6.74949
G01 X94.32440 Y6.73316
G01 X94.30522 Y6.72932
G01 X94.14576 Y6.68099
G01 X94.13651 Y6.67766
G01 X94.12760 Y6.67344
G01 X94.12363 Y6.67134
G01 X93.89704 Y6.89800
G01 X94.07090 Y6.97906
G01 X94.28216 Y7.03570
G01 X94.50004 Y7.05472
G01 X94.71792 Y7.03570
G01 X94.92919 Y6.97906
G01 X95.10311 Y6.89800
G04 P0 ( dwell for no time -- G64 should not smooth over this point )
G00 Z5.00000 ( retract )

G00 X97.60412 Y10.06145 ( rapid move to begin. )
G01 F300.00000
( Mill infeed pass 1/1 )
G01 Z-0.05000
G04 P0 ( dwell for no time -- G64 should not smooth over this point )
G01 F600.00000
G01 X97.60412 Y10.06145
G01 X97.59465 Y9.81588
G01 X97.54786 Y9.57463
G01 X97.46483 Y9.34334
G01 X97.34743 Y9.12744
G01 X97.19846 Y8.93196
G01 X97.02132 Y8.76153
G01 X96.86617 Y8.65241
G01 X96.82038 Y8.62020
G01 X96.60006 Y8.51111
G01 X96.36579 Y8.43697
G01 X96.12294 Y8.39945
G01 X95.93867 Y8.39945
G01 X95.75503 Y8.41357
G01 X95.51571 Y8.46958
G01 X95.28782 Y8.56140
G01 X95.07651 Y8.68703
G01 X94.88693 Y8.84339
G01 X94.72343 Y9.02683
G01 X94.58988 Y9.23313
G01 X94.48932 Y9.45739
G01 X94.42424 Y9.69432
G01 X94.39605 Y9.93846
G01 X94.40540 Y10.18408
G01 X94.45221 Y10.42530
G01 X94.53527 Y10.65660
G01 X94.65272 Y10.87250
G01 X94.80164 Y11.06795
G01 X94.97872 Y11.23838
G01 X95.17977 Y11.37973
G01 X95.40001 Y11.48880
G01 X95.63427 Y11.56297
G01 X95.87720 Y11.60043
G01 X96.06137 Y11.60043
G01 X96.24512 Y11.58636
G01 X96.48436 Y11.53038
G01 X96.71233 Y11.43848
G01 X96.92353 Y11.31291
G01 X97.11316 Y11.15654
G01 X97.27669 Y10.97310
G01 X97.41029 Y10.76678
G01 X97.51075 Y10.54255
G01 X97.57593 Y10.30557
G01 X97.60412 Y10.06145
G01 X97.50415 Y10.05761
G01 X97.50384 Y10.05756
G01 X97.49500 Y9.82736
G01 X97.49531 Y9.82736
G01 X97.49500 Y9.82736
G01 X97.45116 Y9.60120
G01 X97.45149 Y9.60112
G01 X97.45116 Y9.60120
G01 X97.37326 Y9.38433
G01 X97.37359 Y9.38423
G01 X97.37326 Y9.38433
G01 X97.26325 Y9.18192
G01 X97.26345 Y9.18177
G01 X97.26325 Y9.18192
G01 X97.12353 Y8.99869
G01 X97.12375 Y8.99848
G01 X97.12353 Y8.99869
G01 X96.95751 Y8.83895
G01 X96.95771 Y8.83869
G01 X96.95751 Y8.83895
G01 X96.80874 Y8.73402
G01 X96.76907 Y8.70641
G01 X96.56257 Y8.60412
G01 X96.56274 Y8.60377
G01 X96.56257 Y8.60412
G01 X96.34298 Y8.53463
G01 X96.34306 Y8.53435
G01 X96.34298 Y8.53463
G01 X96.11527 Y8.49948
G01 X96.11530 Y8.49899
G01 X96.11527 Y8.49948
G01 X95.94255 Y8.49948
G01 X95.77029 Y8.51268
G01 X95.77024 Y8.51223
G01 X95.77029 Y8.51268
G01 X95.54596 Y8.56518
G01 X95.54591 Y8.56493
G01 X95.54596 Y8.56518
G01 X95.33232 Y8.65129
G01 X95.33217 Y8.65104
G01 X95.33232 Y8.65129
G01 X95.13425 Y8.76907
G01 X95.13410 Y8.76882
G01 X95.13425 Y8.76907
G01 X94.95653 Y8.91563
G01 X94.95632 Y8.91543
G01 X94.95653 Y8.91563
G01 X94.80319 Y9.08764
G01 X94.80296 Y9.08748
G01 X94.80319 Y9.08764
G01 X94.67799 Y9.28103
G01 X94.67768 Y9.28088
G01 X94.67799 Y9.28103
G01 X94.58370 Y9.49127
G01 X94.58348 Y9.49117
G01 X94.58370 Y9.49127
G01 X94.52264 Y9.71344
G01 X94.52236 Y9.71339
G01 X94.52264 Y9.71344
G01 X94.49628 Y9.94232
G01 X94.49597 Y9.94232
G01 X94.49628 Y9.94232
G01 X94.50504 Y10.17255
G01 X94.50474 Y10.17260
G01 X94.50504 Y10.17255
G01 X94.54896 Y10.39873
G01 X94.54863 Y10.39884
G01 X94.54896 Y10.39873
G01 X94.62678 Y10.61560
G01 X94.62655 Y10.61570
G01 X94.62678 Y10.61560
G01 X94.73684 Y10.81801
G01 X94.73664 Y10.81816
G01 X94.73684 Y10.81801
G01 X94.87652 Y11.00120
G01 X94.87631 Y11.00140
G01 X94.87652 Y11.00120
G01 X95.04258 Y11.16101
G01 X95.04240 Y11.16124
G01 X95.04258 Y11.16101
G01 X95.23097 Y11.29355
G01 X95.23082 Y11.29378
G01 X95.23097 Y11.29355
G01 X95.43745 Y11.39579
G01 X95.43737 Y11.39607
G01 X95.43745 Y11.39579
G01 X95.65718 Y11.46531
G01 X95.65711 Y11.46556
G01 X95.65718 Y11.46531
G01 X95.88487 Y11.50046
G01 X95.88484 Y11.50094
G01 X95.88487 Y11.50046
G01 X96.05759 Y11.50046
G01 X96.22975 Y11.48723
G01 X96.22983 Y11.48771
G01 X96.22975 Y11.48723
G01 X96.45411 Y11.43475
G01 X96.45419 Y11.43500
G01 X96.45411 Y11.43475
G01 X96.66777 Y11.34862
G01 X96.66795 Y11.34890
G01 X96.66777 Y11.34862
G01 X96.86582 Y11.23089
G01 X96.86605 Y11.23112
G01 X96.86582 Y11.23089
G01 X97.04362 Y11.08428
G01 X97.04377 Y11.08451
G01 X97.04362 Y11.08428
G01 X97.19693 Y10.91227
G01 X97.19711 Y10.91245
G01 X97.19693 Y10.91227
G01 X97.32215 Y10.71888
G01 X97.32243 Y10.71903
G01 X97.32215 Y10.71888
G01 X97.41636 Y10.50867
G01 X97.41664 Y10.50877
G01 X97.41636 Y10.50867
G01 X97.47748 Y10.28649
G01 X97.47770 Y10.28654
G01 X97.47748 Y10.28649
G01 X97.50384 Y10.05756
G01 X97.40394 Y10.05378
G01 X97.40361 Y10.05378
G01 X97.37895 Y10.26737
G01 X97.37925 Y10.26742
G01 X97.37895 Y10.26737
G01 X97.32203 Y10.47473
G01 X97.32226 Y10.47483
G01 X97.32203 Y10.47473
G01 X97.23404 Y10.67097
G01 X97.23432 Y10.67112
G01 X97.23404 Y10.67097
G01 X97.11713 Y10.85146
G01 X97.11738 Y10.85167
G01 X97.11713 Y10.85146
G01 X96.97402 Y11.01199
G01 X96.97428 Y11.01225
G01 X96.97402 Y11.01199
G01 X96.80816 Y11.14885
G01 X96.80834 Y11.14910
G01 X96.80816 Y11.14885
G01 X96.62327 Y11.25873
G01 X96.62345 Y11.25898
G01 X96.62327 Y11.25873
G01 X96.42383 Y11.33914
G01 X96.42398 Y11.33940
G01 X96.42383 Y11.33914
G01 X96.21443 Y11.38809
G01 X96.21451 Y11.38857
G01 X96.21443 Y11.38809
G01 X96.05370 Y11.40043
G01 X95.89254 Y11.40043
G01 X95.89252 Y11.40092
G01 X95.89254 Y11.40043
G01 X95.67999 Y11.36764
G01 X95.67992 Y11.36792
G01 X95.67999 Y11.36764
G01 X95.47494 Y11.30272
G01 X95.47484 Y11.30300
G01 X95.47494 Y11.30272
G01 X95.28228 Y11.20734
G01 X95.28213 Y11.20760
G01 X95.28228 Y11.20734
G01 X95.10633 Y11.08362
G01 X95.10616 Y11.08387
G01 X95.10633 Y11.08362
G01 X94.95145 Y10.93447
G01 X94.95117 Y10.93467
G01 X94.95145 Y10.93447
G01 X94.82107 Y10.76345
G01 X94.82079 Y10.76363
G01 X94.82107 Y10.76345
G01 X94.71832 Y10.57458
G01 X94.71807 Y10.57471
G01 X94.71832 Y10.57458
G01 X94.64568 Y10.37217
G01 X94.64535 Y10.37227
G01 X94.64568 Y10.37217
G01 X94.60471 Y10.16107
G01 X94.60438 Y10.16107
G01 X94.60471 Y10.16107
G01 X94.59645 Y9.94616
G01 X94.59620 Y9.94616
G01 X94.59645 Y9.94616
G01 X94.62112 Y9.73252
G01 X94.62086 Y9.73247
G01 X94.62112 Y9.73252
G01 X94.67814 Y9.52515
G01 X94.67786 Y9.52510
G01 X94.67814 Y9.52515
G01 X94.76610 Y9.32894
G01 X94.76580 Y9.32878
G01 X94.76610 Y9.32894
G01 X94.88299 Y9.14845
G01 X94.88271 Y9.14829
G01 X94.88299 Y9.14845
G01 X95.02602 Y8.98789
G01 X95.02582 Y8.98766
G01 X95.02602 Y8.98789
G01 X95.19198 Y8.85106
G01 X95.19181 Y8.85086
G01 X95.19198 Y8.85106
G01 X95.37677 Y8.74116
G01 X95.57623 Y8.66079
G01 X95.57618 Y8.66051
G01 X95.57623 Y8.66079
G01 X95.78561 Y8.61177
G01 X95.78561 Y8.61134
G01 X95.78561 Y8.61177
G01 X95.94634 Y8.59945
G01 X96.10758 Y8.59945
G01 X96.10760 Y8.59897
G01 X96.10758 Y8.59945
G01 X96.32007 Y8.63232
G01 X96.32015 Y8.63201
G01 X96.32007 Y8.63232
G01 X96.52508 Y8.69719
G01 X96.52523 Y8.69678
G01 X96.52508 Y8.69719
G01 X96.71784 Y8.79259
G01 X96.75126 Y8.81581
G01 X96.89371 Y8.91631
G01 X96.89391 Y8.91606
G01 X96.89371 Y8.91631
G01 X97.04865 Y9.06541
G01 X97.04893 Y9.06523
G01 X97.04865 Y9.06541
G01 X97.17905 Y9.23646
G01 X97.17930 Y9.23630
G01 X97.17905 Y9.23646
G01 X97.28174 Y9.42538
G01 X97.28202 Y9.42528
G01 X97.28174 Y9.42538
G01 X97.35449 Y9.62774
G01 X97.35472 Y9.62769
G01 X97.35449 Y9.62774
G01 X97.39543 Y9.83887
G01 X97.39571 Y9.83887
G01 X97.39543 Y9.83887
G01 X97.40361 Y10.05378
G04 P0 ( dwell for no time -- G64 should not smooth over this point )
G00 Z5.00000 ( retract )

G00 X93.11007 Y5.79994 ( rapid move to begin. )
G01 F300.00000
( Mill infeed pass 1/1 )
G01 Z-0.05000
G04 P0 ( dwell for no time -- G64 should not smooth over this point )
G01 F600.00000
G01 X93.11007 Y5.79994
G01 X93.10857 Y5.82940
G01 X93.09224 Y5.99516
G01 X93.08076 Y6.05287
G01 X93.07492 Y6.07228
G01 X93.05963 Y6.08670
G01 X93.05683 Y6.08955
G01 X92.98053 Y6.17451
G01 X92.97779 Y6.17784
G01 X92.95313 Y6.21071
G01 X92.94449 Y6.22191
G01 X92.91665 Y6.25701
G01 X92.91482 Y6.25940
G01 X92.87903 Y6.31045
G01 X92.87738 Y6.31297
G01 X92.84642 Y6.36336
G01 X92.83496 Y6.38012
G01 X92.83364 Y6.38208
G01 X92.82961 Y6.38797
G01 X92.82000 Y6.40199
G01 X92.76440 Y6.47530
G01 X92.71876 Y6.52564
G01 X92.70728 Y6.53712
G01 X92.69717 Y6.54723
G01 X92.68574 Y6.55869
G01 X92.63535 Y6.60436
G01 X92.56209 Y6.65996
G01 X92.54812 Y6.66951
G01 X92.54012 Y6.67497
G01 X92.52346 Y6.68637
G01 X92.48599 Y6.70938
G01 X92.38229 Y6.76120
G01 X92.33944 Y6.78007
G01 X92.32079 Y6.78718
G01 X92.18625 Y6.82564
G01 X92.14335 Y6.83565
G01 X91.98071 Y6.85079
G01 X91.96006 Y6.85221
G01 X91.93936 Y6.85079
G01 X91.77672 Y6.83565
G01 X91.73382 Y6.82564
G01 X91.59928 Y6.78718
G01 X91.58064 Y6.78007
G01 X91.53779 Y6.76120
G01 X91.43403 Y6.70938
G01 X91.39661 Y6.68637
G01 X91.35798 Y6.65996
G01 X91.28473 Y6.60436
G01 X91.23436 Y6.55869
G01 X91.22313 Y6.54746
G01 X91.21254 Y6.53687
G01 X91.20131 Y6.52564
G01 X91.15567 Y6.47530
G01 X91.10007 Y6.40199
G01 X91.07363 Y6.36336
G01 X91.04299 Y6.31347
G01 X91.04132 Y6.31091
G01 X91.00553 Y6.25986
G01 X91.00380 Y6.25734
G01 X90.97551 Y6.22191
G01 X90.96718 Y6.21116
G01 X90.94213 Y6.17781
G01 X90.93939 Y6.17449
G01 X90.86352 Y6.09013
G01 X90.86072 Y6.08724
G01 X90.84528 Y6.07261
G01 X90.83926 Y6.05287
G01 X90.82778 Y5.99516
G01 X90.81145 Y5.82940
G01 X90.81003 Y5.79994
G01 X90.81145 Y5.77058
G01 X90.82778 Y5.60471
G01 X90.83926 Y5.54703
G01 X90.88765 Y5.38757
G01 X90.89755 Y5.35991
G01 X90.91015 Y5.33324
G01 X90.98871 Y5.18632
G01 X91.00385 Y5.16108
G01 X91.02135 Y5.13738
G01 X91.12707 Y5.00863
G01 X91.16870 Y4.96705
G01 X91.29748 Y4.86133
G01 X91.34635 Y4.82862
G01 X91.49331 Y4.75010
G01 X91.51993 Y4.73748
G01 X91.54764 Y4.72760
G01 X91.70710 Y4.67919
G01 X91.73568 Y4.67203
G01 X91.76481 Y4.66771
G01 X91.93060 Y4.65143
G01 X91.98942 Y4.65143
G01 X92.15526 Y4.66771
G01 X92.18439 Y4.67203
G01 X92.21292 Y4.67919
G01 X92.23273 Y4.68526
G01 X92.24744 Y4.70078
G01 X92.25033 Y4.70357
G01 X92.33458 Y4.77929
G01 X92.33796 Y4.78203
G01 X92.37121 Y4.80713
G01 X92.38198 Y4.81546
G01 X92.41754 Y4.84368
G01 X92.41993 Y4.84541
G01 X92.47103 Y4.88124
G01 X92.47352 Y4.88287
G01 X92.52346 Y4.91358
G01 X92.54043 Y4.92514
G01 X92.54772 Y4.93009
G01 X92.54835 Y4.93055
G01 X92.56209 Y4.93994
G01 X92.63535 Y4.99552
G01 X92.68574 Y5.04124
G01 X92.71876 Y5.07428
G01 X92.76440 Y5.12460
G01 X92.82000 Y5.19788
G01 X92.82950 Y5.21175
G01 X92.82981 Y5.21218
G01 X92.83496 Y5.21970
G01 X92.82981 Y5.21218
G01 X92.82950 Y5.21175
G01 X92.82138 Y5.20083
G01 X92.71566 Y5.07208
G01 X92.68795 Y5.04429
G01 X92.55915 Y4.93857
G01 X92.54835 Y4.93055
G01 X92.54772 Y4.93009
G01 X92.54043 Y4.92514
G01 X92.52653 Y4.91681
G01 X92.37959 Y4.83827
G01 X92.34335 Y4.82331
G01 X92.18389 Y4.77487
G01 X92.16486 Y4.77012
G01 X92.14546 Y4.76722
G01 X91.97962 Y4.75089
G01 X91.96001 Y4.74998
G01 X91.94040 Y4.75089
G01 X91.77462 Y4.76722
G01 X91.75519 Y4.77012
G01 X91.73616 Y4.77487
G01 X91.57667 Y4.82331
G01 X91.54048 Y4.83827
G01 X91.39349 Y4.91681
G01 X91.36093 Y4.93857
G01 X91.23210 Y5.04429
G01 X91.20436 Y5.07208
G01 X91.09870 Y5.20083
G01 X91.08696 Y5.21663
G01 X91.07688 Y5.23347
G01 X90.99837 Y5.38038
G01 X90.98336 Y5.41660
G01 X90.93497 Y5.57611
G01 X90.92732 Y5.61452
G01 X90.91099 Y5.78033
G01 X90.91000 Y5.79994
G01 X90.91099 Y5.81955
G01 X90.92732 Y5.98536
G01 X90.93497 Y6.02386
G01 X90.98336 Y6.18327
G01 X90.98993 Y6.20177
G01 X90.99837 Y6.21949
G01 X91.07688 Y6.36648
G01 X91.09870 Y6.39910
G01 X91.20436 Y6.52790
G01 X91.21254 Y6.53687
G01 X91.22313 Y6.54746
G01 X91.23210 Y6.55561
G01 X91.36093 Y6.66133
G01 X91.39349 Y6.68310
G01 X91.54048 Y6.76166
G01 X91.55818 Y6.77004
G01 X91.57667 Y6.77664
G01 X91.73616 Y6.82501
G01 X91.77462 Y6.83270
G01 X91.94040 Y6.84903
G01 X91.96001 Y6.85000
G01 X91.97962 Y6.84903
G01 X92.14546 Y6.83270
G01 X92.16486 Y6.82981
G01 X92.18389 Y6.82501
G01 X92.34335 Y6.77664
G01 X92.37959 Y6.76166
G01 X92.52653 Y6.68310
G01 X92.54012 Y6.67497
G01 X92.54812 Y6.66951
G01 X92.55915 Y6.66133
G01 X92.68795 Y6.55561
G01 X92.69717 Y6.54723
G01 X92.70728 Y6.53712
G01 X92.71566 Y6.52790
G01 X92.82138 Y6.39910
G01 X92.82961 Y6.38797
G01 X92.83364 Y6.38208
G01 X92.83496 Y6.38012
G01 X92.84314 Y6.36648
G01 X92.92171 Y6.21949
G01 X92.93669 Y6.18327
G01 X92.98510 Y6.02386
G01 X92.99275 Y5.98536
G01 X93.00908 Y5.81955
G01 X93.01005 Y5.79994
G01 X93.00908 Y5.78033
G01 X92.99275 Y5.61452
G01 X92.98510 Y5.57611
G01 X92.93669 Y5.41660
G01 X92.92171 Y5.38038
G01 X92.84314 Y5.23347
G01 X92.83496 Y5.21970
G01 X92.84642 Y5.23654
G01 X92.87738 Y5.28688
G01 X92.87903 Y5.28942
G01 X92.91482 Y5.34055
G01 X92.91665 Y5.34294
G01 X92.94449 Y5.37804
G01 X92.95313 Y5.38924
G01 X92.97779 Y5.42201
G01 X92.98053 Y5.42544
G01 X93.05683 Y5.51030
G01 X93.05963 Y5.51320
G01 X93.07487 Y5.52768
G01 X93.08076 Y5.54703
G01 X93.09224 Y5.60471
G01 X93.10857 Y5.77058
G01 X93.11007 Y5.79994
G01 X93.01005 Y5.79994
G01 X92.91002 Y5.79994
G01 X92.90954 Y5.79013
G01 X92.89321 Y5.62430
G01 X92.88942 Y5.60512
G01 X92.84104 Y5.44568
G01 X92.83771 Y5.43644
G01 X92.83349 Y5.42757
G01 X92.75498 Y5.28056
G01 X92.74993 Y5.27220
G01 X92.74406 Y5.26425
G01 X92.63834 Y5.13550
G01 X92.62450 Y5.12166
G01 X92.49570 Y5.01592
G01 X92.48780 Y5.01010
G01 X92.47942 Y5.00504
G01 X92.33243 Y4.92646
G01 X92.31432 Y4.91894
G01 X92.15491 Y4.87063
G01 X92.14535 Y4.86824
G01 X92.13565 Y4.86674
G01 X91.96982 Y4.85041
G01 X91.95021 Y4.85041
G01 X91.78442 Y4.86674
G01 X91.77467 Y4.86824
G01 X91.76519 Y4.87063
G01 X91.60571 Y4.91894
G01 X91.58760 Y4.92646
G01 X91.44066 Y5.00504
G01 X91.42438 Y5.01592
G01 X91.29552 Y5.12166
G01 X91.28168 Y5.13550
G01 X91.17596 Y5.26425
G01 X91.17012 Y5.27220
G01 X91.16509 Y5.28056
G01 X91.08653 Y5.42757
G01 X91.08236 Y5.43644
G01 X91.07904 Y5.44568
G01 X91.03068 Y5.60512
G01 X91.02681 Y5.62430
G01 X91.01048 Y5.79013
G01 X91.01000 Y5.79994
G01 X91.01048 Y5.80974
G01 X91.02681 Y5.97555
G01 X91.03068 Y5.99483
G01 X91.07904 Y6.15429
G01 X91.08236 Y6.16354
G01 X91.08653 Y6.17240
G01 X91.16509 Y6.31932
G01 X91.17596 Y6.33560
G01 X91.28168 Y6.46445
G01 X91.28826 Y6.47172
G01 X91.29552 Y6.47832
G01 X91.42438 Y6.58401
G01 X91.44066 Y6.59493
G01 X91.58760 Y6.67344
G01 X91.59649 Y6.67766
G01 X91.60571 Y6.68099
G01 X91.76519 Y6.72932
G01 X91.78442 Y6.73316
G01 X91.95021 Y6.74949
G01 X91.96001 Y6.74997
G01 X91.96982 Y6.74949
G01 X92.13565 Y6.73316
G01 X92.15491 Y6.72932
G01 X92.31432 Y6.68099
G01 X92.33243 Y6.67344
G01 X92.47942 Y6.59493
G01 X92.48780 Y6.58988
G01 X92.49570 Y6.58401
G01 X92.62450 Y6.47832
G01 X92.63834 Y6.46445
G01 X92.74406 Y6.33560
G01 X92.74993 Y6.32777
G01 X92.75498 Y6.31932
G01 X92.83349 Y6.17240
G01 X92.83771 Y6.16354
G01 X92.84104 Y6.15429
G01 X92.88942 Y5.99483
G01 X92.89321 Y5.97555
G01 X92.90954 Y5.80974
G01 X92.91002 Y5.79994
G04 P0 ( dwell for no time -- G64 should not smooth over this point )
G00 Z5.00000 ( retract )

G00 X90.56860 Y5.77058 ( rapid move to begin. )
G01 F300.00000
( Mill infeed pass 1/1 )
G01 Z-0.05000
G04 P0 ( dwell for no time -- G64 should not smooth over this point )
G01 F600.00000
G01 X90.56860 Y5.77058
G01 X90.56860 Y5.82940
G01 X90.55227 Y5.99516
G01 X90.54795 Y6.02435
G01 X90.54079 Y6.05287
G01 X90.53477 Y6.07261
G01 X90.51937 Y6.08724
G01 X90.51653 Y6.09013
G01 X90.44066 Y6.17454
G01 X90.43792 Y6.17784
G01 X90.41282 Y6.21121
G01 X90.40457 Y6.22193
G01 X90.37630 Y6.25752
G01 X90.37452 Y6.25993
G01 X90.33878 Y6.31091
G01 X90.33710 Y6.31347
G01 X90.30642 Y6.36336
G01 X90.29494 Y6.38018
G01 X90.29436 Y6.38104
G01 X90.28968 Y6.38792
G01 X90.28930 Y6.38846
G01 X90.28003 Y6.40199
G01 X90.22443 Y6.47530
G01 X90.17879 Y6.52564
G01 X90.16730 Y6.53712
G01 X90.15720 Y6.54723
G01 X90.14792 Y6.55561
G01 X90.01912 Y6.66133
G01 X90.00853 Y6.66923
G01 X90.00815 Y6.66951
G01 X90.00015 Y6.67497
G01 X89.98656 Y6.68310
G01 X89.83957 Y6.76166
G01 X89.80337 Y6.77664
G01 X89.64389 Y6.82501
G01 X89.62489 Y6.82981
G01 X89.60543 Y6.83270
G01 X89.43965 Y6.84903
G01 X89.42004 Y6.85000
G01 X89.40043 Y6.84903
G01 X89.23459 Y6.83270
G01 X89.19616 Y6.82501
G01 X89.03670 Y6.77664
G01 X89.01821 Y6.77004
G01 X89.00045 Y6.76166
G01 X88.85351 Y6.68310
G01 X88.82090 Y6.66133
G01 X88.69210 Y6.55561
G01 X88.68331 Y6.54761
G01 X88.68311 Y6.54746
G01 X88.67251 Y6.53687
G01 X88.66129 Y6.52564
G01 X88.61564 Y6.47530
G01 X88.56004 Y6.40199
G01 X88.53365 Y6.36336
G01 X88.50297 Y6.31347
G01 X88.50134 Y6.31091
G01 X88.46550 Y6.25986
G01 X88.46380 Y6.25734
G01 X88.43551 Y6.22191
G01 X88.42718 Y6.21116
G01 X88.40216 Y6.17781
G01 X88.39936 Y6.17449
G01 X88.32352 Y6.09013
G01 X88.32072 Y6.08724
G01 X88.30526 Y6.07261
G01 X88.29929 Y6.05287
G01 X88.28781 Y5.99516
G01 X88.27147 Y5.82940
G01 X88.27147 Y5.77058
G01 X88.28781 Y5.60471
G01 X88.29212 Y5.57563
G01 X88.29929 Y5.54703
G01 X88.34762 Y5.38757
G01 X88.37013 Y5.33324
G01 X88.44869 Y5.18632
G01 X88.46388 Y5.16108
G01 X88.48135 Y5.13738
G01 X88.58707 Y5.00863
G01 X88.62865 Y4.96705
G01 X88.75745 Y4.86133
G01 X88.80635 Y4.82862
G01 X88.95334 Y4.75010
G01 X88.97996 Y4.73748
G01 X89.00767 Y4.72760
G01 X89.16713 Y4.67919
G01 X89.19565 Y4.67203
G01 X89.22479 Y4.66771
G01 X89.39062 Y4.65143
G01 X89.44945 Y4.65143
G01 X89.61524 Y4.66771
G01 X89.64437 Y4.67203
G01 X89.67294 Y4.67919
G01 X89.83241 Y4.72760
G01 X89.86012 Y4.73748
G01 X89.88674 Y4.75010
G01 X90.03370 Y4.82862
G01 X90.08257 Y4.86133
G01 X90.21137 Y4.96705
G01 X90.25295 Y5.00863
G01 X90.35872 Y5.13738
G01 X90.37619 Y5.16108
G01 X90.39133 Y5.18632
G01 X90.41333 Y5.22742
G01 X90.46989 Y5.33324
G01 X90.49240 Y5.38757
G01 X90.54079 Y5.54703
G01 X90.54795 Y5.57563
G01 X90.55227 Y5.60471
G01 X90.56860 Y5.77058
G01 X90.46906 Y5.78033
G01 X90.36956 Y5.79013
G01 X90.35323 Y5.62430
G01 X90.35176 Y5.61459
G01 X90.34937 Y5.60512
G01 X90.30101 Y5.44568
G01 X90.29352 Y5.42757
G01 X90.21495 Y5.28056
G01 X90.20993 Y5.27220
G01 X90.20408 Y5.26425
G01 X90.09837 Y5.13550
G01 X90.08453 Y5.12166
G01 X89.95572 Y5.01592
G01 X89.94782 Y5.01010
G01 X89.93939 Y5.00504
G01 X89.79245 Y4.92646
G01 X89.77434 Y4.91894
G01 X89.61491 Y4.87063
G01 X89.60538 Y4.86824
G01 X89.59568 Y4.86674
G01 X89.42984 Y4.85041
G01 X89.41023 Y4.85041
G01 X89.24440 Y4.86674
G01 X89.23469 Y4.86824
G01 X89.22517 Y4.87063
G01 X89.06573 Y4.91894
G01 X89.04762 Y4.92646
G01 X88.90063 Y5.00504
G01 X88.88435 Y5.01592
G01 X88.75555 Y5.12166
G01 X88.74170 Y5.13550
G01 X88.63599 Y5.26425
G01 X88.63012 Y5.27220
G01 X88.62507 Y5.28056
G01 X88.54656 Y5.42757
G01 X88.53901 Y5.44568
G01 X88.49065 Y5.60512
G01 X88.48826 Y5.61459
G01 X88.48684 Y5.62430
G01 X88.47051 Y5.79013
G01 X88.47051 Y5.80974
G01 X88.48684 Y5.97555
G01 X88.49065 Y5.99483
G01 X88.53901 Y6.15429
G01 X88.54234 Y6.16354
G01 X88.54656 Y6.17240
G01 X88.62507 Y6.31932
G01 X88.63599 Y6.33560
G01 X88.74170 Y6.46445
G01 X88.74828 Y6.47172
G01 X88.75555 Y6.47832
G01 X88.88435 Y6.58401
G01 X88.90063 Y6.59493
G01 X89.04762 Y6.67344
G01 X89.05646 Y6.67766
G01 X89.06573 Y6.68099
G01 X89.22517 Y6.72932
G01 X89.24440 Y6.73316
G01 X89.41023 Y6.74949
G01 X89.42004 Y6.74997
G01 X89.42984 Y6.74949
G01 X89.59568 Y6.73316
G01 X89.61491 Y6.72932
G01 X89.77434 Y6.68099
G01 X89.79245 Y6.67344
G01 X89.93939 Y6.59493
G01 X89.94782 Y6.58988
G01 X89.95572 Y6.58401
G01 X90.08453 Y6.47832
G01 X90.09837 Y6.46445
G01 X90.20408 Y6.33560
G01 X90.20993 Y6.32777
G01 X90.21495 Y6.31932
G01 X90.29352 Y6.17240
G01 X90.30101 Y6.15429
G01 X90.34937 Y5.99483
G01 X90.35176 Y5.98528
G01 X90.35323 Y5.97555
G01 X90.36956 Y5.80974
G01 X90.36956 Y5.79013
G01 X90.39824 Y5.42163
G01 X90.39669 Y5.41660
G01 X90.38173 Y5.38038
G01 X90.30317 Y5.23347
G01 X90.29309 Y5.21663
G01 X90.28140 Y5.20083
G01 X90.17569 Y5.07208
G01 X90.16250 Y5.05750
G01 X90.14792 Y5.04429
G01 X90.01912 Y4.93857
G01 X89.98656 Y4.91681
G01 X89.83957 Y4.83827
G01 X89.82186 Y4.82986
G01 X89.80337 Y4.82331
G01 X89.64389 Y4.77487
G01 X89.60543 Y4.76722
G01 X89.43965 Y4.75089
G01 X89.42004 Y4.74998
G01 X89.40043 Y4.75089
G01 X89.23459 Y4.76722
G01 X89.21519 Y4.77012
G01 X89.19616 Y4.77487
G01 X89.03670 Y4.82331
G01 X89.00045 Y4.83827
G01 X88.85351 Y4.91681
G01 X88.82090 Y4.93857
G01 X88.69210 Y5.04429
G01 X88.66439 Y5.07208
G01 X88.55867 Y5.20083
G01 X88.54696 Y5.21663
G01 X88.53690 Y5.23347
G01 X88.45834 Y5.38038
G01 X88.44336 Y5.41660
G01 X88.39499 Y5.57611
G01 X88.39019 Y5.59514
G01 X88.38730 Y5.61452
G01 X88.37097 Y5.78033
G01 X88.37097 Y5.81955
G01 X88.38730 Y5.98536
G01 X88.39499 Y6.02386
G01 X88.44336 Y6.18327
G01 X88.44996 Y6.20177
G01 X88.45834 Y6.21949
G01 X88.53690 Y6.36648
G01 X88.55867 Y6.39910
G01 X88.66439 Y6.52790
G01 X88.67251 Y6.53687
G01 X88.68331 Y6.54761
G01 X88.69438 Y6.55869
G01 X88.74470 Y6.60436
G01 X88.81801 Y6.65996
G01 X88.85659 Y6.68637
G01 X88.89405 Y6.70938
G01 X88.99781 Y6.76120
G01 X89.04061 Y6.78007
G01 X89.05925 Y6.78718
G01 X89.19380 Y6.82564
G01 X89.23675 Y6.83565
G01 X89.39939 Y6.85079
G01 X89.42004 Y6.85221
G01 X89.44069 Y6.85079
G01 X89.60332 Y6.83565
G01 X89.64627 Y6.82564
G01 X89.78082 Y6.78718
G01 X89.79946 Y6.78007
G01 X89.84226 Y6.76120
G01 X89.94602 Y6.70938
G01 X89.98348 Y6.68637
G01 X90.00015 Y6.67497
G01 X90.00853 Y6.66923
G01 X90.02207 Y6.65996
G01 X90.09537 Y6.60436
G01 X90.14574 Y6.55869
G01 X90.15720 Y6.54723
G01 X90.16730 Y6.53712
G01 X90.17569 Y6.52790
G01 X90.28140 Y6.39910
G01 X90.28930 Y6.38846
G01 X90.28968 Y6.38792
G01 X90.29436 Y6.38104
G01 X90.29494 Y6.38018
G01 X90.30317 Y6.36648
G01 X90.38173 Y6.21949
G01 X90.39669 Y6.18327
G01 X90.44508 Y6.02386
G01 X90.44983 Y6.00484
G01 X90.45272 Y5.98536
G01 X90.46906 Y5.81955
G01 X90.46906 Y5.78033
G01 X90.45272 Y5.61452
G01 X90.44983 Y5.59514
G01 X90.44508 Y5.57611
G01 X90.39824 Y5.42163
G01 X90.41333 Y5.22742
G01 X90.54988 Y3.47129
G01 X90.56860 Y3.23052
G01 X90.55227 Y3.06476
G01 X90.54795 Y3.03558
G01 X90.54079 Y3.00703
G01 X90.53477 Y2.98727
G01 X90.51922 Y2.97251
G01 X90.51643 Y2.96967
G01 X90.44066 Y2.88541
G01 X90.43792 Y2.88201
G01 X90.41287 Y2.84879
G01 X90.40457 Y2.83797
G01 X90.37632 Y2.80246
G01 X90.37457 Y2.80007
G01 X90.33878 Y2.74899
G01 X90.33710 Y2.74648
G01 X90.30642 Y2.69651
G01 X90.29458 Y2.67912
G01 X90.28988 Y2.67226
G01 X90.28955 Y2.67180
G01 X90.28003 Y2.65788
G01 X90.22443 Y2.58465
G01 X90.17879 Y2.53429
G01 X90.16710 Y2.52260
G01 X90.15740 Y2.51287
G01 X90.14792 Y2.50434
G01 X90.01912 Y2.39862
G01 X89.98656 Y2.37683
G01 X89.83957 Y2.29824
G01 X89.82186 Y2.28986
G01 X89.80337 Y2.28331
G01 X89.64389 Y2.23487
G01 X89.60543 Y2.22728
G01 X89.43965 Y2.21089
G01 X89.42004 Y2.20998
G01 X89.40043 Y2.21089
G01 X89.23459 Y2.22728
G01 X89.21519 Y2.23017
G01 X89.19616 Y2.23487
G01 X89.03670 Y2.28331
G01 X89.00045 Y2.29824
G01 X88.85351 Y2.37683
G01 X88.84013 Y2.38486
G01 X88.83982 Y2.38501
G01 X88.83208 Y2.39032
G01 X88.83180 Y2.39057
G01 X88.81801 Y2.40000
G01 X88.74470 Y2.45552
G01 X88.69438 Y2.50124
G01 X88.66129 Y2.53429
G01 X88.61564 Y2.58465
G01 X88.56004 Y2.65788
G01 X88.55049 Y2.67188
G01 X88.54508 Y2.67985
G01 X88.53690 Y2.69342
G01 X88.45834 Y2.84038
G01 X88.44336 Y2.87663
G01 X88.39499 Y3.03606
G01 X88.39019 Y3.05509
G01 X88.38730 Y3.07457
G01 X88.37097 Y3.24033
G01 X88.37097 Y3.27960
G01 X88.38730 Y3.44536
G01 X88.39499 Y3.48386
G01 X88.44336 Y3.64333
G01 X88.44996 Y3.66177
G01 X88.45834 Y3.67949
G01 X88.53690 Y3.82651
G01 X88.54696 Y3.84332
G01 X88.55867 Y3.85910
G01 X88.66439 Y3.98790
G01 X88.67757 Y4.00240
G01 X88.69210 Y4.01561
G01 X88.82090 Y4.12133
G01 X88.85351 Y4.14312
G01 X89.00045 Y4.22161
G01 X89.03670 Y4.23667
G01 X89.19616 Y4.28498
G01 X89.21519 Y4.28981
G01 X89.23459 Y4.29265
G01 X89.40043 Y4.30898
G01 X89.42004 Y4.31000
G01 X89.43965 Y4.30898
G01 X89.60543 Y4.29265
G01 X89.62489 Y4.28981
G01 X89.64389 Y4.28498
G01 X89.80337 Y4.23667
G01 X89.83957 Y4.22161
G01 X89.98656 Y4.14312
G01 X90.00340 Y4.13304
G01 X90.01912 Y4.12133
G01 X90.14792 Y4.01561
G01 X90.17569 Y3.98790
G01 X90.28140 Y3.85910
G01 X90.29309 Y3.84332
G01 X90.30317 Y3.82651
G01 X90.38173 Y3.67949
G01 X90.39669 Y3.64333
G01 X90.44508 Y3.48386
G01 X90.44983 Y3.46484
G01 X90.45272 Y3.44536
G01 X90.46906 Y3.27960
G01 X90.46906 Y3.24033
G01 X90.45272 Y3.07457
G01 X90.44983 Y3.05509
G01 X90.44508 Y3.03606
G01 X90.39669 Y2.87663
G01 X90.38173 Y2.84038
G01 X90.30317 Y2.69342
G01 X90.29484 Y2.67957
G01 X90.29458 Y2.67912
G01 X90.28988 Y2.67226
G01 X90.28955 Y2.67180
G01 X90.28140 Y2.66088
G01 X90.17569 Y2.53202
G01 X90.16710 Y2.52260
G01 X90.15740 Y2.51287
G01 X90.14574 Y2.50124
G01 X90.09537 Y2.45552
G01 X90.02207 Y2.40000
G01 X89.98348 Y2.37358
G01 X89.94602 Y2.35052
G01 X89.84226 Y2.29867
G01 X89.79946 Y2.27988
G01 X89.78082 Y2.27274
G01 X89.64627 Y2.23431
G01 X89.60332 Y2.22423
G01 X89.44069 Y2.20911
G01 X89.42004 Y2.20769
G01 X89.39939 Y2.20911
G01 X89.23675 Y2.22423
G01 X89.19380 Y2.23431
G01 X89.05931 Y2.27274
G01 X89.04061 Y2.27988
G01 X88.99781 Y2.29867
G01 X88.89405 Y2.35052
G01 X88.85659 Y2.37358
G01 X88.84013 Y2.38486
G01 X88.83982 Y2.38501
G01 X88.83208 Y2.39032
G01 X88.83180 Y2.39057
G01 X88.82090 Y2.39862
G01 X88.69210 Y2.50434
G01 X88.66439 Y2.53202
G01 X88.55867 Y2.66088
G01 X88.55049 Y2.67188
G01 X88.53365 Y2.69651
G01 X88.50297 Y2.74648
G01 X88.50129 Y2.74899
G01 X88.46550 Y2.80007
G01 X88.46375 Y2.80246
G01 X88.43551 Y2.83797
G01 X88.42718 Y2.84879
G01 X88.40221 Y2.88219
G01 X88.39936 Y2.88544
G01 X88.32365 Y2.96967
G01 X88.32085 Y2.97254
G01 X88.30526 Y2.98729
G01 X88.29929 Y3.00703
G01 X88.29212 Y3.03558
G01 X88.28781 Y3.06476
G01 X88.27147 Y3.23052
G01 X88.27147 Y3.28940
G01 X88.28781 Y3.45519
G01 X88.29929 Y3.51290
G01 X88.34762 Y3.67231
G01 X88.35758 Y3.70002
G01 X88.37013 Y3.72664
G01 X88.44869 Y3.87365
G01 X88.46388 Y3.89885
G01 X88.48135 Y3.92255
G01 X88.58707 Y4.05135
G01 X88.62865 Y4.09293
G01 X88.75745 Y4.19865
G01 X88.80635 Y4.23131
G01 X88.95334 Y4.30982
G01 X88.97996 Y4.32239
G01 X89.00767 Y4.33233
G01 X89.16713 Y4.38074
G01 X89.19565 Y4.38785
G01 X89.22479 Y4.39217
G01 X89.39062 Y4.40850
G01 X89.44945 Y4.40850
G01 X89.61524 Y4.39217
G01 X89.64437 Y4.38785
G01 X89.67294 Y4.38074
G01 X89.83241 Y4.33233
G01 X89.88674 Y4.30982
G01 X90.03370 Y4.23131
G01 X90.05895 Y4.21612
G01 X90.08257 Y4.19865
G01 X90.21137 Y4.09293
G01 X90.25295 Y4.05135
G01 X90.35872 Y3.92255
G01 X90.37619 Y3.89885
G01 X90.39133 Y3.87365
G01 X90.46989 Y3.72664
G01 X90.49240 Y3.67231
G01 X90.54079 Y3.51290
G01 X90.54795 Y3.48430
G01 X90.54988 Y3.47129
G01 X90.55227 Y3.45519
G01 X90.56860 Y3.28940
G01 X90.56860 Y3.23052
G01 X90.46906 Y3.24033
G01 X90.36956 Y3.25013
G01 X90.35323 Y3.08430
G01 X90.35176 Y3.07464
G01 X90.34937 Y3.06512
G01 X90.30101 Y2.90563
G01 X90.29352 Y2.88755
G01 X90.21495 Y2.74058
G01 X90.20993 Y2.73215
G01 X90.20408 Y2.72430
G01 X90.09837 Y2.59545
G01 X90.08453 Y2.58161
G01 X89.95572 Y2.47589
G01 X89.94782 Y2.47010
G01 X89.93939 Y2.46499
G01 X89.79245 Y2.38646
G01 X89.77434 Y2.37894
G01 X89.61491 Y2.33063
G01 X89.60538 Y2.32819
G01 X89.59568 Y2.32679
G01 X89.42984 Y2.31046
G01 X89.41023 Y2.31046
G01 X89.24440 Y2.32679
G01 X89.23469 Y2.32819
G01 X89.22517 Y2.33063
G01 X89.06573 Y2.37894
G01 X89.04762 Y2.38646
G01 X88.90063 Y2.46499
G01 X88.89225 Y2.47010
G01 X88.88435 Y2.47589
G01 X88.75555 Y2.58161
G01 X88.74170 Y2.59545
G01 X88.63599 Y2.72430
G01 X88.63012 Y2.73215
G01 X88.62507 Y2.74058
G01 X88.54656 Y2.88755
G01 X88.53901 Y2.90563
G01 X88.49065 Y3.06512
G01 X88.48826 Y3.07464
G01 X88.48684 Y3.08430
G01 X88.47051 Y3.25013
G01 X88.47051 Y3.26979
G01 X88.48684 Y3.43555
G01 X88.49065 Y3.45478
G01 X88.53901 Y3.61429
G01 X88.54234 Y3.62354
G01 X88.54656 Y3.63235
G01 X88.62507 Y3.77937
G01 X88.63599 Y3.79565
G01 X88.74170 Y3.92448
G01 X88.75555 Y3.93827
G01 X88.88435 Y4.04398
G01 X88.90063 Y4.05493
G01 X89.04762 Y4.13342
G01 X89.06573 Y4.14099
G01 X89.22517 Y4.18930
G01 X89.23469 Y4.19174
G01 X89.24440 Y4.19318
G01 X89.41023 Y4.20947
G01 X89.42984 Y4.20947
G01 X89.59568 Y4.19318
G01 X89.60538 Y4.19174
G01 X89.61491 Y4.18930
G01 X89.77434 Y4.14099
G01 X89.79245 Y4.13342
G01 X89.93939 Y4.05493
G01 X89.94782 Y4.04988
G01 X89.95572 Y4.04398
G01 X90.08453 Y3.93827
G01 X90.09837 Y3.92448
G01 X90.20408 Y3.79565
G01 X90.20993 Y3.78777
G01 X90.21495 Y3.77937
G01 X90.29352 Y3.63235
G01 X90.30101 Y3.61429
G01 X90.34937 Y3.45478
G01 X90.35176 Y3.44533
G01 X90.35323 Y3.43555
G01 X90.36956 Y3.26979
G01 X90.36956 Y3.25013
G04 P0 ( dwell for no time -- G64 should not smooth over this point )
G00 Z5.00000 ( retract )

G00 X88.02857 Y3.23052 ( rapid move to begin. )
G01 F300.00000
( Mill infeed pass 1/1 )
G01 Z-0.05000
G04 P0 ( dwell for no time -- G64 should not smooth over this point )
G01 F600.00000
G01 X88.02857 Y3.23052
G01 X88.01224 Y3.06476
G01 X88.00792 Y3.03558
G01 X88.00076 Y3.00703
G01 X87.99474 Y2.98727
G01 X87.97925 Y2.97251
G01 X87.97645 Y2.96967
G01 X87.90068 Y2.88541
G01 X87.89794 Y2.88201
G01 X87.87290 Y2.84879
G01 X87.86457 Y2.83797
G01 X87.83632 Y2.80246
G01 X87.83454 Y2.80007
G01 X87.79875 Y2.74899
G01 X87.79708 Y2.74648
G01 X87.76645 Y2.69651
G01 X87.75105 Y2.67396
G01 X87.74986 Y2.67226
G01 X87.74000 Y2.65788
G01 X87.68445 Y2.58465
G01 X87.63876 Y2.53429
G01 X87.62738 Y2.52283
G01 X87.62713 Y2.52260
G01 X87.61742 Y2.51287
G01 X87.61694 Y2.51242
G01 X87.60571 Y2.50124
G01 X87.55535 Y2.45552
G01 X87.48209 Y2.40000
G01 X87.44346 Y2.37358
G01 X87.40599 Y2.35052
G01 X87.30229 Y2.29867
G01 X87.25946 Y2.27988
G01 X87.24082 Y2.27274
G01 X87.10627 Y2.23431
G01 X87.06332 Y2.22423
G01 X86.90074 Y2.20909
G01 X86.88004 Y2.20769
G01 X86.85936 Y2.20911
G01 X86.69675 Y2.22423
G01 X86.65380 Y2.23431
G01 X86.51928 Y2.27274
G01 X86.50061 Y2.27988
G01 X86.45779 Y2.29867
G01 X86.35403 Y2.35052
G01 X86.31659 Y2.37358
G01 X86.27801 Y2.40000
G01 X86.20475 Y2.45552
G01 X86.15436 Y2.50124
G01 X86.14288 Y2.51272
G01 X86.13251 Y2.52308
G01 X86.12131 Y2.53429
G01 X86.07562 Y2.58465
G01 X86.02009 Y2.65788
G01 X85.99363 Y2.69651
G01 X85.96302 Y2.74648
G01 X85.96129 Y2.74899
G01 X85.92556 Y2.80007
G01 X85.92373 Y2.80246
G01 X85.89556 Y2.83797
G01 X85.88723 Y2.84879
G01 X85.86221 Y2.88219
G01 X85.85936 Y2.88544
G01 X85.78367 Y2.96967
G01 X85.78083 Y2.97254
G01 X85.76526 Y2.98729
G01 X85.75926 Y3.00703
G01 X85.75210 Y3.03558
G01 X85.74778 Y3.06476
G01 X85.73150 Y3.23052
G01 X85.73003 Y3.25994
G01 X85.73150 Y3.28940
G01 X85.74778 Y3.45519
G01 X85.75210 Y3.48430
G01 X85.75926 Y3.51290
G01 X85.76526 Y3.53261
G01 X85.78072 Y3.54724
G01 X85.78357 Y3.55013
G01 X85.85936 Y3.63444
G01 X85.86213 Y3.63781
G01 X85.88723 Y3.67111
G01 X85.89556 Y3.68191
G01 X85.92370 Y3.71744
G01 X85.92556 Y3.71980
G01 X85.96134 Y3.77096
G01 X85.96302 Y3.77342
G01 X85.99363 Y3.82336
G01 X86.02009 Y3.86197
G01 X86.07569 Y3.93525
G01 X86.12131 Y3.98562
G01 X86.13229 Y3.99656
G01 X86.14339 Y4.00769
G01 X86.14311 Y4.00743
G01 X86.13251 Y3.99684
G01 X86.13229 Y3.99656
G01 X86.12436 Y3.98790
G01 X86.01872 Y3.85910
G01 X85.99688 Y3.82651
G01 X85.91839 Y3.67949
G01 X85.90333 Y3.64333
G01 X85.85497 Y3.48386
G01 X85.85024 Y3.46484
G01 X85.84730 Y3.44536
G01 X85.83102 Y3.27960
G01 X85.83005 Y3.25994
G01 X85.83102 Y3.24033
G01 X85.84730 Y3.07457
G01 X85.85024 Y3.05509
G01 X85.85497 Y3.03606
G01 X85.90333 Y2.87663
G01 X85.91839 Y2.84038
G01 X85.99688 Y2.69342
G01 X86.01872 Y2.66088
G01 X86.12436 Y2.53202
G01 X86.13251 Y2.52308
G01 X86.13277 Y2.52278
G01 X86.14288 Y2.51272
G01 X86.15210 Y2.50434
G01 X86.28095 Y2.39862
G01 X86.31351 Y2.37683
G01 X86.46050 Y2.29824
G01 X86.47818 Y2.28986
G01 X86.49670 Y2.28331
G01 X86.65616 Y2.23487
G01 X86.69459 Y2.22728
G01 X86.86043 Y2.21089
G01 X86.89965 Y2.21089
G01 X87.06548 Y2.22728
G01 X87.10394 Y2.23487
G01 X87.26337 Y2.28331
G01 X87.28184 Y2.28986
G01 X87.29957 Y2.29824
G01 X87.44656 Y2.37683
G01 X87.47915 Y2.39862
G01 X87.60792 Y2.50434
G01 X87.61694 Y2.51242
G01 X87.61742 Y2.51287
G01 X87.62713 Y2.52260
G01 X87.62738 Y2.52283
G01 X87.63566 Y2.53202
G01 X87.74138 Y2.66088
G01 X87.74986 Y2.67226
G01 X87.75105 Y2.67396
G01 X87.75481 Y2.67957
G01 X87.76314 Y2.69342
G01 X87.84171 Y2.84038
G01 X87.85672 Y2.87663
G01 X87.90510 Y3.03606
G01 X87.90985 Y3.05509
G01 X87.91275 Y3.07457
G01 X87.92908 Y3.24033
G01 X87.92908 Y3.27960
G01 X87.91275 Y3.44536
G01 X87.90985 Y3.46484
G01 X87.90510 Y3.48386
G01 X87.85979 Y3.63319
G01 X87.85672 Y3.64333
G01 X87.84171 Y3.67949
G01 X87.76314 Y3.82651
G01 X87.75306 Y3.84332
G01 X87.74138 Y3.85910
G01 X87.63566 Y3.98790
G01 X87.60792 Y4.01561
G01 X87.47915 Y4.12133
G01 X87.46337 Y4.13304
G01 X87.44656 Y4.14312
G01 X87.29957 Y4.22161
G01 X87.28184 Y4.23001
G01 X87.26337 Y4.23667
G01 X87.10394 Y4.28498
G01 X87.06548 Y4.29265
G01 X86.89965 Y4.30898
G01 X86.86043 Y4.30898
G01 X86.69459 Y4.29265
G01 X86.65616 Y4.28498
G01 X86.49670 Y4.23667
G01 X86.47818 Y4.23001
G01 X86.46050 Y4.22161
G01 X86.31351 Y4.14312
G01 X86.28095 Y4.12133
G01 X86.15210 Y4.01561
G01 X86.14339 Y4.00769
G01 X86.15436 Y4.01866
G01 X86.20475 Y4.06430
G01 X86.27801 Y4.11996
G01 X86.31659 Y4.14632
G01 X86.36658 Y4.17703
G01 X86.36904 Y4.17863
G01 X86.42014 Y4.21444
G01 X86.42256 Y4.21630
G01 X86.45809 Y4.24449
G01 X86.46886 Y4.25277
G01 X86.50211 Y4.27784
G01 X86.50546 Y4.28061
G01 X86.58987 Y4.35648
G01 X86.59281 Y4.35930
G01 X86.60742 Y4.37469
G01 X86.62713 Y4.38074
G01 X86.68479 Y4.39217
G01 X86.85062 Y4.40850
G01 X86.88004 Y4.40995
G01 X86.90948 Y4.40850
G01 X87.07529 Y4.39217
G01 X87.13294 Y4.38074
G01 X87.29241 Y4.33233
G01 X87.32009 Y4.32239
G01 X87.34671 Y4.30982
G01 X87.49367 Y4.23131
G01 X87.51892 Y4.21612
G01 X87.54260 Y4.19865
G01 X87.67137 Y4.09293
G01 X87.71295 Y4.05135
G01 X87.81867 Y3.92255
G01 X87.83622 Y3.89885
G01 X87.85136 Y3.87365
G01 X87.87526 Y3.82892
G01 X87.92992 Y3.72664
G01 X87.95242 Y3.67231
G01 X88.00076 Y3.51290
G01 X88.00792 Y3.48430
G01 X88.01224 Y3.45519
G01 X88.02857 Y3.28940
G01 X88.02857 Y3.23052
G01 X87.92908 Y3.24033
G01 X87.82954 Y3.25013
G01 X87.82954 Y3.26979
G01 X87.81321 Y3.43555
G01 X87.81176 Y3.44533
G01 X87.80940 Y3.45478
G01 X87.76101 Y3.61429
G01 X87.75349 Y3.63235
G01 X87.67495 Y3.77937
G01 X87.66990 Y3.78777
G01 X87.66406 Y3.79565
G01 X87.55834 Y3.92448
G01 X87.54453 Y3.93827
G01 X87.41570 Y4.04398
G01 X87.40782 Y4.04988
G01 X87.39939 Y4.05493
G01 X87.25243 Y4.13342
G01 X87.23437 Y4.14099
G01 X87.07491 Y4.18930
G01 X87.05568 Y4.19318
G01 X86.88984 Y4.20947
G01 X86.87023 Y4.20947
G01 X86.70440 Y4.19318
G01 X86.68519 Y4.18930
G01 X86.52573 Y4.14099
G01 X86.51651 Y4.13763
G01 X86.50760 Y4.13342
G01 X86.36068 Y4.05493
G01 X86.34440 Y4.04398
G01 X86.21555 Y3.93827
G01 X86.20828 Y3.93172
G01 X86.20173 Y3.92448
G01 X86.09599 Y3.79565
G01 X86.08512 Y3.77937
G01 X86.00656 Y3.63235
G01 X86.00234 Y3.62354
G01 X85.99901 Y3.61429
G01 X85.95068 Y3.45478
G01 X85.94831 Y3.44533
G01 X85.94684 Y3.43555
G01 X85.93048 Y3.26979
G01 X85.93000 Y3.25994
G01 X85.93048 Y3.25013
G01 X85.94684 Y3.08430
G01 X85.95068 Y3.06512
G01 X85.99901 Y2.90563
G01 X86.00656 Y2.88755
G01 X86.08512 Y2.74058
G01 X86.09599 Y2.72430
G01 X86.20173 Y2.59545
G01 X86.20828 Y2.58823
G01 X86.21555 Y2.58161
G01 X86.34440 Y2.47589
G01 X86.36068 Y2.46499
G01 X86.50760 Y2.38646
G01 X86.51651 Y2.38224
G01 X86.52573 Y2.37894
G01 X86.68519 Y2.33063
G01 X86.70440 Y2.32679
G01 X86.87023 Y2.31046
G01 X86.88984 Y2.31046
G01 X87.05568 Y2.32679
G01 X87.07491 Y2.33063
G01 X87.23437 Y2.37894
G01 X87.24359 Y2.38224
G01 X87.25243 Y2.38646
G01 X87.39939 Y2.46499
G01 X87.40782 Y2.47010
G01 X87.41570 Y2.47589
G01 X87.54453 Y2.58161
G01 X87.55834 Y2.59545
G01 X87.66406 Y2.72430
G01 X87.66990 Y2.73215
G01 X87.67495 Y2.74058
G01 X87.75349 Y2.88755
G01 X87.76101 Y2.90563
G01 X87.80940 Y3.06512
G01 X87.81176 Y3.07464
G01 X87.81321 Y3.08430
G01 X87.82954 Y3.25013
G01 X87.85979 Y3.63319
G01 X87.87526 Y3.82892
G01 X88.02857 Y5.77058
G01 X87.92908 Y5.78033
G01 X87.82954 Y5.79013
G01 X87.81321 Y5.62430
G01 X87.81176 Y5.61459
G01 X87.80940 Y5.60512
G01 X87.76101 Y5.44568
G01 X87.75349 Y5.42757
G01 X87.67495 Y5.28056
G01 X87.66990 Y5.27220
G01 X87.66406 Y5.26425
G01 X87.55834 Y5.13550
G01 X87.54453 Y5.12166
G01 X87.41570 Y5.01592
G01 X87.40782 Y5.01010
G01 X87.39939 Y5.00504
G01 X87.25243 Y4.92646
G01 X87.24359 Y4.92224
G01 X87.23437 Y4.91894
G01 X87.07491 Y4.87063
G01 X87.05568 Y4.86674
G01 X86.88984 Y4.85041
G01 X86.87023 Y4.85041
G01 X86.70440 Y4.86674
G01 X86.68519 Y4.87063
G01 X86.52573 Y4.91894
G01 X86.51651 Y4.92224
G01 X86.50760 Y4.92646
G01 X86.36068 Y5.00504
G01 X86.34440 Y5.01592
G01 X86.21555 Y5.12166
G01 X86.20828 Y5.12818
G01 X86.20173 Y5.13550
G01 X86.09599 Y5.26425
G01 X86.09012 Y5.27220
G01 X86.08512 Y5.28056
G01 X86.00656 Y5.42757
G01 X85.99901 Y5.44568
G01 X85.95068 Y5.60512
G01 X85.94831 Y5.61459
G01 X85.94684 Y5.62430
G01 X85.93048 Y5.79013
G01 X85.93000 Y5.79994
G01 X85.93048 Y5.80974
G01 X85.94684 Y5.97555
G01 X85.94831 Y5.98528
G01 X85.95068 Y5.99483
G01 X85.99901 Y6.15429
G01 X86.00234 Y6.16354
G01 X86.00656 Y6.17240
G01 X86.08512 Y6.31932
G01 X86.09599 Y6.33560
G01 X86.20173 Y6.46445
G01 X86.20828 Y6.47172
G01 X86.21555 Y6.47832
G01 X86.34440 Y6.58401
G01 X86.36068 Y6.59493
G01 X86.50760 Y6.67344
G01 X86.51651 Y6.67766
G01 X86.52573 Y6.68099
G01 X86.68519 Y6.72932
G01 X86.70440 Y6.73316
G01 X86.87023 Y6.74949
G01 X86.88984 Y6.74949
G01 X87.05568 Y6.73316
G01 X87.06538 Y6.73174
G01 X87.07491 Y6.72932
G01 X87.23437 Y6.68099
G01 X87.25243 Y6.67344
G01 X87.39939 Y6.59493
G01 X87.40782 Y6.58988
G01 X87.41570 Y6.58401
G01 X87.54453 Y6.47832
G01 X87.55834 Y6.46445
G01 X87.66406 Y6.33560
G01 X87.66990 Y6.32777
G01 X87.67495 Y6.31932
G01 X87.75349 Y6.17240
G01 X87.76101 Y6.15429
G01 X87.80940 Y5.99483
G01 X87.81176 Y5.98528
G01 X87.81321 Y5.97555
G01 X87.82954 Y5.80974
G01 X87.82954 Y5.79013
G01 X87.92908 Y5.78033
G01 X88.02857 Y5.77058
G01 X88.01224 Y5.60471
G01 X88.00792 Y5.57563
G01 X88.00076 Y5.54703
G01 X87.95242 Y5.38757
G01 X87.92992 Y5.33324
G01 X87.85136 Y5.18632
G01 X87.83622 Y5.16108
G01 X87.81867 Y5.13738
G01 X87.71295 Y5.00863
G01 X87.67137 Y4.96705
G01 X87.54260 Y4.86133
G01 X87.49367 Y4.82862
G01 X87.34671 Y4.75010
G01 X87.32009 Y4.73748
G01 X87.29241 Y4.72760
G01 X87.13294 Y4.67919
G01 X87.07529 Y4.66771
G01 X86.90948 Y4.65143
G01 X86.88004 Y4.64998
G01 X86.85062 Y4.65143
G01 X86.68479 Y4.66771
G01 X86.62713 Y4.67919
G01 X86.60734 Y4.68523
G01 X86.59281 Y4.70065
G01 X86.58987 Y4.70347
G01 X86.50546 Y4.77929
G01 X86.50211 Y4.78206
G01 X86.46886 Y4.80713
G01 X86.45809 Y4.81546
G01 X86.42256 Y4.84365
G01 X86.42014 Y4.84541
G01 X86.36904 Y4.88127
G01 X86.36658 Y4.88287
G01 X86.31659 Y4.91358
G01 X86.27801 Y4.93994
G01 X86.20475 Y4.99554
G01 X86.15436 Y5.04124
G01 X86.14318 Y5.05244
G01 X86.13277 Y5.06283
G01 X86.12131 Y5.07428
G01 X86.07569 Y5.12460
G01 X86.02009 Y5.19788
G01 X85.99363 Y5.23654
G01 X85.96274 Y5.28688
G01 X85.96106 Y5.28942
G01 X85.92528 Y5.34055
G01 X85.92342 Y5.34294
G01 X85.89556 Y5.37804
G01 X85.88692 Y5.38924
G01 X85.86241 Y5.42211
G01 X85.85949 Y5.42547
G01 X85.78326 Y5.51030
G01 X85.78042 Y5.51320
G01 X85.76513 Y5.52768
G01 X85.75926 Y5.54703
G01 X85.75210 Y5.57563
G01 X85.74778 Y5.60471
G01 X85.73150 Y5.77058
G01 X85.73003 Y5.79994
G01 X85.73150 Y5.82940
G01 X85.74778 Y5.99516
G01 X85.75210 Y6.02435
G01 X85.75926 Y6.05287
G01 X85.76513 Y6.07217
G01 X85.78042 Y6.08670
G01 X85.78326 Y6.08955
G01 X85.85949 Y6.17449
G01 X85.86231 Y6.17781
G01 X85.88692 Y6.21071
G01 X85.89556 Y6.22191
G01 X85.92352 Y6.25688
G01 X85.92528 Y6.25940
G01 X85.96106 Y6.31045
G01 X85.96274 Y6.31297
G01 X85.99363 Y6.36336
G01 X86.02009 Y6.40199
G01 X86.07569 Y6.47530
G01 X86.12131 Y6.52564
G01 X86.13229 Y6.53654
G01 X86.14339 Y6.54766
G01 X86.15210 Y6.55561
G01 X86.28095 Y6.66133
G01 X86.31351 Y6.68310
G01 X86.46050 Y6.76166
G01 X86.47818 Y6.77004
G01 X86.49670 Y6.77664
G01 X86.65616 Y6.82501
G01 X86.69459 Y6.83270
G01 X86.86043 Y6.84903
G01 X86.88004 Y6.85000
G01 X86.89965 Y6.84903
G01 X87.06548 Y6.83270
G01 X87.10394 Y6.82501
G01 X87.26337 Y6.77664
G01 X87.29957 Y6.76166
G01 X87.44656 Y6.68310
G01 X87.47915 Y6.66133
G01 X87.60792 Y6.55561
G01 X87.61694 Y6.54746
G01 X87.61720 Y6.54723
G01 X87.62728 Y6.53712
G01 X87.63566 Y6.52790
G01 X87.74138 Y6.39910
G01 X87.74917 Y6.38861
G01 X87.74968 Y6.38792
G01 X87.75512 Y6.37997
G01 X87.74917 Y6.38861
G01 X87.74000 Y6.40199
G01 X87.68445 Y6.47530
G01 X87.63876 Y6.52564
G01 X87.62728 Y6.53712
G01 X87.61694 Y6.54746
G01 X87.60571 Y6.55869
G01 X87.55535 Y6.60436
G01 X87.48209 Y6.65996
G01 X87.44346 Y6.68637
G01 X87.40599 Y6.70938
G01 X87.30229 Y6.76120
G01 X87.25946 Y6.78007
G01 X87.24082 Y6.78718
G01 X87.10627 Y6.82564
G01 X87.06332 Y6.83565
G01 X86.90074 Y6.85079
G01 X86.88004 Y6.85221
G01 X86.85936 Y6.85079
G01 X86.69675 Y6.83565
G01 X86.65380 Y6.82564
G01 X86.51925 Y6.78718
G01 X86.50061 Y6.78007
G01 X86.45779 Y6.76120
G01 X86.35410 Y6.70938
G01 X86.31626 Y6.68614
G01 X86.28999 Y6.66877
G01 X86.27869 Y6.66044
G01 X86.20475 Y6.60436
G01 X86.15436 Y6.55869
G01 X86.14339 Y6.54766
G01 X86.14311 Y6.54746
G01 X86.13251 Y6.53687
G01 X86.13229 Y6.53654
G01 X86.12436 Y6.52790
G01 X86.01872 Y6.39910
G01 X85.99688 Y6.36648
G01 X85.91839 Y6.21949
G01 X85.90333 Y6.18327
G01 X85.85497 Y6.02386
G01 X85.85024 Y6.00484
G01 X85.84730 Y5.98536
G01 X85.83102 Y5.81955
G01 X85.83005 Y5.79994
G01 X85.83102 Y5.78033
G01 X85.84730 Y5.61452
G01 X85.85024 Y5.59514
G01 X85.85497 Y5.57611
G01 X85.90333 Y5.41660
G01 X85.91839 Y5.38038
G01 X85.99688 Y5.23347
G01 X86.01872 Y5.20083
G01 X86.12436 Y5.07208
G01 X86.13277 Y5.06283
G01 X86.14288 Y5.05267
G01 X86.14318 Y5.05244
G01 X86.15210 Y5.04429
G01 X86.28095 Y4.93857
G01 X86.31351 Y4.91681
G01 X86.46050 Y4.83827
G01 X86.47818 Y4.82986
G01 X86.49670 Y4.82331
G01 X86.65616 Y4.77487
G01 X86.69459 Y4.76722
G01 X86.86043 Y4.75089
G01 X86.89965 Y4.75089
G01 X87.06548 Y4.76722
G01 X87.10394 Y4.77487
G01 X87.26337 Y4.82331
G01 X87.28184 Y4.82986
G01 X87.29957 Y4.83827
G01 X87.44656 Y4.91681
G01 X87.47915 Y4.93857
G01 X87.60792 Y5.04429
G01 X87.62248 Y5.05750
G01 X87.63566 Y5.07208
G01 X87.74138 Y5.20083
G01 X87.75306 Y5.21663
G01 X87.76314 Y5.23347
G01 X87.84171 Y5.38038
G01 X87.85672 Y5.41660
G01 X87.90510 Y5.57611
G01 X87.90985 Y5.59514
G01 X87.91275 Y5.61452
G01 X87.92908 Y5.78033
G01 X87.92908 Y5.81955
G01 X87.91275 Y5.98536
G01 X87.90985 Y6.00484
G01 X87.90510 Y6.02386
G01 X87.85672 Y6.18327
G01 X87.84171 Y6.21949
G01 X87.76314 Y6.36648
G01 X87.75512 Y6.37997
G01 X87.76645 Y6.36336
G01 X87.79708 Y6.31347
G01 X87.79875 Y6.31091
G01 X87.83449 Y6.25993
G01 X87.83627 Y6.25752
G01 X87.86457 Y6.22193
G01 X87.87285 Y6.21121
G01 X87.89789 Y6.17784
G01 X87.90068 Y6.17454
G01 X87.97655 Y6.09013
G01 X87.97935 Y6.08724
G01 X87.99479 Y6.07261
G01 X88.00076 Y6.05287
G01 X88.00792 Y6.02435
G01 X88.01224 Y5.99516
G01 X88.02857 Y5.82940
G01 X88.02857 Y5.77058
G04 P0 ( dwell for no time -- G64 should not smooth over this point )
G00 Z5.00000 ( retract )

G00 X85.49005 Y3.25994 ( rapid move to begin. )
G01 F300.00000
( Mill infeed pass 1/1 )
G01 Z-0.05000
G04 P0 ( dwell for no time -- G64 should not smooth over this point )
G01 F600.00000
G01 X85.49005 Y3.25994
G01 X85.48857 Y3.28940
G01 X85.47229 Y3.45519
G01 X85.46797 Y3.48430
G01 X85.46076 Y3.51290
G01 X85.45477 Y3.53266
G01 X85.43935 Y3.54724
G01 X85.43653 Y3.55013
G01 X85.36071 Y3.63449
G01 X85.35789 Y3.63784
G01 X85.33285 Y3.67116
G01 X85.32454 Y3.68193
G01 X85.29627 Y3.71752
G01 X85.29449 Y3.71993
G01 X85.25881 Y3.77096
G01 X85.25708 Y3.77342
G01 X85.22645 Y3.82336
G01 X85.20000 Y3.86197
G01 X85.14445 Y3.93525
G01 X85.09876 Y3.98562
G01 X85.08796 Y3.99644
G01 X85.07709 Y4.00728
G01 X85.06571 Y4.01864
G01 X85.01540 Y4.06430
G01 X84.94207 Y4.11996
G01 X84.90351 Y4.14632
G01 X84.85312 Y4.17728
G01 X84.85055 Y4.17899
G01 X84.79957 Y4.21467
G01 X84.79721 Y4.21650
G01 X84.76201 Y4.24444
G01 X84.75083 Y4.25300
G01 X84.71796 Y4.27772
G01 X84.71456 Y4.28048
G01 X84.62965 Y4.35676
G01 X84.62678 Y4.35958
G01 X84.61235 Y4.37487
G01 X84.59294 Y4.38074
G01 X84.53529 Y4.39217
G01 X84.36945 Y4.40850
G01 X84.34001 Y4.40995
G01 X84.31060 Y4.40850
G01 X84.14479 Y4.39217
G01 X84.08710 Y4.38074
G01 X84.06780 Y4.37487
G01 X84.05330 Y4.35958
G01 X84.05043 Y4.35676
G01 X83.96551 Y4.28048
G01 X83.96211 Y4.27772
G01 X83.92932 Y4.25308
G01 X83.91814 Y4.24444
G01 X83.88304 Y4.21653
G01 X83.88060 Y4.21477
G01 X83.82950 Y4.17896
G01 X83.82703 Y4.17726
G01 X83.77664 Y4.14632
G01 X83.73801 Y4.11996
G01 X83.66473 Y4.06430
G01 X83.61433 Y4.01866
G01 X83.60316 Y4.00743
G01 X83.59257 Y3.99684
G01 X83.58129 Y3.98562
G01 X83.53569 Y3.93525
G01 X83.48007 Y3.86197
G01 X83.45363 Y3.82336
G01 X83.42299 Y3.77342
G01 X83.42134 Y3.77096
G01 X83.38553 Y3.71980
G01 X83.38370 Y3.71744
G01 X83.35553 Y3.68191
G01 X83.34720 Y3.67111
G01 X83.32218 Y3.63781
G01 X83.31936 Y3.63444
G01 X83.24354 Y3.55013
G01 X83.24070 Y3.54724
G01 X83.22531 Y3.53261
G01 X83.21931 Y3.51290
G01 X83.21210 Y3.48430
G01 X83.20778 Y3.45519
G01 X83.19147 Y3.28940
G01 X83.19000 Y3.25994
G01 X83.19147 Y3.23052
G01 X83.20778 Y3.06476
G01 X83.21210 Y3.03558
G01 X83.21931 Y3.00703
G01 X83.22531 Y2.98729
G01 X83.24083 Y2.97254
G01 X83.24365 Y2.96967
G01 X83.31936 Y2.88544
G01 X83.32221 Y2.88219
G01 X83.34720 Y2.84879
G01 X83.35553 Y2.83797
G01 X83.38378 Y2.80246
G01 X83.38553 Y2.80007
G01 X83.42134 Y2.74899
G01 X83.42299 Y2.74648
G01 X83.45363 Y2.69651
G01 X83.48007 Y2.65788
G01 X83.53562 Y2.58465
G01 X83.58129 Y2.53429
G01 X83.59277 Y2.52278
G01 X83.60285 Y2.51272
G01 X83.61433 Y2.50124
G01 X83.66473 Y2.45552
G01 X83.73801 Y2.40000
G01 X83.77664 Y2.37358
G01 X83.81403 Y2.35052
G01 X83.91784 Y2.29867
G01 X83.96061 Y2.27988
G01 X83.97933 Y2.27274
G01 X84.11380 Y2.23431
G01 X84.15672 Y2.22423
G01 X84.31936 Y2.20911
G01 X84.34004 Y2.20769
G01 X84.36071 Y2.20911
G01 X84.52332 Y2.22423
G01 X84.56627 Y2.23431
G01 X84.70082 Y2.27274
G01 X84.71944 Y2.27988
G01 X84.76229 Y2.29867
G01 X84.86604 Y2.35052
G01 X84.90351 Y2.37358
G01 X84.94207 Y2.40000
G01 X85.01540 Y2.45552
G01 X85.06571 Y2.50124
G01 X85.07717 Y2.51262
G01 X85.07740 Y2.51287
G01 X85.08710 Y2.52260
G01 X85.08738 Y2.52283
G01 X85.08710 Y2.52260
G01 X85.07740 Y2.51287
G01 X85.07717 Y2.51262
G01 X85.06798 Y2.50434
G01 X84.93912 Y2.39862
G01 X84.90656 Y2.37683
G01 X84.75957 Y2.29824
G01 X84.74189 Y2.28986
G01 X84.72337 Y2.28331
G01 X84.56391 Y2.23487
G01 X84.52546 Y2.22728
G01 X84.35965 Y2.21089
G01 X84.32040 Y2.21089
G01 X84.15459 Y2.22728
G01 X84.11614 Y2.23487
G01 X83.95667 Y2.28331
G01 X83.93818 Y2.28986
G01 X83.92050 Y2.29824
G01 X83.77349 Y2.37683
G01 X83.74093 Y2.39862
G01 X83.61210 Y2.50434
G01 X83.60285 Y2.51272
G01 X83.59277 Y2.52278
G01 X83.58441 Y2.53202
G01 X83.47870 Y2.66088
G01 X83.45693 Y2.69342
G01 X83.37839 Y2.84038
G01 X83.36338 Y2.87663
G01 X83.31497 Y3.03606
G01 X83.31022 Y3.05509
G01 X83.30730 Y3.07457
G01 X83.29102 Y3.24033
G01 X83.29003 Y3.25994
G01 X83.29102 Y3.27960
G01 X83.30730 Y3.44536
G01 X83.31022 Y3.46484
G01 X83.31497 Y3.48386
G01 X83.36338 Y3.64333
G01 X83.37839 Y3.67949
G01 X83.45693 Y3.82651
G01 X83.47870 Y3.85910
G01 X83.58441 Y3.98790
G01 X83.59257 Y3.99684
G01 X83.60316 Y4.00743
G01 X83.61210 Y4.01561
G01 X83.74093 Y4.12133
G01 X83.77349 Y4.14312
G01 X83.92050 Y4.22161
G01 X83.93818 Y4.23001
G01 X83.95667 Y4.23667
G01 X84.11614 Y4.28498
G01 X84.15459 Y4.29265
G01 X84.32040 Y4.30898
G01 X84.35965 Y4.30898
G01 X84.52546 Y4.29265
G01 X84.56391 Y4.28498
G01 X84.72337 Y4.23667
G01 X84.74189 Y4.23001
G01 X84.75957 Y4.22161
G01 X84.90656 Y4.14312
G01 X84.93912 Y4.12133
G01 X85.06798 Y4.01561
G01 X85.07709 Y4.00728
G01 X85.08738 Y3.99707
G01 X85.08796 Y3.99644
G01 X85.09566 Y3.98790
G01 X85.20138 Y3.85910
G01 X85.22314 Y3.82651
G01 X85.30176 Y3.67949
G01 X85.31669 Y3.64333
G01 X85.36510 Y3.48386
G01 X85.36983 Y3.46484
G01 X85.37275 Y3.44536
G01 X85.38906 Y3.27960
G01 X85.39002 Y3.25994
G01 X85.38906 Y3.24033
G01 X85.37275 Y3.07457
G01 X85.36983 Y3.05509
G01 X85.36510 Y3.03606
G01 X85.31669 Y2.87663
G01 X85.30176 Y2.84038
G01 X85.22314 Y2.69342
G01 X85.20138 Y2.66088
G01 X85.09566 Y2.53202
G01 X85.08738 Y2.52283
G01 X85.09876 Y2.53429
G01 X85.14445 Y2.58465
G01 X85.20000 Y2.65788
G01 X85.22645 Y2.69651
G01 X85.25708 Y2.74648
G01 X85.25881 Y2.74899
G01 X85.29459 Y2.80007
G01 X85.29637 Y2.80246
G01 X85.32454 Y2.83797
G01 X85.33287 Y2.84879
G01 X85.35794 Y2.88201
G01 X85.36071 Y2.88541
G01 X85.43643 Y2.96967
G01 X85.43925 Y2.97251
G01 X85.45474 Y2.98727
G01 X85.46076 Y3.00703
G01 X85.46797 Y3.03558
G01 X85.47229 Y3.06476
G01 X85.48857 Y3.23052
G01 X85.49005 Y3.25994
G01 X85.39002 Y3.25994
G01 X85.29002 Y3.25994
G01 X85.28954 Y3.26979
G01 X85.27323 Y3.43555
G01 X85.27176 Y3.44533
G01 X85.26940 Y3.45478
G01 X85.22106 Y3.61429
G01 X85.21349 Y3.63235
G01 X85.13495 Y3.77937
G01 X85.12995 Y3.78777
G01 X85.12406 Y3.79565
G01 X85.01834 Y3.92448
G01 X85.01179 Y3.93172
G01 X85.00453 Y3.93827
G01 X84.87570 Y4.04398
G01 X84.85939 Y4.05493
G01 X84.71248 Y4.13342
G01 X84.70356 Y4.13763
G01 X84.69434 Y4.14099
G01 X84.53488 Y4.18930
G01 X84.51565 Y4.19318
G01 X84.34984 Y4.20947
G01 X84.33021 Y4.20947
G01 X84.16440 Y4.19318
G01 X84.14517 Y4.18930
G01 X83.98571 Y4.14099
G01 X83.97649 Y4.13763
G01 X83.96760 Y4.13342
G01 X83.82066 Y4.05493
G01 X83.80438 Y4.04398
G01 X83.67552 Y3.93827
G01 X83.66826 Y3.93172
G01 X83.66170 Y3.92448
G01 X83.55599 Y3.79565
G01 X83.54509 Y3.77937
G01 X83.46656 Y3.63235
G01 X83.46234 Y3.62354
G01 X83.45901 Y3.61429
G01 X83.41065 Y3.45478
G01 X83.40829 Y3.44533
G01 X83.40681 Y3.43555
G01 X83.39053 Y3.26979
G01 X83.39005 Y3.25994
G01 X83.39053 Y3.25013
G01 X83.40681 Y3.08430
G01 X83.41065 Y3.06512
G01 X83.45901 Y2.90563
G01 X83.46656 Y2.88755
G01 X83.54509 Y2.74058
G01 X83.55599 Y2.72430
G01 X83.66170 Y2.59545
G01 X83.66826 Y2.58823
G01 X83.67552 Y2.58161
G01 X83.80438 Y2.47589
G01 X83.82066 Y2.46499
G01 X83.96760 Y2.38646
G01 X83.97649 Y2.38224
G01 X83.98571 Y2.37894
G01 X84.14517 Y2.33063
G01 X84.16440 Y2.32679
G01 X84.33021 Y2.31046
G01 X84.34984 Y2.31046
G01 X84.51565 Y2.32679
G01 X84.53488 Y2.33063
G01 X84.69434 Y2.37894
G01 X84.70356 Y2.38224
G01 X84.71248 Y2.38646
G01 X84.85939 Y2.46499
G01 X84.87570 Y2.47589
G01 X85.00453 Y2.58161
G01 X85.01179 Y2.58823
G01 X85.01834 Y2.59545
G01 X85.12406 Y2.72430
G01 X85.13495 Y2.74058
G01 X85.21349 Y2.88755
G01 X85.22106 Y2.90563
G01 X85.26940 Y3.06512
G01 X85.27323 Y3.08430
G01 X85.28954 Y3.25013
G01 X85.29002 Y3.25994
G04 P0 ( dwell for no time -- G64 should not smooth over this point )
G00 Z5.00000 ( retract )

G00 X84.94306 Y6.89800 ( rapid move to begin. )
G01 F300.00000
( Mill infeed pass 1/1 )
G01 Z-0.05000
G04 P0 ( dwell for no time -- G64 should not smooth over this point )
G01 F600.00000
G01 X84.94306 Y6.89800
G01 X84.76919 Y6.97906
G01 X84.55792 Y7.03570
G01 X84.34004 Y7.05472
G01 X84.12216 Y7.03570
G01 X83.91088 Y6.97906
G01 X83.73701 Y6.89800
G01 X83.96363 Y6.67134
G01 X83.96760 Y6.67344
G01 X83.97649 Y6.67766
G01 X83.98571 Y6.68099
G01 X84.14517 Y6.72932
G01 X84.16440 Y6.73316
G01 X84.33021 Y6.74949
G01 X84.34984 Y6.74949
G01 X84.51565 Y6.73316
G01 X84.52538 Y6.73174
G01 X84.53488 Y6.72932
G01 X84.69434 Y6.68099
G01 X84.70356 Y6.67766
G01 X84.71248 Y6.67344
G01 X84.71641 Y6.67134
G01 X84.94306 Y6.89800
G01 X84.86361 Y6.89099
G01 X84.77143 Y6.86770
G01 X84.73485 Y6.88472
G01 X84.54049 Y6.93684
G01 X84.54059 Y6.93732
G01 X84.54049 Y6.93684
G01 X84.34004 Y6.95434
G01 X84.34004 Y6.95475
G01 X84.34004 Y6.95434
G01 X84.13958 Y6.93684
G01 X84.13948 Y6.93732
G01 X84.13958 Y6.93684
G01 X83.94522 Y6.88472
G01 X83.90872 Y6.86770
G01 X83.81647 Y6.89099
G01 X83.90872 Y6.86770
G01 X83.98972 Y6.78670
G01 X83.98571 Y6.77136
G01 X83.98972 Y6.78670
G01 X84.11614 Y6.82501
G01 X84.15459 Y6.83270
G01 X84.32040 Y6.84903
G01 X84.34001 Y6.85000
G01 X84.35965 Y6.84903
G01 X84.52546 Y6.83270
G01 X84.56391 Y6.82501
G01 X84.69033 Y6.78665
G01 X84.69434 Y6.77136
G01 X84.69033 Y6.78665
G01 X84.77143 Y6.86770
G04 P0 ( dwell for no time -- G64 should not smooth over this point )
G00 Z5.00000 ( retract )

G00 X82.95002 Y5.79994 ( rapid move to begin. )
G01 F300.00000
( Mill infeed pass 1/1 )
G01 Z-0.05000
G04 P0 ( dwell for no time -- G64 should not smooth over this point )
G01 F600.00000
G01 X82.95002 Y5.79994
G01 X82.94857 Y5.82940
G01 X82.93227 Y5.99516
G01 X82.92797 Y6.02435
G01 X82.92081 Y6.05287
G01 X82.91492 Y6.07228
G01 X82.89963 Y6.08670
G01 X82.89681 Y6.08955
G01 X82.82058 Y6.17451
G01 X82.81776 Y6.17784
G01 X82.79313 Y6.21071
G01 X82.78449 Y6.22191
G01 X82.75665 Y6.25701
G01 X82.75487 Y6.25940
G01 X82.71901 Y6.31045
G01 X82.71741 Y6.31297
G01 X82.68642 Y6.36336
G01 X82.67496 Y6.38012
G01 X82.66005 Y6.40199
G01 X82.60445 Y6.47530
G01 X82.55876 Y6.52564
G01 X82.54728 Y6.53712
G01 X82.53717 Y6.54723
G01 X82.52571 Y6.55869
G01 X82.47540 Y6.60436
G01 X82.40207 Y6.65996
G01 X82.36348 Y6.68637
G01 X82.32604 Y6.70938
G01 X82.22229 Y6.76120
G01 X82.17944 Y6.78007
G01 X82.16079 Y6.78718
G01 X82.02625 Y6.82564
G01 X81.98332 Y6.83565
G01 X81.82069 Y6.85079
G01 X81.80001 Y6.85221
G01 X81.77941 Y6.85079
G01 X81.61672 Y6.83565
G01 X81.57380 Y6.82564
G01 X81.43931 Y6.78718
G01 X81.42061 Y6.78007
G01 X81.37784 Y6.76120
G01 X81.27408 Y6.70938
G01 X81.23661 Y6.68637
G01 X81.19798 Y6.65996
G01 X81.12473 Y6.60436
G01 X81.07433 Y6.55869
G01 X81.06313 Y6.54746
G01 X81.05254 Y6.53687
G01 X81.04129 Y6.52564
G01 X80.99567 Y6.47530
G01 X80.94007 Y6.40199
G01 X80.91368 Y6.36336
G01 X80.88299 Y6.31347
G01 X80.88132 Y6.31091
G01 X80.84553 Y6.25986
G01 X80.84385 Y6.25734
G01 X80.81551 Y6.22191
G01 X80.80718 Y6.21116
G01 X80.78218 Y6.17781
G01 X80.77936 Y6.17449
G01 X80.70352 Y6.09013
G01 X80.70070 Y6.08724
G01 X80.68528 Y6.07261
G01 X80.67931 Y6.05287
G01 X80.67215 Y6.02435
G01 X80.66783 Y5.99516
G01 X80.65145 Y5.82940
G01 X80.65000 Y5.79994
G01 X80.65145 Y5.77058
G01 X80.66783 Y5.60471
G01 X80.67215 Y5.57563
G01 X80.67931 Y5.54703
G01 X80.72765 Y5.38757
G01 X80.75013 Y5.33324
G01 X80.82869 Y5.18632
G01 X80.86140 Y5.13738
G01 X80.96712 Y5.00863
G01 X80.98683 Y4.98681
G01 X81.00870 Y4.96705
G01 X81.13748 Y4.86133
G01 X81.18640 Y4.82862
G01 X81.33331 Y4.75010
G01 X81.35998 Y4.73748
G01 X81.38764 Y4.72760
G01 X81.54710 Y4.67919
G01 X81.60479 Y4.66771
G01 X81.77060 Y4.65143
G01 X81.80001 Y4.64998
G01 X81.82942 Y4.65143
G01 X81.99526 Y4.66771
G01 X82.05292 Y4.67919
G01 X82.07273 Y4.68526
G01 X82.08744 Y4.70078
G01 X82.09031 Y4.70357
G01 X82.17461 Y4.77929
G01 X82.17796 Y4.78203
G01 X82.21121 Y4.80713
G01 X82.22198 Y4.81546
G01 X82.25759 Y4.84368
G01 X82.25993 Y4.84541
G01 X82.31103 Y4.88124
G01 X82.31357 Y4.88287
G01 X82.36348 Y4.91358
G01 X82.40207 Y4.93994
G01 X82.47540 Y4.99552
G01 X82.52571 Y5.04124
G01 X82.53717 Y5.05262
G01 X82.53740 Y5.05287
G01 X82.54708 Y5.06255
G01 X82.54736 Y5.06283
G01 X82.54708 Y5.06255
G01 X82.53740 Y5.05287
G01 X82.53717 Y5.05262
G01 X82.52795 Y5.04429
G01 X82.39912 Y4.93857
G01 X82.36653 Y4.91681
G01 X82.21957 Y4.83827
G01 X82.20189 Y4.82986
G01 X82.18335 Y4.82331
G01 X82.02389 Y4.77487
G01 X81.98546 Y4.76722
G01 X81.81962 Y4.75089
G01 X81.78040 Y4.75089
G01 X81.61459 Y4.76722
G01 X81.57614 Y4.77487
G01 X81.41667 Y4.82331
G01 X81.39823 Y4.82986
G01 X81.38048 Y4.83827
G01 X81.23349 Y4.91681
G01 X81.20093 Y4.93857
G01 X81.07215 Y5.04429
G01 X81.05754 Y5.05750
G01 X81.04441 Y5.07208
G01 X80.93870 Y5.20083
G01 X80.91690 Y5.23347
G01 X80.83837 Y5.38038
G01 X80.82336 Y5.41660
G01 X80.77502 Y5.57611
G01 X80.77022 Y5.59514
G01 X80.76730 Y5.61452
G01 X80.75099 Y5.78033
G01 X80.75000 Y5.79994
G01 X80.75099 Y5.81955
G01 X80.76730 Y5.98536
G01 X80.77022 Y6.00484
G01 X80.77502 Y6.02386
G01 X80.82336 Y6.18327
G01 X80.83837 Y6.21949
G01 X80.91690 Y6.36648
G01 X80.93870 Y6.39910
G01 X81.04441 Y6.52790
G01 X81.05254 Y6.53687
G01 X81.06313 Y6.54746
G01 X81.07215 Y6.55561
G01 X81.20093 Y6.66133
G01 X81.23349 Y6.68310
G01 X81.38048 Y6.76166
G01 X81.39823 Y6.77004
G01 X81.41667 Y6.77664
G01 X81.57614 Y6.82501
G01 X81.61459 Y6.83270
G01 X81.78040 Y6.84903
G01 X81.80001 Y6.85000
G01 X81.81962 Y6.84903
G01 X81.98546 Y6.83270
G01 X82.02389 Y6.82501
G01 X82.18335 Y6.77664
G01 X82.21957 Y6.76166
G01 X82.36653 Y6.68310
G01 X82.39912 Y6.66133
G01 X82.52795 Y6.55561
G01 X82.53717 Y6.54723
G01 X82.54728 Y6.53712
G01 X82.55571 Y6.52790
G01 X82.66143 Y6.39910
G01 X82.66958 Y6.38797
G01 X82.67496 Y6.38012
G01 X82.68319 Y6.36648
G01 X82.76173 Y6.21949
G01 X82.77674 Y6.18327
G01 X82.82510 Y6.02386
G01 X82.82983 Y6.00484
G01 X82.83275 Y5.98536
G01 X82.84906 Y5.81955
G01 X82.85002 Y5.79994
G01 X82.84906 Y5.78033
G01 X82.83275 Y5.61452
G01 X82.82983 Y5.59514
G01 X82.82510 Y5.57611
G01 X82.77674 Y5.41660
G01 X82.76173 Y5.38038
G01 X82.68319 Y5.23347
G01 X82.66143 Y5.20083
G01 X82.55571 Y5.07208
G01 X82.54736 Y5.06283
G01 X82.55876 Y5.07428
G01 X82.60445 Y5.12460
G01 X82.66005 Y5.19788
G01 X82.68642 Y5.23654
G01 X82.71741 Y5.28688
G01 X82.71901 Y5.28942
G01 X82.75487 Y5.34055
G01 X82.75665 Y5.34294
G01 X82.78449 Y5.37804
G01 X82.79313 Y5.38924
G01 X82.81776 Y5.42201
G01 X82.82058 Y5.42544
G01 X82.89681 Y5.51030
G01 X82.89963 Y5.51320
G01 X82.91492 Y5.52768
G01 X82.92081 Y5.54703
G01 X82.92797 Y5.57563
G01 X82.93227 Y5.60471
G01 X82.94857 Y5.77058
G01 X82.95002 Y5.79994
G01 X82.85002 Y5.79994
G01 X82.75007 Y5.79994
G01 X82.74959 Y5.79013
G01 X82.73321 Y5.62430
G01 X82.73176 Y5.61459
G01 X82.72937 Y5.60512
G01 X82.68104 Y5.44568
G01 X82.67349 Y5.42757
G01 X82.59495 Y5.28056
G01 X82.58993 Y5.27220
G01 X82.58406 Y5.26425
G01 X82.47834 Y5.13550
G01 X82.47176 Y5.12818
G01 X82.46450 Y5.12166
G01 X82.33575 Y5.01592
G01 X82.31939 Y5.00504
G01 X82.17245 Y4.92646
G01 X82.16356 Y4.92224
G01 X82.15432 Y4.91894
G01 X81.99488 Y4.87063
G01 X81.97565 Y4.86674
G01 X81.80982 Y4.85041
G01 X81.79021 Y4.85041
G01 X81.62440 Y4.86674
G01 X81.60517 Y4.87063
G01 X81.44571 Y4.91894
G01 X81.43646 Y4.92224
G01 X81.42765 Y4.92646
G01 X81.28063 Y5.00504
G01 X81.26438 Y5.01592
G01 X81.13552 Y5.12166
G01 X81.12826 Y5.12818
G01 X81.12168 Y5.13550
G01 X81.01596 Y5.26425
G01 X81.01017 Y5.27220
G01 X81.00507 Y5.28056
G01 X80.92653 Y5.42757
G01 X80.91906 Y5.44568
G01 X80.87065 Y5.60512
G01 X80.86826 Y5.61459
G01 X80.86682 Y5.62430
G01 X80.85053 Y5.79013
G01 X80.85003 Y5.79994
G01 X80.85053 Y5.80974
G01 X80.86682 Y5.97555
G01 X80.86826 Y5.98528
G01 X80.87065 Y5.99483
G01 X80.91906 Y6.15429
G01 X80.92234 Y6.16354
G01 X80.92653 Y6.17240
G01 X81.00507 Y6.31932
G01 X81.01596 Y6.33560
G01 X81.12168 Y6.46445
G01 X81.12826 Y6.47172
G01 X81.13552 Y6.47832
G01 X81.26438 Y6.58401
G01 X81.28063 Y6.59493
G01 X81.42765 Y6.67344
G01 X81.43646 Y6.67766
G01 X81.44571 Y6.68099
G01 X81.60517 Y6.72932
G01 X81.62440 Y6.73316
G01 X81.79021 Y6.74949
G01 X81.80982 Y6.74949
G01 X81.97565 Y6.73316
G01 X81.98535 Y6.73174
G01 X81.99488 Y6.72932
G01 X82.15432 Y6.68099
G01 X82.16356 Y6.67766
G01 X82.17245 Y6.67344
G01 X82.31939 Y6.59493
G01 X82.33575 Y6.58401
G01 X82.46450 Y6.47832
G01 X82.47176 Y6.47172
G01 X82.47834 Y6.46445
G01 X82.58406 Y6.33560
G01 X82.58993 Y6.32777
G01 X82.59495 Y6.31932
G01 X82.67349 Y6.17240
G01 X82.68104 Y6.15429
G01 X82.72937 Y5.99483
G01 X82.73176 Y5.98528
G01 X82.73321 Y5.97555
G01 X82.74959 Y5.80974
G01 X82.75007 Y5.79994
G04 P0 ( dwell for no time -- G64 should not smooth over this point )
G00 Z5.00000 ( retract )

G00 X82.95002 Y3.25994 ( rapid move to begin. )
G01 F300.00000
( Mill infeed pass 1/1 )
G01 Z-0.05000
G04 P0 ( dwell for no time -- G64 should not smooth over this point )
G01 F600.00000
G01 X82.95002 Y3.25994
G01 X82.94857 Y3.28940
G01 X82.93227 Y3.45519
G01 X82.92797 Y3.48430
G01 X82.92081 Y3.51290
G01 X82.91482 Y3.53266
G01 X82.89935 Y3.54724
G01 X82.89658 Y3.55013
G01 X82.82068 Y3.63449
G01 X82.81794 Y3.63784
G01 X82.79282 Y3.67116
G01 X82.78459 Y3.68193
G01 X82.75627 Y3.71752
G01 X82.75449 Y3.71993
G01 X82.71878 Y3.77096
G01 X82.71713 Y3.77342
G01 X82.68642 Y3.82336
G01 X82.66005 Y3.86197
G01 X82.60445 Y3.93525
G01 X82.55876 Y3.98562
G01 X82.54796 Y3.99644
G01 X82.53709 Y4.00728
G01 X82.52571 Y4.01864
G01 X82.47540 Y4.06430
G01 X82.40207 Y4.11996
G01 X82.36348 Y4.14632
G01 X82.31350 Y4.17706
G01 X82.31103 Y4.17866
G01 X82.25993 Y4.21444
G01 X82.25759 Y4.21627
G01 X82.22198 Y4.24449
G01 X82.21121 Y4.25277
G01 X82.17796 Y4.27784
G01 X82.17461 Y4.28061
G01 X82.09031 Y4.35633
G01 X82.08744 Y4.35912
G01 X82.07273 Y4.37469
G01 X82.05292 Y4.38074
G01 X81.99526 Y4.39217
G01 X81.82942 Y4.40850
G01 X81.80001 Y4.40995
G01 X81.77060 Y4.40850
G01 X81.60479 Y4.39217
G01 X81.54710 Y4.38074
G01 X81.38764 Y4.33233
G01 X81.35998 Y4.32239
G01 X81.33331 Y4.30982
G01 X81.18640 Y4.23131
G01 X81.13748 Y4.19865
G01 X81.00870 Y4.09293
G01 X80.98683 Y4.07317
G01 X80.96712 Y4.05135
G01 X80.86140 Y3.92255
G01 X80.82869 Y3.87365
G01 X80.75013 Y3.72664
G01 X80.72765 Y3.67231
G01 X80.67931 Y3.51290
G01 X80.67215 Y3.48430
G01 X80.66783 Y3.45519
G01 X80.65145 Y3.28940
G01 X80.65000 Y3.25994
G01 X80.65145 Y3.23052
G01 X80.66783 Y3.06476
G01 X80.67215 Y3.03558
G01 X80.67931 Y3.00703
G01 X80.68528 Y2.98729
G01 X80.70088 Y2.97254
G01 X80.70365 Y2.96967
G01 X80.77936 Y2.88544
G01 X80.78221 Y2.88219
G01 X80.80718 Y2.84879
G01 X80.81551 Y2.83797
G01 X80.84375 Y2.80246
G01 X80.84553 Y2.80007
G01 X80.88132 Y2.74899
G01 X80.88299 Y2.74648
G01 X80.91368 Y2.69651
G01 X80.94007 Y2.65788
G01 X80.99567 Y2.58465
G01 X81.04129 Y2.53429
G01 X81.05254 Y2.52306
G01 X81.06285 Y2.51272
G01 X81.07433 Y2.50124
G01 X81.12473 Y2.45552
G01 X81.19798 Y2.40000
G01 X81.23661 Y2.37358
G01 X81.27408 Y2.35052
G01 X81.37784 Y2.29867
G01 X81.42061 Y2.27988
G01 X81.43931 Y2.27274
G01 X81.57380 Y2.23431
G01 X81.61672 Y2.22423
G01 X81.77941 Y2.20911
G01 X81.80001 Y2.20769
G01 X81.82069 Y2.20911
G01 X81.98332 Y2.22423
G01 X82.02625 Y2.23431
G01 X82.16079 Y2.27274
G01 X82.17944 Y2.27988
G01 X82.22229 Y2.29867
G01 X82.32604 Y2.35052
G01 X82.36348 Y2.37358
G01 X82.40207 Y2.40000
G01 X82.47540 Y2.45552
G01 X82.52571 Y2.50124
G01 X82.53717 Y2.51262
G01 X82.53740 Y2.51287
G01 X82.54708 Y2.52260
G01 X82.53740 Y2.51287
G01 X82.53717 Y2.51262
G01 X82.52795 Y2.50434
G01 X82.39912 Y2.39862
G01 X82.36653 Y2.37683
G01 X82.21957 Y2.29824
G01 X82.20189 Y2.28986
G01 X82.18335 Y2.28331
G01 X82.02389 Y2.23487
G01 X81.98546 Y2.22728
G01 X81.81962 Y2.21089
G01 X81.78040 Y2.21089
G01 X81.61459 Y2.22728
G01 X81.57614 Y2.23487
G01 X81.41667 Y2.28331
G01 X81.39823 Y2.28986
G01 X81.38048 Y2.29824
G01 X81.23349 Y2.37683
G01 X81.20093 Y2.39862
G01 X81.07215 Y2.50434
G01 X81.06285 Y2.51272
G01 X81.05274 Y2.52278
G01 X81.05254 Y2.52306
G01 X81.04441 Y2.53202
G01 X80.93870 Y2.66088
G01 X80.91690 Y2.69342
G01 X80.83837 Y2.84038
G01 X80.82336 Y2.87663
G01 X80.77502 Y3.03606
G01 X80.77022 Y3.05509
G01 X80.76730 Y3.07457
G01 X80.75099 Y3.24033
G01 X80.75000 Y3.25994
G01 X80.75099 Y3.27960
G01 X80.76730 Y3.44536
G01 X80.77022 Y3.46484
G01 X80.77502 Y3.48386
G01 X80.82336 Y3.64333
G01 X80.83837 Y3.67949
G01 X80.91690 Y3.82651
G01 X80.93870 Y3.85910
G01 X81.04441 Y3.98790
G01 X81.05754 Y4.00240
G01 X81.07215 Y4.01561
G01 X81.20093 Y4.12133
G01 X81.23349 Y4.14312
G01 X81.38048 Y4.22161
G01 X81.39823 Y4.23001
G01 X81.41667 Y4.23667
G01 X81.57614 Y4.28498
G01 X81.61459 Y4.29265
G01 X81.78040 Y4.30898
G01 X81.81962 Y4.30898
G01 X81.98546 Y4.29265
G01 X82.02389 Y4.28498
G01 X82.18335 Y4.23667
G01 X82.20189 Y4.23001
G01 X82.21957 Y4.22161
G01 X82.36653 Y4.14312
G01 X82.39912 Y4.12133
G01 X82.52795 Y4.01561
G01 X82.53709 Y4.00728
G01 X82.54738 Y3.99707
G01 X82.54796 Y3.99644
G01 X82.55571 Y3.98790
G01 X82.66143 Y3.85910
G01 X82.68319 Y3.82651
G01 X82.76173 Y3.67949
G01 X82.77674 Y3.64333
G01 X82.82510 Y3.48386
G01 X82.82983 Y3.46484
G01 X82.83275 Y3.44536
G01 X82.84906 Y3.27960
G01 X82.85002 Y3.25994
G01 X82.84906 Y3.24033
G01 X82.83275 Y3.07457
G01 X82.82983 Y3.05509
G01 X82.82510 Y3.03606
G01 X82.77674 Y2.87663
G01 X82.76173 Y2.84038
G01 X82.68319 Y2.69342
G01 X82.66143 Y2.66088
G01 X82.55571 Y2.53202
G01 X82.54708 Y2.52260
G01 X82.55876 Y2.53429
G01 X82.60445 Y2.58465
G01 X82.66005 Y2.65788
G01 X82.68642 Y2.69651
G01 X82.71713 Y2.74648
G01 X82.71878 Y2.74899
G01 X82.75459 Y2.80007
G01 X82.75635 Y2.80246
G01 X82.78459 Y2.83797
G01 X82.79292 Y2.84879
G01 X82.81794 Y2.88201
G01 X82.82068 Y2.88541
G01 X82.89648 Y2.96967
G01 X82.89922 Y2.97251
G01 X82.91474 Y2.98727
G01 X82.92081 Y3.00703
G01 X82.92797 Y3.03558
G01 X82.93227 Y3.06476
G01 X82.94857 Y3.23052
G01 X82.95002 Y3.25994
G01 X82.85002 Y3.25994
G01 X82.75007 Y3.25994
G01 X82.74959 Y3.26979
G01 X82.73321 Y3.43555
G01 X82.73176 Y3.44533
G01 X82.72937 Y3.45478
G01 X82.68104 Y3.61429
G01 X82.67349 Y3.63235
G01 X82.59495 Y3.77937
G01 X82.58993 Y3.78777
G01 X82.58406 Y3.79565
G01 X82.47834 Y3.92448
G01 X82.47176 Y3.93172
G01 X82.46450 Y3.93827
G01 X82.33575 Y4.04398
G01 X82.31939 Y4.05493
G01 X82.17245 Y4.13342
G01 X82.16356 Y4.13763
G01 X82.15432 Y4.14099
G01 X81.99488 Y4.18930
G01 X81.97565 Y4.19318
G01 X81.80982 Y4.20947
G01 X81.79021 Y4.20947
G01 X81.62440 Y4.19318
G01 X81.60517 Y4.18930
G01 X81.44571 Y4.14099
G01 X81.43646 Y4.13763
G01 X81.42765 Y4.13342
G01 X81.28063 Y4.05493
G01 X81.26438 Y4.04398
G01 X81.13552 Y3.93827
G01 X81.12826 Y3.93172
G01 X81.12168 Y3.92448
G01 X81.01596 Y3.79565
G01 X81.00507 Y3.77937
G01 X80.92653 Y3.63235
G01 X80.92234 Y3.62354
G01 X80.91906 Y3.61429
G01 X80.87065 Y3.45478
G01 X80.86826 Y3.44533
G01 X80.86682 Y3.43555
G01 X80.85053 Y3.26979
G01 X80.85003 Y3.25994
G01 X80.85053 Y3.25013
G01 X80.86682 Y3.08430
G01 X80.87065 Y3.06512
G01 X80.91906 Y2.90563
G01 X80.92653 Y2.88755
G01 X81.00507 Y2.74058
G01 X81.01596 Y2.72430
G01 X81.12168 Y2.59545
G01 X81.12826 Y2.58823
G01 X81.13552 Y2.58161
G01 X81.26438 Y2.47589
G01 X81.28063 Y2.46499
G01 X81.42765 Y2.38646
G01 X81.43646 Y2.38224
G01 X81.44571 Y2.37894
G01 X81.60517 Y2.33063
G01 X81.62440 Y2.32679
G01 X81.79021 Y2.31046
G01 X81.80982 Y2.31046
G01 X81.97565 Y2.32679
G01 X81.99488 Y2.33063
G01 X82.15432 Y2.37894
G01 X82.16356 Y2.38224
G01 X82.17245 Y2.38646
G01 X82.31939 Y2.46499
G01 X82.33575 Y2.47589
G01 X82.46450 Y2.58161
G01 X82.47176 Y2.58823
G01 X82.47834 Y2.59545
G01 X82.58406 Y2.72430
G01 X82.59495 Y2.74058
G01 X82.67349 Y2.88755
G01 X82.68104 Y2.90563
G01 X82.72937 Y3.06512
G01 X82.73321 Y3.08430
G01 X82.74959 Y3.25013
G01 X82.75007 Y3.25994
G04 P0 ( dwell for no time -- G64 should not smooth over this point )
G00 Z5.00000 ( retract )

G00 X80.41002 Y3.25994 ( rapid move to begin. )
G01 F300.00000
( Mill infeed pass 1/1 )
G01 Z-0.05000
G04 P0 ( dwell for no time -- G64 should not smooth over this point )
G01 F600.00000
G01 X80.41002 Y3.25994
G01 X80.40857 Y3.23052
G01 X80.39227 Y3.06476
G01 X80.38795 Y3.03558
G01 X80.38079 Y3.00703
G01 X80.37474 Y2.98727
G01 X80.35922 Y2.97251
G01 X80.35645 Y2.96967
G01 X80.28066 Y2.88541
G01 X80.27792 Y2.88201
G01 X80.25290 Y2.84879
G01 X80.24457 Y2.83797
G01 X80.21632 Y2.80246
G01 X80.21457 Y2.80007
G01 X80.17878 Y2.74899
G01 X80.17710 Y2.74648
G01 X80.14642 Y2.69651
G01 X80.12003 Y2.65788
G01 X80.06443 Y2.58465
G01 X80.01876 Y2.53429
G01 X80.00509 Y2.52057
G01 X80.00708 Y2.52260
G01 X80.01569 Y2.53202
G01 X80.12140 Y2.66088
G01 X80.14317 Y2.69342
G01 X80.22173 Y2.84038
G01 X80.23672 Y2.87663
G01 X80.28508 Y3.03606
G01 X80.28988 Y3.05509
G01 X80.29272 Y3.07457
G01 X80.30911 Y3.24033
G01 X80.31007 Y3.25994
G01 X80.30911 Y3.27960
G01 X80.29272 Y3.44536
G01 X80.28988 Y3.46484
G01 X80.28508 Y3.48386
G01 X80.23672 Y3.64333
G01 X80.22173 Y3.67949
G01 X80.14317 Y3.82651
G01 X80.12140 Y3.85910
G01 X80.01569 Y3.98790
G01 X80.00248 Y4.00240
G01 X79.98792 Y4.01561
G01 X79.85917 Y4.12133
G01 X79.82653 Y4.14312
G01 X79.67962 Y4.22161
G01 X79.66186 Y4.23001
G01 X79.64335 Y4.23667
G01 X79.48389 Y4.28498
G01 X79.44543 Y4.29265
G01 X79.27962 Y4.30898
G01 X79.24040 Y4.30898
G01 X79.07464 Y4.29265
G01 X79.03619 Y4.28498
G01 X78.87667 Y4.23667
G01 X78.85821 Y4.23001
G01 X78.84045 Y4.22161
G01 X78.69349 Y4.14312
G01 X78.66090 Y4.12133
G01 X78.53212 Y4.01561
G01 X78.51754 Y4.00240
G01 X78.50439 Y3.98790
G01 X78.39867 Y3.85910
G01 X78.37690 Y3.82651
G01 X78.29834 Y3.67949
G01 X78.28333 Y3.64333
G01 X78.23499 Y3.48386
G01 X78.23019 Y3.46484
G01 X78.22735 Y3.44536
G01 X78.21097 Y3.27960
G01 X78.21000 Y3.25994
G01 X78.21097 Y3.24033
G01 X78.22735 Y3.07457
G01 X78.23019 Y3.05509
G01 X78.23499 Y3.03606
G01 X78.28333 Y2.87663
G01 X78.29834 Y2.84038
G01 X78.37690 Y2.69342
G01 X78.39867 Y2.66088
G01 X78.50439 Y2.53202
G01 X78.51231 Y2.52331
G01 X78.51274 Y2.52278
G01 X78.52285 Y2.51272
G01 X78.52313 Y2.51247
G01 X78.53212 Y2.50434
G01 X78.66090 Y2.39862
G01 X78.69349 Y2.37683
G01 X78.84045 Y2.29824
G01 X78.85821 Y2.28986
G01 X78.87667 Y2.28331
G01 X79.03619 Y2.23487
G01 X79.07464 Y2.22728
G01 X79.24040 Y2.21089
G01 X79.27962 Y2.21089
G01 X79.44543 Y2.22728
G01 X79.48389 Y2.23487
G01 X79.64335 Y2.28331
G01 X79.66186 Y2.28986
G01 X79.67962 Y2.29824
G01 X79.82653 Y2.37683
G01 X79.85917 Y2.39862
G01 X79.98792 Y2.50434
G01 X79.99712 Y2.51254
G01 X79.99745 Y2.51287
G01 X80.00509 Y2.52057
G01 X79.99745 Y2.51287
G01 X79.99712 Y2.51254
G01 X79.98577 Y2.50124
G01 X79.93537 Y2.45552
G01 X79.86212 Y2.40000
G01 X79.82348 Y2.37358
G01 X79.78602 Y2.35052
G01 X79.68226 Y2.29867
G01 X79.63944 Y2.27988
G01 X79.62079 Y2.27274
G01 X79.48625 Y2.23431
G01 X79.44337 Y2.22423
G01 X79.28069 Y2.20911
G01 X79.26001 Y2.20769
G01 X79.23939 Y2.20911
G01 X79.07672 Y2.22423
G01 X79.03385 Y2.23431
G01 X78.89931 Y2.27274
G01 X78.88066 Y2.27988
G01 X78.83781 Y2.29867
G01 X78.73405 Y2.35052
G01 X78.69659 Y2.37358
G01 X78.65798 Y2.40000
G01 X78.58470 Y2.45552
G01 X78.53438 Y2.50124
G01 X78.52313 Y2.51247
G01 X78.51231 Y2.52331
G01 X78.50134 Y2.53429
G01 X78.45564 Y2.58465
G01 X78.40004 Y2.65788
G01 X78.37365 Y2.69651
G01 X78.34297 Y2.74648
G01 X78.34129 Y2.74899
G01 X78.30550 Y2.80007
G01 X78.30373 Y2.80246
G01 X78.27551 Y2.83797
G01 X78.26718 Y2.84879
G01 X78.24226 Y2.88219
G01 X78.23941 Y2.88544
G01 X78.16370 Y2.96967
G01 X78.16085 Y2.97254
G01 X78.14526 Y2.98729
G01 X78.13929 Y3.00703
G01 X78.13212 Y3.03558
G01 X78.12781 Y3.06476
G01 X78.11145 Y3.23052
G01 X78.11005 Y3.25994
G01 X78.11145 Y3.28940
G01 X78.12781 Y3.45519
G01 X78.13212 Y3.48430
G01 X78.13929 Y3.51290
G01 X78.18762 Y3.67231
G01 X78.21018 Y3.72664
G01 X78.28874 Y3.87365
G01 X78.32138 Y3.92255
G01 X78.42709 Y4.05135
G01 X78.44683 Y4.07317
G01 X78.46867 Y4.09293
G01 X78.59745 Y4.19865
G01 X78.64637 Y4.23131
G01 X78.79331 Y4.30982
G01 X78.81996 Y4.32239
G01 X78.84764 Y4.33233
G01 X79.00710 Y4.38074
G01 X79.06484 Y4.39217
G01 X79.23060 Y4.40850
G01 X79.26001 Y4.40995
G01 X79.28942 Y4.40850
G01 X79.45524 Y4.39217
G01 X79.51292 Y4.38074
G01 X79.67238 Y4.33233
G01 X79.70012 Y4.32239
G01 X79.72671 Y4.30982
G01 X79.87367 Y4.23131
G01 X79.92262 Y4.19865
G01 X80.05137 Y4.09293
G01 X80.07324 Y4.07317
G01 X80.09295 Y4.05135
G01 X80.19867 Y3.92255
G01 X80.23133 Y3.87365
G01 X80.30989 Y3.72664
G01 X80.33245 Y3.67231
G01 X80.38079 Y3.51290
G01 X80.38795 Y3.48430
G01 X80.39227 Y3.45519
G01 X80.40857 Y3.28940
G01 X80.41002 Y3.25994
G01 X80.31007 Y3.25994
G01 X80.21005 Y3.25994
G01 X80.20956 Y3.25013
G01 X80.19321 Y3.08430
G01 X80.18937 Y3.06512
G01 X80.14101 Y2.90563
G01 X80.13349 Y2.88755
G01 X80.05501 Y2.74058
G01 X80.04406 Y2.72430
G01 X79.93834 Y2.59545
G01 X79.93176 Y2.58823
G01 X79.92450 Y2.58161
G01 X79.79572 Y2.47589
G01 X79.77944 Y2.46499
G01 X79.63245 Y2.38646
G01 X79.62361 Y2.38224
G01 X79.61432 Y2.37894
G01 X79.45493 Y2.33063
G01 X79.43565 Y2.32679
G01 X79.26982 Y2.31046
G01 X79.25021 Y2.31046
G01 X79.08445 Y2.32679
G01 X79.06522 Y2.33063
G01 X78.90571 Y2.37894
G01 X78.89646 Y2.38224
G01 X78.88762 Y2.38646
G01 X78.74063 Y2.46499
G01 X78.72435 Y2.47589
G01 X78.59552 Y2.58161
G01 X78.58826 Y2.58823
G01 X78.58168 Y2.59545
G01 X78.47596 Y2.72430
G01 X78.46507 Y2.74058
G01 X78.38653 Y2.88755
G01 X78.37906 Y2.90563
G01 X78.33070 Y3.06512
G01 X78.32681 Y3.08430
G01 X78.31051 Y3.25013
G01 X78.31003 Y3.25994
G01 X78.31051 Y3.26979
G01 X78.32681 Y3.43555
G01 X78.32826 Y3.44533
G01 X78.33070 Y3.45478
G01 X78.37906 Y3.61429
G01 X78.38239 Y3.62354
G01 X78.38653 Y3.63235
G01 X78.46507 Y3.77937
G01 X78.47596 Y3.79565
G01 X78.58168 Y3.92448
G01 X78.58826 Y3.93172
G01 X78.59552 Y3.93827
G01 X78.72435 Y4.04398
G01 X78.74063 Y4.05493
G01 X78.88762 Y4.13342
G01 X78.89646 Y4.13763
G01 X78.90571 Y4.14099
G01 X79.06522 Y4.18930
G01 X79.08445 Y4.19318
G01 X79.25021 Y4.20947
G01 X79.26982 Y4.20947
G01 X79.43565 Y4.19318
G01 X79.45493 Y4.18930
G01 X79.61432 Y4.14099
G01 X79.62361 Y4.13763
G01 X79.63245 Y4.13342
G01 X79.77944 Y4.05493
G01 X79.79572 Y4.04398
G01 X79.92450 Y3.93827
G01 X79.93176 Y3.93172
G01 X79.93834 Y3.92448
G01 X80.04406 Y3.79565
G01 X80.04990 Y3.78777
G01 X80.05501 Y3.77937
G01 X80.13349 Y3.63235
G01 X80.14101 Y3.61429
G01 X80.18937 Y3.45478
G01 X80.19181 Y3.44533
G01 X80.19321 Y3.43555
G01 X80.20956 Y3.26979
G01 X80.21005 Y3.25994
G01 X80.31007 Y3.25994
G01 X80.41002 Y3.25994
G01 X80.41002 Y5.79994
G01 X80.40857 Y5.82940
G01 X80.39227 Y5.99516
G01 X80.38795 Y6.02435
G01 X80.38079 Y6.05287
G01 X80.37479 Y6.07261
G01 X80.35940 Y6.08724
G01 X80.35655 Y6.09013
G01 X80.28066 Y6.17454
G01 X80.27792 Y6.17784
G01 X80.25282 Y6.21121
G01 X80.24457 Y6.22193
G01 X80.21632 Y6.25752
G01 X80.21449 Y6.25993
G01 X80.17878 Y6.31091
G01 X80.17710 Y6.31347
G01 X80.14642 Y6.36336
G01 X80.13494 Y6.38018
G01 X80.14317 Y6.36648
G01 X80.22173 Y6.21949
G01 X80.23672 Y6.18327
G01 X80.28508 Y6.02386
G01 X80.28988 Y6.00484
G01 X80.29272 Y5.98536
G01 X80.30911 Y5.81955
G01 X80.31007 Y5.79994
G01 X80.30911 Y5.78033
G01 X80.29272 Y5.61452
G01 X80.28988 Y5.59514
G01 X80.28508 Y5.57611
G01 X80.23672 Y5.41660
G01 X80.22173 Y5.38038
G01 X80.14317 Y5.23347
G01 X80.12140 Y5.20083
G01 X80.01569 Y5.07208
G01 X80.00248 Y5.05750
G01 X79.98792 Y5.04429
G01 X79.85917 Y4.93857
G01 X79.82653 Y4.91681
G01 X79.67962 Y4.83827
G01 X79.66186 Y4.82986
G01 X79.64335 Y4.82331
G01 X79.48389 Y4.77487
G01 X79.44543 Y4.76722
G01 X79.27962 Y4.75089
G01 X79.24040 Y4.75089
G01 X79.07464 Y4.76722
G01 X79.03619 Y4.77487
G01 X78.87667 Y4.82331
G01 X78.85821 Y4.82986
G01 X78.84045 Y4.83827
G01 X78.69349 Y4.91681
G01 X78.66090 Y4.93857
G01 X78.53212 Y5.04429
G01 X78.51754 Y5.05750
G01 X78.50439 Y5.07208
G01 X78.39867 Y5.20083
G01 X78.37690 Y5.23347
G01 X78.29834 Y5.38038
G01 X78.28333 Y5.41660
G01 X78.23499 Y5.57611
G01 X78.23019 Y5.59514
G01 X78.22735 Y5.61452
G01 X78.21097 Y5.78033
G01 X78.21000 Y5.79994
G01 X78.21097 Y5.81955
G01 X78.22735 Y5.98536
G01 X78.23019 Y6.00484
G01 X78.23499 Y6.02386
G01 X78.28333 Y6.18327
G01 X78.29834 Y6.21949
G01 X78.37690 Y6.36648
G01 X78.39867 Y6.39910
G01 X78.50439 Y6.52790
G01 X78.51231 Y6.53659
G01 X78.51251 Y6.53687
G01 X78.52311 Y6.54746
G01 X78.52341 Y6.54766
G01 X78.53212 Y6.55561
G01 X78.66090 Y6.66133
G01 X78.69349 Y6.68310
G01 X78.84045 Y6.76166
G01 X78.85821 Y6.77004
G01 X78.87667 Y6.77664
G01 X79.03619 Y6.82501
G01 X79.07464 Y6.83270
G01 X79.24040 Y6.84903
G01 X79.26001 Y6.85000
G01 X79.27962 Y6.84903
G01 X79.44543 Y6.83270
G01 X79.48389 Y6.82501
G01 X79.64335 Y6.77664
G01 X79.67962 Y6.76166
G01 X79.82653 Y6.68310
G01 X79.85917 Y6.66133
G01 X79.98792 Y6.55561
G01 X79.99717 Y6.54723
G01 X80.00728 Y6.53712
G01 X80.01569 Y6.52790
G01 X80.12140 Y6.39910
G01 X80.12966 Y6.38792
G01 X80.13309 Y6.38292
G01 X80.13494 Y6.38018
G01 X80.13309 Y6.38292
G01 X80.12966 Y6.38792
G01 X80.12003 Y6.40199
G01 X80.06443 Y6.47530
G01 X80.01876 Y6.52564
G01 X80.00728 Y6.53712
G01 X79.99717 Y6.54723
G01 X79.98577 Y6.55869
G01 X79.93537 Y6.60436
G01 X79.86212 Y6.65996
G01 X79.82348 Y6.68637
G01 X79.78602 Y6.70938
G01 X79.68226 Y6.76120
G01 X79.63944 Y6.78007
G01 X79.62079 Y6.78718
G01 X79.48625 Y6.82564
G01 X79.44337 Y6.83565
G01 X79.28069 Y6.85079
G01 X79.26001 Y6.85221
G01 X79.23939 Y6.85079
G01 X79.07672 Y6.83565
G01 X79.03385 Y6.82564
G01 X78.89931 Y6.78718
G01 X78.88066 Y6.78007
G01 X78.83781 Y6.76120
G01 X78.73405 Y6.70938
G01 X78.69659 Y6.68637
G01 X78.65798 Y6.65996
G01 X78.58470 Y6.60436
G01 X78.53438 Y6.55869
G01 X78.52341 Y6.54766
G01 X78.51231 Y6.53659
G01 X78.50134 Y6.52564
G01 X78.45564 Y6.47530
G01 X78.40004 Y6.40199
G01 X78.37365 Y6.36336
G01 X78.34297 Y6.31347
G01 X78.34132 Y6.31091
G01 X78.30550 Y6.25986
G01 X78.30383 Y6.25734
G01 X78.27551 Y6.22191
G01 X78.26718 Y6.21116
G01 X78.24216 Y6.17781
G01 X78.23941 Y6.17449
G01 X78.16352 Y6.09013
G01 X78.16075 Y6.08724
G01 X78.14526 Y6.07261
G01 X78.13929 Y6.05287
G01 X78.13212 Y6.02435
G01 X78.12781 Y5.99516
G01 X78.11145 Y5.82940
G01 X78.11005 Y5.79994
G01 X78.11145 Y5.77058
G01 X78.12781 Y5.60471
G01 X78.13212 Y5.57563
G01 X78.13929 Y5.54703
G01 X78.18762 Y5.38757
G01 X78.21018 Y5.33324
G01 X78.28874 Y5.18632
G01 X78.32138 Y5.13738
G01 X78.42709 Y5.00863
G01 X78.44683 Y4.98681
G01 X78.46867 Y4.96705
G01 X78.59745 Y4.86133
G01 X78.64637 Y4.82862
G01 X78.79331 Y4.75010
G01 X78.81996 Y4.73748
G01 X78.84764 Y4.72760
G01 X79.00710 Y4.67919
G01 X79.06484 Y4.66771
G01 X79.23060 Y4.65143
G01 X79.26001 Y4.64998
G01 X79.28942 Y4.65143
G01 X79.45524 Y4.66771
G01 X79.51292 Y4.67919
G01 X79.67238 Y4.72760
G01 X79.70012 Y4.73748
G01 X79.72671 Y4.75010
G01 X79.87367 Y4.82862
G01 X79.92262 Y4.86133
G01 X80.05137 Y4.96705
G01 X80.07324 Y4.98681
G01 X80.09295 Y5.00863
G01 X80.19867 Y5.13738
G01 X80.23133 Y5.18632
G01 X80.30989 Y5.33324
G01 X80.33245 Y5.38757
G01 X80.38079 Y5.54703
G01 X80.38795 Y5.57563
G01 X80.39227 Y5.60471
G01 X80.40857 Y5.77058
G01 X80.41002 Y5.79994
G01 X80.31007 Y5.79994
G01 X80.21005 Y5.79994
G01 X80.20956 Y5.80974
G01 X80.19321 Y5.97555
G01 X80.19181 Y5.98528
G01 X80.18937 Y5.99483
G01 X80.14101 Y6.15429
G01 X80.13349 Y6.17240
G01 X80.05501 Y6.31932
G01 X80.04990 Y6.32777
G01 X80.04406 Y6.33560
G01 X79.93834 Y6.46445
G01 X79.93176 Y6.47172
G01 X79.92450 Y6.47832
G01 X79.79572 Y6.58401
G01 X79.77944 Y6.59493
G01 X79.63245 Y6.67344
G01 X79.62361 Y6.67766
G01 X79.61432 Y6.68099
G01 X79.45493 Y6.72932
G01 X79.44535 Y6.73174
G01 X79.43565 Y6.73316
G01 X79.26982 Y6.74949
G01 X79.25021 Y6.74949
G01 X79.08445 Y6.73316
G01 X79.06522 Y6.72932
G01 X78.90571 Y6.68099
G01 X78.89646 Y6.67766
G01 X78.88762 Y6.67344
G01 X78.74063 Y6.59493
G01 X78.72435 Y6.58401
G01 X78.59552 Y6.47832
G01 X78.58826 Y6.47172
G01 X78.58168 Y6.46445
G01 X78.47596 Y6.33560
G01 X78.46507 Y6.31932
G01 X78.38653 Y6.17240
G01 X78.38239 Y6.16354
G01 X78.37906 Y6.15429
G01 X78.33070 Y5.99483
G01 X78.32826 Y5.98528
G01 X78.32681 Y5.97555
G01 X78.31051 Y5.80974
G01 X78.31003 Y5.79994
G01 X78.31051 Y5.79013
G01 X78.32681 Y5.62430
G01 X78.32826 Y5.61459
G01 X78.33070 Y5.60512
G01 X78.37906 Y5.44568
G01 X78.38653 Y5.42757
G01 X78.46507 Y5.28056
G01 X78.47015 Y5.27220
G01 X78.47596 Y5.26425
G01 X78.58168 Y5.13550
G01 X78.58826 Y5.12818
G01 X78.59552 Y5.12166
G01 X78.72435 Y5.01592
G01 X78.74063 Y5.00504
G01 X78.88762 Y4.92646
G01 X78.89646 Y4.92224
G01 X78.90571 Y4.91894
G01 X79.06522 Y4.87063
G01 X79.08445 Y4.86674
G01 X79.25021 Y4.85041
G01 X79.26982 Y4.85041
G01 X79.43565 Y4.86674
G01 X79.45493 Y4.87063
G01 X79.61432 Y4.91894
G01 X79.62361 Y4.92224
G01 X79.63245 Y4.92646
G01 X79.77944 Y5.00504
G01 X79.79572 Y5.01592
G01 X79.92450 Y5.12166
G01 X79.93176 Y5.12818
G01 X79.93834 Y5.13550
G01 X80.04406 Y5.26425
G01 X80.04990 Y5.27220
G01 X80.05501 Y5.28056
G01 X80.13349 Y5.42757
G01 X80.14101 Y5.44568
G01 X80.18937 Y5.60512
G01 X80.19181 Y5.61459
G01 X80.19321 Y5.62430
G01 X80.20956 Y5.79013
G01 X80.21005 Y5.79994
G04 P0 ( dwell for no time -- G64 should not smooth over this point )
G00 Z5.00000 ( retract )

G00 X77.67002 Y5.79994 ( rapid move to begin. )
G01 F300.00000
( Mill infeed pass 1/1 )
G01 Z-0.05000
G04 P0 ( dwell for no time -- G64 should not smooth over this point )
G01 F600.00000
G01 X77.67002 Y5.79994
G01 X77.66954 Y5.79013
G01 X77.65326 Y5.62430
