( pcb2gcode 2.5.0 )
( Software-independent Gcode )

( This file uses 2 drill bit sizes. )
( Bit sizes: [0.4mm] [1mm] )

G94       (Millimeters per minute feed rate.)
G21       (Units == Millimeters.)
G91.1     (Incremental arc distance mode.)
G90       (Absolute coordinates.)
G00 S10000     (RPM spindle speed.)

G00 Z10.00000 (Retract)
T1
M5      (Spindle stop.)
G04 P1.00000
(MSG, Change tool bit to drill size 0.4mm)
M6      (Tool change.)
M0      (Temporary machine stop.)
M3      (Spindle on clockwise.)
G0 Z5.00000
G04 P1.00000

G81 R5.00000 Z-2.50000 F1000.00000 X5.00000 Y18.00000
X9.38000 Y39.83000
X5.00000 Y53.00000
X13.19000 Y43.00500
X25.89000 Y30.30500
X23.35000 Y24.59000
X22.00000 Y17.00000
X25.00000 Y19.00000
X30.00000 Y26.00000
X33.51000 Y27.76500
X38.00000 Y29.00000
X30.97000 Y32.84500
X28.43000 Y34.75000
X37.32000 Y45.54500
X47.48000 Y44.27500
X49.00000 Y34.00000
X58.91000 Y36.65500
X66.53000 Y46.81500
X62.00000 Y49.00000
X61.00000 Y54.00000
X66.00000 Y61.00000
X77.00000 Y61.00000
X83.04000 Y58.24500
X78.00000 Y54.00000
X83.04000 Y49.35500
X84.94500 Y48.08500
X85.58000 Y50.62500
X90.66000 Y62.05500
X96.00000 Y53.00000
X79.23000 Y41.10000
X83.04000 Y37.92500
X81.77000 Y31.57500
X96.00000 Y19.00000
X85.58000 Y9.60400
X62.00000 Y9.00000
X47.48000 Y22.65000
X46.00000 Y24.00000
X43.67000 Y20.11000
X42.00000 Y21.00000
X40.00000 Y17.32900
X35.00000 Y13.00000
X39.00000 Y11.00000
G80

G00 Z10.00000 (Retract)
T2
M5      (Spindle stop.)
G04 P1.00000
(MSG, Change tool bit to drill size 1mm)
M6      (Tool change.)
M0      (Temporary machine stop.)
M3      (Spindle on clockwise.)
G0 Z5.00000
G04 P1.00000

G81 R5.00000 Z-2.50000 F1000.00000 X5.50000 Y3.26000
X8.04000 Y3.26000
X5.50000 Y5.80000
X8.04000 Y5.80000
X10.58000 Y5.80000
X13.12000 Y5.80000
X10.58000 Y3.26000
X13.12000 Y3.26000
X15.66000 Y5.80000
X15.66000 Y3.26000
X18.20000 Y3.26000
X20.74000 Y3.26000
X18.20000 Y5.80000
X20.74000 Y5.80000
X23.28000 Y5.80000
X25.82000 Y5.80000
X28.36000 Y5.80000
X23.28000 Y3.26000
X25.82000 Y3.26000
X28.36000 Y3.26000
X30.90000 Y5.80000
X33.44000 Y5.80000
X30.90000 Y3.26000
X33.44000 Y3.26000
X35.98000 Y5.80000
X35.98000 Y3.26000
X38.52000 Y5.80000
X38.52000 Y3.26000
X41.06000 Y5.80000
X43.60000 Y5.80000
X41.06000 Y3.26000
X43.60000 Y3.26000
X46.14000 Y5.80000
X46.14000 Y3.26000
X48.68000 Y3.26000
X51.22000 Y3.26000
X48.68000 Y5.80000
X51.22000 Y5.80000
X53.76000 Y5.80000
X53.76000 Y3.26000
X56.30000 Y5.80000
X56.30000 Y3.26000
X58.84000 Y5.80000
X58.84000 Y3.26000
X61.38000 Y5.80000
X61.38000 Y3.26000
X63.92000 Y5.80000
X66.46000 Y5.80000
X63.92000 Y3.26000
X66.46000 Y3.26000
X69.00000 Y5.80000
X69.00000 Y3.26000
X71.54000 Y5.80000
X74.08000 Y5.80000
X71.54000 Y3.26000
X74.08000 Y3.26000
X76.62000 Y5.80000
X79.16000 Y5.80000
X76.62000 Y3.26000
X79.16000 Y3.26000
X81.70000 Y5.80000
X84.24000 Y5.80000
X81.70000 Y3.26000
X84.24000 Y3.26000
X86.78000 Y5.80000
X89.32000 Y5.80000
X86.78000 Y3.26000
X89.32000 Y3.26000
X91.86000 Y5.80000
X91.86000 Y3.26000
X94.40000 Y3.26000
X94.40000 Y5.80000
X90.70000 Y11.10000
X88.16000 Y11.10000
X90.70000 Y13.64000
X90.70000 Y16.18000
X90.70000 Y18.72000
X90.70000 Y21.26000
X90.70000 Y23.80000
X90.70000 Y26.34000
X90.70000 Y28.88000
X90.70000 Y31.42000
X90.70000 Y33.96000
X90.70000 Y36.50000
X90.70000 Y39.04000
X90.70000 Y41.58000
X90.70000 Y44.12000
X90.70000 Y46.66000
X90.70000 Y49.20000
X90.70000 Y51.74000
X90.70000 Y54.28000
X90.70000 Y56.82000
X90.70000 Y59.36000
X88.16000 Y59.36000
X88.16000 Y56.82000
X88.16000 Y54.28000
X88.16000 Y51.74000
X88.16000 Y49.20000
X88.16000 Y46.66000
X88.16000 Y44.12000
X88.16000 Y41.58000
X88.16000 Y39.04000
X88.16000 Y36.50000
X88.16000 Y33.96000
X88.16000 Y31.42000
X88.16000 Y28.88000
X88.16000 Y26.34000
X88.16000 Y23.80000
X88.16000 Y21.26000
X88.16000 Y18.72000
X88.16000 Y16.18000
X88.16000 Y13.64000
X38.52000 Y64.22000
X35.98000 Y66.76000
X33.44000 Y66.76000
X30.90000 Y66.76000
X28.36000 Y66.76000
X25.82000 Y66.76000
X23.28000 Y66.76000
X20.74000 Y66.76000
X18.20000 Y66.76000
X15.66000 Y66.76000
X13.12000 Y66.76000
X10.58000 Y66.76000
X8.04000 Y66.76000
X5.50000 Y66.76000
X5.50000 Y64.22000
X8.04000 Y64.22000
X10.58000 Y64.22000
X13.12000 Y64.22000
X15.66000 Y64.22000
X18.20000 Y64.22000
X20.74000 Y64.22000
X23.28000 Y64.22000
X25.82000 Y64.22000
X28.36000 Y64.22000
X30.90000 Y64.22000
X33.44000 Y64.22000
X35.98000 Y64.22000
X38.52000 Y66.76000
X41.06000 Y66.76000
X43.60000 Y66.76000
X41.06000 Y64.22000
X43.60000 Y64.22000
X46.14000 Y66.76000
X46.14000 Y64.22000
X48.68000 Y64.22000
X51.22000 Y64.22000
X48.68000 Y66.76000
X51.22000 Y66.76000
X53.76000 Y66.76000
X53.76000 Y64.22000
X56.30000 Y66.76000
X56.30000 Y64.22000
X58.84000 Y66.76000
X58.84000 Y64.22000
X61.38000 Y66.76000
X61.38000 Y64.22000
X63.92000 Y66.76000
X66.46000 Y66.76000
X63.92000 Y64.22000
X66.46000 Y64.22000
X69.00000 Y66.76000
X69.00000 Y64.22000
X71.54000 Y66.76000
X74.08000 Y66.76000
X71.54000 Y64.22000
X74.08000 Y64.22000
X76.62000 Y66.76000
X79.16000 Y66.76000
X76.62000 Y64.22000
X79.16000 Y64.22000
X81.70000 Y66.76000
X84.24000 Y66.76000
X81.70000 Y64.22000
X84.24000 Y64.22000
X86.78000 Y66.76000
X89.32000 Y66.76000
X86.78000 Y64.22000
X89.32000 Y64.22000
X91.86000 Y66.76000
X91.86000 Y64.22000
X94.40000 Y66.76000
X94.40000 Y64.22000
G80

G00 Z10.000 ( All done -- retract )

M5      (Spindle off.)
G04 P1.000000
M9      (Coolant off.)
M2      (Program end.)

