( pcb2gcode 2.5.0 )
( Software-independent Gcode )

( This file uses 2 drill bit sizes. )
( Bit sizes: [0.39878mm] [1.00076mm] )

G94       (Millimeters per minute feed rate.)
G21       (Units == Millimeters.)
G91.1     (Incremental arc distance mode.)
G90       (Absolute coordinates.)
G00 S10000     (RPM spindle speed.)

G00 Z30.00000 (Retract)
T1
M5      (Spindle stop.)
G04 P1.00000
(MSG, Change tool bit to drill size 0.39878mm)
M6      (Tool change.)
M0      (Temporary machine stop.)
M3      (Spindle on clockwise.)
G0 Z5.00000
G04 P1.00000

G81 R5.00000 Z-2.50000 F1000.00000 X5.00126 Y18.00098
X18.27022 Y22.04974
X21.99894 Y17.00022
X25.00122 Y18.99920
X23.35022 Y24.58974
X35.00120 Y12.99972
X38.99916 Y11.00074
X46.71822 Y8.84174
X39.99992 Y17.33042
X41.99890 Y21.00072
X43.67022 Y20.11172
X45.99940 Y24.00046
X47.48022 Y22.65172
X61.99886 Y8.99922
X72.62622 Y9.60374
X85.58022 Y9.60374
X95.99930 Y18.99920
X81.77022 Y31.57474
X72.62622 Y38.05174
X72.62622 Y41.35374
X79.23022 Y41.09974
X83.04022 Y37.92474
X85.32622 Y46.63694
X95.99930 Y52.99964
X90.66022 Y62.05474
X85.42782 Y52.47894
X85.32622 Y50.29454
X83.04022 Y49.35474
X78.00086 Y54.00040
X83.04022 Y58.24474
X77.00010 Y61.00064
X65.99936 Y61.00064
X61.00064 Y54.00040
X61.99886 Y48.99914
X66.53022 Y46.81474
X58.91022 Y36.65474
X48.99914 Y34.00044
X47.48022 Y44.27474
X37.32022 Y45.54474
X28.43022 Y34.74974
X30.97022 Y32.84474
X38.00094 Y28.99918
X33.51022 Y27.76474
X29.99994 Y25.99944
X25.89022 Y30.30474
X13.19022 Y43.00474
X9.38022 Y39.82974
X5.00126 Y52.99964
X15.73022 Y56.33974
G80

G00 Z30.00000 (Retract)
T2
M5      (Spindle stop.)
G04 P1.00000
(MSG, Change tool bit to drill size 1.00076mm)
M6      (Tool change.)
M0      (Temporary machine stop.)
M3      (Spindle on clockwise.)
G0 Z5.00000
G04 P1.00000

G81 R5.00000 Z-2.50000 F1000.00000 X5.49910 Y3.25882
X5.49910 Y5.79882
X8.03910 Y5.79882
X8.03910 Y3.25882
X10.57910 Y3.25882
X13.11910 Y3.25882
X10.57910 Y5.79882
X13.11910 Y5.79882
X15.65910 Y5.79882
X15.65910 Y3.25882
X18.19910 Y3.25882
X18.19910 Y5.79882
X20.73910 Y5.79882
X20.73910 Y3.25882
X23.27910 Y3.25882
X25.81910 Y3.25882
X23.27910 Y5.79882
X25.81910 Y5.79882
X28.35910 Y5.79882
X30.89910 Y5.79882
X28.35910 Y3.25882
X30.89910 Y3.25882
X33.43910 Y5.79882
X33.43910 Y3.25882
X35.97910 Y5.79882
X38.51910 Y5.79882
X35.97910 Y3.25882
X38.51910 Y3.25882
X41.05910 Y5.79882
X43.59910 Y5.79882
X41.05910 Y3.25882
X43.59910 Y3.25882
X46.13910 Y5.79882
X46.13910 Y3.25882
X48.67910 Y5.79882
X48.67910 Y3.25882
X51.21910 Y5.79882
X53.75910 Y5.79882
X51.21910 Y3.25882
X53.75910 Y3.25882
X56.29910 Y5.79882
X56.29910 Y3.25882
X58.83910 Y5.79882
X58.83910 Y3.25882
X61.37910 Y5.79882
X61.37910 Y3.25882
X63.91910 Y5.79882
X66.45910 Y5.79882
X63.91910 Y3.25882
X66.45910 Y3.25882
X68.99910 Y5.79882
X68.99910 Y3.25882
X71.53910 Y5.79882
X71.53910 Y3.25882
X74.07910 Y5.79882
X74.07910 Y3.25882
X76.61910 Y5.79882
X79.15910 Y5.79882
X76.61910 Y3.25882
X79.15910 Y3.25882
X81.69910 Y5.79882
X81.69910 Y3.25882
X84.23910 Y5.79882
X84.23910 Y3.25882
X86.77910 Y5.79882
X86.77910 Y3.25882
X89.31910 Y5.79882
X91.85910 Y5.79882
X89.31910 Y3.25882
X91.85910 Y3.25882
X94.39910 Y3.25882
X94.39910 Y5.79882
X90.70086 Y11.09980
X88.16086 Y11.09980
X88.16086 Y13.63980
X90.70086 Y13.63980
X90.70086 Y16.17980
X88.16086 Y16.17980
X88.16086 Y18.71980
X90.70086 Y18.71980
X90.70086 Y21.25980
X88.16086 Y21.25980
X88.16086 Y23.79980
X90.70086 Y23.79980
X90.70086 Y26.33980
X88.16086 Y26.33980
X88.16086 Y28.87980
X90.70086 Y28.87980
X90.70086 Y31.41980
X88.16086 Y31.41980
X88.16086 Y33.95980
X90.70086 Y33.95980
X90.70086 Y36.49980
X88.16086 Y36.49980
X88.16086 Y39.03980
X90.70086 Y39.03980
X90.70086 Y41.57980
X88.16086 Y41.57980
X88.16086 Y44.11980
X90.70086 Y44.11980
X90.70086 Y46.65980
X88.16086 Y46.65980
X88.16086 Y49.19980
X90.70086 Y49.19980
X90.70086 Y51.73980
X88.16086 Y51.73980
X88.16086 Y54.27980
X90.70086 Y54.27980
X90.70086 Y56.81980
X88.16086 Y56.81980
X88.16086 Y59.35980
X90.70086 Y59.35980
X94.39910 Y64.21882
X94.39910 Y66.75882
X91.85910 Y64.21882
X91.85910 Y66.75882
X89.31910 Y64.21882
X89.31910 Y66.75882
X86.77910 Y64.21882
X86.77910 Y66.75882
X84.23910 Y64.21882
X84.23910 Y66.75882
X81.69910 Y64.21882
X81.69910 Y66.75882
X79.15910 Y64.21882
X79.15910 Y66.75882
X76.61910 Y64.21882
X76.61910 Y66.75882
X74.07910 Y64.21882
X74.07910 Y66.75882
X71.53910 Y64.21882
X71.53910 Y66.75882
X68.99910 Y64.21882
X68.99910 Y66.75882
X66.45910 Y64.21882
X66.45910 Y66.75882
X63.91910 Y64.21882
X63.91910 Y66.75882
X61.37910 Y64.21882
X61.37910 Y66.75882
X58.83910 Y64.21882
X58.83910 Y66.75882
X56.29910 Y64.21882
X56.29910 Y66.75882
X53.75910 Y64.21882
X53.75910 Y66.75882
X51.21910 Y64.21882
X51.21910 Y66.75882
X48.67910 Y64.21882
X48.67910 Y66.75882
X46.13910 Y64.21882
X46.13910 Y66.75882
X43.59910 Y64.21882
X43.59910 Y66.75882
X41.05910 Y64.21882
X41.05910 Y66.75882
X38.51910 Y64.21882
X38.51910 Y66.75882
X35.97910 Y66.75882
X35.97910 Y64.21882
X33.43910 Y66.75882
X33.43910 Y64.21882
X30.89910 Y66.75882
X30.89910 Y64.21882
X28.35910 Y66.75882
X28.35910 Y64.21882
X25.81910 Y66.75882
X25.81910 Y64.21882
X23.27910 Y66.75882
X23.27910 Y64.21882
X20.73910 Y66.75882
X20.73910 Y64.21882
X18.19910 Y66.75882
X18.19910 Y64.21882
X15.65910 Y66.75882
X15.65910 Y64.21882
X13.11910 Y66.75882
X13.11910 Y64.21882
X10.57910 Y66.75882
X10.57910 Y64.21882
X8.03910 Y66.75882
X8.03910 Y64.21882
X5.49910 Y66.75882
X5.49910 Y64.21882
G80

G00 Z30.000 ( All done -- retract )

M5      (Spindle off.)
G04 P1.000000
M9      (Coolant off.)
M2      (Program end.)

