( pcb2gcode 2.5.0 )
( Software-independent Gcode )

G94 ( Millimeters per minute feed rate. )
G21 ( Units == Millimeters. )

G90 ( Absolute coordinates. )
G00 S10000 ( RPM spindle speed. )
G64 P0.01000 ( set maximum deviation from commanded toolpath )
G01 F600.00000 ( Feedrate. )


G00 Z10.00000 (Retract to tool change height)
T1
M5      (Spindle stop.)
G04 P1.00000 (Wait for spindle to stop)
(MSG, Change tool bit to mill diameter 0.20000mm)
M6      (Tool change.)
M0      (Temporary machine stop.)
M3 ( Spindle on clockwise. )
G04 P1.00000 (Wait for spindle to get up to speed)
G04 P0 ( dwell for no time -- G64 should not smooth over this point )
G00 Z5.00000 ( retract )

G00 X0.00000 Y0.05621 ( rapid move to begin. )
G01 F300.00000
( Mill infeed pass 1/1 )
G01 Z-0.05000
G04 P0 ( dwell for no time -- G64 should not smooth over this point )
G01 F600.00000
G01 X0.00000 Y0.05621
G01 X0.00000 Y69.94365
G01 X0.00490 Y69.94959
G01 X0.05032 Y69.99496
G01 X0.05629 Y69.99996
G01 X99.94367 Y69.99996
G01 X99.94958 Y69.99496
G01 X99.99500 Y69.94959
G01 X99.99993 Y69.94365
G01 X99.99993 Y0.05621
G01 X99.99500 Y0.05032
G01 X99.94958 Y0.00490
G01 X99.94369 Y0.00000
G01 X0.05621 Y0.00000
G01 X0.05032 Y0.00490
G01 X0.00490 Y0.05032
G01 X0.00000 Y0.05621
G01 X0.00046 Y0.32446
G01 X0.00046 Y69.67548
G01 X0.00218 Y69.70154
G01 X0.00726 Y69.72722
G01 X0.02385 Y69.78919
G01 X0.03581 Y69.82193
G01 X0.05324 Y69.85218
G01 X0.07564 Y69.87883
G01 X0.12106 Y69.92427
G01 X0.14775 Y69.94670
G01 X0.17795 Y69.96412
G01 X0.21069 Y69.97601
G01 X0.27272 Y69.99262
G01 X0.29837 Y69.99770
G01 X0.32446 Y69.99948
G01 X99.67544 Y69.99948
G01 X99.70158 Y69.99770
G01 X99.72723 Y69.99262
G01 X99.78923 Y69.97601
G01 X99.82200 Y69.96412
G01 X99.85218 Y69.94670
G01 X99.87890 Y69.92427
G01 X99.92423 Y69.87883
G01 X99.94669 Y69.85218
G01 X99.96411 Y69.82193
G01 X99.97605 Y69.78919
G01 X99.99266 Y69.72722
G01 X99.99777 Y69.70154
G01 X99.99944 Y69.67548
G01 X99.99944 Y0.32446
G01 X99.99777 Y0.29837
G01 X99.99266 Y0.27272
G01 X99.97605 Y0.21069
G01 X99.96411 Y0.17795
G01 X99.94669 Y0.14775
G01 X99.92423 Y0.12106
G01 X99.87890 Y0.07564
G01 X99.85218 Y0.05324
G01 X99.82200 Y0.03581
G01 X99.78923 Y0.02385
G01 X99.72723 Y0.00726
G01 X99.70158 Y0.00218
G01 X99.67544 Y0.00046
G01 X0.32446 Y0.00046
G01 X0.29837 Y0.00218
G01 X0.27272 Y0.00726
G01 X0.21069 Y0.02385
G01 X0.17795 Y0.03581
G01 X0.14775 Y0.05324
G01 X0.12106 Y0.07564
G01 X0.07564 Y0.12106
G01 X0.05324 Y0.14775
G01 X0.03581 Y0.17795
G01 X0.02385 Y0.21069
G01 X0.00726 Y0.27272
G01 X0.00218 Y0.29837
G01 X0.00046 Y0.32446
G01 X0.10046 Y0.32446
G01 X0.10132 Y0.31140
G01 X0.10384 Y0.29860
G01 X0.12045 Y0.23660
G01 X0.12639 Y0.22022
G01 X0.13515 Y0.20511
G01 X0.14633 Y0.19177
G01 X0.19177 Y0.14633
G01 X0.20511 Y0.13515
G01 X0.22022 Y0.12639
G01 X0.23660 Y0.12045
G01 X0.29860 Y0.10384
G01 X0.31140 Y0.10132
G01 X0.32446 Y0.10046
G01 X99.67544 Y0.10046
G01 X99.68852 Y0.10132
G01 X99.70135 Y0.10384
G01 X99.76333 Y0.12045
G01 X99.77971 Y0.12639
G01 X99.79480 Y0.13515
G01 X99.80818 Y0.14633
G01 X99.85355 Y0.19177
G01 X99.86477 Y0.20511
G01 X99.87349 Y0.22022
G01 X99.87945 Y0.23660
G01 X99.89607 Y0.29860
G01 X99.89858 Y0.31140
G01 X99.89947 Y0.32446
G01 X99.89947 Y69.67548
G01 X99.89858 Y69.68848
G01 X99.89607 Y69.70131
G01 X99.87945 Y69.76334
G01 X99.87349 Y69.77972
G01 X99.86477 Y69.79483
G01 X99.85355 Y69.80814
G01 X99.80818 Y69.85356
G01 X99.79480 Y69.86478
G01 X99.77971 Y69.87349
G01 X99.76333 Y69.87941
G01 X99.70135 Y69.89602
G01 X99.68852 Y69.89862
G01 X99.67544 Y69.89948
G01 X0.32446 Y69.89948
G01 X0.31140 Y69.89862
G01 X0.29860 Y69.89602
G01 X0.23660 Y69.87941
G01 X0.22022 Y69.87349
G01 X0.20511 Y69.86478
G01 X0.19177 Y69.85356
G01 X0.14633 Y69.80814
G01 X0.13515 Y69.79483
G01 X0.12639 Y69.77972
G01 X0.12045 Y69.76334
G01 X0.10384 Y69.70131
G01 X0.10132 Y69.68848
G01 X0.10046 Y69.67548
G01 X0.10046 Y0.32446
G04 P0 ( dwell for no time -- G64 should not smooth over this point )
G00 Z5.00000 ( retract )

G00 X4.24520 Y3.25994 ( rapid move to begin. )
G01 F300.00000
( Mill infeed pass 1/1 )
G01 Z-0.05000
G04 P0 ( dwell for no time -- G64 should not smooth over this point )
G01 F600.00000
G01 X4.24520 Y3.25994
G01 X4.26425 Y3.47779
G01 X4.32084 Y3.68915
G01 X4.40192 Y3.86296
G01 X4.62862 Y3.63637
G01 X4.62651 Y3.63235
G01 X4.62229 Y3.62354
G01 X4.61899 Y3.61429
G01 X4.57058 Y3.45478
G01 X4.56679 Y3.43555
G01 X4.55046 Y3.26979
G01 X4.54995 Y3.25994
G01 X4.55046 Y3.25013
G01 X4.56679 Y3.08430
G01 X4.56824 Y3.07464
G01 X4.57058 Y3.06512
G01 X4.61899 Y2.90563
G01 X4.62229 Y2.89639
G01 X4.62651 Y2.88755
G01 X4.62862 Y2.88359
G01 X4.40192 Y2.65694
G01 X4.32084 Y2.83080
G01 X4.26425 Y3.04203
G01 X4.24520 Y3.25994
G01 X4.34520 Y3.25994
G01 X4.34553 Y3.25994
G01 X4.36311 Y3.05951
G01 X4.36255 Y3.05940
G01 X4.36311 Y3.05951
G01 X4.41521 Y2.86509
G01 X4.43222 Y2.82862
G01 X4.40896 Y2.73637
G01 X4.43222 Y2.82862
G01 X4.51328 Y2.90967
G01 X4.52910 Y2.90561
G01 X4.51328 Y2.90967
G01 X4.47492 Y3.03606
G01 X4.47017 Y3.05509
G01 X4.46728 Y3.07457
G01 X4.45094 Y3.24033
G01 X4.45094 Y3.27960
G01 X4.46728 Y3.44536
G01 X4.47017 Y3.46484
G01 X4.47492 Y3.48386
G01 X4.51328 Y3.61028
G01 X4.52910 Y3.61429
G01 X4.51328 Y3.61028
G01 X4.43222 Y3.69133
G01 X4.40893 Y3.78353
G01 X4.43222 Y3.69133
G01 X4.41521 Y3.65476
G01 X4.36311 Y3.46037
G01 X4.36255 Y3.46052
G01 X4.36311 Y3.46037
G01 X4.34553 Y3.25994
G04 P0 ( dwell for no time -- G64 should not smooth over this point )
G00 Z5.00000 ( retract )

G00 X4.89689 Y2.16190 ( rapid move to begin. )
G01 F300.00000
( Mill infeed pass 1/1 )
G01 Z-0.05000
G04 P0 ( dwell for no time -- G64 should not smooth over this point )
G01 F600.00000
G01 X4.89689 Y2.16190
G01 X5.07081 Y2.08082
G01 X5.28208 Y2.02425
G01 X5.49996 Y2.00520
G01 X5.71784 Y2.02425
G01 X5.92910 Y2.08082
G01 X6.10296 Y2.16190
G01 X5.87637 Y2.38857
G01 X5.87240 Y2.38646
G01 X5.85424 Y2.37894
G01 X5.69478 Y2.33063
G01 X5.67560 Y2.32679
G01 X5.50979 Y2.31046
G01 X5.49999 Y2.30993
G01 X5.49018 Y2.31046
G01 X5.32435 Y2.32679
G01 X5.30507 Y2.33063
G01 X5.14563 Y2.37894
G01 X5.13644 Y2.38224
G01 X5.12752 Y2.38646
G01 X5.12359 Y2.38857
G01 X4.89689 Y2.16190
G01 X4.97642 Y2.16891
G01 X5.06862 Y2.19217
G01 X5.10515 Y2.17521
G01 X5.29946 Y2.12306
G01 X5.29935 Y2.12260
G01 X5.29946 Y2.12306
G01 X5.49996 Y2.10553
G01 X5.49996 Y2.10515
G01 X5.49996 Y2.10553
G01 X5.70040 Y2.12306
G01 X5.70047 Y2.12260
G01 X5.70040 Y2.12306
G01 X5.89481 Y2.17521
G01 X5.93133 Y2.19217
G01 X6.02348 Y2.16888
G01 X5.93133 Y2.19217
G01 X5.85028 Y2.27322
G01 X5.85424 Y2.28910
G01 X5.85028 Y2.27322
G01 X5.72381 Y2.23487
G01 X5.70479 Y2.23017
G01 X5.68541 Y2.22728
G01 X5.51960 Y2.21089
G01 X5.49999 Y2.20998
G01 X5.48038 Y2.21089
G01 X5.31457 Y2.22728
G01 X5.29509 Y2.23017
G01 X5.27606 Y2.23487
G01 X5.14967 Y2.27322
G01 X5.14561 Y2.28910
G01 X5.14967 Y2.27322
G01 X5.06862 Y2.19217
G04 P0 ( dwell for no time -- G64 should not smooth over this point )
G00 Z5.00000 ( retract )

G00 X6.88993 Y3.25994 ( rapid move to begin. )
G01 F300.00000
( Mill infeed pass 1/1 )
G01 Z-0.05000
G04 P0 ( dwell for no time -- G64 should not smooth over this point )
G01 F600.00000
G01 X6.88993 Y3.25994
G01 X6.89143 Y3.28940
G01 X6.90776 Y3.45519
G01 X6.91924 Y3.51290
G01 X6.92508 Y3.53223
G01 X6.94037 Y3.54670
G01 X6.94317 Y3.54960
G01 X7.01947 Y3.63446
G01 X7.02221 Y3.63784
G01 X7.04687 Y3.67071
G01 X7.05551 Y3.68191
G01 X7.08335 Y3.71696
G01 X7.08518 Y3.71940
G01 X7.12097 Y3.77045
G01 X7.12262 Y3.77302
G01 X7.15358 Y3.82336
G01 X7.16504 Y3.84010
G01 X7.16636 Y3.84208
G01 X7.17039 Y3.84795
G01 X7.18000 Y3.86197
G01 X7.23555 Y3.93525
G01 X7.28124 Y3.98562
G01 X7.31426 Y4.01864
G01 X7.36476 Y4.06441
G01 X7.43791 Y4.11996
G01 X7.45150 Y4.12923
G01 X7.45698 Y4.13296
G01 X7.45983 Y4.13489
G01 X7.47654 Y4.14632
G01 X7.52643 Y4.17703
G01 X7.52897 Y4.17863
G01 X7.58007 Y4.21444
G01 X7.58246 Y4.21627
G01 X7.61802 Y4.24449
G01 X7.62879 Y4.25277
G01 X7.66204 Y4.27784
G01 X7.66542 Y4.28061
G01 X7.74967 Y4.35633
G01 X7.75256 Y4.35912
G01 X7.76727 Y4.37469
G01 X7.78708 Y4.38074
G01 X7.81561 Y4.38785
G01 X7.84474 Y4.39217
G01 X8.01058 Y4.40850
G01 X8.06940 Y4.40850
G01 X8.23519 Y4.39217
G01 X8.26432 Y4.38785
G01 X8.29290 Y4.38074
G01 X8.45236 Y4.33233
G01 X8.48007 Y4.32239
G01 X8.50669 Y4.30982
G01 X8.65365 Y4.23131
G01 X8.70252 Y4.19865
G01 X8.83130 Y4.09293
G01 X8.87293 Y4.05135
G01 X8.97865 Y3.92255
G01 X8.99615 Y3.89885
G01 X9.01128 Y3.87365
G01 X9.08985 Y3.72664
G01 X9.10245 Y3.70002
G01 X9.11235 Y3.67231
G01 X9.16074 Y3.51290
G01 X9.17222 Y3.45519
G01 X9.18855 Y3.28940
G01 X9.18997 Y3.25994
G01 X9.18855 Y3.23052
G01 X9.17222 Y3.06476
G01 X9.16074 Y3.00703
G01 X9.15472 Y2.98729
G01 X9.13917 Y2.97254
G01 X9.13633 Y2.96967
G01 X9.06061 Y2.88544
G01 X9.05777 Y2.88219
G01 X9.03282 Y2.84879
G01 X9.02449 Y2.83797
G01 X8.99625 Y2.80246
G01 X8.99447 Y2.80007
G01 X8.95868 Y2.74899
G01 X8.95701 Y2.74648
G01 X8.92637 Y2.69651
G01 X8.91494 Y2.67985
G01 X8.90951 Y2.67188
G01 X8.89993 Y2.65788
G01 X8.84438 Y2.58465
G01 X8.79869 Y2.53429
G01 X8.76564 Y2.50124
G01 X8.71527 Y2.45552
G01 X8.64202 Y2.40000
G01 X8.62843 Y2.39067
G01 X8.61967 Y2.38470
G01 X8.60339 Y2.37358
G01 X8.56597 Y2.35052
G01 X8.46221 Y2.29867
G01 X8.41936 Y2.27988
G01 X8.40072 Y2.27274
G01 X8.26618 Y2.23431
G01 X8.22328 Y2.22423
G01 X8.06064 Y2.20911
G01 X8.03994 Y2.20769
G01 X8.01929 Y2.20911
G01 X7.85665 Y2.22423
G01 X7.81375 Y2.23431
G01 X7.67921 Y2.27274
G01 X7.66056 Y2.27988
G01 X7.61771 Y2.29867
G01 X7.51401 Y2.35052
G01 X7.47654 Y2.37358
G01 X7.45978 Y2.38498
G01 X7.45957 Y2.38516
G01 X7.45228 Y2.39017
G01 X7.43791 Y2.40000
G01 X7.36465 Y2.45552
G01 X7.31426 Y2.50124
G01 X7.28124 Y2.53429
G01 X7.23560 Y2.58465
G01 X7.18000 Y2.65788
G01 X7.17039 Y2.67185
G01 X7.17019 Y2.67221
G01 X7.16514 Y2.67960
G01 X7.17019 Y2.67221
G01 X7.17039 Y2.67185
G01 X7.17862 Y2.66088
G01 X7.28434 Y2.53202
G01 X7.31205 Y2.50434
G01 X7.44085 Y2.39862
G01 X7.45228 Y2.39017
G01 X7.45957 Y2.38516
G01 X7.45978 Y2.38498
G01 X7.47347 Y2.37683
G01 X7.62041 Y2.29824
G01 X7.65665 Y2.28331
G01 X7.81611 Y2.23487
G01 X7.83514 Y2.23017
G01 X7.85454 Y2.22728
G01 X8.02038 Y2.21089
G01 X8.03999 Y2.20998
G01 X8.05960 Y2.21089
G01 X8.22538 Y2.22728
G01 X8.24481 Y2.23017
G01 X8.26384 Y2.23487
G01 X8.42333 Y2.28331
G01 X8.45952 Y2.29824
G01 X8.60651 Y2.37683
G01 X8.61967 Y2.38470
G01 X8.62020 Y2.38501
G01 X8.62795 Y2.39032
G01 X8.62843 Y2.39067
G01 X8.63907 Y2.39862
G01 X8.76790 Y2.50434
G01 X8.79564 Y2.53202
G01 X8.90130 Y2.66088
G01 X8.90951 Y2.67188
G01 X8.91494 Y2.67985
G01 X8.92312 Y2.69342
G01 X9.00163 Y2.84038
G01 X9.01007 Y2.85816
G01 X9.01664 Y2.87663
G01 X9.06503 Y3.03606
G01 X9.07268 Y3.07457
G01 X9.08901 Y3.24033
G01 X9.09000 Y3.25994
G01 X9.08901 Y3.27960
G01 X9.07268 Y3.44536
G01 X9.06503 Y3.48386
G01 X9.01664 Y3.64333
G01 X9.01007 Y3.66177
G01 X9.00163 Y3.67949
G01 X8.92312 Y3.82651
G01 X8.91304 Y3.84332
G01 X8.90130 Y3.85910
G01 X8.79564 Y3.98790
G01 X8.78246 Y4.00240
G01 X8.76790 Y4.01561
G01 X8.63907 Y4.12133
G01 X8.60651 Y4.14312
G01 X8.45952 Y4.22161
G01 X8.42333 Y4.23667
G01 X8.26384 Y4.28498
G01 X8.24481 Y4.28981
G01 X8.22538 Y4.29265
G01 X8.05960 Y4.30898
G01 X8.03999 Y4.31000
G01 X8.02038 Y4.30898
G01 X7.85454 Y4.29265
G01 X7.83514 Y4.28981
G01 X7.81611 Y4.28498
G01 X7.65665 Y4.23667
G01 X7.62041 Y4.22161
G01 X7.47347 Y4.14312
G01 X7.45983 Y4.13489
G01 X7.45698 Y4.13296
G01 X7.45193 Y4.12956
G01 X7.45150 Y4.12923
G01 X7.44085 Y4.12133
G01 X7.31205 Y4.01561
G01 X7.28434 Y3.98790
G01 X7.17862 Y3.85910
G01 X7.17039 Y3.84795
G01 X7.16636 Y3.84208
G01 X7.16504 Y3.84010
G01 X7.15686 Y3.82651
G01 X7.07829 Y3.67949
G01 X7.06331 Y3.64333
G01 X7.01490 Y3.48386
G01 X7.00725 Y3.44536
G01 X6.99092 Y3.27960
G01 X6.98995 Y3.25994
G01 X6.99092 Y3.24033
G01 X7.00725 Y3.07457
G01 X7.01490 Y3.03606
G01 X7.06331 Y2.87663
G01 X7.06991 Y2.85816
G01 X7.07829 Y2.84038
G01 X7.15686 Y2.69342
G01 X7.16514 Y2.67960
G01 X7.15358 Y2.69651
G01 X7.12262 Y2.74691
G01 X7.12097 Y2.74940
G01 X7.08518 Y2.80050
G01 X7.08335 Y2.80294
G01 X7.05551 Y2.83799
G01 X7.04687 Y2.84919
G01 X7.02221 Y2.88201
G01 X7.01947 Y2.88544
G01 X6.94317 Y2.97035
G01 X6.94037 Y2.97320
G01 X6.92513 Y2.98765
G01 X6.91924 Y3.00703
G01 X6.90776 Y3.06476
G01 X6.89143 Y3.23052
G01 X6.88993 Y3.25994
G01 X6.98995 Y3.25994
G01 X7.08998 Y3.25994
G01 X7.09046 Y3.26979
G01 X7.10679 Y3.43555
G01 X7.11058 Y3.45478
G01 X7.15896 Y3.61429
G01 X7.16229 Y3.62354
G01 X7.16651 Y3.63235
G01 X7.24502 Y3.77937
G01 X7.25007 Y3.78777
G01 X7.25594 Y3.79565
G01 X7.36166 Y3.92448
G01 X7.37550 Y3.93827
G01 X7.50430 Y4.04398
G01 X7.51220 Y4.04988
G01 X7.52058 Y4.05493
G01 X7.66757 Y4.13342
G01 X7.68568 Y4.14099
G01 X7.84509 Y4.18930
G01 X7.85465 Y4.19174
G01 X7.86435 Y4.19318
G01 X8.03018 Y4.20947
G01 X8.04979 Y4.20947
G01 X8.21558 Y4.19318
G01 X8.22533 Y4.19174
G01 X8.23481 Y4.18930
G01 X8.39429 Y4.14099
G01 X8.41240 Y4.13342
G01 X8.55934 Y4.05493
G01 X8.57562 Y4.04398
G01 X8.70448 Y3.93827
G01 X8.71832 Y3.92448
G01 X8.82404 Y3.79565
G01 X8.83491 Y3.77937
G01 X8.91347 Y3.63235
G01 X8.91764 Y3.62354
G01 X8.92096 Y3.61429
G01 X8.96932 Y3.45478
G01 X8.97318 Y3.43555
G01 X8.98952 Y3.26979
G01 X8.99000 Y3.25994
G01 X8.98952 Y3.25013
G01 X8.97318 Y3.08430
G01 X8.96932 Y3.06512
G01 X8.92096 Y2.90563
G01 X8.91764 Y2.89639
G01 X8.91347 Y2.88755
G01 X8.83491 Y2.74058
G01 X8.82988 Y2.73215
G01 X8.82404 Y2.72430
G01 X8.71832 Y2.59545
G01 X8.70448 Y2.58161
G01 X8.57562 Y2.47589
G01 X8.56778 Y2.47010
G01 X8.55934 Y2.46499
G01 X8.41240 Y2.38646
G01 X8.39429 Y2.37894
G01 X8.23481 Y2.33063
G01 X8.22533 Y2.32819
G01 X8.21558 Y2.32679
G01 X8.04979 Y2.31046
G01 X8.03018 Y2.31046
G01 X7.86435 Y2.32679
G01 X7.85465 Y2.32819
G01 X7.84509 Y2.33063
G01 X7.68568 Y2.37894
G01 X7.66757 Y2.38646
G01 X7.52058 Y2.46499
G01 X7.51220 Y2.47010
G01 X7.50430 Y2.47589
G01 X7.37550 Y2.58161
G01 X7.36166 Y2.59545
G01 X7.25594 Y2.72430
G01 X7.25007 Y2.73215
G01 X7.24502 Y2.74058
G01 X7.16651 Y2.88755
G01 X7.16229 Y2.89639
G01 X7.15896 Y2.90563
G01 X7.11058 Y3.06512
G01 X7.10679 Y3.08430
G01 X7.09046 Y3.25013
G01 X7.08998 Y3.25994
G04 P0 ( dwell for no time -- G64 should not smooth over this point )
G00 Z5.00000 ( retract )

G00 X5.14302 Y4.39473 ( rapid move to begin. )
G01 F300.00000
( Mill infeed pass 1/1 )
G01 Z-0.05000
G04 P0 ( dwell for no time -- G64 should not smooth over this point )
G01 F600.00000
G01 X5.14302 Y4.39473
G01 X5.17799 Y4.35973
G01 X5.17395 Y4.34523
G01 X5.17799 Y4.35973
G01 X5.24708 Y4.38074
G01 X5.27558 Y4.38785
G01 X5.30476 Y4.39217
G01 X5.47058 Y4.40850
G01 X5.52935 Y4.40850
G01 X5.69521 Y4.39217
G01 X5.72435 Y4.38785
G01 X5.75285 Y4.38074
G01 X5.82191 Y4.35973
G01 X5.82592 Y4.34416
G01 X5.82191 Y4.35973
G01 X5.85688 Y4.39471
G01 X5.86824 Y4.39090
G01 X5.85688 Y4.39471
G01 X5.85467 Y4.40131
G01 X5.84065 Y4.45856
G01 X5.83296 Y4.50599
G01 X5.83296 Y4.55397
G01 X5.84065 Y4.60134
G01 X5.85467 Y4.65854
G01 X5.85688 Y4.66524
G01 X5.87017 Y4.66910
G01 X5.85688 Y4.66524
G01 X5.82188 Y4.70014
G01 X5.82590 Y4.71475
G01 X5.82188 Y4.70014
G01 X5.75285 Y4.67919
G01 X5.72435 Y4.67203
G01 X5.69521 Y4.66771
G01 X5.52935 Y4.65143
G01 X5.47058 Y4.65143
G01 X5.30476 Y4.66771
G01 X5.27558 Y4.67203
G01 X5.24708 Y4.67919
G01 X5.17802 Y4.70014
G01 X5.17393 Y4.71571
G01 X5.17802 Y4.70014
G01 X5.14302 Y4.66517
G01 X5.13161 Y4.66898
G01 X5.14302 Y4.66517
G01 X5.14530 Y4.65846
G01 X5.15925 Y4.60121
G01 X5.16687 Y4.55392
G01 X5.16687 Y4.50604
G01 X5.15925 Y4.45874
G01 X5.14530 Y4.40144
G01 X5.14302 Y4.39473
G01 X5.12978 Y4.39075
G01 X5.02630 Y4.37002
G01 X5.00985 Y4.36672
G01 X5.02557 Y4.37078
G01 X5.03806 Y4.39486
G01 X5.04815 Y4.42519
G01 X5.06214 Y4.48244
G01 X5.06722 Y4.51401
G01 X5.06722 Y4.54589
G01 X5.06214 Y4.57744
G01 X5.04815 Y4.63466
G01 X5.03806 Y4.66501
G01 X5.02557 Y4.68912
G01 X5.01157 Y4.69308
G01 X5.02557 Y4.68912
G01 X5.14967 Y4.81327
G01 X5.14561 Y4.82910
G01 X5.14967 Y4.81327
G01 X5.27606 Y4.77487
G01 X5.29509 Y4.77012
G01 X5.31457 Y4.76722
G01 X5.48038 Y4.75089
G01 X5.49999 Y4.74998
G01 X5.51960 Y4.75089
G01 X5.68541 Y4.76722
G01 X5.70479 Y4.77012
G01 X5.72381 Y4.77487
G01 X5.85028 Y4.81327
G01 X5.85424 Y4.82910
G01 X5.85028 Y4.81327
G01 X5.97438 Y4.68912
G01 X5.99008 Y4.69313
G01 X5.97438 Y4.68912
G01 X5.96186 Y4.66507
G01 X5.95180 Y4.63474
G01 X5.93778 Y4.57749
G01 X5.93270 Y4.54591
G01 X5.93270 Y4.51399
G01 X5.93778 Y4.48236
G01 X5.95180 Y4.42516
G01 X5.96186 Y4.39484
G01 X5.97438 Y4.37078
G01 X5.98838 Y4.36677
G01 X5.97438 Y4.37078
G01 X5.85028 Y4.24670
G01 X5.85427 Y4.23134
G01 X5.85028 Y4.24670
G01 X5.72381 Y4.28498
G01 X5.68541 Y4.29265
G01 X5.51960 Y4.30898
G01 X5.48038 Y4.30898
G01 X5.31457 Y4.29265
G01 X5.29509 Y4.28981
G01 X5.27606 Y4.28498
G01 X5.14967 Y4.24668
G01 X5.14561 Y4.23078
G01 X5.14967 Y4.24668
G01 X5.02630 Y4.37002
G01 X5.02557 Y4.37078
G01 X5.00985 Y4.36672
G01 X4.89120 Y4.36367
G01 X5.12359 Y4.13128
G01 X5.12752 Y4.13342
G01 X5.13644 Y4.13763
G01 X5.14563 Y4.14099
G01 X5.30507 Y4.18930
G01 X5.32435 Y4.19318
G01 X5.49018 Y4.20947
G01 X5.49999 Y4.21000
G01 X5.50979 Y4.20947
G01 X5.67560 Y4.19318
G01 X5.69478 Y4.18930
G01 X5.85424 Y4.14099
G01 X5.86349 Y4.13763
G01 X5.87240 Y4.13342
G01 X5.87637 Y4.13131
G01 X6.10865 Y4.36367
G01 X6.07088 Y4.40680
G01 X6.06133 Y4.41955
G01 X6.05396 Y4.43372
G01 X6.04888 Y4.44894
G01 X6.03491 Y4.50619
G01 X6.03237 Y4.52194
G01 X6.03237 Y4.53796
G01 X6.03491 Y4.55371
G01 X6.04888 Y4.61101
G01 X6.05396 Y4.62613
G01 X6.06133 Y4.64030
G01 X6.07088 Y4.65310
G01 X6.10865 Y4.69628
G01 X5.87637 Y4.92857
G01 X5.87240 Y4.92646
G01 X5.85424 Y4.91894
G01 X5.69478 Y4.87063
G01 X5.67560 Y4.86674
G01 X5.50979 Y4.85041
G01 X5.49999 Y4.84998
G01 X5.49018 Y4.85041
G01 X5.32435 Y4.86674
G01 X5.30507 Y4.87063
G01 X5.14563 Y4.91894
G01 X5.12752 Y4.92646
G01 X5.12359 Y4.92857
G01 X4.89120 Y4.69628
G01 X4.92907 Y4.65310
G01 X4.93857 Y4.64028
G01 X4.94599 Y4.62610
G01 X4.95102 Y4.61096
G01 X4.96501 Y4.55366
G01 X4.96750 Y4.53796
G01 X4.96750 Y4.52194
G01 X4.96501 Y4.50624
G01 X4.95102 Y4.44899
G01 X4.94599 Y4.43375
G01 X4.93857 Y4.41957
G01 X4.92907 Y4.40680
G01 X4.89120 Y4.36367
G04 P0 ( dwell for no time -- G64 should not smooth over this point )
G00 Z5.00000 ( retract )

G00 X4.34553 Y5.79991 ( rapid move to begin. )
G01 F300.00000
( Mill infeed pass 1/1 )
G01 Z-0.05000
G04 P0 ( dwell for no time -- G64 should not smooth over this point )
G01 F600.00000
G01 X4.34553 Y5.79991
G01 X4.36311 Y5.59951
G01 X4.36255 Y5.59940
G01 X4.36311 Y5.59951
G01 X4.41521 Y5.40509
G01 X4.43222 Y5.36857
G01 X4.40896 Y5.27642
G01 X4.43222 Y5.36857
G01 X4.51328 Y5.44962
G01 X4.52910 Y5.44566
G01 X4.51328 Y5.44962
G01 X4.47492 Y5.57611
G01 X4.47017 Y5.59514
G01 X4.46728 Y5.61452
G01 X4.45094 Y5.78033
G01 X4.44993 Y5.79994
G01 X4.45094 Y5.81955
G01 X4.46728 Y5.98536
G01 X4.47017 Y6.00484
G01 X4.47492 Y6.02386
G01 X4.51328 Y6.15023
G01 X4.52910 Y6.15429
G01 X4.51328 Y6.15023
G01 X4.43222 Y6.23128
G01 X4.40893 Y6.32353
G01 X4.43222 Y6.23128
G01 X4.41521 Y6.19476
G01 X4.36311 Y6.00042
G01 X4.36255 Y6.00052
G01 X4.36311 Y6.00042
G01 X4.34553 Y5.79991
G01 X4.34520 Y5.79991
G01 X4.24520 Y5.79991
G01 X4.26425 Y5.58203
G01 X4.32084 Y5.37075
G01 X4.40192 Y5.19694
G01 X4.62862 Y5.42353
G01 X4.62651 Y5.42757
G01 X4.61899 Y5.44568
G01 X4.57058 Y5.60512
G01 X4.56679 Y5.62430
G01 X4.55046 Y5.79013
G01 X4.54995 Y5.79994
G01 X4.55046 Y5.80974
G01 X4.56679 Y5.97555
G01 X4.57058 Y5.99483
G01 X4.61899 Y6.15429
G01 X4.62229 Y6.16354
G01 X4.62651 Y6.17240
G01 X4.62862 Y6.17631
G01 X4.40192 Y6.40301
G01 X4.32084 Y6.22910
G01 X4.26425 Y6.01779
G01 X4.24520 Y5.79991
G04 P0 ( dwell for no time -- G64 should not smooth over this point )
G00 Z5.00000 ( retract )

G00 X5.06862 Y6.86770 ( rapid move to begin. )
G01 F300.00000
( Mill infeed pass 1/1 )
G01 Z-0.05000
G04 P0 ( dwell for no time -- G64 should not smooth over this point )
G01 F600.00000
G01 X5.06862 Y6.86770
G01 X5.14967 Y6.78665
G01 X5.14561 Y6.77083
G01 X5.14967 Y6.78665
G01 X5.27606 Y6.82501
G01 X5.29509 Y6.82981
G01 X5.31457 Y6.83270
G01 X5.48038 Y6.84903
G01 X5.49999 Y6.85000
G01 X5.51960 Y6.84903
G01 X5.68541 Y6.83270
G01 X5.72381 Y6.82501
G01 X5.85028 Y6.78670
G01 X5.85427 Y6.77136
G01 X5.85028 Y6.78670
G01 X5.93133 Y6.86770
G01 X6.02348 Y6.89099
G01 X5.93133 Y6.86770
G01 X5.89481 Y6.88472
G01 X5.70040 Y6.93684
G01 X5.70047 Y6.93732
G01 X5.70040 Y6.93684
G01 X5.49996 Y6.95434
G01 X5.49996 Y6.95475
G01 X5.49996 Y6.95434
G01 X5.29946 Y6.93684
G01 X5.29935 Y6.93732
G01 X5.29946 Y6.93684
G01 X5.10515 Y6.88472
G01 X5.06862 Y6.86770
G01 X4.97642 Y6.89099
G01 X4.89689 Y6.89800
G01 X5.12359 Y6.67134
G01 X5.12752 Y6.67344
G01 X5.14563 Y6.68099
G01 X5.30507 Y6.72932
G01 X5.31465 Y6.73174
G01 X5.32435 Y6.73316
G01 X5.49018 Y6.74949
G01 X5.49999 Y6.74997
G01 X5.50979 Y6.74949
G01 X5.67560 Y6.73316
G01 X5.69478 Y6.72932
G01 X5.85424 Y6.68099
G01 X5.86349 Y6.67766
G01 X5.87240 Y6.67344
G01 X5.87637 Y6.67134
G01 X6.10296 Y6.89800
G01 X5.92910 Y6.97906
G01 X5.71784 Y7.03570
G01 X5.49996 Y7.05472
G01 X5.28208 Y7.03570
G01 X5.07081 Y6.97906
G01 X4.89689 Y6.89800
G04 P0 ( dwell for no time -- G64 should not smooth over this point )
G00 Z5.00000 ( retract )

G00 X2.39588 Y10.06145 ( rapid move to begin. )
G01 F300.00000
( Mill infeed pass 1/1 )
G01 Z-0.05000
G04 P0 ( dwell for no time -- G64 should not smooth over this point )
G01 F600.00000
G01 X2.39588 Y10.06145
G01 X2.40535 Y9.81588
G01 X2.45214 Y9.57463
G01 X2.53517 Y9.34334
G01 X2.65257 Y9.12744
G01 X2.80154 Y8.93196
G01 X2.97868 Y8.76153
G01 X3.11833 Y8.66330
G01 X3.17962 Y8.62020
G01 X3.39994 Y8.51111
G01 X3.63421 Y8.43697
G01 X3.87706 Y8.39945
G01 X4.06133 Y8.39945
G01 X4.24497 Y8.41357
G01 X4.48429 Y8.46958
G01 X4.71218 Y8.56140
G01 X4.92349 Y8.68703
G01 X5.11307 Y8.84339
G01 X5.27657 Y9.02683
G01 X5.41012 Y9.23313
G01 X5.51071 Y9.45744
G01 X5.51327 Y9.46666
G01 X5.57576 Y9.69432
G01 X5.60395 Y9.93846
G01 X5.59460 Y10.18408
G01 X5.54779 Y10.42530
G01 X5.46473 Y10.65660
G01 X5.34728 Y10.87250
G01 X5.19836 Y11.06795
G01 X5.02128 Y11.23838
G01 X4.82023 Y11.37973
G01 X4.59999 Y11.48880
G01 X4.36573 Y11.56297
G01 X4.12280 Y11.60043
G01 X3.93863 Y11.60043
G01 X3.75488 Y11.58636
G01 X3.51564 Y11.53038
G01 X3.28767 Y11.43848
G01 X3.07647 Y11.31291
G01 X2.88684 Y11.15654
G01 X2.72331 Y10.97310
G01 X2.58971 Y10.76678
G01 X2.48925 Y10.54255
G01 X2.42407 Y10.30557
G01 X2.39588 Y10.06145
G01 X2.49585 Y10.05761
G01 X2.49616 Y10.05756
G01 X2.50500 Y9.82736
G01 X2.50469 Y9.82736
G01 X2.50500 Y9.82736
G01 X2.54884 Y9.60120
G01 X2.54851 Y9.60112
G01 X2.54884 Y9.60120
G01 X2.62674 Y9.38433
G01 X2.62641 Y9.38423
G01 X2.62674 Y9.38433
G01 X2.73675 Y9.18192
G01 X2.73655 Y9.18177
G01 X2.73675 Y9.18192
G01 X2.87647 Y8.99869
G01 X2.87625 Y8.99848
G01 X2.87647 Y8.99869
G01 X3.04249 Y8.83895
G01 X3.04229 Y8.83869
G01 X3.04249 Y8.83895
G01 X3.17579 Y8.74494
G01 X3.23093 Y8.70641
G01 X3.43743 Y8.60412
G01 X3.43725 Y8.60372
G01 X3.43743 Y8.60412
G01 X3.65702 Y8.53463
G01 X3.65694 Y8.53435
G01 X3.65702 Y8.53463
G01 X3.88473 Y8.49948
G01 X3.88470 Y8.49899
G01 X3.88473 Y8.49948
G01 X4.05745 Y8.49948
G01 X4.22971 Y8.51268
G01 X4.22976 Y8.51223
G01 X4.22971 Y8.51268
G01 X4.45404 Y8.56518
G01 X4.45409 Y8.56493
G01 X4.45404 Y8.56518
G01 X4.66768 Y8.65129
G01 X4.66783 Y8.65104
G01 X4.66768 Y8.65129
G01 X4.86575 Y8.76907
G01 X4.86590 Y8.76882
G01 X4.86575 Y8.76907
G01 X5.04347 Y8.91563
G01 X5.04368 Y8.91543
G01 X5.04347 Y8.91563
G01 X5.19681 Y9.08764
G01 X5.19704 Y9.08748
G01 X5.19681 Y9.08764
G01 X5.32201 Y9.28103
G01 X5.32232 Y9.28088
G01 X5.32201 Y9.28103
G01 X5.41632 Y9.49142
G01 X5.41685 Y9.49325
G01 X5.41708 Y9.49315
G01 X5.41685 Y9.49325
G01 X5.47736 Y9.71344
G01 X5.47764 Y9.71339
G01 X5.47736 Y9.71344
G01 X5.50372 Y9.94232
G01 X5.50403 Y9.94232
G01 X5.50372 Y9.94232
G01 X5.49496 Y10.17255
G01 X5.49526 Y10.17260
G01 X5.49496 Y10.17255
G01 X5.45104 Y10.39873
G01 X5.45137 Y10.39884
G01 X5.45104 Y10.39873
G01 X5.37322 Y10.61560
G01 X5.37345 Y10.61570
G01 X5.37322 Y10.61560
G01 X5.26316 Y10.81801
G01 X5.26336 Y10.81816
G01 X5.26316 Y10.81801
G01 X5.12348 Y11.00120
G01 X5.12369 Y11.00140
G01 X5.12348 Y11.00120
G01 X4.95742 Y11.16101
G01 X4.95760 Y11.16124
G01 X4.95742 Y11.16101
G01 X4.76903 Y11.29355
G01 X4.76918 Y11.29378
G01 X4.76903 Y11.29355
G01 X4.56255 Y11.39579
G01 X4.56263 Y11.39607
G01 X4.56255 Y11.39579
G01 X4.34282 Y11.46531
G01 X4.34289 Y11.46556
G01 X4.34282 Y11.46531
G01 X4.11513 Y11.50046
G01 X4.11516 Y11.50094
G01 X4.11513 Y11.50046
G01 X3.94241 Y11.50046
G01 X3.77025 Y11.48723
G01 X3.77017 Y11.48771
G01 X3.77025 Y11.48723
G01 X3.54589 Y11.43475
G01 X3.54581 Y11.43500
G01 X3.54589 Y11.43475
G01 X3.33223 Y11.34862
G01 X3.33205 Y11.34890
G01 X3.33223 Y11.34862
G01 X3.13418 Y11.23089
G01 X3.13395 Y11.23112
G01 X3.13418 Y11.23089
G01 X2.95638 Y11.08428
G01 X2.95623 Y11.08451
G01 X2.95638 Y11.08428
G01 X2.80307 Y10.91227
G01 X2.80289 Y10.91245
G01 X2.80307 Y10.91227
G01 X2.67785 Y10.71888
G01 X2.67757 Y10.71903
G01 X2.67785 Y10.71888
G01 X2.58364 Y10.50867
G01 X2.58336 Y10.50877
G01 X2.58364 Y10.50867
G01 X2.52252 Y10.28649
G01 X2.52230 Y10.28654
G01 X2.52252 Y10.28649
G01 X2.49616 Y10.05756
G01 X2.59606 Y10.05378
G01 X2.59639 Y10.05378
G01 X2.62105 Y10.26737
G01 X2.62075 Y10.26742
G01 X2.62105 Y10.26737
G01 X2.67797 Y10.47473
G01 X2.67774 Y10.47483
G01 X2.67797 Y10.47473
G01 X2.76596 Y10.67097
G01 X2.76568 Y10.67112
G01 X2.76596 Y10.67097
G01 X2.88287 Y10.85146
G01 X2.88262 Y10.85167
G01 X2.88287 Y10.85146
G01 X3.02598 Y11.01199
G01 X3.02572 Y11.01225
G01 X3.02598 Y11.01199
G01 X3.19184 Y11.14885
G01 X3.19166 Y11.14910
G01 X3.19184 Y11.14885
G01 X3.37673 Y11.25873
G01 X3.37655 Y11.25898
G01 X3.37673 Y11.25873
G01 X3.57617 Y11.33914
G01 X3.57602 Y11.33940
G01 X3.57617 Y11.33914
G01 X3.78557 Y11.38809
G01 X3.78549 Y11.38857
G01 X3.78557 Y11.38809
G01 X3.94630 Y11.40043
G01 X4.10746 Y11.40043
G01 X4.10748 Y11.40092
G01 X4.10746 Y11.40043
G01 X4.32001 Y11.36764
G01 X4.32008 Y11.36792
G01 X4.32001 Y11.36764
G01 X4.52506 Y11.30272
G01 X4.52516 Y11.30300
G01 X4.52506 Y11.30272
G01 X4.71772 Y11.20734
G01 X4.71787 Y11.20760
G01 X4.71772 Y11.20734
G01 X4.89367 Y11.08362
G01 X4.89384 Y11.08387
G01 X4.89367 Y11.08362
G01 X5.04855 Y10.93447
G01 X5.04883 Y10.93467
G01 X5.04855 Y10.93447
G01 X5.17893 Y10.76345
G01 X5.17921 Y10.76363
G01 X5.17893 Y10.76345
G01 X5.28168 Y10.57458
G01 X5.28193 Y10.57471
G01 X5.28168 Y10.57458
G01 X5.35432 Y10.37217
G01 X5.35465 Y10.37227
G01 X5.35432 Y10.37217
G01 X5.39529 Y10.16107
G01 X5.39562 Y10.16107
G01 X5.39529 Y10.16107
G01 X5.40355 Y9.94616
G01 X5.40380 Y9.94616
G01 X5.40355 Y9.94616
G01 X5.37888 Y9.73252
G01 X5.37914 Y9.73247
G01 X5.37888 Y9.73252
G01 X5.32191 Y9.52530
G01 X5.32224 Y9.52520
G01 X5.32191 Y9.52530
G01 X5.23390 Y9.32894
G01 X5.23420 Y9.32878
G01 X5.23390 Y9.32894
G01 X5.11701 Y9.14845
G01 X5.11729 Y9.14829
G01 X5.11701 Y9.14845
G01 X4.97398 Y8.98789
G01 X4.97418 Y8.98766
G01 X4.97398 Y8.98789
G01 X4.80802 Y8.85106
G01 X4.80819 Y8.85086
G01 X4.80802 Y8.85106
G01 X4.62323 Y8.74116
G01 X4.42377 Y8.66079
G01 X4.42382 Y8.66051
G01 X4.42377 Y8.66079
G01 X4.21439 Y8.61177
G01 X4.21439 Y8.61134
G01 X4.21439 Y8.61177
G01 X4.05366 Y8.59945
G01 X3.89242 Y8.59945
G01 X3.89240 Y8.59897
G01 X3.89242 Y8.59945
G01 X3.67993 Y8.63232
G01 X3.67985 Y8.63201
G01 X3.67993 Y8.63232
G01 X3.47492 Y8.69719
G01 X3.47475 Y8.69678
G01 X3.47492 Y8.69719
G01 X3.28219 Y8.79259
G01 X3.23327 Y8.82673
G01 X3.10629 Y8.91631
G01 X3.10609 Y8.91606
G01 X3.10629 Y8.91631
G01 X2.95135 Y9.06541
G01 X2.95107 Y9.06523
G01 X2.95135 Y9.06541
G01 X2.82095 Y9.23646
G01 X2.82070 Y9.23630
G01 X2.82095 Y9.23646
G01 X2.71826 Y9.42538
G01 X2.71798 Y9.42528
G01 X2.71826 Y9.42538
G01 X2.64551 Y9.62774
G01 X2.64528 Y9.62769
G01 X2.64551 Y9.62774
G01 X2.60457 Y9.83887
G01 X2.60429 Y9.83887
G01 X2.60457 Y9.83887
G01 X2.59639 Y10.05378
G04 P0 ( dwell for no time -- G64 should not smooth over this point )
G00 Z5.00000 ( retract )

G00 X6.88993 Y5.79994 ( rapid move to begin. )
G01 F300.00000
( Mill infeed pass 1/1 )
G01 Z-0.05000
G04 P0 ( dwell for no time -- G64 should not smooth over this point )
G01 F600.00000
G01 X6.88993 Y5.79994
G01 X6.89143 Y5.82940
G01 X6.90776 Y5.99516
G01 X6.91924 Y6.05287
G01 X6.92508 Y6.07228
G01 X6.94037 Y6.08670
G01 X6.94317 Y6.08955
G01 X7.01947 Y6.17451
G01 X7.02221 Y6.17784
G01 X7.04687 Y6.21071
G01 X7.05551 Y6.22191
G01 X7.08335 Y6.25701
G01 X7.08518 Y6.25940
G01 X7.12097 Y6.31045
G01 X7.12262 Y6.31297
G01 X7.15358 Y6.36336
G01 X7.16504 Y6.38012
G01 X7.16636 Y6.38208
G01 X7.17039 Y6.38797
G01 X7.18000 Y6.40199
G01 X7.23560 Y6.47530
G01 X7.28124 Y6.52564
G01 X7.29272 Y6.53712
G01 X7.30283 Y6.54723
G01 X7.31426 Y6.55869
G01 X7.36465 Y6.60436
G01 X7.43791 Y6.65996
G01 X7.45188 Y6.66951
G01 X7.45988 Y6.67497
G01 X7.47654 Y6.68637
G01 X7.51401 Y6.70938
G01 X7.61771 Y6.76120
G01 X7.66056 Y6.78007
G01 X7.67921 Y6.78718
G01 X7.81375 Y6.82564
G01 X7.85665 Y6.83565
G01 X8.01929 Y6.85079
G01 X8.03994 Y6.85221
G01 X8.06064 Y6.85079
G01 X8.22328 Y6.83565
G01 X8.26618 Y6.82564
G01 X8.40072 Y6.78718
G01 X8.41936 Y6.78007
G01 X8.46221 Y6.76120
G01 X8.56597 Y6.70938
G01 X8.60339 Y6.68637
G01 X8.64202 Y6.65996
G01 X8.71527 Y6.60436
G01 X8.76564 Y6.55869
G01 X8.77687 Y6.54746
G01 X8.78746 Y6.53687
G01 X8.79869 Y6.52564
G01 X8.84433 Y6.47530
G01 X8.89993 Y6.40199
G01 X8.92637 Y6.36336
G01 X8.95701 Y6.31347
G01 X8.95868 Y6.31091
G01 X8.99447 Y6.25986
G01 X8.99620 Y6.25734
G01 X9.02449 Y6.22191
G01 X9.03282 Y6.21116
G01 X9.05787 Y6.17781
G01 X9.06061 Y6.17449
G01 X9.13648 Y6.09013
G01 X9.13928 Y6.08724
G01 X9.15472 Y6.07261
G01 X9.16074 Y6.05287
G01 X9.17222 Y5.99516
G01 X9.18855 Y5.82940
G01 X9.18997 Y5.79994
G01 X9.18855 Y5.77058
G01 X9.17222 Y5.60471
G01 X9.16074 Y5.54703
G01 X9.11235 Y5.38757
G01 X9.10245 Y5.35991
G01 X9.08985 Y5.33324
G01 X9.01128 Y5.18632
G01 X8.99615 Y5.16108
G01 X8.97865 Y5.13738
G01 X8.87293 Y5.00863
G01 X8.83130 Y4.96705
G01 X8.70252 Y4.86133
G01 X8.65365 Y4.82862
G01 X8.50669 Y4.75010
G01 X8.48007 Y4.73748
G01 X8.45236 Y4.72760
G01 X8.29290 Y4.67919
G01 X8.26432 Y4.67203
G01 X8.23519 Y4.66771
G01 X8.06940 Y4.65143
G01 X8.01058 Y4.65143
G01 X7.84474 Y4.66771
G01 X7.81561 Y4.67203
G01 X7.78708 Y4.67919
G01 X7.76727 Y4.68526
G01 X7.75256 Y4.70078
G01 X7.74967 Y4.70357
G01 X7.66542 Y4.77929
G01 X7.66204 Y4.78203
G01 X7.62879 Y4.80713
G01 X7.61802 Y4.81546
G01 X7.58246 Y4.84368
G01 X7.58007 Y4.84541
G01 X7.52897 Y4.88124
G01 X7.52648 Y4.88287
G01 X7.47654 Y4.91358
G01 X7.45957 Y4.92514
G01 X7.45228 Y4.93009
G01 X7.45165 Y4.93055
G01 X7.43791 Y4.93994
G01 X7.36465 Y4.99552
G01 X7.31426 Y5.04124
G01 X7.28124 Y5.07428
G01 X7.23560 Y5.12460
G01 X7.18000 Y5.19788
G01 X7.17050 Y5.21175
G01 X7.17019 Y5.21218
G01 X7.16504 Y5.21970
G01 X7.17019 Y5.21218
G01 X7.17050 Y5.21175
G01 X7.17862 Y5.20083
G01 X7.28434 Y5.07208
G01 X7.31205 Y5.04429
G01 X7.44085 Y4.93857
G01 X7.45165 Y4.93055
G01 X7.45228 Y4.93009
G01 X7.45957 Y4.92514
G01 X7.47347 Y4.91681
G01 X7.62041 Y4.83827
G01 X7.65665 Y4.82331
G01 X7.81611 Y4.77487
G01 X7.83514 Y4.77012
G01 X7.85454 Y4.76722
G01 X8.02038 Y4.75089
G01 X8.03999 Y4.74998
G01 X8.05960 Y4.75089
G01 X8.22538 Y4.76722
G01 X8.24481 Y4.77012
G01 X8.26384 Y4.77487
G01 X8.42333 Y4.82331
G01 X8.45952 Y4.83827
G01 X8.60651 Y4.91681
G01 X8.63907 Y4.93857
G01 X8.76790 Y5.04429
G01 X8.79564 Y5.07208
G01 X8.90130 Y5.20083
G01 X8.91304 Y5.21663
G01 X8.92312 Y5.23347
G01 X9.00163 Y5.38038
G01 X9.01664 Y5.41660
G01 X9.06503 Y5.57611
G01 X9.07268 Y5.61452
G01 X9.08901 Y5.78033
G01 X9.09000 Y5.79994
G01 X9.08901 Y5.81955
G01 X9.07268 Y5.98536
G01 X9.06503 Y6.02386
G01 X9.01664 Y6.18327
G01 X9.01007 Y6.20177
G01 X9.00163 Y6.21949
G01 X8.92312 Y6.36648
G01 X8.90130 Y6.39910
G01 X8.79564 Y6.52790
G01 X8.78746 Y6.53687
G01 X8.77687 Y6.54746
G01 X8.76790 Y6.55561
G01 X8.63907 Y6.66133
G01 X8.60651 Y6.68310
G01 X8.45952 Y6.76166
G01 X8.44182 Y6.77004
G01 X8.42333 Y6.77664
G01 X8.26384 Y6.82501
G01 X8.22538 Y6.83270
G01 X8.05960 Y6.84903
G01 X8.03999 Y6.85000
G01 X8.02038 Y6.84903
G01 X7.85454 Y6.83270
G01 X7.83514 Y6.82981
G01 X7.81611 Y6.82501
G01 X7.65665 Y6.77664
G01 X7.62041 Y6.76166
G01 X7.47347 Y6.68310
G01 X7.45988 Y6.67497
G01 X7.45188 Y6.66951
G01 X7.44085 Y6.66133
G01 X7.31205 Y6.55561
G01 X7.30283 Y6.54723
G01 X7.29272 Y6.53712
G01 X7.28434 Y6.52790
G01 X7.17862 Y6.39910
G01 X7.17039 Y6.38797
G01 X7.16636 Y6.38208
G01 X7.16504 Y6.38012
G01 X7.15686 Y6.36648
G01 X7.07829 Y6.21949
G01 X7.06331 Y6.18327
G01 X7.01490 Y6.02386
G01 X7.00725 Y5.98536
G01 X6.99092 Y5.81955
G01 X6.98995 Y5.79994
G01 X6.99092 Y5.78033
G01 X7.00725 Y5.61452
G01 X7.01490 Y5.57611
G01 X7.06331 Y5.41660
G01 X7.07829 Y5.38038
G01 X7.15686 Y5.23347
G01 X7.16504 Y5.21970
G01 X7.15358 Y5.23654
G01 X7.12262 Y5.28688
G01 X7.12097 Y5.28942
G01 X7.08518 Y5.34055
G01 X7.08335 Y5.34294
G01 X7.05551 Y5.37804
G01 X7.04687 Y5.38924
G01 X7.02221 Y5.42201
G01 X7.01947 Y5.42544
G01 X6.94317 Y5.51030
G01 X6.94037 Y5.51320
G01 X6.92513 Y5.52768
G01 X6.91924 Y5.54703
G01 X6.90776 Y5.60471
G01 X6.89143 Y5.77058
G01 X6.88993 Y5.79994
G01 X6.98995 Y5.79994
G01 X7.08998 Y5.79994
G01 X7.09046 Y5.79013
G01 X7.10679 Y5.62430
G01 X7.11058 Y5.60512
G01 X7.15896 Y5.44568
G01 X7.16229 Y5.43644
G01 X7.16651 Y5.42757
G01 X7.24502 Y5.28056
G01 X7.25007 Y5.27220
G01 X7.25594 Y5.26425
G01 X7.36166 Y5.13550
G01 X7.37550 Y5.12166
G01 X7.50430 Y5.01592
G01 X7.51220 Y5.01010
G01 X7.52058 Y5.00504
G01 X7.66757 Y4.92646
G01 X7.68568 Y4.91894
G01 X7.84509 Y4.87063
G01 X7.85465 Y4.86824
G01 X7.86435 Y4.86674
G01 X8.03018 Y4.85041
G01 X8.04979 Y4.85041
G01 X8.21558 Y4.86674
G01 X8.22533 Y4.86824
G01 X8.23481 Y4.87063
G01 X8.39429 Y4.91894
G01 X8.41240 Y4.92646
G01 X8.55934 Y5.00504
G01 X8.57562 Y5.01592
G01 X8.70448 Y5.12166
G01 X8.71832 Y5.13550
G01 X8.82404 Y5.26425
G01 X8.82988 Y5.27220
G01 X8.83491 Y5.28056
G01 X8.91347 Y5.42757
G01 X8.91764 Y5.43644
G01 X8.92096 Y5.44568
G01 X8.96932 Y5.60512
G01 X8.97318 Y5.62430
G01 X8.98952 Y5.79013
G01 X8.99000 Y5.79994
G01 X8.98952 Y5.80974
G01 X8.97318 Y5.97555
G01 X8.96932 Y5.99483
G01 X8.92096 Y6.15429
G01 X8.91764 Y6.16354
G01 X8.91347 Y6.17240
G01 X8.83491 Y6.31932
G01 X8.82404 Y6.33560
G01 X8.71832 Y6.46445
G01 X8.71174 Y6.47172
G01 X8.70448 Y6.47832
G01 X8.57562 Y6.58401
G01 X8.55934 Y6.59493
G01 X8.41240 Y6.67344
G01 X8.40351 Y6.67766
G01 X8.39429 Y6.68099
G01 X8.23481 Y6.72932
G01 X8.21558 Y6.73316
G01 X8.04979 Y6.74949
G01 X8.03999 Y6.74997
G01 X8.03018 Y6.74949
G01 X7.86435 Y6.73316
G01 X7.84509 Y6.72932
G01 X7.68568 Y6.68099
G01 X7.66757 Y6.67344
G01 X7.52058 Y6.59493
G01 X7.51220 Y6.58988
G01 X7.50430 Y6.58401
G01 X7.37550 Y6.47832
G01 X7.36166 Y6.46445
G01 X7.25594 Y6.33560
G01 X7.25007 Y6.32777
G01 X7.24502 Y6.31932
G01 X7.16651 Y6.17240
G01 X7.16229 Y6.16354
G01 X7.15896 Y6.15429
G01 X7.11058 Y5.99483
G01 X7.10679 Y5.97555
G01 X7.09046 Y5.80974
G01 X7.08998 Y5.79994
G04 P0 ( dwell for no time -- G64 should not smooth over this point )
G00 Z5.00000 ( retract )

G00 X9.43140 Y5.77058 ( rapid move to begin. )
G01 F300.00000
( Mill infeed pass 1/1 )
G01 Z-0.05000
G04 P0 ( dwell for no time -- G64 should not smooth over this point )
G01 F600.00000
G01 X9.43140 Y5.77058
G01 X9.43140 Y5.82940
G01 X9.44773 Y5.99516
G01 X9.45205 Y6.02435
G01 X9.45921 Y6.05287
G01 X9.46523 Y6.07261
G01 X9.48063 Y6.08724
G01 X9.48347 Y6.09013
G01 X9.55934 Y6.17454
G01 X9.56208 Y6.17784
G01 X9.58718 Y6.21121
G01 X9.59543 Y6.22193
G01 X9.62370 Y6.25752
G01 X9.62548 Y6.25993
G01 X9.66122 Y6.31091
G01 X9.66290 Y6.31347
G01 X9.69358 Y6.36336
G01 X9.70506 Y6.38018
G01 X9.70564 Y6.38104
G01 X9.71032 Y6.38792
G01 X9.71070 Y6.38846
G01 X9.71997 Y6.40199
G01 X9.77557 Y6.47530
G01 X9.82121 Y6.52564
G01 X9.83270 Y6.53712
G01 X9.84280 Y6.54723
G01 X9.85208 Y6.55561
G01 X9.98088 Y6.66133
G01 X9.99147 Y6.66923
G01 X9.99185 Y6.66951
G01 X9.99985 Y6.67497
G01 X10.01344 Y6.68310
G01 X10.16043 Y6.76166
G01 X10.19663 Y6.77664
G01 X10.35611 Y6.82501
G01 X10.37511 Y6.82981
G01 X10.39457 Y6.83270
G01 X10.56035 Y6.84903
G01 X10.57996 Y6.85000
G01 X10.59957 Y6.84903
G01 X10.76541 Y6.83270
G01 X10.80384 Y6.82501
G01 X10.96330 Y6.77664
G01 X10.98179 Y6.77004
G01 X10.99955 Y6.76166
G01 X11.14649 Y6.68310
G01 X11.17910 Y6.66133
G01 X11.30790 Y6.55561
G01 X11.31669 Y6.54761
G01 X11.31689 Y6.54746
G01 X11.32749 Y6.53687
G01 X11.33871 Y6.52564
G01 X11.38436 Y6.47530
G01 X11.43996 Y6.40199
G01 X11.46635 Y6.36336
G01 X11.49703 Y6.31347
G01 X11.49866 Y6.31091
G01 X11.53450 Y6.25986
G01 X11.53620 Y6.25734
G01 X11.56449 Y6.22191
G01 X11.57282 Y6.21116
G01 X11.59784 Y6.17781
G01 X11.60064 Y6.17449
G01 X11.67648 Y6.09013
G01 X11.67928 Y6.08724
G01 X11.69474 Y6.07261
G01 X11.70071 Y6.05287
G01 X11.71219 Y5.99516
G01 X11.72853 Y5.82940
G01 X11.72853 Y5.77058
G01 X11.71219 Y5.60471
G01 X11.70788 Y5.57563
G01 X11.70071 Y5.54703
G01 X11.65238 Y5.38757
G01 X11.62987 Y5.33324
G01 X11.55131 Y5.18632
G01 X11.53612 Y5.16108
G01 X11.51865 Y5.13738
G01 X11.41293 Y5.00863
G01 X11.37135 Y4.96705
G01 X11.24255 Y4.86133
G01 X11.19365 Y4.82862
G01 X11.04666 Y4.75010
G01 X11.02004 Y4.73748
G01 X10.99233 Y4.72760
G01 X10.83287 Y4.67919
G01 X10.80435 Y4.67203
G01 X10.77521 Y4.66771
G01 X10.60938 Y4.65143
G01 X10.55055 Y4.65143
G01 X10.38476 Y4.66771
G01 X10.35563 Y4.67203
G01 X10.32706 Y4.67919
G01 X10.16759 Y4.72760
G01 X10.13988 Y4.73748
G01 X10.11326 Y4.75010
G01 X9.96630 Y4.82862
G01 X9.91743 Y4.86133
G01 X9.78863 Y4.96705
G01 X9.74705 Y5.00863
G01 X9.64128 Y5.13738
G01 X9.62381 Y5.16108
G01 X9.60867 Y5.18632
G01 X9.58667 Y5.22742
G01 X9.53011 Y5.33324
G01 X9.50760 Y5.38757
G01 X9.45921 Y5.54703
G01 X9.45205 Y5.57563
G01 X9.44773 Y5.60471
G01 X9.43140 Y5.77058
G01 X9.53094 Y5.78033
G01 X9.63044 Y5.79013
G01 X9.64677 Y5.62430
G01 X9.64824 Y5.61459
G01 X9.65063 Y5.60512
G01 X9.69899 Y5.44568
G01 X9.70648 Y5.42757
G01 X9.78505 Y5.28056
G01 X9.79007 Y5.27220
G01 X9.79592 Y5.26425
G01 X9.90163 Y5.13550
G01 X9.91547 Y5.12166
G01 X10.04428 Y5.01592
G01 X10.05218 Y5.01010
G01 X10.06061 Y5.00504
G01 X10.20755 Y4.92646
G01 X10.22566 Y4.91894
G01 X10.38509 Y4.87063
G01 X10.39462 Y4.86824
G01 X10.40432 Y4.86674
G01 X10.57016 Y4.85041
G01 X10.58977 Y4.85041
G01 X10.75560 Y4.86674
G01 X10.76531 Y4.86824
G01 X10.77483 Y4.87063
G01 X10.93427 Y4.91894
G01 X10.95238 Y4.92646
G01 X11.09937 Y5.00504
G01 X11.11565 Y5.01592
G01 X11.24445 Y5.12166
G01 X11.25830 Y5.13550
G01 X11.36401 Y5.26425
G01 X11.36988 Y5.27220
G01 X11.37493 Y5.28056
G01 X11.45344 Y5.42757
G01 X11.46099 Y5.44568
G01 X11.50935 Y5.60512
G01 X11.51174 Y5.61459
G01 X11.51316 Y5.62430
G01 X11.52949 Y5.79013
G01 X11.52949 Y5.80974
G01 X11.51316 Y5.97555
G01 X11.50935 Y5.99483
G01 X11.46099 Y6.15429
G01 X11.45766 Y6.16354
G01 X11.45344 Y6.17240
G01 X11.37493 Y6.31932
G01 X11.36401 Y6.33560
G01 X11.25830 Y6.46445
G01 X11.25172 Y6.47172
G01 X11.24445 Y6.47832
G01 X11.11565 Y6.58401
G01 X11.09937 Y6.59493
G01 X10.95238 Y6.67344
G01 X10.94354 Y6.67766
G01 X10.93427 Y6.68099
G01 X10.77483 Y6.72932
G01 X10.75560 Y6.73316
G01 X10.58977 Y6.74949
G01 X10.57996 Y6.74997
G01 X10.57016 Y6.74949
G01 X10.40432 Y6.73316
G01 X10.38509 Y6.72932
G01 X10.22566 Y6.68099
G01 X10.20755 Y6.67344
G01 X10.06061 Y6.59493
G01 X10.05218 Y6.58988
G01 X10.04428 Y6.58401
G01 X9.91547 Y6.47832
G01 X9.90163 Y6.46445
G01 X9.79592 Y6.33560
G01 X9.79007 Y6.32777
G01 X9.78505 Y6.31932
G01 X9.70648 Y6.17240
G01 X9.69899 Y6.15429
G01 X9.65063 Y5.99483
G01 X9.64824 Y5.98528
G01 X9.64677 Y5.97555
G01 X9.63044 Y5.80974
G01 X9.63044 Y5.79013
G01 X9.60176 Y5.42163
G01 X9.60331 Y5.41660
G01 X9.61827 Y5.38038
G01 X9.69683 Y5.23347
G01 X9.70691 Y5.21663
G01 X9.71860 Y5.20083
G01 X9.82431 Y5.07208
G01 X9.83750 Y5.05750
G01 X9.85208 Y5.04429
G01 X9.98088 Y4.93857
G01 X10.01344 Y4.91681
G01 X10.16043 Y4.83827
G01 X10.17814 Y4.82986
G01 X10.19663 Y4.82331
G01 X10.35611 Y4.77487
G01 X10.39457 Y4.76722
G01 X10.56035 Y4.75089
G01 X10.57996 Y4.74998
G01 X10.59957 Y4.75089
G01 X10.76541 Y4.76722
G01 X10.78481 Y4.77012
G01 X10.80384 Y4.77487
G01 X10.96330 Y4.82331
G01 X10.99955 Y4.83827
G01 X11.14649 Y4.91681
G01 X11.17910 Y4.93857
G01 X11.30790 Y5.04429
G01 X11.33561 Y5.07208
G01 X11.44133 Y5.20083
G01 X11.45304 Y5.21663
G01 X11.46310 Y5.23347
G01 X11.54166 Y5.38038
G01 X11.55664 Y5.41660
G01 X11.60501 Y5.57611
G01 X11.60981 Y5.59514
G01 X11.61270 Y5.61452
G01 X11.62903 Y5.78033
G01 X11.62903 Y5.81955
G01 X11.61270 Y5.98536
G01 X11.60501 Y6.02386
G01 X11.55664 Y6.18327
G01 X11.55004 Y6.20177
G01 X11.54166 Y6.21949
G01 X11.46310 Y6.36648
G01 X11.44133 Y6.39910
G01 X11.33561 Y6.52790
G01 X11.32749 Y6.53687
G01 X11.31669 Y6.54761
G01 X11.30562 Y6.55869
G01 X11.25530 Y6.60436
G01 X11.18199 Y6.65996
G01 X11.14341 Y6.68637
G01 X11.10595 Y6.70938
G01 X11.00219 Y6.76120
G01 X10.95939 Y6.78007
G01 X10.94075 Y6.78718
G01 X10.80620 Y6.82564
G01 X10.76325 Y6.83565
G01 X10.60061 Y6.85079
G01 X10.57996 Y6.85221
G01 X10.55931 Y6.85079
G01 X10.39668 Y6.83565
G01 X10.35373 Y6.82564
G01 X10.21918 Y6.78718
G01 X10.20054 Y6.78007
G01 X10.15774 Y6.76120
G01 X10.05398 Y6.70938
G01 X10.01652 Y6.68637
G01 X9.99985 Y6.67497
G01 X9.99147 Y6.66923
G01 X9.97793 Y6.65996
G01 X9.90463 Y6.60436
G01 X9.85426 Y6.55869
G01 X9.84280 Y6.54723
G01 X9.83270 Y6.53712
G01 X9.82431 Y6.52790
G01 X9.71860 Y6.39910
G01 X9.71070 Y6.38846
G01 X9.71032 Y6.38792
G01 X9.70564 Y6.38104
G01 X9.70506 Y6.38018
G01 X9.69683 Y6.36648
G01 X9.61827 Y6.21949
G01 X9.60331 Y6.18327
G01 X9.55492 Y6.02386
G01 X9.55017 Y6.00484
G01 X9.54728 Y5.98536
G01 X9.53094 Y5.81955
G01 X9.53094 Y5.78033
G01 X9.54728 Y5.61452
G01 X9.55017 Y5.59514
G01 X9.55492 Y5.57611
G01 X9.60176 Y5.42163
G01 X9.58667 Y5.22742
G01 X9.45012 Y3.47129
G01 X9.43140 Y3.23052
G01 X9.44773 Y3.06476
G01 X9.45205 Y3.03558
G01 X9.45921 Y3.00703
G01 X9.46523 Y2.98727
G01 X9.48078 Y2.97251
G01 X9.48357 Y2.96967
G01 X9.55934 Y2.88541
G01 X9.56208 Y2.88201
G01 X9.58713 Y2.84879
G01 X9.59543 Y2.83797
G01 X9.62368 Y2.80246
G01 X9.62543 Y2.80007
G01 X9.66122 Y2.74899
G01 X9.66290 Y2.74648
G01 X9.69358 Y2.69651
G01 X9.70542 Y2.67912
G01 X9.71012 Y2.67226
G01 X9.71045 Y2.67180
G01 X9.71997 Y2.65788
G01 X9.77557 Y2.58465
G01 X9.82121 Y2.53429
G01 X9.83290 Y2.52260
G01 X9.84260 Y2.51287
G01 X9.85208 Y2.50434
G01 X9.98088 Y2.39862
G01 X10.01344 Y2.37683
G01 X10.16043 Y2.29824
G01 X10.17814 Y2.28986
G01 X10.19663 Y2.28331
G01 X10.35611 Y2.23487
G01 X10.39457 Y2.22728
G01 X10.56035 Y2.21089
G01 X10.57996 Y2.20998
G01 X10.59957 Y2.21089
G01 X10.76541 Y2.22728
G01 X10.78481 Y2.23017
G01 X10.80384 Y2.23487
G01 X10.96330 Y2.28331
G01 X10.99955 Y2.29824
G01 X11.14649 Y2.37683
G01 X11.15987 Y2.38486
G01 X11.16018 Y2.38501
G01 X11.16792 Y2.39032
G01 X11.16820 Y2.39057
G01 X11.18199 Y2.40000
G01 X11.25530 Y2.45552
G01 X11.30562 Y2.50124
G01 X11.33871 Y2.53429
G01 X11.38436 Y2.58465
G01 X11.43996 Y2.65788
G01 X11.44951 Y2.67188
G01 X11.45492 Y2.67985
G01 X11.46310 Y2.69342
G01 X11.54166 Y2.84038
G01 X11.55664 Y2.87663
G01 X11.60501 Y3.03606
G01 X11.60981 Y3.05509
G01 X11.61270 Y3.07457
G01 X11.62903 Y3.24033
G01 X11.62903 Y3.27960
G01 X11.61270 Y3.44536
G01 X11.60501 Y3.48386
G01 X11.55664 Y3.64333
G01 X11.55004 Y3.66177
G01 X11.54166 Y3.67949
G01 X11.46310 Y3.82651
G01 X11.45304 Y3.84332
G01 X11.44133 Y3.85910
G01 X11.33561 Y3.98790
G01 X11.32243 Y4.00240
G01 X11.30790 Y4.01561
G01 X11.17910 Y4.12133
G01 X11.14649 Y4.14312
G01 X10.99955 Y4.22161
G01 X10.96330 Y4.23667
G01 X10.80384 Y4.28498
G01 X10.78481 Y4.28981
G01 X10.76541 Y4.29265
G01 X10.59957 Y4.30898
G01 X10.57996 Y4.31000
G01 X10.56035 Y4.30898
G01 X10.39457 Y4.29265
G01 X10.37511 Y4.28981
G01 X10.35611 Y4.28498
G01 X10.19663 Y4.23667
G01 X10.16043 Y4.22161
G01 X10.01344 Y4.14312
G01 X9.99660 Y4.13304
G01 X9.98088 Y4.12133
G01 X9.85208 Y4.01561
G01 X9.82431 Y3.98790
G01 X9.71860 Y3.85910
G01 X9.70691 Y3.84332
G01 X9.69683 Y3.82651
G01 X9.61827 Y3.67949
G01 X9.60331 Y3.64333
G01 X9.55492 Y3.48386
G01 X9.55017 Y3.46484
G01 X9.54728 Y3.44536
G01 X9.53094 Y3.27960
G01 X9.53094 Y3.24033
G01 X9.54728 Y3.07457
G01 X9.55017 Y3.05509
G01 X9.55492 Y3.03606
G01 X9.60331 Y2.87663
G01 X9.61827 Y2.84038
G01 X9.69683 Y2.69342
G01 X9.70516 Y2.67957
G01 X9.70542 Y2.67912
G01 X9.71012 Y2.67226
G01 X9.71045 Y2.67180
G01 X9.71860 Y2.66088
G01 X9.82431 Y2.53202
G01 X9.83290 Y2.52260
G01 X9.84260 Y2.51287
G01 X9.85426 Y2.50124
G01 X9.90463 Y2.45552
G01 X9.97793 Y2.40000
G01 X10.01652 Y2.37358
G01 X10.05398 Y2.35052
G01 X10.15774 Y2.29867
G01 X10.20054 Y2.27988
G01 X10.21918 Y2.27274
G01 X10.35373 Y2.23431
G01 X10.39668 Y2.22423
G01 X10.55931 Y2.20911
G01 X10.57996 Y2.20769
G01 X10.60061 Y2.20911
G01 X10.76325 Y2.22423
G01 X10.80620 Y2.23431
G01 X10.94069 Y2.27274
G01 X10.95939 Y2.27988
G01 X11.00219 Y2.29867
G01 X11.10595 Y2.35052
G01 X11.14341 Y2.37358
G01 X11.15987 Y2.38486
G01 X11.16018 Y2.38501
G01 X11.16792 Y2.39032
G01 X11.16820 Y2.39057
G01 X11.17910 Y2.39862
G01 X11.30790 Y2.50434
G01 X11.33561 Y2.53202
G01 X11.44133 Y2.66088
G01 X11.44951 Y2.67188
G01 X11.46635 Y2.69651
G01 X11.49703 Y2.74648
G01 X11.49871 Y2.74899
G01 X11.53450 Y2.80007
G01 X11.53625 Y2.80246
G01 X11.56449 Y2.83797
G01 X11.57282 Y2.84879
G01 X11.59779 Y2.88219
G01 X11.60064 Y2.88544
G01 X11.67635 Y2.96967
G01 X11.67915 Y2.97254
G01 X11.69474 Y2.98729
G01 X11.70071 Y3.00703
G01 X11.70788 Y3.03558
G01 X11.71219 Y3.06476
G01 X11.72853 Y3.23052
G01 X11.72853 Y3.28940
G01 X11.71219 Y3.45519
G01 X11.70071 Y3.51290
G01 X11.65238 Y3.67231
G01 X11.64242 Y3.70002
G01 X11.62987 Y3.72664
G01 X11.55131 Y3.87365
G01 X11.53612 Y3.89885
G01 X11.51865 Y3.92255
G01 X11.41293 Y4.05135
G01 X11.37135 Y4.09293
G01 X11.24255 Y4.19865
G01 X11.19365 Y4.23131
G01 X11.04666 Y4.30982
G01 X11.02004 Y4.32239
G01 X10.99233 Y4.33233
G01 X10.83287 Y4.38074
G01 X10.80435 Y4.38785
G01 X10.77521 Y4.39217
G01 X10.60938 Y4.40850
G01 X10.55055 Y4.40850
G01 X10.38476 Y4.39217
G01 X10.35563 Y4.38785
G01 X10.32706 Y4.38074
G01 X10.16759 Y4.33233
G01 X10.11326 Y4.30982
G01 X9.96630 Y4.23131
G01 X9.94105 Y4.21612
G01 X9.91743 Y4.19865
G01 X9.78863 Y4.09293
G01 X9.74705 Y4.05135
G01 X9.64128 Y3.92255
G01 X9.62381 Y3.89885
G01 X9.60867 Y3.87365
G01 X9.53011 Y3.72664
G01 X9.50760 Y3.67231
G01 X9.45921 Y3.51290
G01 X9.45205 Y3.48430
G01 X9.45012 Y3.47129
G01 X9.44773 Y3.45519
G01 X9.43140 Y3.28940
G01 X9.43140 Y3.23052
G01 X9.53094 Y3.24033
G01 X9.63044 Y3.25013
G01 X9.64677 Y3.08430
G01 X9.64824 Y3.07464
G01 X9.65063 Y3.06512
G01 X9.69899 Y2.90563
G01 X9.70648 Y2.88755
G01 X9.78505 Y2.74058
G01 X9.79007 Y2.73215
G01 X9.79592 Y2.72430
G01 X9.90163 Y2.59545
G01 X9.91547 Y2.58161
G01 X10.04428 Y2.47589
G01 X10.05218 Y2.47010
G01 X10.06061 Y2.46499
G01 X10.20755 Y2.38646
G01 X10.22566 Y2.37894
G01 X10.38509 Y2.33063
G01 X10.39462 Y2.32819
G01 X10.40432 Y2.32679
G01 X10.57016 Y2.31046
G01 X10.58977 Y2.31046
G01 X10.75560 Y2.32679
G01 X10.76531 Y2.32819
G01 X10.77483 Y2.33063
G01 X10.93427 Y2.37894
G01 X10.95238 Y2.38646
G01 X11.09937 Y2.46499
G01 X11.10775 Y2.47010
G01 X11.11565 Y2.47589
G01 X11.24445 Y2.58161
G01 X11.25830 Y2.59545
G01 X11.36401 Y2.72430
G01 X11.36988 Y2.73215
G01 X11.37493 Y2.74058
G01 X11.45344 Y2.88755
G01 X11.46099 Y2.90563
G01 X11.50935 Y3.06512
G01 X11.51174 Y3.07464
G01 X11.51316 Y3.08430
G01 X11.52949 Y3.25013
G01 X11.52949 Y3.26979
G01 X11.51316 Y3.43555
G01 X11.50935 Y3.45478
G01 X11.46099 Y3.61429
G01 X11.45766 Y3.62354
G01 X11.45344 Y3.63235
G01 X11.37493 Y3.77937
G01 X11.36401 Y3.79565
G01 X11.25830 Y3.92448
G01 X11.24445 Y3.93827
G01 X11.11565 Y4.04398
G01 X11.09937 Y4.05493
G01 X10.95238 Y4.13342
G01 X10.93427 Y4.14099
G01 X10.77483 Y4.18930
G01 X10.76531 Y4.19174
G01 X10.75560 Y4.19318
G01 X10.58977 Y4.20947
G01 X10.57016 Y4.20947
G01 X10.40432 Y4.19318
G01 X10.39462 Y4.19174
G01 X10.38509 Y4.18930
G01 X10.22566 Y4.14099
G01 X10.20755 Y4.13342
G01 X10.06061 Y4.05493
G01 X10.05218 Y4.04988
G01 X10.04428 Y4.04398
G01 X9.91547 Y3.93827
G01 X9.90163 Y3.92448
G01 X9.79592 Y3.79565
G01 X9.79007 Y3.78777
G01 X9.78505 Y3.77937
G01 X9.70648 Y3.63235
G01 X9.69899 Y3.61429
G01 X9.65063 Y3.45478
G01 X9.64824 Y3.44533
G01 X9.64677 Y3.43555
G01 X9.63044 Y3.26979
G01 X9.63044 Y3.25013
G04 P0 ( dwell for no time -- G64 should not smooth over this point )
G00 Z5.00000 ( retract )

G00 X13.51996 Y7.02264 ( rapid move to begin. )
G01 F300.00000
( Mill infeed pass 1/1 )
G01 Z-0.05000
G04 P0 ( dwell for no time -- G64 should not smooth over this point )
G01 F600.00000
G01 X13.51996 Y7.02264
G01 X13.51996 Y6.76979
G01 X13.50592 Y6.76145
G01 X13.51996 Y6.76979
G01 X13.53950 Y6.76166
G01 X13.68649 Y6.68310
G01 X13.71905 Y6.66133
G01 X13.84790 Y6.55561
G01 X13.85661 Y6.54766
G01 X13.86771 Y6.53654
G01 X13.87869 Y6.52564
G01 X13.92431 Y6.47530
G01 X13.97991 Y6.40199
G01 X14.00637 Y6.36336
G01 X14.03726 Y6.31297
G01 X14.03894 Y6.31045
G01 X14.07472 Y6.25940
G01 X14.07658 Y6.25701
G01 X14.10444 Y6.22191
G01 X14.11308 Y6.21071
G01 X14.13759 Y6.17774
G01 X14.14051 Y6.17449
G01 X14.21674 Y6.08955
G01 X14.21958 Y6.08670
G01 X14.23487 Y6.07217
G01 X14.24074 Y6.05287
G01 X14.24790 Y6.02435
G01 X14.25222 Y5.99516
G01 X14.26850 Y5.82940
G01 X14.26997 Y5.79994
G01 X14.26850 Y5.77058
G01 X14.25222 Y5.60471
G01 X14.24790 Y5.57563
G01 X14.24074 Y5.54703
G01 X14.23487 Y5.52768
G01 X14.21958 Y5.51320
G01 X14.21674 Y5.51030
G01 X14.14051 Y5.42547
G01 X14.13759 Y5.42211
G01 X14.11308 Y5.38924
G01 X14.10444 Y5.37804
G01 X14.07658 Y5.34294
G01 X14.07472 Y5.34055
G01 X14.03894 Y5.28942
G01 X14.03726 Y5.28688
G01 X14.00637 Y5.23654
G01 X13.97991 Y5.19788
G01 X13.92431 Y5.12460
G01 X13.87869 Y5.07428
G01 X13.86723 Y5.06283
G01 X13.85682 Y5.05244
G01 X13.84564 Y5.04124
G01 X13.79525 Y4.99554
G01 X13.72199 Y4.93994
G01 X13.68341 Y4.91358
G01 X13.63342 Y4.88287
G01 X13.63096 Y4.88127
G01 X13.57986 Y4.84541
G01 X13.57744 Y4.84365
G01 X13.54191 Y4.81546
G01 X13.53114 Y4.80713
G01 X13.49789 Y4.78206
G01 X13.49454 Y4.77929
G01 X13.41013 Y4.70347
G01 X13.40719 Y4.70065
G01 X13.39266 Y4.68523
G01 X13.37287 Y4.67919
G01 X13.31521 Y4.66771
G01 X13.14938 Y4.65143
G01 X13.11996 Y4.64998
G01 X13.09052 Y4.65143
G01 X12.92471 Y4.66771
G01 X12.86706 Y4.67919
G01 X12.70759 Y4.72760
G01 X12.67991 Y4.73748
G01 X12.65329 Y4.75010
G01 X12.50633 Y4.82862
G01 X12.45740 Y4.86133
G01 X12.32863 Y4.96705
G01 X12.28705 Y5.00863
G01 X12.18133 Y5.13738
G01 X12.16378 Y5.16108
G01 X12.14864 Y5.18632
G01 X12.07008 Y5.33324
G01 X12.04758 Y5.38757
G01 X11.99924 Y5.54703
G01 X11.99208 Y5.57563
G01 X11.98776 Y5.60471
G01 X11.97143 Y5.77058
G01 X12.07092 Y5.78033
G01 X12.17046 Y5.79013
G01 X12.17046 Y5.80974
G01 X12.18679 Y5.97555
G01 X12.18824 Y5.98528
G01 X12.19060 Y5.99483
G01 X12.23899 Y6.15429
G01 X12.24651 Y6.17240
G01 X12.32505 Y6.31932
G01 X12.33010 Y6.32777
G01 X12.33594 Y6.33560
G01 X12.44166 Y6.46445
G01 X12.45547 Y6.47832
G01 X12.58430 Y6.58401
G01 X12.59218 Y6.58988
G01 X12.60061 Y6.59493
G01 X12.74757 Y6.67344
G01 X12.76563 Y6.68099
G01 X12.81994 Y6.69742
G01 X12.81994 Y42.24307
G01 X12.72611 Y42.29318
G01 X12.71775 Y42.29819
G01 X12.70986 Y42.30408
G01 X12.59622 Y42.39732
G01 X12.58232 Y42.41117
G01 X12.48908 Y42.52486
G01 X12.48324 Y42.53273
G01 X12.47818 Y42.54116
G01 X12.40889 Y42.67081
G01 X12.40135 Y42.68889
G01 X12.35870 Y42.82963
G01 X12.35629 Y42.83916
G01 X12.35486 Y42.84883
G01 X12.34046 Y42.99514
G01 X12.34046 Y43.01475
G01 X12.35486 Y43.16110
G01 X12.35629 Y43.17078
G01 X12.35870 Y43.18030
G01 X12.40135 Y43.32100
G01 X12.40889 Y43.33911
G01 X12.47818 Y43.46880
G01 X12.48324 Y43.47723
G01 X12.48908 Y43.48510
G01 X12.58232 Y43.59872
G01 X12.58895 Y43.60603
G01 X12.59622 Y43.61256
G01 X12.70986 Y43.70588
G01 X12.72611 Y43.71678
G01 X12.85583 Y43.78609
G01 X12.86469 Y43.79026
G01 X12.87391 Y43.79356
G01 X13.01463 Y43.83626
G01 X13.03386 Y43.84010
G01 X13.18016 Y43.85450
G01 X13.19977 Y43.85450
G01 X13.34610 Y43.84010
G01 X13.36533 Y43.83626
G01 X13.50602 Y43.79356
G01 X13.51526 Y43.79026
G01 X13.52408 Y43.78609
G01 X13.65380 Y43.71678
G01 X13.66223 Y43.71175
G01 X13.67010 Y43.70588
G01 X13.78377 Y43.61256
G01 X13.79103 Y43.60603
G01 X13.79758 Y43.59872
G01 X13.89085 Y43.48510
G01 X13.90175 Y43.46880
G01 X13.97107 Y43.33911
G01 X13.97853 Y43.32100
G01 X14.02128 Y43.18030
G01 X14.02364 Y43.17078
G01 X14.02509 Y43.16110
G01 X14.03949 Y43.01475
G01 X14.03949 Y42.99514
G01 X14.02509 Y42.84883
G01 X14.02364 Y42.83916
G01 X14.02128 Y42.82963
G01 X13.97853 Y42.68889
G01 X13.97107 Y42.67081
G01 X13.90175 Y42.54116
G01 X13.89085 Y42.52486
G01 X13.79758 Y42.41117
G01 X13.79103 Y42.40390
G01 X13.78377 Y42.39732
G01 X13.67010 Y42.30408
G01 X13.65380 Y42.29318
G01 X13.52408 Y42.22389
G01 X13.51526 Y42.21970
G01 X13.50602 Y42.21635
G01 X13.41994 Y42.19021
G01 X13.41994 Y6.69747
G01 X13.47427 Y6.68099
G01 X13.49240 Y6.67344
G01 X13.63932 Y6.59493
G01 X13.65560 Y6.58401
G01 X13.78445 Y6.47832
G01 X13.79172 Y6.47172
G01 X13.79827 Y6.46445
G01 X13.90401 Y6.33560
G01 X13.91488 Y6.31932
G01 X13.99344 Y6.17240
G01 X13.99766 Y6.16354
G01 X14.00099 Y6.15429
G01 X14.04932 Y5.99483
G01 X14.05169 Y5.98528
G01 X14.05316 Y5.97555
G01 X14.06952 Y5.80974
G01 X14.07000 Y5.79994
G01 X14.06952 Y5.79013
G01 X14.05316 Y5.62430
G01 X14.05169 Y5.61459
G01 X14.04932 Y5.60512
G01 X14.00099 Y5.44568
G01 X13.99344 Y5.42757
G01 X13.91488 Y5.28056
G01 X13.90988 Y5.27220
G01 X13.90401 Y5.26425
G01 X13.79827 Y5.13550
G01 X13.79172 Y5.12818
G01 X13.78445 Y5.12166
G01 X13.65560 Y5.01592
G01 X13.63932 Y5.00504
G01 X13.49240 Y4.92646
G01 X13.48349 Y4.92224
G01 X13.47427 Y4.91894
G01 X13.31481 Y4.87063
G01 X13.29560 Y4.86674
G01 X13.12977 Y4.85041
G01 X13.11016 Y4.85041
G01 X12.94432 Y4.86674
G01 X12.92509 Y4.87063
G01 X12.76563 Y4.91894
G01 X12.75641 Y4.92224
G01 X12.74757 Y4.92646
G01 X12.60061 Y5.00504
G01 X12.59218 Y5.01010
G01 X12.58430 Y5.01592
G01 X12.45547 Y5.12166
G01 X12.44166 Y5.13550
G01 X12.33594 Y5.26425
G01 X12.33010 Y5.27220
G01 X12.32505 Y5.28056
G01 X12.24651 Y5.42757
G01 X12.23899 Y5.44568
G01 X12.19060 Y5.60512
G01 X12.18824 Y5.61459
G01 X12.18679 Y5.62430
G01 X12.17046 Y5.79013
G01 X12.07092 Y5.78033
G01 X11.97143 Y5.77058
G01 X12.12474 Y3.82892
G01 X12.14021 Y3.63319
G01 X12.09490 Y3.48386
G01 X12.09015 Y3.46484
G01 X12.08725 Y3.44536
G01 X12.07092 Y3.27960
G01 X12.07092 Y3.24033
G01 X12.08725 Y3.07457
G01 X12.09015 Y3.05509
G01 X12.09490 Y3.03606
G01 X12.14328 Y2.87663
G01 X12.15829 Y2.84038
G01 X12.23686 Y2.69342
G01 X12.24519 Y2.67957
G01 X12.24895 Y2.67396
G01 X12.25014 Y2.67226
G01 X12.25862 Y2.66088
G01 X12.36434 Y2.53202
G01 X12.37262 Y2.52283
G01 X12.37287 Y2.52260
G01 X12.38258 Y2.51287
G01 X12.38306 Y2.51242
G01 X12.39208 Y2.50434
G01 X12.52085 Y2.39862
G01 X12.55344 Y2.37683
G01 X12.70043 Y2.29824
G01 X12.71816 Y2.28986
G01 X12.73663 Y2.28331
G01 X12.89606 Y2.23487
G01 X12.93452 Y2.22728
G01 X13.10035 Y2.21089
G01 X13.13957 Y2.21089
G01 X13.30541 Y2.22728
G01 X13.34384 Y2.23487
G01 X13.50330 Y2.28331
G01 X13.52182 Y2.28986
G01 X13.53950 Y2.29824
G01 X13.68649 Y2.37683
G01 X13.71905 Y2.39862
G01 X13.84790 Y2.50434
G01 X13.85712 Y2.51272
G01 X13.86723 Y2.52278
G01 X13.86749 Y2.52308
G01 X13.87564 Y2.53202
G01 X13.98128 Y2.66088
G01 X14.00312 Y2.69342
G01 X14.08161 Y2.84038
G01 X14.09667 Y2.87663
G01 X14.14503 Y3.03606
G01 X14.14976 Y3.05509
G01 X14.15270 Y3.07457
G01 X14.16898 Y3.24033
G01 X14.16995 Y3.25994
G01 X14.16898 Y3.27960
G01 X14.15270 Y3.44536
G01 X14.14976 Y3.46484
G01 X14.14503 Y3.48386
G01 X14.09667 Y3.64333
G01 X14.08161 Y3.67949
G01 X14.00312 Y3.82651
G01 X13.98128 Y3.85910
G01 X13.87564 Y3.98790
G01 X13.86771 Y3.99656
G01 X13.86749 Y3.99684
G01 X13.85689 Y4.00743
G01 X13.85661 Y4.00769
G01 X13.84790 Y4.01561
G01 X13.71905 Y4.12133
G01 X13.68649 Y4.14312
G01 X13.53950 Y4.22161
G01 X13.52182 Y4.23001
G01 X13.50330 Y4.23667
G01 X13.34384 Y4.28498
G01 X13.30541 Y4.29265
G01 X13.13957 Y4.30898
G01 X13.10035 Y4.30898
G01 X12.93452 Y4.29265
G01 X12.89606 Y4.28498
G01 X12.73663 Y4.23667
G01 X12.71816 Y4.23001
G01 X12.70043 Y4.22161
G01 X12.55344 Y4.14312
G01 X12.53663 Y4.13304
G01 X12.52085 Y4.12133
G01 X12.39208 Y4.01561
G01 X12.36434 Y3.98790
G01 X12.25862 Y3.85910
G01 X12.24694 Y3.84332
G01 X12.23686 Y3.82651
G01 X12.15829 Y3.67949
G01 X12.14328 Y3.64333
G01 X12.14021 Y3.63319
G01 X12.17046 Y3.25013
G01 X12.18679 Y3.08430
G01 X12.18824 Y3.07464
G01 X12.19060 Y3.06512
G01 X12.23899 Y2.90563
G01 X12.24651 Y2.88755
G01 X12.32505 Y2.74058
G01 X12.33010 Y2.73215
G01 X12.33594 Y2.72430
G01 X12.44166 Y2.59545
G01 X12.45547 Y2.58161
G01 X12.58430 Y2.47589
G01 X12.59218 Y2.47010
G01 X12.60061 Y2.46499
G01 X12.74757 Y2.38646
G01 X12.75641 Y2.38224
G01 X12.76563 Y2.37894
G01 X12.92509 Y2.33063
G01 X12.94432 Y2.32679
G01 X13.11016 Y2.31046
G01 X13.12977 Y2.31046
G01 X13.29560 Y2.32679
G01 X13.31481 Y2.33063
G01 X13.47427 Y2.37894
G01 X13.48349 Y2.38224
G01 X13.49240 Y2.38646
G01 X13.63932 Y2.46499
G01 X13.65560 Y2.47589
G01 X13.78445 Y2.58161
G01 X13.79172 Y2.58823
G01 X13.79827 Y2.59545
G01 X13.90401 Y2.72430
G01 X13.91488 Y2.74058
G01 X13.99344 Y2.88755
G01 X14.00099 Y2.90563
G01 X14.04932 Y3.06512
G01 X14.05316 Y3.08430
G01 X14.06952 Y3.25013
G01 X14.07000 Y3.25994
G01 X14.06952 Y3.26979
G01 X14.05316 Y3.43555
G01 X14.05169 Y3.44533
G01 X14.04932 Y3.45478
G01 X14.00099 Y3.61429
G01 X13.99766 Y3.62354
G01 X13.99344 Y3.63235
G01 X13.91488 Y3.77937
G01 X13.90401 Y3.79565
G01 X13.79827 Y3.92448
G01 X13.79172 Y3.93172
G01 X13.78445 Y3.93827
G01 X13.65560 Y4.04398
G01 X13.63932 Y4.05493
G01 X13.49240 Y4.13342
G01 X13.48349 Y4.13763
G01 X13.47427 Y4.14099
G01 X13.31481 Y4.18930
G01 X13.29560 Y4.19318
G01 X13.12977 Y4.20947
G01 X13.11016 Y4.20947
G01 X12.94432 Y4.19318
G01 X12.92509 Y4.18930
G01 X12.76563 Y4.14099
G01 X12.74757 Y4.13342
G01 X12.60061 Y4.05493
G01 X12.59218 Y4.04988
G01 X12.58430 Y4.04398
G01 X12.45547 Y3.93827
G01 X12.44166 Y3.92448
G01 X12.33594 Y3.79565
G01 X12.33010 Y3.78777
G01 X12.32505 Y3.77937
G01 X12.24651 Y3.63235
G01 X12.23899 Y3.61429
G01 X12.19060 Y3.45478
G01 X12.18824 Y3.44533
G01 X12.18679 Y3.43555
G01 X12.17046 Y3.26979
G01 X12.17046 Y3.25013
G01 X12.07092 Y3.24033
G01 X11.97143 Y3.23052
G01 X11.98776 Y3.06476
G01 X11.99208 Y3.03558
G01 X11.99924 Y3.00703
G01 X12.00526 Y2.98727
G01 X12.02075 Y2.97251
G01 X12.02355 Y2.96967
G01 X12.09932 Y2.88541
G01 X12.10206 Y2.88201
G01 X12.12710 Y2.84879
G01 X12.13543 Y2.83797
G01 X12.16368 Y2.80246
G01 X12.16546 Y2.80007
G01 X12.20125 Y2.74899
G01 X12.20292 Y2.74648
G01 X12.23355 Y2.69651
G01 X12.24895 Y2.67396
G01 X12.25014 Y2.67226
G01 X12.26000 Y2.65788
G01 X12.31555 Y2.58465
G01 X12.36124 Y2.53429
G01 X12.37262 Y2.52283
G01 X12.37287 Y2.52260
G01 X12.38258 Y2.51287
G01 X12.38306 Y2.51242
G01 X12.39429 Y2.50124
G01 X12.44465 Y2.45552
G01 X12.51791 Y2.40000
G01 X12.55654 Y2.37358
G01 X12.59401 Y2.35052
G01 X12.69771 Y2.29867
G01 X12.74054 Y2.27988
G01 X12.75918 Y2.27274
G01 X12.89373 Y2.23431
G01 X12.93668 Y2.22423
G01 X13.09926 Y2.20909
G01 X13.11996 Y2.20769
G01 X13.14064 Y2.20911
G01 X13.30325 Y2.22423
G01 X13.34620 Y2.23431
G01 X13.48072 Y2.27274
G01 X13.49939 Y2.27988
G01 X13.54221 Y2.29867
G01 X13.64597 Y2.35052
G01 X13.68341 Y2.37358
G01 X13.72199 Y2.40000
G01 X13.79525 Y2.45552
G01 X13.84564 Y2.50124
G01 X13.85712 Y2.51272
G01 X13.86749 Y2.52308
G01 X13.87869 Y2.53429
G01 X13.92438 Y2.58465
G01 X13.97991 Y2.65788
G01 X14.00637 Y2.69651
G01 X14.03698 Y2.74648
G01 X14.03871 Y2.74899
G01 X14.07444 Y2.80007
G01 X14.07627 Y2.80246
G01 X14.10444 Y2.83797
G01 X14.11277 Y2.84879
G01 X14.13779 Y2.88219
G01 X14.14064 Y2.88544
G01 X14.21633 Y2.96967
G01 X14.21917 Y2.97254
G01 X14.23474 Y2.98729
G01 X14.24074 Y3.00703
G01 X14.24790 Y3.03558
G01 X14.25222 Y3.06476
G01 X14.26850 Y3.23052
G01 X14.26997 Y3.25994
G01 X14.26850 Y3.28940
G01 X14.25222 Y3.45519
G01 X14.24790 Y3.48430
G01 X14.24074 Y3.51290
G01 X14.23474 Y3.53261
G01 X14.21928 Y3.54724
G01 X14.21643 Y3.55013
G01 X14.14064 Y3.63444
G01 X14.13787 Y3.63781
G01 X14.11277 Y3.67111
G01 X14.10444 Y3.68191
G01 X14.07630 Y3.71744
G01 X14.07444 Y3.71980
G01 X14.03866 Y3.77096
G01 X14.03698 Y3.77342
G01 X14.00637 Y3.82336
G01 X13.97991 Y3.86197
G01 X13.92431 Y3.93525
G01 X13.87869 Y3.98562
G01 X13.86771 Y3.99656
G01 X13.85661 Y4.00769
G01 X13.84564 Y4.01866
G01 X13.79525 Y4.06430
G01 X13.72199 Y4.11996
G01 X13.68341 Y4.14632
G01 X13.63342 Y4.17703
G01 X13.63096 Y4.17863
G01 X13.57986 Y4.21444
G01 X13.57744 Y4.21630
G01 X13.54191 Y4.24449
G01 X13.53114 Y4.25277
G01 X13.49789 Y4.27784
G01 X13.49454 Y4.28061
G01 X13.41013 Y4.35648
G01 X13.40719 Y4.35930
G01 X13.39258 Y4.37469
G01 X13.37287 Y4.38074
G01 X13.31521 Y4.39217
G01 X13.14938 Y4.40850
G01 X13.11996 Y4.40995
G01 X13.09052 Y4.40850
G01 X12.92471 Y4.39217
G01 X12.86706 Y4.38074
G01 X12.70759 Y4.33233
G01 X12.67991 Y4.32239
G01 X12.65329 Y4.30982
G01 X12.50633 Y4.23131
G01 X12.48108 Y4.21612
G01 X12.45740 Y4.19865
G01 X12.32863 Y4.09293
G01 X12.28705 Y4.05135
G01 X12.18133 Y3.92255
G01 X12.16378 Y3.89885
G01 X12.14864 Y3.87365
G01 X12.12474 Y3.82892
G01 X12.07008 Y3.72664
G01 X12.04758 Y3.67231
G01 X11.99924 Y3.51290
G01 X11.99208 Y3.48430
G01 X11.98776 Y3.45519
G01 X11.97143 Y3.28940
G01 X11.97143 Y3.23052
G01 X11.97143 Y3.28940
G01 X11.98776 Y3.45519
G01 X11.99208 Y3.48430
G01 X11.99924 Y3.51290
G01 X12.04758 Y3.67231
G01 X12.07008 Y3.72664
G01 X12.12474 Y3.82892
G01 X11.97143 Y5.77058
G01 X11.97143 Y5.82940
G01 X11.98776 Y5.99516
G01 X11.99208 Y6.02435
G01 X11.99924 Y6.05287
G01 X12.00521 Y6.07261
G01 X12.02065 Y6.08724
G01 X12.02345 Y6.09013
G01 X12.09932 Y6.17454
G01 X12.10211 Y6.17784
G01 X12.12715 Y6.21121
G01 X12.13543 Y6.22193
G01 X12.16373 Y6.25752
G01 X12.16551 Y6.25993
G01 X12.20125 Y6.31091
G01 X12.20292 Y6.31347
G01 X12.23355 Y6.36336
G01 X12.24488 Y6.37997
G01 X12.25032 Y6.38792
G01 X12.25083 Y6.38861
G01 X12.25862 Y6.39910
G01 X12.36434 Y6.52790
G01 X12.37272 Y6.53712
G01 X12.38280 Y6.54723
G01 X12.38306 Y6.54746
G01 X12.39208 Y6.55561
G01 X12.52085 Y6.66133
G01 X12.55344 Y6.68310
G01 X12.70043 Y6.76166
G01 X12.71994 Y6.76973
G01 X12.73396 Y6.76140
G01 X12.71994 Y6.76973
G01 X12.71994 Y42.18310
G01 X12.73063 Y42.18851
G01 X12.71994 Y42.18310
G01 X12.67902 Y42.20497
G01 X12.66220 Y42.21503
G01 X12.64638 Y42.22676
G01 X12.53277 Y42.32006
G01 X12.52370 Y42.32824
G01 X12.52344 Y42.32849
G01 X12.51349 Y42.33845
G01 X12.51323 Y42.33870
G01 X12.50196 Y42.35000
G01 X12.46215 Y42.39390
G01 X12.41316 Y42.45849
G01 X12.40391 Y42.47192
G01 X12.40366 Y42.47233
G01 X12.40097 Y42.47624
G01 X12.38674 Y42.49707
G01 X12.36713 Y42.52895
G01 X12.32113 Y42.62097
G01 X12.30226 Y42.66387
G01 X12.29672 Y42.67840
G01 X12.26248 Y42.79839
G01 X12.25283 Y42.83911
G01 X12.23935 Y42.98432
G01 X12.23792 Y43.00494
G01 X12.23935 Y43.02564
G01 X12.25283 Y43.17078
G01 X12.26248 Y43.21152
G01 X12.29672 Y43.33154
G01 X12.30226 Y43.34607
G01 X12.32113 Y43.38894
G01 X12.36718 Y43.48094
G01 X12.38674 Y43.51287
G01 X12.39782 Y43.52907
G01 X12.40386 Y43.53791
G01 X12.40429 Y43.53852
G01 X12.41316 Y43.55142
G01 X12.46215 Y43.61607
G01 X12.50196 Y43.65993
G01 X12.51318 Y43.67119
G01 X12.51339 Y43.67139
G01 X12.52360 Y43.68160
G01 X12.53498 Y43.69298
G01 X12.57889 Y43.73281
G01 X12.64349 Y43.78178
G01 X12.68207 Y43.80817
G01 X12.71397 Y43.82778
G01 X12.80594 Y43.87378
G01 X12.84887 Y43.89267
G01 X12.86340 Y43.89818
G01 X12.98336 Y43.93245
G01 X13.02405 Y43.94210
G01 X13.16929 Y43.95561
G01 X13.18997 Y43.95699
G01 X13.21057 Y43.95556
G01 X13.35580 Y43.94210
G01 X13.39649 Y43.93245
G01 X13.51651 Y43.89824
G01 X13.53106 Y43.89267
G01 X13.57399 Y43.87378
G01 X13.66596 Y43.82778
G01 X13.69786 Y43.80817
G01 X13.71404 Y43.79704
G01 X13.71427 Y43.79686
G01 X13.72367 Y43.79041
G01 X13.73640 Y43.78178
G01 X13.80104 Y43.73275
G01 X13.84496 Y43.69298
G01 X13.85613 Y43.68175
G01 X13.86672 Y43.67119
G01 X13.87800 Y43.65993
G01 X13.91773 Y43.61607
G01 X13.96675 Y43.55142
G01 X13.97538 Y43.53880
G01 X13.98087 Y43.53072
G01 X13.98207 Y43.52907
G01 X13.99314 Y43.51287
G01 X14.01275 Y43.48094
G01 X14.05875 Y43.38894
G01 X14.07767 Y43.34607
G01 X14.08316 Y43.33154
G01 X14.11747 Y43.21152
G01 X14.12710 Y43.17086
G01 X14.14054 Y43.02559
G01 X14.14201 Y43.00494
G01 X14.14054 Y42.98432
G01 X14.12710 Y42.83911
G01 X14.11747 Y42.79839
G01 X14.08316 Y42.67840
G01 X14.07767 Y42.66387
G01 X14.05875 Y42.62097
G01 X14.01275 Y42.52895
G01 X13.99314 Y42.49707
G01 X13.98196 Y42.48069
G01 X13.97607 Y42.47205
G01 X13.97579 Y42.47172
G01 X13.96820 Y42.46143
G01 X13.87488 Y42.34777
G01 X13.86662 Y42.33863
G01 X13.85633 Y42.32829
G01 X13.85585 Y42.32788
G01 X13.84719 Y42.32006
G01 X13.73355 Y42.22676
G01 X13.70091 Y42.20497
G01 X13.57127 Y42.13570
G01 X13.55352 Y42.12730
G01 X13.53505 Y42.12069
G01 X13.51996 Y42.11610
G01 X13.50536 Y42.12496
G01 X13.51996 Y42.11610
G01 X13.51996 Y41.85531
G01 X13.51996 Y7.02264
G01 X13.52027 Y7.01967
G01 X13.52390 Y6.95935
G01 X13.52418 Y6.95640
G01 X13.53132 Y6.89747
G01 X13.53193 Y6.89353
G01 X13.54907 Y6.80900
G01 X13.55136 Y6.80113
G01 X13.55489 Y6.79371
G01 X13.55959 Y6.78696
G01 X13.55369 Y6.78355
G01 X13.55959 Y6.78696
G01 X13.56538 Y6.78111
G01 X13.60028 Y6.75091
G01 X13.60185 Y6.74959
G01 X13.64882 Y6.71236
G01 X13.65029 Y6.71124
G01 X13.68128 Y6.68848
G01 X13.68275 Y6.68741
G01 X13.70157 Y6.67466
G01 X13.70962 Y6.66907
G01 X13.72131 Y6.66044
G01 X13.79525 Y6.60436
G01 X13.84564 Y6.55869
G01 X13.85661 Y6.54766
G01 X13.85689 Y6.54746
G01 X13.86749 Y6.53687
G01 X13.86771 Y6.53654
G01 X13.87564 Y6.52790
G01 X13.98128 Y6.39910
G01 X14.00312 Y6.36648
G01 X14.08161 Y6.21949
G01 X14.09667 Y6.18327
G01 X14.14503 Y6.02386
G01 X14.14976 Y6.00484
G01 X14.15270 Y5.98536
G01 X14.16898 Y5.81955
G01 X14.16995 Y5.79994
G01 X14.16898 Y5.78033
G01 X14.15270 Y5.61452
G01 X14.14976 Y5.59514
G01 X14.14503 Y5.57611
G01 X14.09667 Y5.41660
G01 X14.08161 Y5.38038
G01 X14.00312 Y5.23347
G01 X13.98128 Y5.20083
G01 X13.87564 Y5.07208
G01 X13.86723 Y5.06283
G01 X13.85712 Y5.05267
G01 X13.85682 Y5.05244
G01 X13.84790 Y5.04429
G01 X13.71905 Y4.93857
G01 X13.68649 Y4.91681
G01 X13.53950 Y4.83827
G01 X13.52182 Y4.82986
G01 X13.50330 Y4.82331
G01 X13.34384 Y4.77487
G01 X13.30541 Y4.76722
G01 X13.13957 Y4.75089
G01 X13.10035 Y4.75089
G01 X12.93452 Y4.76722
G01 X12.89606 Y4.77487
G01 X12.73663 Y4.82331
G01 X12.71816 Y4.82986
G01 X12.70043 Y4.83827
G01 X12.55344 Y4.91681
G01 X12.52085 Y4.93857
G01 X12.39208 Y5.04429
G01 X12.37752 Y5.05750
G01 X12.36434 Y5.07208
G01 X12.25862 Y5.20083
G01 X12.24694 Y5.21663
G01 X12.23686 Y5.23347
G01 X12.15829 Y5.38038
G01 X12.14328 Y5.41660
G01 X12.09490 Y5.57611
G01 X12.09015 Y5.59514
G01 X12.08725 Y5.61452
G01 X12.07092 Y5.78033
G01 X12.07092 Y5.81955
G01 X12.08725 Y5.98536
G01 X12.09015 Y6.00484
G01 X12.09490 Y6.02386
G01 X12.14328 Y6.18327
G01 X12.15829 Y6.21949
G01 X12.23686 Y6.36648
G01 X12.24488 Y6.37997
G01 X12.25083 Y6.38861
G01 X12.26000 Y6.40199
G01 X12.31555 Y6.47530
G01 X12.36124 Y6.52564
G01 X12.37272 Y6.53712
G01 X12.38306 Y6.54746
G01 X12.39429 Y6.55869
G01 X12.44465 Y6.60436
G01 X12.51839 Y6.66029
G01 X12.53889 Y6.67499
G01 X12.55712 Y6.68741
G01 X12.55865 Y6.68848
G01 X12.58954 Y6.71114
G01 X12.59101 Y6.71228
G01 X12.63797 Y6.74954
G01 X12.63955 Y6.75086
G01 X12.67447 Y6.78101
G01 X12.68021 Y6.78691
G01 X12.68618 Y6.78348
G01 X12.68021 Y6.78691
G01 X12.68496 Y6.79361
G01 X12.68854 Y6.80103
G01 X12.69081 Y6.80895
G01 X12.70798 Y6.89353
G01 X12.70856 Y6.89747
G01 X12.71570 Y6.95640
G01 X12.71593 Y6.95940
G01 X12.71956 Y7.01967
G01 X12.71966 Y7.02269
G01 X12.71966 Y41.95562
G01 X12.71963 Y41.95808
G01 X12.71720 Y42.00731
G01 X12.71699 Y42.00972
G01 X12.71227 Y42.05811
G01 X12.71171 Y42.06215
G01 X12.69599 Y42.14825
G01 X12.69398 Y42.15580
G01 X12.69081 Y42.16293
G01 X12.69566 Y42.16532
G01 X12.69081 Y42.16293
G01 X12.68661 Y42.16951
G01 X12.68143 Y42.17533
G01 X12.66848 Y42.18775
G01 X12.64366 Y42.21325
G01 X12.63632 Y42.22140
G01 X12.63465 Y42.22313
G01 X12.59896 Y42.25884
G01 X12.59718 Y42.26057
G01 X12.53498 Y42.31698
G01 X12.52370 Y42.32824
G01 X12.52344 Y42.32849
G01 X12.51349 Y42.33845
G01 X12.51323 Y42.33870
G01 X12.50506 Y42.34777
G01 X12.41179 Y42.46143
G01 X12.40391 Y42.47192
G01 X12.40366 Y42.47233
G01 X12.40097 Y42.47624
G01 X12.39812 Y42.48048
G01 X12.38997 Y42.49400
G01 X12.32070 Y42.62369
G01 X12.30569 Y42.65991
G01 X12.26302 Y42.80057
G01 X12.25537 Y42.83903
G01 X12.24092 Y42.98533
G01 X12.24092 Y43.02460
G01 X12.25537 Y43.17091
G01 X12.26302 Y43.20931
G01 X12.30569 Y43.35005
G01 X12.32070 Y43.38627
G01 X12.38997 Y43.51589
G01 X12.39782 Y43.52907
G01 X12.40386 Y43.53791
G01 X12.40429 Y43.53852
G01 X12.41179 Y43.54853
G01 X12.50506 Y43.66219
G01 X12.51318 Y43.67119
G01 X12.51339 Y43.67139
G01 X12.52360 Y43.68160
G01 X12.53277 Y43.68990
G01 X12.64638 Y43.78320
G01 X12.67902 Y43.80494
G01 X12.80869 Y43.87426
G01 X12.82644 Y43.88267
G01 X12.84488 Y43.88927
G01 X12.98560 Y43.93197
G01 X13.00462 Y43.93669
G01 X13.02405 Y43.93959
G01 X13.17036 Y43.95399
G01 X13.20960 Y43.95399
G01 X13.35590 Y43.93959
G01 X13.37531 Y43.93669
G01 X13.39433 Y43.93197
G01 X13.53505 Y43.88927
G01 X13.57127 Y43.87426
G01 X13.70091 Y43.80494
G01 X13.71404 Y43.79704
G01 X13.71427 Y43.79686
G01 X13.72316 Y43.79087
G01 X13.72367 Y43.79041
G01 X13.73355 Y43.78320
G01 X13.84719 Y43.68990
G01 X13.85613 Y43.68175
G01 X13.86672 Y43.67119
G01 X13.87488 Y43.66219
G01 X13.96820 Y43.54853
G01 X13.97538 Y43.53880
G01 X13.97587 Y43.53819
G01 X13.98087 Y43.53072
G01 X13.98207 Y43.52907
G01 X13.98991 Y43.51589
G01 X14.05923 Y43.38627
G01 X14.07424 Y43.35005
G01 X14.11696 Y43.20931
G01 X14.12171 Y43.19031
G01 X14.12456 Y43.17091
G01 X14.13896 Y43.02460
G01 X14.13896 Y42.98533
G01 X14.12456 Y42.83903
G01 X14.12171 Y42.81965
G01 X14.11696 Y42.80057
G01 X14.07424 Y42.65991
G01 X14.05923 Y42.62369
G01 X13.98991 Y42.49400
G01 X13.98196 Y42.48069
G01 X13.97579 Y42.47172
G01 X13.96675 Y42.45849
G01 X13.91780 Y42.39390
G01 X13.87800 Y42.35000
G01 X13.86662 Y42.33863
G01 X13.85585 Y42.32788
G01 X13.84496 Y42.31698
G01 X13.80104 Y42.27716
G01 X13.73629 Y42.22806
G01 X13.70188 Y42.20421
G01 X13.69845 Y42.20207
G01 X13.69619 Y42.20055
G01 X13.65021 Y42.16799
G01 X13.64803 Y42.16636
G01 X13.60107 Y42.12908
G01 X13.59990 Y42.12816
G01 X13.57480 Y42.10698
G01 X13.57371 Y42.10601
G01 X13.56535 Y42.09854
G01 X13.55987 Y42.09273
G01 X13.55362 Y42.09644
G01 X13.55987 Y42.09273
G01 X13.55534 Y42.08620
G01 X13.55194 Y42.07896
G01 X13.54968 Y42.07126
G01 X13.53193 Y41.98455
G01 X13.53132 Y41.98051
G01 X13.52418 Y41.92161
G01 X13.52390 Y41.91861
G01 X13.52027 Y41.85834
G01 X13.51996 Y41.85531
G04 P0 ( dwell for no time -- G64 should not smooth over this point )
G00 Z5.00000 ( retract )

G00 X25.06690 Y29.83710 ( rapid move to begin. )
G01 F300.00000
( Mill infeed pass 1/1 )
G01 Z-0.05000
G04 P0 ( dwell for no time -- G64 should not smooth over this point )
G01 F600.00000
G01 X25.06690 Y29.83710
G01 X25.08192 Y29.77726
G01 X25.09741 Y29.72638
G01 X25.14917 Y29.58168
G01 X25.16299 Y29.54851
G01 X25.16929 Y29.54274
G01 X25.28296 Y29.44942
G01 X25.30658 Y29.43195
G01 X25.33188 Y29.41681
G01 X25.46154 Y29.34749
G01 X25.51590 Y29.32499
G01 X25.65659 Y29.28229
G01 X25.68511 Y29.27515
G01 X25.71425 Y29.27083
G01 X25.86055 Y29.25643
G01 X25.91938 Y29.25643
G01 X26.06568 Y29.27083
G01 X26.09482 Y29.27515
G01 X26.12339 Y29.28229
G01 X26.16995 Y29.29646
G01 X26.20510 Y29.33761
G01 X26.16995 Y29.29646
G01 X26.16995 Y6.89125
G01 X26.20998 Y6.83798
G01 X26.16995 Y6.89125
G01 X26.07287 Y6.92071
G01 X26.04435 Y6.92788
G01 X26.01521 Y6.93219
G01 X25.84938 Y6.94855
G01 X25.79055 Y6.94855
G01 X25.62476 Y6.93219
G01 X25.59563 Y6.92788
G01 X25.56706 Y6.92071
G01 X25.40759 Y6.87233
G01 X25.37991 Y6.86242
G01 X25.35326 Y6.84985
G01 X25.20632 Y6.77131
G01 X25.16005 Y6.74037
G01 X25.09035 Y6.59303
G01 X25.06985 Y6.54365
G01 X25.06406 Y6.52762
G01 X25.01100 Y6.37934
G01 X25.00051 Y6.34477
G01 X24.96698 Y6.21071
G01 X24.94648 Y6.17240
G01 X24.93899 Y6.15429
G01 X24.89058 Y5.99483
G01 X24.88822 Y5.98528
G01 X24.88677 Y5.97555
G01 X24.87046 Y5.80974
G01 X24.87018 Y5.80446
G01 X24.87018 Y5.79552
G01 X24.87046 Y5.79013
G01 X24.88677 Y5.62430
G01 X24.88822 Y5.61459
G01 X24.89058 Y5.60512
G01 X24.93899 Y5.44568
G01 X24.94648 Y5.42757
G01 X24.96696 Y5.38922
G01 X25.02502 Y5.28056
G01 X25.03010 Y5.27220
G01 X25.03592 Y5.26425
G01 X25.14163 Y5.13550
G01 X25.14821 Y5.12818
G01 X25.15545 Y5.12166
G01 X25.28430 Y5.01592
G01 X25.30058 Y5.00504
G01 X25.44757 Y4.92646
G01 X25.46566 Y4.91894
G01 X25.62512 Y4.87063
G01 X25.63465 Y4.86824
G01 X25.64432 Y4.86674
G01 X25.81016 Y4.85041
G01 X25.82977 Y4.85041
G01 X25.99560 Y4.86674
G01 X26.00533 Y4.86824
G01 X26.01481 Y4.87063
G01 X26.17427 Y4.91894
G01 X26.19238 Y4.92646
G01 X26.33934 Y5.00504
G01 X26.34778 Y5.01010
G01 X26.35565 Y5.01592
G01 X26.48448 Y5.12166
G01 X26.49832 Y5.13550
G01 X26.60404 Y5.26425
G01 X26.60988 Y5.27220
G01 X26.61493 Y5.28056
G01 X26.69344 Y5.42757
G01 X26.70099 Y5.44568
G01 X26.74932 Y5.60512
G01 X26.75171 Y5.61459
G01 X26.75316 Y5.62430
G01 X26.76947 Y5.79013
G01 X26.76947 Y5.80974
G01 X26.75316 Y5.97555
G01 X26.75171 Y5.98528
G01 X26.74932 Y5.99483
G01 X26.70099 Y6.15429
G01 X26.69764 Y6.16354
G01 X26.69344 Y6.17240
G01 X26.66670 Y6.22247
G01 X26.88212 Y6.43783
G01 X26.88745 Y6.44362
G01 X26.90782 Y6.46745
G01 X26.91707 Y6.48015
G01 X26.93345 Y6.50692
G01 X26.94059 Y6.52089
G01 X26.95257 Y6.54992
G01 X26.95740 Y6.56483
G01 X26.96472 Y6.59536
G01 X26.96721 Y6.61086
G01 X26.96967 Y6.64215
G01 X26.97000 Y6.65000
G01 X26.97000 Y29.52499
G01 X26.96967 Y29.53278
G01 X26.96721 Y29.56405
G01 X26.96472 Y29.57954
G01 X26.95740 Y29.61013
G01 X26.95257 Y29.62501
G01 X26.94059 Y29.65399
G01 X26.93345 Y29.66804
G01 X26.91701 Y29.69478
G01 X26.90782 Y29.70748
G01 X26.88745 Y29.73133
G01 X26.88212 Y29.73710
G01 X26.66314 Y29.95600
G01 X26.67109 Y29.97081
G01 X26.67528 Y29.97970
G01 X26.67856 Y29.98889
G01 X26.72128 Y30.12963
G01 X26.72362 Y30.13916
G01 X26.72504 Y30.14883
G01 X26.73944 Y30.29514
G01 X26.73944 Y30.31475
G01 X26.72504 Y30.46110
G01 X26.72362 Y30.47078
G01 X26.72128 Y30.48030
G01 X26.67856 Y30.62100
G01 X26.67109 Y30.63911
G01 X26.60178 Y30.76880
G01 X26.59088 Y30.78510
G01 X26.49758 Y30.89872
G01 X26.49101 Y30.90603
G01 X26.48374 Y30.91256
G01 X26.37008 Y31.00588
G01 X26.36218 Y31.01175
G01 X26.35374 Y31.01678
G01 X26.22410 Y31.08609
G01 X26.20602 Y31.09356
G01 X26.06533 Y31.13626
G01 X26.05580 Y31.13865
G01 X26.04607 Y31.14010
G01 X25.89977 Y31.15450
G01 X25.88016 Y31.15450
G01 X25.73386 Y31.14010
G01 X25.72413 Y31.13865
G01 X25.71460 Y31.13626
G01 X25.57391 Y31.09356
G01 X25.55583 Y31.08609
G01 X25.42616 Y31.01678
G01 X25.40986 Y31.00588
G01 X25.29619 Y30.91256
G01 X25.28893 Y30.90603
G01 X25.28235 Y30.89872
G01 X25.18908 Y30.78510
G01 X25.17818 Y30.76880
G01 X25.10887 Y30.63911
G01 X25.10132 Y30.62100
G01 X25.05867 Y30.48030
G01 X25.05631 Y30.47078
G01 X25.05484 Y30.46110
G01 X25.04044 Y30.31475
G01 X25.04044 Y30.29514
G01 X25.05484 Y30.14883
G01 X25.05631 Y30.13916
G01 X25.05867 Y30.12963
G01 X25.10132 Y29.98889
G01 X25.10887 Y29.97081
G01 X25.17818 Y29.84116
G01 X25.18908 Y29.82486
G01 X25.28235 Y29.71117
G01 X25.28893 Y29.70390
G01 X25.29619 Y29.69732
G01 X25.40986 Y29.60408
G01 X25.41775 Y29.59819
G01 X25.42616 Y29.59318
G01 X25.55583 Y29.52389
G01 X25.57391 Y29.51635
G01 X25.71460 Y29.47370
G01 X25.72413 Y29.47129
G01 X25.73386 Y29.46987
G01 X25.88016 Y29.45547
G01 X25.89977 Y29.45547
G01 X26.04607 Y29.46987
G01 X26.05580 Y29.47129
G01 X26.06533 Y29.47370
G01 X26.20602 Y29.51635
G01 X26.22410 Y29.52389
G01 X26.23891 Y29.53177
G01 X26.36998 Y29.40068
G01 X26.36998 Y6.77426
G01 X26.24247 Y6.64672
G01 X26.19238 Y6.67344
G01 X26.17427 Y6.68099
G01 X26.01481 Y6.72932
G01 X26.00533 Y6.73174
G01 X25.99560 Y6.73316
G01 X25.82977 Y6.74949
G01 X25.81016 Y6.74949
G01 X25.64432 Y6.73316
G01 X25.63465 Y6.73174
G01 X25.62512 Y6.72932
G01 X25.46566 Y6.68099
G01 X25.44757 Y6.67344
G01 X25.30058 Y6.59493
G01 X25.28430 Y6.58401
G01 X25.15545 Y6.47832
G01 X25.14821 Y6.47172
G01 X25.14163 Y6.46445
G01 X25.03592 Y6.33560
G01 X25.03010 Y6.32777
G01 X25.02502 Y6.31932
G01 X24.96698 Y6.21071
G01 X25.00051 Y6.34477
G01 X25.01100 Y6.37934
G01 X25.06406 Y6.52762
G01 X25.06434 Y6.52790
G01 X25.07750 Y6.54246
G01 X25.09208 Y6.55561
G01 X25.22088 Y6.66133
G01 X25.25342 Y6.68310
G01 X25.40041 Y6.76166
G01 X25.43665 Y6.77664
G01 X25.59611 Y6.82501
G01 X25.61511 Y6.82981
G01 X25.63457 Y6.83270
G01 X25.80035 Y6.84903
G01 X25.83957 Y6.84903
G01 X26.00541 Y6.83270
G01 X26.04386 Y6.82501
G01 X26.20333 Y6.77664
G01 X26.22177 Y6.77004
G01 X26.22354 Y6.76920
G01 X26.22758 Y6.75356
G01 X26.22354 Y6.76920
G01 X26.26998 Y6.81568
G01 X26.27757 Y6.81248
G01 X26.26998 Y6.81568
G01 X26.26998 Y29.35928
G01 X26.27757 Y29.36243
G01 X26.26998 Y29.35928
G01 X26.21471 Y29.41452
G01 X26.21874 Y29.42976
G01 X26.21471 Y29.41452
G01 X26.09433 Y29.37800
G01 X26.05588 Y29.37032
G01 X25.90957 Y29.35592
G01 X25.87036 Y29.35592
G01 X25.72405 Y29.37032
G01 X25.68560 Y29.37800
G01 X25.54491 Y29.42069
G01 X25.52642 Y29.42730
G01 X25.50866 Y29.43570
G01 X25.37902 Y29.50497
G01 X25.36218 Y29.51503
G01 X25.34641 Y29.52676
G01 X25.23274 Y29.62006
G01 X25.21821 Y29.63324
G01 X25.20505 Y29.64777
G01 X25.11179 Y29.76143
G01 X25.10005 Y29.77721
G01 X25.08994 Y29.79400
G01 X25.06690 Y29.83710
G01 X25.04572 Y29.92191
G01 X25.03749 Y29.96319
G01 X25.01600 Y30.10776
G01 X25.01247 Y30.14342
G01 X25.00541 Y30.28800
G01 X25.00541 Y30.32196
G01 X25.01247 Y30.46646
G01 X25.01600 Y30.50217
G01 X25.03749 Y30.64675
G01 X25.04572 Y30.68798
G01 X25.08192 Y30.83263
G01 X25.09741 Y30.88350
G01 X25.14917 Y31.02823
G01 X25.16299 Y31.06148
G01 X25.16929 Y31.06722
G01 X25.28296 Y31.16047
G01 X25.33188 Y31.19316
G01 X25.46154 Y31.26247
G01 X25.48816 Y31.27502
G01 X25.51590 Y31.28498
G01 X25.65659 Y31.32760
G01 X25.68511 Y31.33481
G01 X25.71425 Y31.33913
G01 X25.86055 Y31.35353
G01 X25.91938 Y31.35353
G01 X26.06568 Y31.33913
G01 X26.09482 Y31.33481
G01 X26.12339 Y31.32760
G01 X26.26408 Y31.28498
G01 X26.31836 Y31.26247
G01 X26.44808 Y31.19316
G01 X26.47330 Y31.17802
G01 X26.49698 Y31.16047
G01 X26.61064 Y31.06722
G01 X26.63243 Y31.04741
G01 X26.65217 Y31.02562
G01 X26.74549 Y30.91195
G01 X26.77810 Y30.86306
G01 X26.84742 Y30.73342
G01 X26.86004 Y30.70677
G01 X26.86997 Y30.67906
G01 X26.91262 Y30.53839
G01 X26.91981 Y30.50979
G01 X26.92413 Y30.48071
G01 X26.93853 Y30.33436
G01 X26.93853 Y30.27553
G01 X26.92413 Y30.12923
G01 X26.91981 Y30.10009
G01 X26.91262 Y30.07159
G01 X26.89349 Y30.00850
G01 X26.87813 Y30.00459
G01 X26.89349 Y30.00850
G01 X27.02349 Y29.87853
G01 X27.03952 Y29.86123
G01 X27.05989 Y29.83738
G01 X27.08758 Y29.79928
G01 X27.10396 Y29.77253
G01 X27.12535 Y29.73057
G01 X27.13736 Y29.70159
G01 X27.15189 Y29.65681
G01 X27.15923 Y29.62631
G01 X27.16657 Y29.57975
G01 X27.16903 Y29.54851
G01 X27.16997 Y29.52499
G01 X27.16997 Y6.65000
G01 X27.16903 Y6.62645
G01 X27.16657 Y6.59514
G01 X27.15923 Y6.54865
G01 X27.15189 Y6.51815
G01 X27.13736 Y6.47337
G01 X27.12535 Y6.44436
G01 X27.10396 Y6.40243
G01 X27.08758 Y6.37565
G01 X27.05989 Y6.33760
G01 X27.03952 Y6.31368
G01 X27.02354 Y6.29643
G01 X26.90330 Y6.17621
G01 X26.88768 Y6.18018
G01 X26.90330 Y6.17621
G01 X26.94074 Y6.05287
G01 X26.94785 Y6.02435
G01 X26.95217 Y5.99516
G01 X26.96855 Y5.82940
G01 X26.96855 Y5.77058
G01 X26.95217 Y5.60471
G01 X26.94785 Y5.57563
G01 X26.94074 Y5.54703
G01 X26.93469 Y5.52727
G01 X26.91915 Y5.51259
G01 X26.91633 Y5.50964
G01 X26.84064 Y5.42544
G01 X26.83789 Y5.42204
G01 X26.81280 Y5.38879
G01 X26.80449 Y5.37802
G01 X26.77627 Y5.34241
G01 X26.77447 Y5.34007
G01 X26.73871 Y5.28894
G01 X26.73703 Y5.28648
G01 X26.70635 Y5.23654
G01 X26.69510 Y5.22008
G01 X26.68913 Y5.21134
G01 X26.67993 Y5.19788
G01 X26.62433 Y5.12460
G01 X26.57869 Y5.07428
G01 X26.54564 Y5.04124
G01 X26.49530 Y4.99554
G01 X26.42202 Y4.93994
G01 X26.40269 Y4.92676
G01 X26.40015 Y4.92498
G01 X26.39987 Y4.92483
G01 X26.38651 Y4.91681
G01 X26.23952 Y4.83827
G01 X26.20333 Y4.82331
G01 X26.04386 Y4.77487
G01 X26.00541 Y4.76722
G01 X25.83957 Y4.75089
G01 X25.80035 Y4.75089
G01 X25.63457 Y4.76722
G01 X25.59611 Y4.77487
G01 X25.43665 Y4.82331
G01 X25.41816 Y4.82986
G01 X25.40041 Y4.83827
G01 X25.25342 Y4.91681
G01 X25.22088 Y4.93857
G01 X25.09208 Y5.04429
G01 X25.07750 Y5.05750
G01 X25.06434 Y5.07208
G01 X25.06406 Y5.07230
G01 X25.01100 Y5.22056
G01 X25.00051 Y5.25508
G01 X24.96696 Y5.38922
G01 X25.00051 Y5.25508
G01 X25.01100 Y5.22056
G01 X25.06406 Y5.07230
G01 X25.06985 Y5.05625
G01 X25.09035 Y5.00685
G01 X25.16005 Y4.85955
G01 X25.20632 Y4.82862
G01 X25.35326 Y4.75010
G01 X25.37991 Y4.73748
G01 X25.40759 Y4.72760
G01 X25.56706 Y4.67919
G01 X25.59563 Y4.67203
G01 X25.62476 Y4.66771
G01 X25.79055 Y4.65143
G01 X25.84938 Y4.65143
G01 X26.01521 Y4.66771
G01 X26.04435 Y4.67203
G01 X26.07287 Y4.67919
G01 X26.09261 Y4.68523
G01 X26.10721 Y4.70065
G01 X26.11011 Y4.70347
G01 X26.19449 Y4.77929
G01 X26.19779 Y4.78216
G01 X26.23116 Y4.80713
G01 X26.24186 Y4.81546
G01 X26.27744 Y4.84365
G01 X26.27986 Y4.84541
G01 X26.33091 Y4.88127
G01 X26.33345 Y4.88287
G01 X26.38336 Y4.91358
G01 X26.39987 Y4.92483
G01 X26.40015 Y4.92498
G01 X26.40269 Y4.92676
G01 X26.40797 Y4.93042
G01 X26.41907 Y4.93857
G01 X26.54790 Y5.04429
G01 X26.57559 Y5.07208
G01 X26.68130 Y5.20083
G01 X26.68913 Y5.21134
G01 X26.68953 Y5.21188
G01 X26.69494 Y5.21980
G01 X26.69510 Y5.22008
G01 X26.70312 Y5.23347
G01 X26.78166 Y5.38038
G01 X26.79662 Y5.41660
G01 X26.84503 Y5.57611
G01 X26.84981 Y5.59514
G01 X26.85270 Y5.61452
G01 X26.86901 Y5.78033
G01 X26.86901 Y5.81955
G01 X26.85270 Y5.98536
G01 X26.84981 Y6.00484
G01 X26.84503 Y6.02386
G01 X26.79662 Y6.18327
G01 X26.79004 Y6.20177
G01 X26.78923 Y6.20354
G01 X26.77386 Y6.20718
G01 X26.78923 Y6.20354
G01 X26.95280 Y6.36712
G01 X26.96350 Y6.37865
G01 X26.98384 Y6.40253
G01 X27.00231 Y6.42793
G01 X27.01869 Y6.45470
G01 X27.03294 Y6.48264
G01 X27.04493 Y6.51162
G01 X27.05468 Y6.54149
G01 X27.06200 Y6.57200
G01 X27.06687 Y6.60298
G01 X27.06934 Y6.63430
G01 X27.06995 Y6.65000
G01 X27.06995 Y29.52499
G01 X27.06934 Y29.54066
G01 X27.06687 Y29.57195
G01 X27.06200 Y29.60294
G01 X27.05468 Y29.63344
G01 X27.04493 Y29.66331
G01 X27.03294 Y29.69232
G01 X27.01869 Y29.72029
G01 X27.00231 Y29.74703
G01 X26.98384 Y29.77241
G01 X26.96347 Y29.79626
G01 X26.95280 Y29.80776
G01 X26.78044 Y29.98020
G01 X26.76591 Y29.97657
G01 X26.78044 Y29.98020
G01 X26.81691 Y30.10057
G01 X26.82458 Y30.13903
G01 X26.83899 Y30.28533
G01 X26.83899 Y30.32460
G01 X26.82458 Y30.47091
G01 X26.81691 Y30.50931
G01 X26.77427 Y30.65005
G01 X26.76764 Y30.66849
G01 X26.75926 Y30.68627
G01 X26.68994 Y30.81589
G01 X26.66815 Y30.84853
G01 X26.57490 Y30.96219
G01 X26.56175 Y30.97675
G01 X26.54714 Y30.98991
G01 X26.43355 Y31.08320
G01 X26.41778 Y31.09486
G01 X26.40091 Y31.10494
G01 X26.27127 Y31.17426
G01 X26.25352 Y31.18267
G01 X26.23500 Y31.18927
G01 X26.09433 Y31.23197
G01 X26.05588 Y31.23959
G01 X25.90957 Y31.25399
G01 X25.87036 Y31.25399
G01 X25.72405 Y31.23959
G01 X25.68560 Y31.23197
G01 X25.54491 Y31.18927
G01 X25.52642 Y31.18267
G01 X25.50866 Y31.17426
G01 X25.37902 Y31.10494
G01 X25.34641 Y31.08320
G01 X25.23274 Y30.98991
G01 X25.21821 Y30.97675
G01 X25.20505 Y30.96219
G01 X25.11179 Y30.84853
G01 X25.10005 Y30.83276
G01 X25.08994 Y30.81589
G01 X25.06698 Y30.77284
G01 X25.04572 Y30.68798
G01 X24.96993 Y30.79712
G01 X24.98522 Y30.85813
G01 X24.98590 Y30.86054
G01 X25.00208 Y30.91378
G01 X25.00287 Y30.91607
G01 X25.05542 Y31.06311
G01 X25.05631 Y31.06544
G01 X25.06995 Y31.09816
G01 X25.06995 Y63.23614
G01 X24.99944 Y63.38519
G01 X24.99845 Y63.38743
G01 X24.97699 Y63.43909
G01 X24.97590 Y63.44135
G01 X24.96993 Y63.45799
G01 X24.91646 Y63.60808
G01 X24.91570 Y63.61034
G01 X24.90450 Y63.64722
G01 X24.90381 Y63.64963
G01 X24.86998 Y63.78489
G01 X24.90381 Y63.64963
G01 X24.90450 Y63.64722
G01 X24.91570 Y63.61034
G01 X24.91646 Y63.60808
G01 X24.96993 Y63.45862
G01 X24.96993 Y63.45799
G01 X24.96993 Y30.79712
G01 X24.94841 Y30.71109
G01 X24.94785 Y30.70875
G01 X24.93912 Y30.66506
G01 X24.93874 Y30.66260
G01 X24.91666 Y30.51561
G01 X24.91664 Y30.51322
G01 X24.91285 Y30.47510
G01 X24.91265 Y30.47263
G01 X24.90546 Y30.32564
G01 X24.90539 Y30.32318
G01 X24.90526 Y30.28678
G01 X24.90546 Y30.28432
G01 X24.91265 Y30.13725
G01 X24.91285 Y30.13484
G01 X24.91664 Y30.09666
G01 X24.91674 Y30.09428
G01 X24.93874 Y29.94729
G01 X24.93912 Y29.94482
G01 X24.94785 Y29.90116
G01 X24.94841 Y29.89882
G01 X24.96993 Y29.81272
G01 X24.98522 Y29.75176
G01 X24.98590 Y29.74937
G01 X25.00208 Y29.69611
G01 X25.00287 Y29.69382
G01 X25.05542 Y29.54678
G01 X25.05639 Y29.54444
G01 X25.06995 Y29.51175
G01 X25.06995 Y20.04454
G01 X25.04443 Y20.02158
G01 X25.06995 Y20.04454
G01 X25.17567 Y20.03412
G01 X25.20478 Y20.02980
G01 X25.23340 Y20.02267
G01 X25.37404 Y19.97997
G01 X25.42842 Y19.95744
G01 X25.55809 Y19.88817
G01 X25.60696 Y19.85546
G01 X25.72062 Y19.76219
G01 X25.74242 Y19.74245
G01 X25.76223 Y19.72061
G01 X25.85547 Y19.60695
G01 X25.88816 Y19.55803
G01 X25.95748 Y19.42838
G01 X25.97003 Y19.40179
G01 X25.97998 Y19.37405
G01 X26.02263 Y19.23339
G01 X26.02982 Y19.20479
G01 X26.03414 Y19.17565
G01 X26.04854 Y19.02935
G01 X26.04854 Y18.97057
G01 X26.03414 Y18.82427
G01 X26.02982 Y18.79514
G01 X26.02263 Y18.76654
G01 X25.97998 Y18.62590
G01 X25.97003 Y18.59813
G01 X25.95748 Y18.57157
G01 X25.88816 Y18.44190
G01 X25.85547 Y18.39300
G01 X25.76223 Y18.27934
G01 X25.74242 Y18.25747
G01 X25.72062 Y18.23776
G01 X25.60696 Y18.14449
G01 X25.55809 Y18.11180
G01 X25.42842 Y18.04251
G01 X25.37404 Y18.01995
G01 X25.23340 Y17.97728
G01 X25.20478 Y17.97012
G01 X25.17567 Y17.96580
G01 X25.02934 Y17.95140
G01 X24.97059 Y17.95140
G01 X24.82426 Y17.96580
G01 X24.79515 Y17.97012
G01 X24.76652 Y17.97728
G01 X24.62588 Y18.01995
G01 X24.57155 Y18.04251
G01 X24.44184 Y18.11180
G01 X24.39299 Y18.14449
G01 X24.27933 Y18.23776
G01 X24.25753 Y18.25747
G01 X24.23775 Y18.27934
G01 X24.14448 Y18.39300
G01 X24.11181 Y18.44190
G01 X24.04250 Y18.57157
G01 X24.01994 Y18.62590
G01 X23.97730 Y18.76654
G01 X23.97013 Y18.79514
G01 X23.96581 Y18.82427
G01 X23.95139 Y18.97057
G01 X24.05093 Y18.98038
G01 X24.15047 Y18.99018
G01 X24.05093 Y18.98038
G01 X23.95139 Y18.97057
G01 X23.95139 Y19.02935
G01 X23.96581 Y19.17565
G01 X23.97013 Y19.20479
G01 X23.97730 Y19.23339
G01 X24.01994 Y19.37405
G01 X24.04250 Y19.42838
G01 X24.06995 Y19.47977
G01 X24.07239 Y19.47926
G01 X24.06995 Y19.47977
G01 X24.06995 Y23.71026
G01 X24.11557 Y23.80666
G01 X24.11654 Y23.80892
G01 X24.13996 Y23.86528
G01 X24.14085 Y23.86754
G01 X24.16995 Y23.94895
G01 X24.19342 Y24.01456
G01 X24.19421 Y24.01692
G01 X24.20717 Y24.05944
G01 X24.20783 Y24.06183
G01 X24.24460 Y24.20889
G01 X24.24519 Y24.21125
G01 X24.25184 Y24.24468
G01 X24.25228 Y24.24707
G01 X24.26993 Y24.36632
G01 X24.26993 Y24.81356
G01 X24.25228 Y24.93282
G01 X24.25184 Y24.93521
G01 X24.24519 Y24.96863
G01 X24.24460 Y24.97099
G01 X24.20783 Y25.11809
G01 X24.20717 Y25.12045
G01 X24.19421 Y25.16299
G01 X24.19342 Y25.16525
G01 X24.16995 Y25.23096
G01 X24.14087 Y25.31227
G01 X24.13996 Y25.31463
G01 X24.11651 Y25.37109
G01 X24.11555 Y25.37325
G01 X24.06995 Y25.46965
G01 X24.06995 Y63.26899
G01 X24.11595 Y63.36632
G01 X24.11694 Y63.36848
G01 X24.14036 Y63.42482
G01 X24.14125 Y63.42708
G01 X24.16995 Y63.50729
G01 X24.20089 Y63.59378
G01 X24.20163 Y63.59606
G01 X24.21412 Y63.63721
G01 X24.21481 Y63.63962
G01 X24.25649 Y63.80620
G01 X24.25708 Y63.80861
G01 X24.26325 Y63.83970
G01 X24.26371 Y63.84216
G01 X24.26993 Y63.88430
G01 X24.26371 Y63.84216
G01 X24.26325 Y63.83970
G01 X24.25708 Y63.80861
G01 X24.25649 Y63.80620
G01 X24.21481 Y63.63962
G01 X24.21412 Y63.63721
G01 X24.20163 Y63.59606
G01 X24.20089 Y63.59378
G01 X24.16995 Y63.50729
G01 X24.16995 Y25.23096
G01 X24.19342 Y25.16525
G01 X24.19421 Y25.16299
G01 X24.20717 Y25.12045
G01 X24.20783 Y25.11809
G01 X24.24460 Y24.97099
G01 X24.24519 Y24.96863
G01 X24.25184 Y24.93521
G01 X24.25228 Y24.93282
G01 X24.26993 Y24.81356
G01 X24.26993 Y63.88430
G01 X24.26993 Y64.55557
G01 X24.26371 Y64.59776
G01 X24.26325 Y64.60020
G01 X24.25708 Y64.63132
G01 X24.25649 Y64.63368
G01 X24.21481 Y64.80033
G01 X24.21412 Y64.80274
G01 X24.20163 Y64.84389
G01 X24.20089 Y64.84615
G01 X24.16995 Y64.93259
G01 X24.14125 Y65.01280
G01 X24.14036 Y65.01514
G01 X24.11694 Y65.07140
G01 X24.11595 Y65.07363
G01 X24.06995 Y65.17096
G01 X24.06995 Y65.50998
G01 X24.07140 Y65.53937
G01 X24.07526 Y65.57833
G01 X24.08672 Y65.63604
G01 X24.09810 Y65.67355
G01 X24.12055 Y65.72786
G01 X24.13909 Y65.76248
G01 X24.17176 Y65.81140
G01 X24.19665 Y65.84165
G01 X24.21639 Y65.86352
G01 X24.73663 Y66.38376
G01 X24.75220 Y66.37983
G01 X24.73663 Y66.38376
G01 X24.69924 Y66.50708
G01 X24.69208 Y66.53558
G01 X24.68776 Y66.56471
G01 X24.67140 Y66.73055
G01 X24.66993 Y66.75999
G01 X24.67140 Y66.78938
G01 X24.68776 Y66.95521
G01 X24.69208 Y66.98435
G01 X24.69924 Y67.01290
G01 X24.70523 Y67.03266
G01 X24.72063 Y67.04721
G01 X24.72347 Y67.05011
G01 X24.79929 Y67.13454
G01 X24.80211 Y67.13789
G01 X24.82713 Y67.17116
G01 X24.83546 Y67.18188
G01 X24.86370 Y67.21757
G01 X24.86548 Y67.21991
G01 X24.90125 Y67.27096
G01 X24.90292 Y67.27347
G01 X24.93353 Y67.32336
G01 X24.96000 Y67.36202
G01 X25.01552 Y67.43530
G01 X25.06121 Y67.48564
G01 X25.07270 Y67.49710
G01 X25.07772 Y67.50218
G01 X25.08278 Y67.50726
G01 X25.09426 Y67.51871
G01 X25.14465 Y67.56438
G01 X25.21793 Y67.61993
G01 X25.25654 Y67.64637
G01 X25.29401 Y67.66938
G01 X25.39769 Y67.72120
G01 X25.44056 Y67.74007
G01 X25.45921 Y67.74718
G01 X25.59373 Y67.78559
G01 X25.63665 Y67.79567
G01 X25.79931 Y67.81079
G01 X25.81996 Y67.81221
G01 X25.84061 Y67.81079
G01 X26.00328 Y67.79567
G01 X26.04620 Y67.78559
G01 X26.18072 Y67.74718
G01 X26.19936 Y67.74007
G01 X26.24221 Y67.72120
G01 X26.34592 Y67.66938
G01 X26.38336 Y67.64637
G01 X26.42202 Y67.61993
G01 X26.49530 Y67.56438
G01 X26.54564 Y67.51871
G01 X26.55677 Y67.50751
G01 X26.56215 Y67.50213
G01 X26.56743 Y67.49687
G01 X26.57869 Y67.48564
G01 X26.62433 Y67.43530
G01 X26.67993 Y67.36202
G01 X26.70635 Y67.32336
G01 X26.73703 Y67.27347
G01 X26.73871 Y67.27096
G01 X26.77442 Y67.21991
G01 X26.77620 Y67.21757
G01 X26.80449 Y67.18188
G01 X26.81275 Y67.17116
G01 X26.83782 Y67.13784
G01 X26.84064 Y67.13444
G01 X26.91646 Y67.05011
G01 X26.91928 Y67.04721
G01 X26.93469 Y67.03261
G01 X26.94074 Y67.01290
G01 X26.94785 Y66.98435
G01 X26.95217 Y66.95521
G01 X26.96855 Y66.78938
G01 X26.96855 Y66.73055
G01 X26.95217 Y66.56471
G01 X26.94785 Y66.53558
G01 X26.94074 Y66.50708
G01 X26.89233 Y66.34762
G01 X26.86985 Y66.29324
G01 X26.79128 Y66.14630
G01 X26.75865 Y66.09738
G01 X26.65293 Y65.96860
G01 X26.63317 Y65.94681
G01 X26.61133 Y65.92705
G01 X26.48255 Y65.82131
G01 X26.43363 Y65.78864
G01 X26.28669 Y65.71010
G01 X26.26004 Y65.69753
G01 X26.23233 Y65.68760
G01 X26.07287 Y65.63924
G01 X26.01521 Y65.62773
G01 X25.84938 Y65.61143
G01 X25.79055 Y65.61143
G01 X25.62476 Y65.62773
G01 X25.56706 Y65.63924
G01 X25.44374 Y65.67663
G01 X25.43975 Y65.69164
G01 X25.44374 Y65.67663
G01 X25.06995 Y65.30284
G01 X25.06236 Y65.30599
G01 X25.06995 Y65.30284
G01 X25.06995 Y65.20381
G01 X24.99944 Y65.05468
G01 X24.99845 Y65.05250
G01 X24.97699 Y65.00086
G01 X24.97590 Y64.99860
G01 X24.96993 Y64.98189
G01 X24.91646 Y64.83187
G01 X24.91570 Y64.82959
G01 X24.90450 Y64.79273
G01 X24.90381 Y64.79032
G01 X24.86998 Y64.65499
G01 X24.90381 Y64.79032
G01 X24.90450 Y64.79273
G01 X24.91570 Y64.82959
G01 X24.91646 Y64.83187
G01 X24.96993 Y64.98133
G01 X24.96993 Y64.98189
G01 X24.96993 Y65.34429
G01 X24.96236 Y65.34744
G01 X24.96993 Y65.34429
G01 X25.41638 Y65.79072
G01 X25.41240 Y65.80640
G01 X25.41638 Y65.79072
G01 X25.41816 Y65.78991
G01 X25.43665 Y65.78331
G01 X25.59611 Y65.73490
G01 X25.63457 Y65.72722
G01 X25.80035 Y65.71092
G01 X25.83957 Y65.71092
G01 X26.00541 Y65.72722
G01 X26.04386 Y65.73490
G01 X26.20333 Y65.78331
G01 X26.22177 Y65.78991
G01 X26.23952 Y65.79829
G01 X26.38651 Y65.87683
G01 X26.41907 Y65.89862
G01 X26.54790 Y66.00434
G01 X26.56243 Y66.01750
G01 X26.57559 Y66.03202
G01 X26.68130 Y66.16088
G01 X26.70312 Y66.19342
G01 X26.78166 Y66.34043
G01 X26.79662 Y66.37660
G01 X26.84503 Y66.53606
G01 X26.84981 Y66.55511
G01 X26.85270 Y66.57457
G01 X26.86901 Y66.74038
G01 X26.86901 Y66.77960
G01 X26.85270 Y66.94536
G01 X26.84981 Y66.96481
G01 X26.84503 Y66.98386
G01 X26.79662 Y67.14333
G01 X26.78166 Y67.17955
G01 X26.70312 Y67.32651
G01 X26.68130 Y67.35910
G01 X26.57559 Y67.48790
G01 X26.56743 Y67.49687
G01 X26.56215 Y67.50213
G01 X26.55677 Y67.50751
G01 X26.54790 Y67.51564
G01 X26.41907 Y67.62130
G01 X26.38651 Y67.64310
G01 X26.23952 Y67.72161
G01 X26.22177 Y67.73007
G01 X26.20333 Y67.73667
G01 X26.04386 Y67.78503
G01 X26.00541 Y67.79270
G01 X25.83957 Y67.80901
G01 X25.80035 Y67.80901
G01 X25.63457 Y67.79270
G01 X25.61511 Y67.78981
G01 X25.59611 Y67.78503
G01 X25.43665 Y67.73667
G01 X25.40041 Y67.72161
G01 X25.25342 Y67.64310
G01 X25.22088 Y67.62130
G01 X25.09208 Y67.51564
G01 X25.08278 Y67.50726
G01 X25.07772 Y67.50218
G01 X25.07270 Y67.49710
G01 X25.06434 Y67.48790
G01 X24.95862 Y67.35910
G01 X24.93686 Y67.32651
G01 X24.85829 Y67.17955
G01 X24.84331 Y67.14333
G01 X24.79487 Y66.98386
G01 X24.79017 Y66.96481
G01 X24.78722 Y66.94536
G01 X24.77094 Y66.77960
G01 X24.77094 Y66.74038
G01 X24.78722 Y66.57457
G01 X24.79017 Y66.55511
G01 X24.79487 Y66.53606
G01 X24.84331 Y66.37660
G01 X24.85136 Y66.35707
G01 X24.86703 Y66.35313
G01 X24.85136 Y66.35707
G01 X24.28707 Y65.79281
G01 X24.27394 Y65.77823
G01 X24.24902 Y65.74795
G01 X24.22726 Y65.71536
G01 X24.20882 Y65.68074
G01 X24.19380 Y65.64450
G01 X24.18243 Y65.60698
G01 X24.17478 Y65.56858
G01 X24.17087 Y65.52951
G01 X24.16995 Y65.50998
G01 X24.16995 Y64.93259
G01 X24.20089 Y64.84615
G01 X24.20163 Y64.84389
G01 X24.21412 Y64.80274
G01 X24.21481 Y64.80033
G01 X24.25649 Y64.63368
G01 X24.25708 Y64.63132
G01 X24.26325 Y64.60020
G01 X24.26371 Y64.59776
G01 X24.26993 Y64.55557
G01 X24.26993 Y65.50998
G01 X24.27041 Y65.51976
G01 X24.27430 Y65.55880
G01 X24.27806 Y65.57800
G01 X24.28944 Y65.61554
G01 X24.29698 Y65.63363
G01 X24.31542 Y65.66822
G01 X24.32632 Y65.68453
G01 X24.35121 Y65.71480
G01 X24.35779 Y65.72207
G01 X24.97325 Y66.33746
G01 X24.94648 Y66.38757
G01 X24.93899 Y66.40566
G01 X24.89058 Y66.56512
G01 X24.88677 Y66.58432
G01 X24.87046 Y66.75016
G01 X24.86998 Y66.75999
G01 X24.87046 Y66.76977
G01 X24.88677 Y66.93560
G01 X24.89058 Y66.95481
G01 X24.93899 Y67.11427
G01 X24.94648 Y67.13240
G01 X25.02502 Y67.27937
G01 X25.03010 Y67.28777
G01 X25.03592 Y67.29560
G01 X25.14163 Y67.42448
G01 X25.14821 Y67.43174
G01 X25.15545 Y67.43827
G01 X25.28430 Y67.54398
G01 X25.30058 Y67.55488
G01 X25.44757 Y67.63347
G01 X25.46566 Y67.64099
G01 X25.62512 Y67.68932
G01 X25.63465 Y67.69174
G01 X25.64432 Y67.69318
G01 X25.81016 Y67.70949
G01 X25.82977 Y67.70949
G01 X25.99560 Y67.69318
G01 X26.01481 Y67.68932
G01 X26.17427 Y67.64099
G01 X26.18351 Y67.63769
G01 X26.19238 Y67.63347
G01 X26.33934 Y67.55488
G01 X26.35565 Y67.54398
G01 X26.48448 Y67.43827
G01 X26.49174 Y67.43174
G01 X26.49832 Y67.42448
G01 X26.60404 Y67.29560
G01 X26.60988 Y67.28777
G01 X26.61493 Y67.27937
G01 X26.69344 Y67.13240
G01 X26.70099 Y67.11427
G01 X26.74932 Y66.95481
G01 X26.75171 Y66.94528
G01 X26.75316 Y66.93560
G01 X26.76947 Y66.76977
G01 X26.76947 Y66.75016
G01 X26.75316 Y66.58432
G01 X26.75171 Y66.57464
G01 X26.74932 Y66.56512
G01 X26.70099 Y66.40566
G01 X26.69344 Y66.38757
G01 X26.61493 Y66.24061
G01 X26.60988 Y66.23215
G01 X26.60404 Y66.22430
G01 X26.49832 Y66.09545
G01 X26.49174 Y66.08818
G01 X26.48448 Y66.08166
G01 X26.35565 Y65.97594
G01 X26.33934 Y65.96504
G01 X26.19238 Y65.88651
G01 X26.18351 Y65.88224
G01 X26.17427 Y65.87894
G01 X26.01481 Y65.83060
G01 X25.99560 Y65.82679
G01 X25.82977 Y65.81043
G01 X25.81016 Y65.81043
G01 X25.64432 Y65.82679
G01 X25.62512 Y65.83060
G01 X25.46566 Y65.87894
G01 X25.45641 Y65.88224
G01 X25.44757 Y65.88651
G01 X25.39749 Y65.91323
G01 X24.86998 Y65.38570
G01 X24.86998 Y64.65499
G01 X24.86998 Y63.78489
G01 X24.86998 Y19.83760
G01 X24.99020 Y19.84946
G01 X25.00973 Y19.84946
G01 X25.15611 Y19.83506
G01 X25.17534 Y19.83123
G01 X25.31600 Y19.78858
G01 X25.32522 Y19.78523
G01 X25.33414 Y19.78109
G01 X25.46380 Y19.71177
G01 X25.48011 Y19.70090
G01 X25.59373 Y19.60761
G01 X25.60099 Y19.60098
G01 X25.60757 Y19.59371
G01 X25.70089 Y19.48005
G01 X25.71178 Y19.46379
G01 X25.78110 Y19.33412
G01 X25.78527 Y19.32521
G01 X25.78857 Y19.31599
G01 X25.83127 Y19.17527
G01 X25.83510 Y19.15604
G01 X25.84950 Y19.00974
G01 X25.84950 Y18.99018
G01 X25.83510 Y18.84388
G01 X25.83127 Y18.82465
G01 X25.78857 Y18.68394
G01 X25.78527 Y18.67471
G01 X25.78110 Y18.66580
G01 X25.71178 Y18.53616
G01 X25.70089 Y18.51988
G01 X25.60757 Y18.40621
G01 X25.60099 Y18.39895
G01 X25.59373 Y18.39237
G01 X25.48011 Y18.29905
G01 X25.46380 Y18.28815
G01 X25.33414 Y18.21884
G01 X25.32522 Y18.21470
G01 X25.31600 Y18.21137
G01 X25.17534 Y18.16870
G01 X25.15611 Y18.16489
G01 X25.00973 Y18.15046
G01 X24.99020 Y18.15046
G01 X24.84387 Y18.16489
G01 X24.82459 Y18.16870
G01 X24.68395 Y18.21137
G01 X24.67470 Y18.21470
G01 X24.66581 Y18.21884
G01 X24.53617 Y18.28815
G01 X24.52774 Y18.29323
G01 X24.51986 Y18.29905
G01 X24.40622 Y18.39237
G01 X24.39888 Y18.39895
G01 X24.39231 Y18.40621
G01 X24.29904 Y18.51988
G01 X24.29325 Y18.52773
G01 X24.28817 Y18.53616
G01 X24.21882 Y18.66580
G01 X24.21468 Y18.67471
G01 X24.21138 Y18.68394
G01 X24.16871 Y18.82465
G01 X24.16487 Y18.84388
G01 X24.15047 Y18.99018
G01 X24.15047 Y19.00974
G01 X24.16487 Y19.15604
G01 X24.16871 Y19.17527
G01 X24.21138 Y19.31599
G01 X24.21468 Y19.32521
G01 X24.21882 Y19.33412
G01 X24.26993 Y19.42993
G01 X24.26993 Y24.36632
G01 X24.25228 Y24.24707
G01 X24.25184 Y24.24468
G01 X24.24519 Y24.21125
G01 X24.24460 Y24.20889
G01 X24.20783 Y24.06183
G01 X24.20717 Y24.05944
G01 X24.19421 Y24.01692
G01 X24.19342 Y24.01456
G01 X24.16995 Y23.94895
G01 X24.16995 Y19.45475
G01 X24.17254 Y19.45414
G01 X24.16995 Y19.45475
G01 X24.13066 Y19.38122
G01 X24.11565 Y19.34502
G01 X24.07300 Y19.20431
G01 X24.06820 Y19.18528
G01 X24.06536 Y19.16585
G01 X24.05093 Y19.01955
G01 X24.05093 Y18.98038
G01 X24.06536 Y18.83407
G01 X24.06820 Y18.81464
G01 X24.07300 Y18.79562
G01 X24.11565 Y18.65493
G01 X24.13066 Y18.61871
G01 X24.20000 Y18.48899
G01 X24.22177 Y18.45643
G01 X24.31504 Y18.34279
G01 X24.32825 Y18.32823
G01 X24.34278 Y18.31503
G01 X24.45644 Y18.22176
G01 X24.48900 Y18.19999
G01 X24.61865 Y18.13067
G01 X24.65492 Y18.11566
G01 X24.79556 Y18.07299
G01 X24.81466 Y18.06819
G01 X24.83406 Y18.06534
G01 X24.98039 Y18.05094
G01 X25.01953 Y18.05094
G01 X25.16586 Y18.06534
G01 X25.18527 Y18.06819
G01 X25.20437 Y18.07299
G01 X25.34501 Y18.11566
G01 X25.38128 Y18.13067
G01 X25.51092 Y18.19999
G01 X25.52779 Y18.21010
G01 X25.54354 Y18.22176
G01 X25.65720 Y18.31503
G01 X25.67173 Y18.32823
G01 X25.68491 Y18.34279
G01 X25.77816 Y18.45643
G01 X25.79995 Y18.48899
G01 X25.86926 Y18.61871
G01 X25.87767 Y18.63639
G01 X25.88428 Y18.65493
G01 X25.92697 Y18.79562
G01 X25.93172 Y18.81464
G01 X25.93459 Y18.83407
G01 X25.94900 Y18.98038
G01 X25.94900 Y19.01955
G01 X25.93459 Y19.16585
G01 X25.93172 Y19.18528
G01 X25.92697 Y19.20431
G01 X25.88428 Y19.34502
G01 X25.87767 Y19.36354
G01 X25.86926 Y19.38122
G01 X25.79995 Y19.51093
G01 X25.77816 Y19.54350
G01 X25.68491 Y19.65716
G01 X25.67173 Y19.67169
G01 X25.65720 Y19.68492
G01 X25.54354 Y19.77817
G01 X25.52779 Y19.78985
G01 X25.51092 Y19.79996
G01 X25.38128 Y19.86928
G01 X25.34501 Y19.88429
G01 X25.20437 Y19.92694
G01 X25.18527 Y19.93174
G01 X25.16586 Y19.93461
G01 X25.01953 Y19.94901
G01 X24.98039 Y19.94901
G01 X24.96993 Y19.94794
G01 X24.94323 Y19.92323
G01 X24.96993 Y19.94794
G01 X24.96993 Y29.81272
G04 P0 ( dwell for no time -- G64 should not smooth over this point )
G00 Z5.00000 ( retract )

G00 X22.39437 Y24.17625 ( rapid move to begin. )
G01 F300.00000
( Mill infeed pass 1/1 )
G01 Z-0.05000
G04 P0 ( dwell for no time -- G64 should not smooth over this point )
G01 F600.00000
G01 X22.39437 Y24.17625
G01 X22.39998 Y24.10859
G01 X22.49998 Y22.90348
G01 X22.49998 Y17.91922
G01 X22.48687 Y17.91178
G01 X22.49998 Y17.91922
G01 X22.55807 Y17.88815
G01 X22.60699 Y17.85549
G01 X22.72063 Y17.76222
G01 X22.74242 Y17.74241
G01 X22.75616 Y17.72729
G01 X22.80557 Y17.58925
G01 X22.82205 Y17.53509
G01 X22.85286 Y17.41190
G01 X22.85825 Y17.39047
G01 X22.86709 Y17.34622
G01 X22.88855 Y17.20159
G01 X22.89236 Y17.16293
G01 X22.89945 Y17.01838
G01 X22.89945 Y16.98153
G01 X22.89236 Y16.83695
G01 X22.88855 Y16.79832
G01 X22.86709 Y16.65369
G01 X22.85825 Y16.60947
G01 X22.85286 Y16.58808
G01 X22.82205 Y16.46481
G01 X22.80557 Y16.41058
G01 X22.78451 Y16.35181
G01 X22.78418 Y16.35084
G01 X22.77549 Y16.32506
G01 X22.77519 Y16.32415
G01 X22.76991 Y16.30718
G01 X22.76919 Y16.30693
G01 X22.73536 Y16.29534
G01 X22.70526 Y16.28602
