( pcb2gcode 2.5.0 )
( Software-independent Gcode )

G94 ( Millimeters per minute feed rate. )
G21 ( Units == Millimeters. )

G90 ( Absolute coordinates. )
G00 S10000 ( RPM spindle speed. )
G64 P0.01000 ( set maximum deviation from commanded toolpath )
G01 F500.00000 ( Feedrate. )


G00 Z30.00000 (Retract to tool change height)
T1
M5      (Spindle stop.)
G04 P1.00000 (Wait for spindle to stop)
(MSG, Change tool bit to mill diameter 0.20000mm)
M6      (Tool change.)
M0      (Temporary machine stop.)
M3 ( Spindle on clockwise. )
G04 P1.00000 (Wait for spindle to get up to speed)
G04 P0 ( dwell for no time -- G64 should not smooth over this point )
G00 Z5.00000 ( retract )

G00 X4.24520 Y3.25994 ( rapid move to begin. )
G01 F250.00000
( Mill infeed pass 1/1 )
G01 Z-0.05000
G04 P0 ( dwell for no time -- G64 should not smooth over this point )
G01 F500.00000
G01 X4.24520 Y3.25994
G01 X4.26425 Y3.47779
G01 X4.32084 Y3.68915
G01 X4.40192 Y3.86296
G01 X4.62862 Y3.63637
G01 X4.62651 Y3.63235
G01 X4.62229 Y3.62354
G01 X4.61899 Y3.61429
G01 X4.57058 Y3.45478
G01 X4.56679 Y3.43555
G01 X4.55046 Y3.26979
G01 X4.54995 Y3.25994
G01 X4.55046 Y3.25013
G01 X4.56679 Y3.08430
G01 X4.56824 Y3.07464
G01 X4.57058 Y3.06512
G01 X4.61899 Y2.90563
G01 X4.62229 Y2.89639
G01 X4.62651 Y2.88755
G01 X4.62862 Y2.88359
G01 X4.40192 Y2.65694
G01 X4.32084 Y2.83080
G01 X4.26425 Y3.04203
G01 X4.24520 Y3.25994
G01 X4.34520 Y3.25994
G01 X4.34553 Y3.25994
G01 X4.36311 Y3.05951
G01 X4.36255 Y3.05940
G01 X4.36311 Y3.05951
G01 X4.41521 Y2.86509
G01 X4.43222 Y2.82862
G01 X4.40896 Y2.73637
G01 X4.43222 Y2.82862
G01 X4.51328 Y2.90967
G01 X4.52910 Y2.90561
G01 X4.51328 Y2.90967
G01 X4.47492 Y3.03606
G01 X4.47017 Y3.05509
G01 X4.46728 Y3.07457
G01 X4.45094 Y3.24033
G01 X4.45094 Y3.27960
G01 X4.46728 Y3.44536
G01 X4.47017 Y3.46484
G01 X4.47492 Y3.48386
G01 X4.51328 Y3.61028
G01 X4.52910 Y3.61429
G01 X4.51328 Y3.61028
G01 X4.43222 Y3.69133
G01 X4.40893 Y3.78353
G01 X4.43222 Y3.69133
G01 X4.41521 Y3.65476
G01 X4.36311 Y3.46037
G01 X4.36255 Y3.46052
G01 X4.36311 Y3.46037
G01 X4.34553 Y3.25994
G04 P0 ( dwell for no time -- G64 should not smooth over this point )
G00 Z5.00000 ( retract )

G00 X4.89689 Y2.16190 ( rapid move to begin. )
G01 F250.00000
( Mill infeed pass 1/1 )
G01 Z-0.05000
G04 P0 ( dwell for no time -- G64 should not smooth over this point )
G01 F500.00000
G01 X4.89689 Y2.16190
G01 X5.07081 Y2.08082
G01 X5.28208 Y2.02425
G01 X5.49996 Y2.00520
G01 X5.71784 Y2.02425
G01 X5.92910 Y2.08082
G01 X6.10296 Y2.16190
G01 X5.87637 Y2.38857
G01 X5.87240 Y2.38646
G01 X5.85424 Y2.37894
G01 X5.69478 Y2.33063
G01 X5.67560 Y2.32679
G01 X5.50979 Y2.31046
G01 X5.49999 Y2.30993
G01 X5.49018 Y2.31046
G01 X5.32435 Y2.32679
G01 X5.30507 Y2.33063
G01 X5.14563 Y2.37894
G01 X5.13644 Y2.38224
G01 X5.12752 Y2.38646
G01 X5.12359 Y2.38857
G01 X4.89689 Y2.16190
G01 X4.97642 Y2.16891
G01 X5.06862 Y2.19217
G01 X5.10515 Y2.17521
G01 X5.29946 Y2.12306
G01 X5.29935 Y2.12260
G01 X5.29946 Y2.12306
G01 X5.49996 Y2.10553
G01 X5.49996 Y2.10515
G01 X5.49996 Y2.10553
G01 X5.70040 Y2.12306
G01 X5.70047 Y2.12260
G01 X5.70040 Y2.12306
G01 X5.89481 Y2.17521
G01 X5.93133 Y2.19217
G01 X6.02348 Y2.16888
G01 X5.93133 Y2.19217
G01 X5.85028 Y2.27322
G01 X5.85424 Y2.28910
G01 X5.85028 Y2.27322
G01 X5.72381 Y2.23487
G01 X5.70479 Y2.23017
G01 X5.68541 Y2.22728
G01 X5.51960 Y2.21089
G01 X5.49999 Y2.20998
G01 X5.48038 Y2.21089
G01 X5.31457 Y2.22728
G01 X5.29509 Y2.23017
G01 X5.27606 Y2.23487
G01 X5.14967 Y2.27322
G01 X5.14561 Y2.28910
G01 X5.14967 Y2.27322
G01 X5.06862 Y2.19217
G04 P0 ( dwell for no time -- G64 should not smooth over this point )
G00 Z5.00000 ( retract )

G00 X7.08998 Y3.25994 ( rapid move to begin. )
G01 F250.00000
( Mill infeed pass 1/1 )
G01 Z-0.05000
G04 P0 ( dwell for no time -- G64 should not smooth over this point )
G01 F500.00000
G01 X7.08998 Y3.25994
G01 X7.09046 Y3.25013
G01 X7.10679 Y3.08430
G01 X7.11058 Y3.06512
G01 X7.15896 Y2.90563
G01 X7.16229 Y2.89639
G01 X7.16651 Y2.88755
G01 X7.24502 Y2.74058
G01 X7.25007 Y2.73215
G01 X7.25594 Y2.72430
G01 X7.36166 Y2.59545
G01 X7.37550 Y2.58161
G01 X7.50430 Y2.47589
G01 X7.51220 Y2.47010
G01 X7.52058 Y2.46499
G01 X7.66757 Y2.38646
G01 X7.68568 Y2.37894
G01 X7.84509 Y2.33063
G01 X7.85465 Y2.32819
G01 X7.86435 Y2.32679
G01 X8.03018 Y2.31046
G01 X8.04979 Y2.31046
G01 X8.21558 Y2.32679
G01 X8.22533 Y2.32819
G01 X8.23481 Y2.33063
G01 X8.39429 Y2.37894
G01 X8.41240 Y2.38646
G01 X8.55934 Y2.46499
G01 X8.56778 Y2.47010
G01 X8.57562 Y2.47589
G01 X8.70448 Y2.58161
G01 X8.71832 Y2.59545
G01 X8.82404 Y2.72430
G01 X8.82988 Y2.73215
G01 X8.83491 Y2.74058
G01 X8.91347 Y2.88755
G01 X8.91764 Y2.89639
G01 X8.92096 Y2.90563
G01 X8.96932 Y3.06512
G01 X8.97318 Y3.08430
G01 X8.98952 Y3.25013
G01 X8.99000 Y3.25994
G01 X8.98952 Y3.26979
G01 X8.97318 Y3.43555
G01 X8.96932 Y3.45478
G01 X8.92096 Y3.61429
G01 X8.91764 Y3.62354
G01 X8.91347 Y3.63235
G01 X8.83491 Y3.77937
G01 X8.82404 Y3.79565
G01 X8.71832 Y3.92448
G01 X8.70448 Y3.93827
G01 X8.57562 Y4.04398
G01 X8.55934 Y4.05493
G01 X8.41240 Y4.13342
G01 X8.39429 Y4.14099
G01 X8.23481 Y4.18930
G01 X8.22533 Y4.19174
G01 X8.21558 Y4.19318
G01 X8.04979 Y4.20947
G01 X8.03018 Y4.20947
G01 X7.86435 Y4.19318
G01 X7.85465 Y4.19174
G01 X7.84509 Y4.18930
G01 X7.68568 Y4.14099
G01 X7.66757 Y4.13342
G01 X7.52058 Y4.05493
G01 X7.51220 Y4.04988
G01 X7.50430 Y4.04398
G01 X7.37550 Y3.93827
G01 X7.36166 Y3.92448
G01 X7.25594 Y3.79565
G01 X7.25007 Y3.78777
G01 X7.24502 Y3.77937
G01 X7.16651 Y3.63235
G01 X7.16229 Y3.62354
G01 X7.15896 Y3.61429
G01 X7.11058 Y3.45478
G01 X7.10679 Y3.43555
G01 X7.09046 Y3.26979
G01 X7.08998 Y3.25994
G01 X6.98995 Y3.25994
G01 X6.99092 Y3.24033
G01 X7.00725 Y3.07457
G01 X7.01490 Y3.03606
G01 X7.06331 Y2.87663
G01 X7.06991 Y2.85816
G01 X7.07829 Y2.84038
G01 X7.15686 Y2.69342
G01 X7.16514 Y2.67960
G01 X7.17019 Y2.67221
G01 X7.17862 Y2.66088
G01 X7.28434 Y2.53202
G01 X7.31205 Y2.50434
G01 X7.44085 Y2.39862
G01 X7.45228 Y2.39017
G01 X7.45957 Y2.38516
G01 X7.47347 Y2.37683
G01 X7.62041 Y2.29824
G01 X7.65665 Y2.28331
G01 X7.81611 Y2.23487
G01 X7.83514 Y2.23017
G01 X7.85454 Y2.22728
G01 X8.02038 Y2.21089
G01 X8.03999 Y2.20998
G01 X8.05960 Y2.21089
G01 X8.22538 Y2.22728
G01 X8.24481 Y2.23017
G01 X8.26384 Y2.23487
G01 X8.42333 Y2.28331
G01 X8.45952 Y2.29824
G01 X8.60651 Y2.37683
G01 X8.62020 Y2.38501
G01 X8.62795 Y2.39032
G01 X8.63907 Y2.39862
G01 X8.76790 Y2.50434
G01 X8.79564 Y2.53202
G01 X8.90130 Y2.66088
G01 X8.90951 Y2.67188
G01 X8.91494 Y2.67985
G01 X8.92312 Y2.69342
G01 X9.00163 Y2.84038
G01 X9.01007 Y2.85816
G01 X9.01664 Y2.87663
G01 X9.06503 Y3.03606
G01 X9.07268 Y3.07457
G01 X9.08901 Y3.24033
G01 X9.09000 Y3.25994
G01 X9.08901 Y3.27960
G01 X9.07268 Y3.44536
G01 X9.06503 Y3.48386
G01 X9.01664 Y3.64333
G01 X9.01007 Y3.66177
G01 X9.00163 Y3.67949
G01 X8.92312 Y3.82651
G01 X8.91304 Y3.84332
G01 X8.90130 Y3.85910
G01 X8.79564 Y3.98790
G01 X8.78246 Y4.00240
G01 X8.76790 Y4.01561
G01 X8.63907 Y4.12133
G01 X8.60651 Y4.14312
G01 X8.45952 Y4.22161
G01 X8.42333 Y4.23667
G01 X8.26384 Y4.28498
G01 X8.24481 Y4.28981
G01 X8.22538 Y4.29265
G01 X8.05960 Y4.30898
G01 X8.03999 Y4.31000
G01 X8.02038 Y4.30898
G01 X7.85454 Y4.29265
G01 X7.83514 Y4.28981
G01 X7.81611 Y4.28498
G01 X7.65665 Y4.23667
G01 X7.62041 Y4.22161
G01 X7.47347 Y4.14312
G01 X7.45983 Y4.13489
G01 X7.45193 Y4.12956
G01 X7.44085 Y4.12133
G01 X7.31205 Y4.01561
G01 X7.28434 Y3.98790
G01 X7.17862 Y3.85910
G01 X7.17039 Y3.84795
G01 X7.16504 Y3.84010
G01 X7.15686 Y3.82651
G01 X7.07829 Y3.67949
G01 X7.06331 Y3.64333
G01 X7.01490 Y3.48386
G01 X7.00725 Y3.44536
G01 X6.99092 Y3.27960
G01 X6.98995 Y3.25994
G04 P0 ( dwell for no time -- G64 should not smooth over this point )
G00 Z5.00000 ( retract )

G00 X5.02557 Y4.37078 ( rapid move to begin. )
G01 F250.00000
( Mill infeed pass 1/1 )
G01 Z-0.05000
G04 P0 ( dwell for no time -- G64 should not smooth over this point )
G01 F500.00000
G01 X5.02557 Y4.37078
G01 X5.03806 Y4.39486
G01 X5.04815 Y4.42519
G01 X5.06214 Y4.48244
G01 X5.06722 Y4.51401
G01 X5.06722 Y4.54589
G01 X5.06214 Y4.57744
G01 X5.04815 Y4.63466
G01 X5.03806 Y4.66501
G01 X5.02557 Y4.68912
G01 X5.01157 Y4.69308
G01 X5.02557 Y4.68912
G01 X5.14967 Y4.81327
G01 X5.14561 Y4.82910
G01 X5.14967 Y4.81327
G01 X5.27606 Y4.77487
G01 X5.29509 Y4.77012
G01 X5.31457 Y4.76722
G01 X5.48038 Y4.75089
G01 X5.49999 Y4.74998
G01 X5.51960 Y4.75089
G01 X5.68541 Y4.76722
G01 X5.70479 Y4.77012
G01 X5.72381 Y4.77487
G01 X5.85028 Y4.81327
G01 X5.85424 Y4.82910
G01 X5.85028 Y4.81327
G01 X5.97438 Y4.68912
G01 X5.99008 Y4.69313
G01 X5.97438 Y4.68912
G01 X5.96186 Y4.66507
G01 X5.95180 Y4.63474
G01 X5.93778 Y4.57749
G01 X5.93270 Y4.54591
G01 X5.93270 Y4.51399
G01 X5.93778 Y4.48236
G01 X5.95180 Y4.42516
G01 X5.96186 Y4.39484
G01 X5.97438 Y4.37078
G01 X5.98838 Y4.36677
G01 X5.97438 Y4.37078
G01 X5.85028 Y4.24670
G01 X5.85427 Y4.23134
G01 X5.85028 Y4.24670
G01 X5.72381 Y4.28498
G01 X5.68541 Y4.29265
G01 X5.51960 Y4.30898
G01 X5.48038 Y4.30898
G01 X5.31457 Y4.29265
G01 X5.29509 Y4.28981
G01 X5.27606 Y4.28498
G01 X5.14967 Y4.24668
G01 X5.14561 Y4.23078
G01 X5.14967 Y4.24668
G01 X5.02557 Y4.37078
G01 X5.00985 Y4.36672
G01 X4.89120 Y4.36367
G01 X4.92907 Y4.40680
G01 X4.93857 Y4.41957
G01 X4.94599 Y4.43375
G01 X4.95102 Y4.44899
G01 X4.96501 Y4.50624
G01 X4.96750 Y4.52194
G01 X4.96750 Y4.53796
G01 X4.96501 Y4.55366
G01 X4.95102 Y4.61096
G01 X4.94599 Y4.62610
G01 X4.93857 Y4.64028
G01 X4.92907 Y4.65310
G01 X4.89120 Y4.69628
G01 X5.12359 Y4.92857
G01 X5.12752 Y4.92646
G01 X5.14563 Y4.91894
G01 X5.30507 Y4.87063
G01 X5.32435 Y4.86674
G01 X5.49018 Y4.85041
G01 X5.49999 Y4.84998
G01 X5.50979 Y4.85041
G01 X5.67560 Y4.86674
G01 X5.69478 Y4.87063
G01 X5.85424 Y4.91894
G01 X5.87240 Y4.92646
G01 X5.87637 Y4.92857
G01 X6.10865 Y4.69628
G01 X6.07088 Y4.65310
G01 X6.06133 Y4.64030
G01 X6.05396 Y4.62613
G01 X6.04888 Y4.61101
G01 X6.03491 Y4.55371
G01 X6.03237 Y4.53796
G01 X6.03237 Y4.52194
G01 X6.03491 Y4.50619
G01 X6.04888 Y4.44894
G01 X6.05396 Y4.43372
G01 X6.06133 Y4.41955
G01 X6.07088 Y4.40680
G01 X6.10865 Y4.36367
G01 X5.87637 Y4.13131
G01 X5.87240 Y4.13342
G01 X5.86349 Y4.13763
G01 X5.85424 Y4.14099
G01 X5.69478 Y4.18930
G01 X5.67560 Y4.19318
G01 X5.50979 Y4.20947
G01 X5.49999 Y4.21000
G01 X5.49018 Y4.20947
G01 X5.32435 Y4.19318
G01 X5.30507 Y4.18930
G01 X5.14563 Y4.14099
G01 X5.13644 Y4.13763
G01 X5.12752 Y4.13342
G01 X5.12359 Y4.13128
G01 X4.89120 Y4.36367
G04 P0 ( dwell for no time -- G64 should not smooth over this point )
G00 Z5.00000 ( retract )

G00 X4.34553 Y5.79991 ( rapid move to begin. )
G01 F250.00000
( Mill infeed pass 1/1 )
G01 Z-0.05000
G04 P0 ( dwell for no time -- G64 should not smooth over this point )
G01 F500.00000
G01 X4.34553 Y5.79991
G01 X4.36311 Y5.59951
G01 X4.36255 Y5.59940
G01 X4.36311 Y5.59951
G01 X4.41521 Y5.40509
G01 X4.43222 Y5.36857
G01 X4.40896 Y5.27642
G01 X4.43222 Y5.36857
G01 X4.51328 Y5.44962
G01 X4.52910 Y5.44566
G01 X4.51328 Y5.44962
G01 X4.47492 Y5.57611
G01 X4.47017 Y5.59514
G01 X4.46728 Y5.61452
G01 X4.45094 Y5.78033
G01 X4.44993 Y5.79994
G01 X4.45094 Y5.81955
G01 X4.46728 Y5.98536
G01 X4.47017 Y6.00484
G01 X4.47492 Y6.02386
G01 X4.51328 Y6.15023
G01 X4.52910 Y6.15429
G01 X4.51328 Y6.15023
G01 X4.43222 Y6.23128
G01 X4.40893 Y6.32353
G01 X4.43222 Y6.23128
G01 X4.41521 Y6.19476
G01 X4.36311 Y6.00042
G01 X4.36255 Y6.00052
G01 X4.36311 Y6.00042
G01 X4.34553 Y5.79991
G01 X4.34520 Y5.79991
G01 X4.24520 Y5.79991
G01 X4.26425 Y5.58203
G01 X4.32084 Y5.37075
G01 X4.40192 Y5.19694
G01 X4.62862 Y5.42353
G01 X4.62651 Y5.42757
G01 X4.61899 Y5.44568
G01 X4.57058 Y5.60512
G01 X4.56679 Y5.62430
G01 X4.55046 Y5.79013
G01 X4.54995 Y5.79994
G01 X4.55046 Y5.80974
G01 X4.56679 Y5.97555
G01 X4.57058 Y5.99483
G01 X4.61899 Y6.15429
G01 X4.62229 Y6.16354
G01 X4.62651 Y6.17240
G01 X4.62862 Y6.17631
G01 X4.40192 Y6.40301
G01 X4.32084 Y6.22910
G01 X4.26425 Y6.01779
G01 X4.24520 Y5.79991
G04 P0 ( dwell for no time -- G64 should not smooth over this point )
G00 Z5.00000 ( retract )

G00 X5.06862 Y6.86770 ( rapid move to begin. )
G01 F250.00000
( Mill infeed pass 1/1 )
G01 Z-0.05000
G04 P0 ( dwell for no time -- G64 should not smooth over this point )
G01 F500.00000
G01 X5.06862 Y6.86770
G01 X5.14967 Y6.78665
G01 X5.14561 Y6.77083
G01 X5.14967 Y6.78665
G01 X5.27606 Y6.82501
G01 X5.29509 Y6.82981
G01 X5.31457 Y6.83270
G01 X5.48038 Y6.84903
G01 X5.49999 Y6.85000
G01 X5.51960 Y6.84903
G01 X5.68541 Y6.83270
G01 X5.72381 Y6.82501
G01 X5.85028 Y6.78670
G01 X5.85427 Y6.77136
G01 X5.85028 Y6.78670
G01 X5.93133 Y6.86770
G01 X6.02348 Y6.89099
G01 X5.93133 Y6.86770
G01 X5.89481 Y6.88472
G01 X5.70040 Y6.93684
G01 X5.70047 Y6.93732
G01 X5.70040 Y6.93684
G01 X5.49996 Y6.95434
G01 X5.49996 Y6.95475
G01 X5.49996 Y6.95434
G01 X5.29946 Y6.93684
G01 X5.29935 Y6.93732
G01 X5.29946 Y6.93684
G01 X5.10515 Y6.88472
G01 X5.06862 Y6.86770
G01 X4.97642 Y6.89099
G01 X4.89689 Y6.89800
G01 X5.12359 Y6.67134
G01 X5.12752 Y6.67344
G01 X5.14563 Y6.68099
G01 X5.30507 Y6.72932
G01 X5.31465 Y6.73174
G01 X5.32435 Y6.73316
G01 X5.49018 Y6.74949
G01 X5.49999 Y6.74997
G01 X5.50979 Y6.74949
G01 X5.67560 Y6.73316
G01 X5.69478 Y6.72932
G01 X5.85424 Y6.68099
G01 X5.86349 Y6.67766
G01 X5.87240 Y6.67344
G01 X5.87637 Y6.67134
G01 X6.10296 Y6.89800
G01 X5.92910 Y6.97906
G01 X5.71784 Y7.03570
G01 X5.49996 Y7.05472
G01 X5.28208 Y7.03570
G01 X5.07081 Y6.97906
G01 X4.89689 Y6.89800
G04 P0 ( dwell for no time -- G64 should not smooth over this point )
G00 Z5.00000 ( retract )

G00 X2.39588 Y10.06145 ( rapid move to begin. )
G01 F250.00000
( Mill infeed pass 1/1 )
G01 Z-0.05000
G04 P0 ( dwell for no time -- G64 should not smooth over this point )
G01 F500.00000
G01 X2.39588 Y10.06145
G01 X2.42407 Y10.30557
G01 X2.48925 Y10.54255
G01 X2.58971 Y10.76678
G01 X2.72331 Y10.97310
G01 X2.88684 Y11.15654
G01 X3.07647 Y11.31291
G01 X3.28767 Y11.43848
G01 X3.51564 Y11.53038
G01 X3.75488 Y11.58636
G01 X3.93863 Y11.60043
G01 X4.12280 Y11.60043
G01 X4.36573 Y11.56297
G01 X4.59999 Y11.48880
G01 X4.82023 Y11.37973
G01 X5.02128 Y11.23838
G01 X5.19836 Y11.06795
G01 X5.34728 Y10.87250
G01 X5.46473 Y10.65660
G01 X5.54779 Y10.42530
G01 X5.59460 Y10.18408
G01 X5.60395 Y9.93846
G01 X5.57576 Y9.69432
G01 X5.51327 Y9.46666
G01 X5.51071 Y9.45744
G01 X5.41012 Y9.23313
G01 X5.27657 Y9.02683
G01 X5.11307 Y8.84339
G01 X4.92349 Y8.68703
G01 X4.71218 Y8.56140
G01 X4.48429 Y8.46958
G01 X4.24497 Y8.41357
G01 X4.06133 Y8.39945
G01 X3.87706 Y8.39945
G01 X3.63421 Y8.43697
G01 X3.39994 Y8.51111
G01 X3.17962 Y8.62020
G01 X3.11833 Y8.66330
G01 X2.97868 Y8.76153
G01 X2.80154 Y8.93196
G01 X2.65257 Y9.12744
G01 X2.53517 Y9.34334
G01 X2.45214 Y9.57463
G01 X2.40535 Y9.81588
G01 X2.39588 Y10.06145
G01 X2.49585 Y10.05761
G01 X2.49616 Y10.05761
G01 X2.50500 Y9.82736
G01 X2.50469 Y9.82736
G01 X2.50500 Y9.82736
G01 X2.54884 Y9.60120
G01 X2.54851 Y9.60112
G01 X2.54884 Y9.60120
G01 X2.62674 Y9.38433
G01 X2.62641 Y9.38423
G01 X2.62674 Y9.38433
G01 X2.73675 Y9.18192
G01 X2.73655 Y9.18177
G01 X2.73675 Y9.18192
G01 X2.87647 Y8.99869
G01 X2.87625 Y8.99848
G01 X2.87647 Y8.99869
G01 X3.04249 Y8.83895
G01 X3.04229 Y8.83869
G01 X3.04249 Y8.83895
G01 X3.17579 Y8.74494
G01 X3.23093 Y8.70641
G01 X3.43743 Y8.60412
G01 X3.43725 Y8.60372
G01 X3.43743 Y8.60412
G01 X3.65702 Y8.53463
G01 X3.65694 Y8.53435
G01 X3.65702 Y8.53463
G01 X3.88473 Y8.49948
G01 X3.88470 Y8.49899
G01 X3.88473 Y8.49948
G01 X4.05745 Y8.49948
G01 X4.22971 Y8.51268
G01 X4.22976 Y8.51223
G01 X4.22971 Y8.51268
G01 X4.45404 Y8.56518
G01 X4.45409 Y8.56493
G01 X4.45404 Y8.56518
G01 X4.66768 Y8.65129
G01 X4.66783 Y8.65104
G01 X4.66768 Y8.65129
G01 X4.86575 Y8.76907
G01 X4.86590 Y8.76882
G01 X4.86575 Y8.76907
G01 X5.04347 Y8.91563
G01 X5.04368 Y8.91543
G01 X5.04347 Y8.91563
G01 X5.19681 Y9.08764
G01 X5.19704 Y9.08748
G01 X5.19681 Y9.08764
G01 X5.32201 Y9.28103
G01 X5.32232 Y9.28088
G01 X5.32201 Y9.28103
G01 X5.41632 Y9.49142
G01 X5.41685 Y9.49325
G01 X5.41708 Y9.49315
G01 X5.41685 Y9.49325
G01 X5.47736 Y9.71344
G01 X5.47764 Y9.71339
G01 X5.47736 Y9.71344
G01 X5.50372 Y9.94232
G01 X5.50403 Y9.94232
G01 X5.50372 Y9.94232
G01 X5.49496 Y10.17255
G01 X5.49526 Y10.17260
G01 X5.49496 Y10.17255
G01 X5.45104 Y10.39873
G01 X5.45137 Y10.39884
G01 X5.45104 Y10.39873
G01 X5.37322 Y10.61560
G01 X5.37345 Y10.61570
G01 X5.37322 Y10.61560
G01 X5.26316 Y10.81801
G01 X5.26336 Y10.81816
G01 X5.26316 Y10.81801
G01 X5.12348 Y11.00120
G01 X5.12369 Y11.00140
G01 X5.12348 Y11.00120
G01 X4.95742 Y11.16101
G01 X4.95760 Y11.16124
G01 X4.95742 Y11.16101
G01 X4.76903 Y11.29355
G01 X4.76918 Y11.29378
G01 X4.76903 Y11.29355
G01 X4.56255 Y11.39579
G01 X4.56263 Y11.39607
G01 X4.56255 Y11.39579
G01 X4.34282 Y11.46531
G01 X4.34289 Y11.46556
G01 X4.34282 Y11.46531
G01 X4.11513 Y11.50046
G01 X4.11516 Y11.50094
G01 X4.11513 Y11.50046
G01 X3.94241 Y11.50046
G01 X3.77025 Y11.48723
G01 X3.77017 Y11.48771
G01 X3.77025 Y11.48723
G01 X3.54589 Y11.43475
G01 X3.54581 Y11.43500
G01 X3.54589 Y11.43475
G01 X3.33223 Y11.34862
G01 X3.33205 Y11.34890
G01 X3.33223 Y11.34862
G01 X3.13418 Y11.23089
G01 X3.13395 Y11.23112
G01 X3.13418 Y11.23089
G01 X2.95638 Y11.08428
G01 X2.95623 Y11.08451
G01 X2.95638 Y11.08428
G01 X2.80307 Y10.91227
G01 X2.80289 Y10.91245
G01 X2.80307 Y10.91227
G01 X2.67785 Y10.71888
G01 X2.67757 Y10.71903
G01 X2.67785 Y10.71888
G01 X2.58364 Y10.50867
G01 X2.58336 Y10.50877
G01 X2.58364 Y10.50867
G01 X2.52252 Y10.28649
G01 X2.52230 Y10.28654
G01 X2.52252 Y10.28649
G01 X2.49616 Y10.05761
G04 P0 ( dwell for no time -- G64 should not smooth over this point )
G00 Z5.00000 ( retract )

G00 X6.98995 Y5.79994 ( rapid move to begin. )
G01 F250.00000
( Mill infeed pass 1/1 )
G01 Z-0.05000
G04 P0 ( dwell for no time -- G64 should not smooth over this point )
G01 F500.00000
G01 X6.98995 Y5.79994
G01 X6.99092 Y5.81955
G01 X7.00725 Y5.98536
G01 X7.01490 Y6.02386
G01 X7.06331 Y6.18327
G01 X7.07829 Y6.21949
G01 X7.15686 Y6.36648
G01 X7.16504 Y6.38012
G01 X7.17039 Y6.38797
G01 X7.17862 Y6.39910
G01 X7.28434 Y6.52790
G01 X7.29272 Y6.53712
G01 X7.30283 Y6.54723
G01 X7.31205 Y6.55561
G01 X7.44085 Y6.66133
G01 X7.45188 Y6.66951
G01 X7.45988 Y6.67497
G01 X7.47347 Y6.68310
G01 X7.62041 Y6.76166
G01 X7.65665 Y6.77664
G01 X7.81611 Y6.82501
G01 X7.83514 Y6.82981
G01 X7.85454 Y6.83270
G01 X8.02038 Y6.84903
G01 X8.03999 Y6.85000
G01 X8.05960 Y6.84903
G01 X8.22538 Y6.83270
G01 X8.26384 Y6.82501
G01 X8.42333 Y6.77664
G01 X8.44182 Y6.77004
G01 X8.45952 Y6.76166
G01 X8.60651 Y6.68310
G01 X8.63907 Y6.66133
G01 X8.76790 Y6.55561
G01 X8.77687 Y6.54746
G01 X8.78746 Y6.53687
G01 X8.79564 Y6.52790
G01 X8.90130 Y6.39910
G01 X8.92312 Y6.36648
G01 X9.00163 Y6.21949
G01 X9.01007 Y6.20177
G01 X9.01664 Y6.18327
G01 X9.06503 Y6.02386
G01 X9.07268 Y5.98536
G01 X9.08901 Y5.81955
G01 X9.09000 Y5.79994
G01 X9.08901 Y5.78033
G01 X9.07268 Y5.61452
G01 X9.06503 Y5.57611
G01 X9.01664 Y5.41660
G01 X9.00163 Y5.38038
G01 X8.92312 Y5.23347
G01 X8.91304 Y5.21663
G01 X8.90130 Y5.20083
G01 X8.79564 Y5.07208
G01 X8.76790 Y5.04429
G01 X8.63907 Y4.93857
G01 X8.60651 Y4.91681
G01 X8.45952 Y4.83827
G01 X8.42333 Y4.82331
G01 X8.26384 Y4.77487
G01 X8.24481 Y4.77012
G01 X8.22538 Y4.76722
G01 X8.05960 Y4.75089
G01 X8.03999 Y4.74998
G01 X8.02038 Y4.75089
G01 X7.85454 Y4.76722
G01 X7.83514 Y4.77012
G01 X7.81611 Y4.77487
G01 X7.65665 Y4.82331
G01 X7.62041 Y4.83827
G01 X7.47347 Y4.91681
G01 X7.45957 Y4.92514
G01 X7.45228 Y4.93009
G01 X7.44085 Y4.93857
G01 X7.31205 Y5.04429
G01 X7.28434 Y5.07208
G01 X7.17862 Y5.20083
G01 X7.17019 Y5.21218
G01 X7.16514 Y5.21962
G01 X7.15686 Y5.23347
G01 X7.07829 Y5.38038
G01 X7.06331 Y5.41660
G01 X7.01490 Y5.57611
G01 X7.00725 Y5.61452
G01 X6.99092 Y5.78033
G01 X6.98995 Y5.79994
G01 X7.08998 Y5.79994
G01 X7.09046 Y5.79013
G01 X7.10679 Y5.62430
G01 X7.11058 Y5.60512
G01 X7.15896 Y5.44568
G01 X7.16229 Y5.43644
G01 X7.16651 Y5.42757
G01 X7.24502 Y5.28056
G01 X7.25007 Y5.27220
G01 X7.25594 Y5.26425
G01 X7.36166 Y5.13550
G01 X7.37550 Y5.12166
G01 X7.50430 Y5.01592
G01 X7.51220 Y5.01010
G01 X7.52058 Y5.00504
G01 X7.66757 Y4.92646
G01 X7.68568 Y4.91894
G01 X7.84509 Y4.87063
G01 X7.85465 Y4.86824
G01 X7.86435 Y4.86674
G01 X8.03018 Y4.85041
G01 X8.04979 Y4.85041
G01 X8.21558 Y4.86674
G01 X8.22533 Y4.86824
G01 X8.23481 Y4.87063
G01 X8.39429 Y4.91894
G01 X8.41240 Y4.92646
G01 X8.55934 Y5.00504
G01 X8.57562 Y5.01592
G01 X8.70448 Y5.12166
G01 X8.71832 Y5.13550
G01 X8.82404 Y5.26425
G01 X8.82988 Y5.27220
G01 X8.83491 Y5.28056
G01 X8.91347 Y5.42757
G01 X8.91764 Y5.43644
G01 X8.92096 Y5.44568
G01 X8.96932 Y5.60512
G01 X8.97318 Y5.62430
G01 X8.98952 Y5.79013
G01 X8.99000 Y5.79994
G01 X8.98952 Y5.80974
G01 X8.97318 Y5.97555
G01 X8.96932 Y5.99483
G01 X8.92096 Y6.15429
G01 X8.91764 Y6.16354
G01 X8.91347 Y6.17240
G01 X8.83491 Y6.31932
G01 X8.82404 Y6.33560
G01 X8.71832 Y6.46445
G01 X8.71174 Y6.47172
G01 X8.70448 Y6.47832
G01 X8.57562 Y6.58401
G01 X8.55934 Y6.59493
G01 X8.41240 Y6.67344
G01 X8.40351 Y6.67766
G01 X8.39429 Y6.68099
G01 X8.23481 Y6.72932
G01 X8.21558 Y6.73316
G01 X8.04979 Y6.74949
G01 X8.03999 Y6.74997
G01 X8.03018 Y6.74949
G01 X7.86435 Y6.73316
G01 X7.84509 Y6.72932
G01 X7.68568 Y6.68099
G01 X7.66757 Y6.67344
G01 X7.52058 Y6.59493
G01 X7.51220 Y6.58988
G01 X7.50430 Y6.58401
G01 X7.37550 Y6.47832
G01 X7.36166 Y6.46445
G01 X7.25594 Y6.33560
G01 X7.25007 Y6.32777
G01 X7.24502 Y6.31932
G01 X7.16651 Y6.17240
G01 X7.16229 Y6.16354
G01 X7.15896 Y6.15429
G01 X7.11058 Y5.99483
G01 X7.10679 Y5.97555
G01 X7.09046 Y5.80974
G01 X7.08998 Y5.79994
G04 P0 ( dwell for no time -- G64 should not smooth over this point )
G00 Z5.00000 ( retract )

G00 X9.53094 Y5.78033 ( rapid move to begin. )
G01 F250.00000
( Mill infeed pass 1/1 )
G01 Z-0.05000
G04 P0 ( dwell for no time -- G64 should not smooth over this point )
G01 F500.00000
G01 X9.53094 Y5.78033
G01 X9.53094 Y5.81955
G01 X9.54728 Y5.98536
G01 X9.55017 Y6.00484
G01 X9.55492 Y6.02386
G01 X9.60331 Y6.18327
G01 X9.61827 Y6.21949
G01 X9.69683 Y6.36648
G01 X9.70506 Y6.38018
G01 X9.71032 Y6.38792
G01 X9.71860 Y6.39910
G01 X9.82431 Y6.52790
G01 X9.83270 Y6.53712
G01 X9.84280 Y6.54723
G01 X9.85208 Y6.55561
G01 X9.98088 Y6.66133
G01 X9.99185 Y6.66951
G01 X9.99985 Y6.67497
G01 X10.01344 Y6.68310
G01 X10.16043 Y6.76166
G01 X10.19663 Y6.77664
G01 X10.35611 Y6.82501
G01 X10.37511 Y6.82981
G01 X10.39457 Y6.83270
G01 X10.56035 Y6.84903
G01 X10.57996 Y6.85000
G01 X10.59957 Y6.84903
G01 X10.76541 Y6.83270
G01 X10.80384 Y6.82501
G01 X10.96330 Y6.77664
G01 X10.98179 Y6.77004
G01 X10.99955 Y6.76166
G01 X11.14649 Y6.68310
G01 X11.17910 Y6.66133
G01 X11.30790 Y6.55561
G01 X11.31689 Y6.54746
G01 X11.32749 Y6.53687
G01 X11.33561 Y6.52790
G01 X11.44133 Y6.39910
G01 X11.46310 Y6.36648
G01 X11.54166 Y6.21949
G01 X11.55004 Y6.20177
G01 X11.55664 Y6.18327
G01 X11.60501 Y6.02386
G01 X11.61270 Y5.98536
G01 X11.62903 Y5.81955
G01 X11.62903 Y5.78033
G01 X11.61270 Y5.61452
G01 X11.60981 Y5.59514
G01 X11.60501 Y5.57611
G01 X11.55664 Y5.41660
G01 X11.54166 Y5.38038
G01 X11.46310 Y5.23347
G01 X11.45304 Y5.21663
G01 X11.44133 Y5.20083
G01 X11.33561 Y5.07208
G01 X11.30790 Y5.04429
G01 X11.17910 Y4.93857
G01 X11.14649 Y4.91681
G01 X10.99955 Y4.83827
G01 X10.96330 Y4.82331
G01 X10.80384 Y4.77487
G01 X10.78481 Y4.77012
G01 X10.76541 Y4.76722
G01 X10.59957 Y4.75089
G01 X10.57996 Y4.74998
G01 X10.56035 Y4.75089
G01 X10.39457 Y4.76722
G01 X10.35611 Y4.77487
G01 X10.19663 Y4.82331
G01 X10.17814 Y4.82986
G01 X10.16043 Y4.83827
G01 X10.01344 Y4.91681
G01 X9.98088 Y4.93857
G01 X9.85208 Y5.04429
G01 X9.83750 Y5.05750
G01 X9.82431 Y5.07208
G01 X9.71860 Y5.20083
G01 X9.70691 Y5.21663
G01 X9.69683 Y5.23347
G01 X9.61827 Y5.38038
G01 X9.61476 Y5.38881
G01 X9.60331 Y5.41660
G01 X9.55492 Y5.57611
G01 X9.55017 Y5.59514
G01 X9.54728 Y5.61452
G01 X9.53094 Y5.78033
G01 X9.63044 Y5.79013
G01 X9.64677 Y5.62430
G01 X9.64824 Y5.61459
G01 X9.65063 Y5.60512
G01 X9.69899 Y5.44568
G01 X9.70648 Y5.42757
G01 X9.78505 Y5.28056
G01 X9.79007 Y5.27220
G01 X9.79592 Y5.26425
G01 X9.90163 Y5.13550
G01 X9.91547 Y5.12166
G01 X10.04428 Y5.01592
G01 X10.05218 Y5.01010
G01 X10.06061 Y5.00504
G01 X10.20755 Y4.92646
G01 X10.22566 Y4.91894
G01 X10.38509 Y4.87063
G01 X10.39462 Y4.86824
G01 X10.40432 Y4.86674
G01 X10.57016 Y4.85041
G01 X10.58977 Y4.85041
G01 X10.75560 Y4.86674
G01 X10.76531 Y4.86824
G01 X10.77483 Y4.87063
G01 X10.93427 Y4.91894
G01 X10.95238 Y4.92646
G01 X11.09937 Y5.00504
G01 X11.11565 Y5.01592
G01 X11.24445 Y5.12166
G01 X11.25830 Y5.13550
G01 X11.36401 Y5.26425
G01 X11.36988 Y5.27220
G01 X11.37493 Y5.28056
G01 X11.45344 Y5.42757
G01 X11.46099 Y5.44568
G01 X11.50935 Y5.60512
G01 X11.51174 Y5.61459
G01 X11.51316 Y5.62430
G01 X11.52949 Y5.79013
G01 X11.52949 Y5.80974
G01 X11.51316 Y5.97555
G01 X11.50935 Y5.99483
G01 X11.46099 Y6.15429
G01 X11.45766 Y6.16354
G01 X11.45344 Y6.17240
G01 X11.37493 Y6.31932
G01 X11.36401 Y6.33560
G01 X11.25830 Y6.46445
G01 X11.25172 Y6.47172
G01 X11.24445 Y6.47832
G01 X11.11565 Y6.58401
G01 X11.09937 Y6.59493
G01 X10.95238 Y6.67344
G01 X10.94354 Y6.67766
G01 X10.93427 Y6.68099
G01 X10.77483 Y6.72932
G01 X10.75560 Y6.73316
G01 X10.58977 Y6.74949
G01 X10.57996 Y6.74997
G01 X10.57016 Y6.74949
G01 X10.40432 Y6.73316
G01 X10.38509 Y6.72932
G01 X10.22566 Y6.68099
G01 X10.20755 Y6.67344
G01 X10.06061 Y6.59493
G01 X10.05218 Y6.58988
G01 X10.04428 Y6.58401
G01 X9.91547 Y6.47832
G01 X9.90163 Y6.46445
G01 X9.79592 Y6.33560
G01 X9.79007 Y6.32777
G01 X9.78505 Y6.31932
G01 X9.70648 Y6.17240
G01 X9.69899 Y6.15429
G01 X9.65063 Y5.99483
G01 X9.64824 Y5.98528
G01 X9.64677 Y5.97555
G01 X9.63044 Y5.80974
G01 X9.63044 Y5.79013
G01 X9.61476 Y5.38881
G01 X9.53346 Y3.30533
G01 X9.53094 Y3.24033
G01 X9.54728 Y3.07457
G01 X9.55017 Y3.05509
G01 X9.55492 Y3.03606
G01 X9.60331 Y2.87663
G01 X9.61827 Y2.84038
G01 X9.69683 Y2.69342
G01 X9.70516 Y2.67957
G01 X9.71012 Y2.67226
G01 X9.71860 Y2.66088
G01 X9.82431 Y2.53202
G01 X9.83290 Y2.52260
G01 X9.84260 Y2.51287
G01 X9.85208 Y2.50434
G01 X9.98088 Y2.39862
G01 X10.01344 Y2.37683
G01 X10.16043 Y2.29824
G01 X10.17814 Y2.28986
G01 X10.19663 Y2.28331
G01 X10.35611 Y2.23487
G01 X10.39457 Y2.22728
G01 X10.56035 Y2.21089
G01 X10.57996 Y2.20998
G01 X10.59957 Y2.21089
G01 X10.76541 Y2.22728
G01 X10.78481 Y2.23017
G01 X10.80384 Y2.23487
G01 X10.96330 Y2.28331
G01 X10.99955 Y2.29824
G01 X11.14649 Y2.37683
G01 X11.16018 Y2.38501
G01 X11.16792 Y2.39032
G01 X11.17910 Y2.39862
G01 X11.30790 Y2.50434
G01 X11.33561 Y2.53202
G01 X11.44133 Y2.66088
G01 X11.44951 Y2.67188
G01 X11.45492 Y2.67985
G01 X11.46310 Y2.69342
G01 X11.54166 Y2.84038
G01 X11.55664 Y2.87663
G01 X11.60501 Y3.03606
G01 X11.60981 Y3.05509
G01 X11.61270 Y3.07457
G01 X11.62903 Y3.24033
G01 X11.62903 Y3.27960
G01 X11.61270 Y3.44536
G01 X11.60501 Y3.48386
G01 X11.55664 Y3.64333
G01 X11.55004 Y3.66177
G01 X11.54166 Y3.67949
G01 X11.46310 Y3.82651
G01 X11.45304 Y3.84332
G01 X11.44133 Y3.85910
G01 X11.33561 Y3.98790
G01 X11.32243 Y4.00240
G01 X11.30790 Y4.01561
G01 X11.17910 Y4.12133
G01 X11.14649 Y4.14312
G01 X10.99955 Y4.22161
G01 X10.96330 Y4.23667
G01 X10.80384 Y4.28498
G01 X10.78481 Y4.28981
G01 X10.76541 Y4.29265
G01 X10.59957 Y4.30898
G01 X10.57996 Y4.31000
G01 X10.56035 Y4.30898
G01 X10.39457 Y4.29265
G01 X10.37511 Y4.28981
G01 X10.35611 Y4.28498
G01 X10.19663 Y4.23667
G01 X10.16043 Y4.22161
G01 X10.01344 Y4.14312
G01 X9.99660 Y4.13304
G01 X9.98088 Y4.12133
G01 X9.85208 Y4.01561
G01 X9.82431 Y3.98790
G01 X9.71860 Y3.85910
G01 X9.70691 Y3.84332
G01 X9.69683 Y3.82651
G01 X9.61827 Y3.67949
G01 X9.60331 Y3.64333
G01 X9.55492 Y3.48386
G01 X9.55017 Y3.46484
G01 X9.54728 Y3.44536
G01 X9.53346 Y3.30533
G01 X9.53094 Y3.27960
G01 X9.53094 Y3.24033
G01 X9.63044 Y3.25013
G01 X9.64677 Y3.08430
G01 X9.64824 Y3.07464
G01 X9.65063 Y3.06512
G01 X9.69899 Y2.90563
G01 X9.70648 Y2.88755
G01 X9.78505 Y2.74058
G01 X9.79007 Y2.73215
G01 X9.79592 Y2.72430
G01 X9.90163 Y2.59545
G01 X9.91547 Y2.58161
G01 X10.04428 Y2.47589
G01 X10.05218 Y2.47010
G01 X10.06061 Y2.46499
G01 X10.20755 Y2.38646
G01 X10.22566 Y2.37894
G01 X10.38509 Y2.33063
G01 X10.39462 Y2.32819
G01 X10.40432 Y2.32679
G01 X10.57016 Y2.31046
G01 X10.58977 Y2.31046
G01 X10.75560 Y2.32679
G01 X10.76531 Y2.32819
G01 X10.77483 Y2.33063
G01 X10.93427 Y2.37894
G01 X10.95238 Y2.38646
G01 X11.09937 Y2.46499
G01 X11.10775 Y2.47010
G01 X11.11565 Y2.47589
G01 X11.24445 Y2.58161
G01 X11.25830 Y2.59545
G01 X11.36401 Y2.72430
G01 X11.36988 Y2.73215
G01 X11.37493 Y2.74058
G01 X11.45344 Y2.88755
G01 X11.46099 Y2.90563
G01 X11.50935 Y3.06512
G01 X11.51174 Y3.07464
G01 X11.51316 Y3.08430
G01 X11.52949 Y3.25013
G01 X11.52949 Y3.26979
G01 X11.51316 Y3.43555
G01 X11.50935 Y3.45478
G01 X11.46099 Y3.61429
G01 X11.45766 Y3.62354
G01 X11.45344 Y3.63235
G01 X11.37493 Y3.77937
G01 X11.36401 Y3.79565
G01 X11.25830 Y3.92448
G01 X11.24445 Y3.93827
G01 X11.11565 Y4.04398
G01 X11.09937 Y4.05493
G01 X10.95238 Y4.13342
G01 X10.93427 Y4.14099
G01 X10.77483 Y4.18930
G01 X10.76531 Y4.19174
G01 X10.75560 Y4.19318
G01 X10.58977 Y4.20947
G01 X10.57016 Y4.20947
G01 X10.40432 Y4.19318
G01 X10.39462 Y4.19174
G01 X10.38509 Y4.18930
G01 X10.22566 Y4.14099
G01 X10.20755 Y4.13342
G01 X10.06061 Y4.05493
G01 X10.05218 Y4.04988
G01 X10.04428 Y4.04398
G01 X9.91547 Y3.93827
G01 X9.90163 Y3.92448
G01 X9.79592 Y3.79565
G01 X9.79007 Y3.78777
G01 X9.78505 Y3.77937
G01 X9.70648 Y3.63235
G01 X9.69899 Y3.61429
G01 X9.65063 Y3.45478
G01 X9.64824 Y3.44533
G01 X9.64677 Y3.43555
G01 X9.63044 Y3.26979
G01 X9.63044 Y3.25013
G04 P0 ( dwell for no time -- G64 should not smooth over this point )
G00 Z5.00000 ( retract )

G00 X12.07092 Y5.78033 ( rapid move to begin. )
G01 F250.00000
( Mill infeed pass 1/1 )
G01 Z-0.05000
G04 P0 ( dwell for no time -- G64 should not smooth over this point )
G01 F500.00000
G01 X12.07092 Y5.78033
G01 X12.07092 Y5.81955
G01 X12.08725 Y5.98536
G01 X12.09015 Y6.00484
G01 X12.09490 Y6.02386
G01 X12.14328 Y6.18327
G01 X12.15829 Y6.21949
G01 X12.23686 Y6.36648
G01 X12.24504 Y6.38018
G01 X12.25032 Y6.38792
G01 X12.25862 Y6.39910
G01 X12.36434 Y6.52790
G01 X12.37272 Y6.53712
G01 X12.38280 Y6.54723
G01 X12.39208 Y6.55561
G01 X12.52085 Y6.66133
G01 X12.55344 Y6.68310
G01 X12.70043 Y6.76166
G01 X12.71994 Y6.76973
G01 X12.73396 Y6.76140
G01 X12.71994 Y6.76973
G01 X12.71994 Y42.18310
G01 X12.73063 Y42.18851
G01 X12.71994 Y42.18310
G01 X12.67902 Y42.20497
G01 X12.66220 Y42.21503
G01 X12.64638 Y42.22676
G01 X12.53277 Y42.32006
G01 X12.52344 Y42.32849
G01 X12.51349 Y42.33845
G01 X12.50506 Y42.34777
G01 X12.41179 Y42.46143
G01 X12.40366 Y42.47233
G01 X12.39812 Y42.48048
G01 X12.38997 Y42.49400
G01 X12.32070 Y42.62369
G01 X12.30569 Y42.65991
G01 X12.26302 Y42.80057
G01 X12.25537 Y42.83903
G01 X12.24092 Y42.98533
G01 X12.24092 Y43.02460
G01 X12.25537 Y43.17091
G01 X12.26302 Y43.20931
G01 X12.30569 Y43.35005
G01 X12.32070 Y43.38627
G01 X12.38997 Y43.51589
G01 X12.39797 Y43.52928
G01 X12.40386 Y43.53791
G01 X12.41179 Y43.54853
G01 X12.50506 Y43.66219
G01 X12.51339 Y43.67139
G01 X12.52360 Y43.68160
G01 X12.53277 Y43.68990
G01 X12.64638 Y43.78320
G01 X12.67902 Y43.80494
G01 X12.80869 Y43.87426
G01 X12.82644 Y43.88267
G01 X12.84488 Y43.88927
G01 X12.98560 Y43.93197
G01 X13.00462 Y43.93669
G01 X13.02405 Y43.93959
G01 X13.17036 Y43.95399
G01 X13.20960 Y43.95399
G01 X13.35590 Y43.93959
G01 X13.37531 Y43.93669
G01 X13.39433 Y43.93197
G01 X13.53505 Y43.88927
G01 X13.57127 Y43.87426
G01 X13.70091 Y43.80494
G01 X13.71404 Y43.79704
G01 X13.72316 Y43.79087
G01 X13.73355 Y43.78320
G01 X13.84719 Y43.68990
G01 X13.85613 Y43.68175
G01 X13.86672 Y43.67119
G01 X13.87488 Y43.66219
G01 X13.96820 Y43.54853
G01 X13.97587 Y43.53819
G01 X13.98207 Y43.52907
G01 X13.98991 Y43.51589
G01 X14.05923 Y43.38627
G01 X14.07424 Y43.35005
G01 X14.11696 Y43.20931
G01 X14.12171 Y43.19031
G01 X14.12456 Y43.17091
G01 X14.13896 Y43.02460
G01 X14.13896 Y42.98533
G01 X14.12456 Y42.83903
G01 X14.12171 Y42.81965
G01 X14.11696 Y42.80057
G01 X14.07424 Y42.65991
G01 X14.05923 Y42.62369
G01 X13.98991 Y42.49400
G01 X13.98196 Y42.48069
G01 X13.97607 Y42.47205
G01 X13.96820 Y42.46143
G01 X13.87488 Y42.34777
G01 X13.86662 Y42.33863
G01 X13.85633 Y42.32829
G01 X13.84719 Y42.32006
G01 X13.73355 Y42.22676
G01 X13.70091 Y42.20497
G01 X13.57127 Y42.13570
G01 X13.55352 Y42.12730
G01 X13.53505 Y42.12069
G01 X13.51996 Y42.11610
G01 X13.50536 Y42.12496
G01 X13.51996 Y42.11610
G01 X13.51996 Y6.76979
G01 X13.50592 Y6.76145
G01 X13.51996 Y6.76979
G01 X13.53950 Y6.76166
G01 X13.68649 Y6.68310
G01 X13.71905 Y6.66133
G01 X13.84790 Y6.55561
G01 X13.85689 Y6.54746
G01 X13.86749 Y6.53687
G01 X13.87564 Y6.52790
G01 X13.98128 Y6.39910
G01 X14.00312 Y6.36648
G01 X14.08161 Y6.21949
G01 X14.09667 Y6.18327
G01 X14.14503 Y6.02386
G01 X14.14976 Y6.00484
G01 X14.15270 Y5.98536
G01 X14.16898 Y5.81955
G01 X14.16995 Y5.79994
G01 X14.16898 Y5.78033
G01 X14.15270 Y5.61452
G01 X14.14976 Y5.59514
G01 X14.14503 Y5.57611
G01 X14.09667 Y5.41660
G01 X14.08161 Y5.38038
G01 X14.00312 Y5.23347
G01 X13.98128 Y5.20083
G01 X13.87564 Y5.07208
G01 X13.86723 Y5.06283
G01 X13.85712 Y5.05267
G01 X13.84790 Y5.04429
G01 X13.71905 Y4.93857
G01 X13.68649 Y4.91681
G01 X13.53950 Y4.83827
G01 X13.52182 Y4.82986
G01 X13.50330 Y4.82331
G01 X13.34384 Y4.77487
G01 X13.30541 Y4.76722
G01 X13.13957 Y4.75089
G01 X13.10035 Y4.75089
G01 X12.93452 Y4.76722
G01 X12.89606 Y4.77487
G01 X12.73663 Y4.82331
G01 X12.71816 Y4.82986
G01 X12.70043 Y4.83827
G01 X12.55344 Y4.91681
G01 X12.52085 Y4.93857
G01 X12.39208 Y5.04429
G01 X12.37752 Y5.05750
G01 X12.36434 Y5.07208
G01 X12.25862 Y5.20083
G01 X12.24694 Y5.21663
G01 X12.23686 Y5.23347
G01 X12.15829 Y5.38038
G01 X12.15479 Y5.38881
G01 X12.14328 Y5.41660
G01 X12.09490 Y5.57611
G01 X12.09015 Y5.59514
G01 X12.08725 Y5.61452
G01 X12.07092 Y5.78033
G01 X12.17046 Y5.79013
G01 X12.18679 Y5.62430
G01 X12.18824 Y5.61459
G01 X12.19060 Y5.60512
G01 X12.23899 Y5.44568
G01 X12.24651 Y5.42757
G01 X12.32505 Y5.28056
G01 X12.33010 Y5.27220
G01 X12.33594 Y5.26425
G01 X12.44166 Y5.13550
G01 X12.45547 Y5.12166
G01 X12.58430 Y5.01592
G01 X12.59218 Y5.01010
G01 X12.60061 Y5.00504
G01 X12.74757 Y4.92646
G01 X12.75641 Y4.92224
G01 X12.76563 Y4.91894
G01 X12.92509 Y4.87063
G01 X12.94432 Y4.86674
G01 X13.11016 Y4.85041
G01 X13.12977 Y4.85041
G01 X13.29560 Y4.86674
G01 X13.31481 Y4.87063
G01 X13.47427 Y4.91894
G01 X13.48349 Y4.92224
G01 X13.49240 Y4.92646
G01 X13.63932 Y5.00504
G01 X13.65560 Y5.01592
G01 X13.78445 Y5.12166
G01 X13.79172 Y5.12818
G01 X13.79827 Y5.13550
G01 X13.90401 Y5.26425
G01 X13.90988 Y5.27220
G01 X13.91488 Y5.28056
G01 X13.99344 Y5.42757
G01 X14.00099 Y5.44568
G01 X14.04932 Y5.60512
G01 X14.05169 Y5.61459
G01 X14.05316 Y5.62430
G01 X14.06952 Y5.79013
G01 X14.07000 Y5.79994
G01 X14.06952 Y5.80974
G01 X14.05316 Y5.97555
G01 X14.05169 Y5.98528
G01 X14.04932 Y5.99483
G01 X14.00099 Y6.15429
G01 X13.99766 Y6.16354
G01 X13.99344 Y6.17240
G01 X13.91488 Y6.31932
G01 X13.90401 Y6.33560
G01 X13.79827 Y6.46445
G01 X13.79172 Y6.47172
G01 X13.78445 Y6.47832
G01 X13.65560 Y6.58401
G01 X13.63932 Y6.59493
G01 X13.49240 Y6.67344
G01 X13.47427 Y6.68099
G01 X13.41994 Y6.69747
G01 X13.41994 Y42.19021
G01 X13.50602 Y42.21635
G01 X13.51526 Y42.21970
G01 X13.52408 Y42.22389
G01 X13.65380 Y42.29318
G01 X13.67010 Y42.30408
G01 X13.78377 Y42.39732
G01 X13.79103 Y42.40390
G01 X13.79758 Y42.41117
G01 X13.89085 Y42.52486
G01 X13.90175 Y42.54116
G01 X13.97107 Y42.67081
G01 X13.97853 Y42.68889
G01 X14.02128 Y42.82963
G01 X14.02364 Y42.83916
G01 X14.02509 Y42.84883
G01 X14.03949 Y42.99514
G01 X14.03949 Y43.01475
G01 X14.02509 Y43.16110
G01 X14.02364 Y43.17078
G01 X14.02128 Y43.18030
G01 X13.97853 Y43.32100
G01 X13.97107 Y43.33911
G01 X13.90175 Y43.46880
G01 X13.89085 Y43.48510
G01 X13.79758 Y43.59872
G01 X13.79103 Y43.60603
G01 X13.78377 Y43.61256
G01 X13.67010 Y43.70588
G01 X13.66223 Y43.71175
G01 X13.65380 Y43.71678
G01 X13.52408 Y43.78609
G01 X13.51526 Y43.79026
G01 X13.50602 Y43.79356
G01 X13.36533 Y43.83626
G01 X13.34610 Y43.84010
G01 X13.19977 Y43.85450
G01 X13.18016 Y43.85450
G01 X13.03386 Y43.84010
G01 X13.01463 Y43.83626
G01 X12.87391 Y43.79356
G01 X12.86469 Y43.79026
G01 X12.85583 Y43.78609
G01 X12.72611 Y43.71678
G01 X12.70986 Y43.70588
G01 X12.59622 Y43.61256
G01 X12.58895 Y43.60603
G01 X12.58232 Y43.59872
G01 X12.48908 Y43.48510
G01 X12.48324 Y43.47723
G01 X12.47818 Y43.46880
G01 X12.40889 Y43.33911
G01 X12.40135 Y43.32100
G01 X12.35870 Y43.18030
G01 X12.35629 Y43.17078
G01 X12.35486 Y43.16110
G01 X12.34046 Y43.01475
G01 X12.34046 Y42.99514
G01 X12.35486 Y42.84883
G01 X12.35629 Y42.83916
G01 X12.35870 Y42.82963
G01 X12.40135 Y42.68889
G01 X12.40889 Y42.67081
G01 X12.47818 Y42.54116
G01 X12.48324 Y42.53273
G01 X12.48908 Y42.52486
G01 X12.58232 Y42.41117
G01 X12.59622 Y42.39732
G01 X12.70986 Y42.30408
G01 X12.71775 Y42.29819
G01 X12.72611 Y42.29318
G01 X12.81994 Y42.24307
G01 X12.81994 Y6.69742
G01 X12.76563 Y6.68099
G01 X12.74757 Y6.67344
G01 X12.60061 Y6.59493
G01 X12.59218 Y6.58988
G01 X12.58430 Y6.58401
G01 X12.45547 Y6.47832
G01 X12.44166 Y6.46445
G01 X12.33594 Y6.33560
G01 X12.33010 Y6.32777
G01 X12.32505 Y6.31932
G01 X12.24651 Y6.17240
G01 X12.23899 Y6.15429
G01 X12.19060 Y5.99483
G01 X12.18824 Y5.98528
G01 X12.18679 Y5.97555
G01 X12.17046 Y5.80974
G01 X12.17046 Y5.79013
G01 X12.15479 Y5.38881
G01 X12.07343 Y3.30535
G01 X12.07092 Y3.24033
G01 X12.08725 Y3.07457
G01 X12.09015 Y3.05509
G01 X12.09490 Y3.03606
G01 X12.14328 Y2.87663
G01 X12.15829 Y2.84038
G01 X12.23686 Y2.69342
G01 X12.24519 Y2.67957
G01 X12.25014 Y2.67226
G01 X12.25862 Y2.66088
G01 X12.36434 Y2.53202
G01 X12.37287 Y2.52260
G01 X12.38258 Y2.51287
G01 X12.39208 Y2.50434
G01 X12.52085 Y2.39862
G01 X12.55344 Y2.37683
G01 X12.70043 Y2.29824
G01 X12.71816 Y2.28986
G01 X12.73663 Y2.28331
G01 X12.89606 Y2.23487
G01 X12.93452 Y2.22728
G01 X13.10035 Y2.21089
G01 X13.13957 Y2.21089
G01 X13.30541 Y2.22728
G01 X13.34384 Y2.23487
G01 X13.50330 Y2.28331
G01 X13.52182 Y2.28986
G01 X13.53950 Y2.29824
G01 X13.68649 Y2.37683
G01 X13.71905 Y2.39862
G01 X13.84790 Y2.50434
G01 X13.85712 Y2.51272
G01 X13.86723 Y2.52278
G01 X13.87564 Y2.53202
G01 X13.98128 Y2.66088
G01 X14.00312 Y2.69342
G01 X14.08161 Y2.84038
G01 X14.09667 Y2.87663
G01 X14.14503 Y3.03606
G01 X14.14976 Y3.05509
G01 X14.15270 Y3.07457
G01 X14.16898 Y3.24033
G01 X14.16995 Y3.25994
G01 X14.16898 Y3.27960
G01 X14.15270 Y3.44536
G01 X14.14976 Y3.46484
G01 X14.14503 Y3.48386
G01 X14.09667 Y3.64333
G01 X14.08161 Y3.67949
G01 X14.00312 Y3.82651
G01 X13.98128 Y3.85910
G01 X13.87564 Y3.98790
G01 X13.86749 Y3.99684
G01 X13.85689 Y4.00743
G01 X13.84790 Y4.01561
G01 X13.71905 Y4.12133
G01 X13.68649 Y4.14312
G01 X13.53950 Y4.22161
G01 X13.52182 Y4.23001
G01 X13.50330 Y4.23667
G01 X13.34384 Y4.28498
G01 X13.30541 Y4.29265
G01 X13.13957 Y4.30898
G01 X13.10035 Y4.30898
G01 X12.93452 Y4.29265
G01 X12.89606 Y4.28498
G01 X12.73663 Y4.23667
G01 X12.71816 Y4.23001
G01 X12.70043 Y4.22161
G01 X12.55344 Y4.14312
G01 X12.53663 Y4.13304
G01 X12.52085 Y4.12133
G01 X12.39208 Y4.01561
G01 X12.36434 Y3.98790
G01 X12.25862 Y3.85910
G01 X12.24694 Y3.84332
G01 X12.23686 Y3.82651
G01 X12.15829 Y3.67949
G01 X12.14328 Y3.64333
G01 X12.09490 Y3.48386
G01 X12.09015 Y3.46484
G01 X12.08725 Y3.44536
G01 X12.07343 Y3.30535
G01 X12.07092 Y3.27960
G01 X12.07092 Y3.24033
G01 X12.17046 Y3.25013
G01 X12.18679 Y3.08430
G01 X12.18824 Y3.07464
G01 X12.19060 Y3.06512
G01 X12.23899 Y2.90563
G01 X12.24651 Y2.88755
G01 X12.32505 Y2.74058
G01 X12.33010 Y2.73215
G01 X12.33594 Y2.72430
G01 X12.44166 Y2.59545
G01 X12.45547 Y2.58161
G01 X12.58430 Y2.47589
G01 X12.59218 Y2.47010
G01 X12.60061 Y2.46499
G01 X12.74757 Y2.38646
G01 X12.75641 Y2.38224
G01 X12.76563 Y2.37894
G01 X12.92509 Y2.33063
G01 X12.94432 Y2.32679
G01 X13.11016 Y2.31046
G01 X13.12977 Y2.31046
G01 X13.29560 Y2.32679
G01 X13.31481 Y2.33063
G01 X13.47427 Y2.37894
G01 X13.48349 Y2.38224
G01 X13.49240 Y2.38646
G01 X13.63932 Y2.46499
G01 X13.65560 Y2.47589
G01 X13.78445 Y2.58161
G01 X13.79172 Y2.58823
G01 X13.79827 Y2.59545
G01 X13.90401 Y2.72430
G01 X13.91488 Y2.74058
G01 X13.99344 Y2.88755
G01 X14.00099 Y2.90563
G01 X14.04932 Y3.06512
G01 X14.05316 Y3.08430
G01 X14.06952 Y3.25013
G01 X14.07000 Y3.25994
G01 X14.06952 Y3.26979
G01 X14.05316 Y3.43555
G01 X14.05169 Y3.44533
G01 X14.04932 Y3.45478
G01 X14.00099 Y3.61429
G01 X13.99766 Y3.62354
G01 X13.99344 Y3.63235
G01 X13.91488 Y3.77937
G01 X13.90401 Y3.79565
G01 X13.79827 Y3.92448
G01 X13.79172 Y3.93172
G01 X13.78445 Y3.93827
G01 X13.65560 Y4.04398
G01 X13.63932 Y4.05493
G01 X13.49240 Y4.13342
G01 X13.48349 Y4.13763
G01 X13.47427 Y4.14099
G01 X13.31481 Y4.18930
G01 X13.29560 Y4.19318
G01 X13.12977 Y4.20947
G01 X13.11016 Y4.20947
G01 X12.94432 Y4.19318
G01 X12.92509 Y4.18930
G01 X12.76563 Y4.14099
G01 X12.74757 Y4.13342
G01 X12.60061 Y4.05493
G01 X12.59218 Y4.04988
G01 X12.58430 Y4.04398
G01 X12.45547 Y3.93827
G01 X12.44166 Y3.92448
G01 X12.33594 Y3.79565
G01 X12.33010 Y3.78777
G01 X12.32505 Y3.77937
G01 X12.24651 Y3.63235
G01 X12.23899 Y3.61429
G01 X12.19060 Y3.45478
G01 X12.18824 Y3.44533
G01 X12.18679 Y3.43555
G01 X12.17046 Y3.26979
G01 X12.17046 Y3.25013
G04 P0 ( dwell for no time -- G64 should not smooth over this point )
G00 Z5.00000 ( retract )

G00 X14.60998 Y3.25994 ( rapid move to begin. )
G01 F250.00000
( Mill infeed pass 1/1 )
G01 Z-0.05000
G04 P0 ( dwell for no time -- G64 should not smooth over this point )
G01 F500.00000
G01 X14.60998 Y3.25994
G01 X14.61094 Y3.27960
G01 X14.62725 Y3.44536
G01 X14.63017 Y3.46484
G01 X14.63490 Y3.48386
G01 X14.68331 Y3.64333
G01 X14.69824 Y3.67949
G01 X14.77686 Y3.82651
G01 X14.79862 Y3.85910
G01 X14.90434 Y3.98790
G01 X14.91262 Y3.99707
G01 X14.92291 Y4.00728
G01 X14.93202 Y4.01561
G01 X15.06088 Y4.12133
G01 X15.09344 Y4.14312
G01 X15.24043 Y4.22161
G01 X15.25811 Y4.23001
G01 X15.27663 Y4.23667
G01 X15.43609 Y4.28498
G01 X15.47454 Y4.29265
G01 X15.64035 Y4.30898
G01 X15.67960 Y4.30898
G01 X15.84541 Y4.29265
G01 X15.88386 Y4.28498
G01 X16.04333 Y4.23667
G01 X16.06182 Y4.23001
G01 X16.07950 Y4.22161
G01 X16.22651 Y4.14312
G01 X16.25907 Y4.12133
G01 X16.38790 Y4.01561
G01 X16.39684 Y4.00743
G01 X16.40743 Y3.99684
G01 X16.41559 Y3.98790
G01 X16.52130 Y3.85910
G01 X16.54307 Y3.82651
G01 X16.62161 Y3.67949
G01 X16.63662 Y3.64333
G01 X16.68503 Y3.48386
G01 X16.68978 Y3.46484
G01 X16.69270 Y3.44536
G01 X16.70898 Y3.27960
G01 X16.70997 Y3.25994
G01 X16.70898 Y3.24033
G01 X16.69270 Y3.07457
G01 X16.68978 Y3.05509
G01 X16.68503 Y3.03606
G01 X16.63662 Y2.87663
G01 X16.62161 Y2.84038
G01 X16.54307 Y2.69342
G01 X16.52130 Y2.66088
G01 X16.41559 Y2.53202
G01 X16.40723 Y2.52278
G01 X16.39715 Y2.51272
G01 X16.38790 Y2.50434
G01 X16.25907 Y2.39862
G01 X16.22651 Y2.37683
G01 X16.07950 Y2.29824
G01 X16.06182 Y2.28986
G01 X16.04333 Y2.28331
G01 X15.88386 Y2.23487
G01 X15.84541 Y2.22728
G01 X15.67960 Y2.21089
G01 X15.64035 Y2.21089
G01 X15.47454 Y2.22728
G01 X15.43609 Y2.23487
G01 X15.27663 Y2.28331
G01 X15.25811 Y2.28986
G01 X15.24043 Y2.29824
G01 X15.09344 Y2.37683
G01 X15.06088 Y2.39862
G01 X14.93202 Y2.50434
G01 X14.92260 Y2.51287
G01 X14.91290 Y2.52260
G01 X14.90434 Y2.53202
G01 X14.79862 Y2.66088
G01 X14.77686 Y2.69342
G01 X14.69824 Y2.84038
G01 X14.68331 Y2.87663
G01 X14.63490 Y3.03606
G01 X14.63017 Y3.05509
G01 X14.62725 Y3.07457
G01 X14.61094 Y3.24033
G01 X14.60998 Y3.25994
G01 X14.70998 Y3.25994
G01 X14.71046 Y3.26979
G01 X14.72677 Y3.43555
G01 X14.72824 Y3.44533
G01 X14.73060 Y3.45478
G01 X14.77894 Y3.61429
G01 X14.78651 Y3.63235
G01 X14.86505 Y3.77937
G01 X14.87005 Y3.78777
G01 X14.87594 Y3.79565
G01 X14.98166 Y3.92448
G01 X14.98821 Y3.93172
G01 X14.99547 Y3.93827
G01 X15.12430 Y4.04398
G01 X15.14061 Y4.05493
G01 X15.28752 Y4.13342
G01 X15.29644 Y4.13763
G01 X15.30566 Y4.14099
G01 X15.46512 Y4.18930
G01 X15.48435 Y4.19318
G01 X15.65016 Y4.20947
G01 X15.66979 Y4.20947
G01 X15.83560 Y4.19318
G01 X15.85483 Y4.18930
G01 X16.01429 Y4.14099
G01 X16.02351 Y4.13763
G01 X16.03240 Y4.13342
G01 X16.17934 Y4.05493
G01 X16.19562 Y4.04398
G01 X16.32448 Y3.93827
G01 X16.33174 Y3.93172
G01 X16.33830 Y3.92448
G01 X16.44401 Y3.79565
G01 X16.45491 Y3.77937
G01 X16.53344 Y3.63235
G01 X16.53766 Y3.62354
G01 X16.54099 Y3.61429
G01 X16.58935 Y3.45478
G01 X16.59171 Y3.44533
G01 X16.59319 Y3.43555
G01 X16.60947 Y3.26979
G01 X16.60995 Y3.25994
G01 X16.60947 Y3.25013
G01 X16.59319 Y3.08430
G01 X16.58935 Y3.06512
G01 X16.54099 Y2.90563
G01 X16.53344 Y2.88755
G01 X16.45491 Y2.74058
G01 X16.44401 Y2.72430
G01 X16.33830 Y2.59545
G01 X16.33174 Y2.58823
G01 X16.32448 Y2.58161
G01 X16.19562 Y2.47589
G01 X16.17934 Y2.46499
G01 X16.03240 Y2.38646
G01 X16.02351 Y2.38224
G01 X16.01429 Y2.37894
G01 X15.85483 Y2.33063
G01 X15.83560 Y2.32679
G01 X15.66979 Y2.31046
G01 X15.65016 Y2.31046
G01 X15.48435 Y2.32679
G01 X15.46512 Y2.33063
G01 X15.30566 Y2.37894
G01 X15.29644 Y2.38224
G01 X15.28752 Y2.38646
G01 X15.14061 Y2.46499
G01 X15.12430 Y2.47589
G01 X14.99547 Y2.58161
G01 X14.98821 Y2.58823
G01 X14.98166 Y2.59545
G01 X14.87594 Y2.72430
G01 X14.86505 Y2.74058
G01 X14.78651 Y2.88755
G01 X14.77894 Y2.90563
G01 X14.73060 Y3.06512
G01 X14.72677 Y3.08430
G01 X14.71046 Y3.25013
G01 X14.70998 Y3.25994
G04 P0 ( dwell for no time -- G64 should not smooth over this point )
G00 Z5.00000 ( retract )

G00 X15.05694 Y6.89800 ( rapid move to begin. )
G01 F250.00000
( Mill infeed pass 1/1 )
G01 Z-0.05000
G04 P0 ( dwell for no time -- G64 should not smooth over this point )
G01 F500.00000
G01 X15.05694 Y6.89800
G01 X15.23081 Y6.97906
G01 X15.44208 Y7.03570
G01 X15.65996 Y7.05472
G01 X15.87784 Y7.03570
G01 X16.08912 Y6.97906
G01 X16.26299 Y6.89800
G01 X16.03637 Y6.67134
G01 X16.03240 Y6.67344
G01 X16.02351 Y6.67766
G01 X16.01429 Y6.68099
G01 X15.85483 Y6.72932
G01 X15.83560 Y6.73316
G01 X15.66979 Y6.74949
G01 X15.65016 Y6.74949
G01 X15.48435 Y6.73316
G01 X15.47462 Y6.73174
G01 X15.46512 Y6.72932
G01 X15.30566 Y6.68099
G01 X15.29644 Y6.67766
G01 X15.28752 Y6.67344
G01 X15.28359 Y6.67134
G01 X15.05694 Y6.89800
G01 X15.13639 Y6.89099
G01 X15.22857 Y6.86770
G01 X15.26515 Y6.88472
G01 X15.45951 Y6.93684
G01 X15.45941 Y6.93732
G01 X15.45951 Y6.93684
G01 X15.65996 Y6.95434
G01 X15.65996 Y6.95475
G01 X15.65996 Y6.95434
G01 X15.86042 Y6.93684
G01 X15.86052 Y6.93732
G01 X15.86042 Y6.93684
G01 X16.05478 Y6.88472
G01 X16.09128 Y6.86770
G01 X16.18353 Y6.89099
G01 X16.09128 Y6.86770
G01 X16.01028 Y6.78670
G01 X16.01429 Y6.77136
G01 X16.01028 Y6.78670
G01 X15.88386 Y6.82501
G01 X15.84541 Y6.83270
G01 X15.67960 Y6.84903
G01 X15.65999 Y6.85000
G01 X15.64035 Y6.84903
G01 X15.47454 Y6.83270
G01 X15.43609 Y6.82501
G01 X15.30967 Y6.78665
G01 X15.30566 Y6.77136
G01 X15.30967 Y6.78665
G01 X15.22857 Y6.86770
G04 P0 ( dwell for no time -- G64 should not smooth over this point )
G00 Z5.00000 ( retract )

G00 X17.14998 Y5.79994 ( rapid move to begin. )
G01 F250.00000
( Mill infeed pass 1/1 )
G01 Z-0.05000
G04 P0 ( dwell for no time -- G64 should not smooth over this point )
G01 F500.00000
G01 X17.14998 Y5.79994
G01 X17.15094 Y5.81955
G01 X17.16725 Y5.98536
G01 X17.17017 Y6.00484
G01 X17.17490 Y6.02386
G01 X17.22326 Y6.18327
G01 X17.23827 Y6.21949
G01 X17.31681 Y6.36648
G01 X17.32504 Y6.38012
G01 X17.33042 Y6.38797
G01 X17.33857 Y6.39910
G01 X17.44429 Y6.52790
G01 X17.45272 Y6.53712
G01 X17.46283 Y6.54723
G01 X17.47205 Y6.55561
G01 X17.60088 Y6.66133
G01 X17.63347 Y6.68310
G01 X17.78043 Y6.76166
G01 X17.81665 Y6.77664
G01 X17.97611 Y6.82501
G01 X18.01454 Y6.83270
G01 X18.18038 Y6.84903
G01 X18.19999 Y6.85000
G01 X18.21960 Y6.84903
G01 X18.38541 Y6.83270
G01 X18.42386 Y6.82501
G01 X18.58333 Y6.77664
G01 X18.60177 Y6.77004
G01 X18.61952 Y6.76166
G01 X18.76651 Y6.68310
G01 X18.79907 Y6.66133
G01 X18.92785 Y6.55561
G01 X18.93687 Y6.54746
G01 X18.94746 Y6.53687
G01 X18.95559 Y6.52790
G01 X19.06130 Y6.39910
G01 X19.08310 Y6.36648
G01 X19.16163 Y6.21949
G01 X19.17664 Y6.18327
G01 X19.22498 Y6.02386
G01 X19.22978 Y6.00484
G01 X19.23270 Y5.98536
G01 X19.24901 Y5.81955
G01 X19.25000 Y5.79994
G01 X19.24901 Y5.78033
G01 X19.23270 Y5.61452
G01 X19.22978 Y5.59514
G01 X19.22498 Y5.57611
G01 X19.17664 Y5.41660
G01 X19.16163 Y5.38038
G01 X19.08310 Y5.23347
G01 X19.06130 Y5.20083
G01 X18.95559 Y5.07208
G01 X18.94246 Y5.05750
G01 X18.92785 Y5.04429
G01 X18.79907 Y4.93857
G01 X18.76651 Y4.91681
G01 X18.61952 Y4.83827
G01 X18.60177 Y4.82986
G01 X18.58333 Y4.82331
G01 X18.42386 Y4.77487
G01 X18.38541 Y4.76722
G01 X18.21960 Y4.75089
G01 X18.18038 Y4.75089
G01 X18.01454 Y4.76722
G01 X17.97611 Y4.77487
G01 X17.81665 Y4.82331
G01 X17.79811 Y4.82986
G01 X17.78043 Y4.83827
G01 X17.63347 Y4.91681
G01 X17.60088 Y4.93857
G01 X17.47205 Y5.04429
G01 X17.46260 Y5.05287
G01 X17.45292 Y5.06255
G01 X17.44429 Y5.07208
G01 X17.33857 Y5.20083
G01 X17.31681 Y5.23347
G01 X17.23827 Y5.38038
G01 X17.22326 Y5.41660
G01 X17.17490 Y5.57611
G01 X17.17017 Y5.59514
G01 X17.16725 Y5.61452
G01 X17.15094 Y5.78033
G01 X17.14998 Y5.79994
G01 X17.24993 Y5.79994
G01 X17.25041 Y5.79013
G01 X17.26679 Y5.62430
G01 X17.26824 Y5.61459
G01 X17.27063 Y5.60512
G01 X17.31896 Y5.44568
G01 X17.32651 Y5.42757
G01 X17.40505 Y5.28056
G01 X17.41007 Y5.27220
G01 X17.41594 Y5.26425
G01 X17.52166 Y5.13550
G01 X17.52824 Y5.12818
G01 X17.53550 Y5.12166
G01 X17.66425 Y5.01592
G01 X17.68061 Y5.00504
G01 X17.82755 Y4.92646
G01 X17.83644 Y4.92224
G01 X17.84568 Y4.91894
G01 X18.00512 Y4.87063
G01 X18.02435 Y4.86674
G01 X18.19018 Y4.85041
G01 X18.20979 Y4.85041
G01 X18.37560 Y4.86674
G01 X18.39483 Y4.87063
G01 X18.55429 Y4.91894
G01 X18.56354 Y4.92224
G01 X18.57235 Y4.92646
G01 X18.71937 Y5.00504
G01 X18.73562 Y5.01592
G01 X18.86448 Y5.12166
G01 X18.87174 Y5.12818
G01 X18.87832 Y5.13550
G01 X18.98404 Y5.26425
G01 X18.98983 Y5.27220
G01 X18.99493 Y5.28056
G01 X19.07347 Y5.42757
G01 X19.08094 Y5.44568
G01 X19.12935 Y5.60512
G01 X19.13174 Y5.61459
G01 X19.13319 Y5.62430
G01 X19.14947 Y5.79013
G01 X19.14997 Y5.79994
G01 X19.14947 Y5.80974
G01 X19.13319 Y5.97555
G01 X19.13174 Y5.98528
G01 X19.12935 Y5.99483
G01 X19.08094 Y6.15429
G01 X19.07766 Y6.16354
G01 X19.07347 Y6.17240
G01 X18.99493 Y6.31932
G01 X18.98404 Y6.33560
G01 X18.87832 Y6.46445
G01 X18.87174 Y6.47172
G01 X18.86448 Y6.47832
G01 X18.73562 Y6.58401
G01 X18.71937 Y6.59493
G01 X18.57235 Y6.67344
G01 X18.56354 Y6.67766
G01 X18.55429 Y6.68099
G01 X18.39483 Y6.72932
G01 X18.37560 Y6.73316
G01 X18.20979 Y6.74949
G01 X18.19018 Y6.74949
G01 X18.02435 Y6.73316
G01 X18.01465 Y6.73174
G01 X18.00512 Y6.72932
G01 X17.84568 Y6.68099
G01 X17.83644 Y6.67766
G01 X17.82755 Y6.67344
G01 X17.68061 Y6.59493
G01 X17.66425 Y6.58401
G01 X17.53550 Y6.47832
G01 X17.52824 Y6.47172
G01 X17.52166 Y6.46445
G01 X17.41594 Y6.33560
G01 X17.41007 Y6.32777
G01 X17.40505 Y6.31932
G01 X17.32651 Y6.17240
G01 X17.31896 Y6.15429
G01 X17.27063 Y5.99483
G01 X17.26824 Y5.98528
G01 X17.26679 Y5.97555
G01 X17.25041 Y5.80974
G01 X17.24993 Y5.79994
G04 P0 ( dwell for no time -- G64 should not smooth over this point )
G00 Z5.00000 ( retract )

G00 X17.14998 Y3.25994 ( rapid move to begin. )
G01 F250.00000
( Mill infeed pass 1/1 )
G01 Z-0.05000
G04 P0 ( dwell for no time -- G64 should not smooth over this point )
G01 F500.00000
G01 X17.14998 Y3.25994
G01 X17.15094 Y3.27960
G01 X17.16725 Y3.44536
G01 X17.17017 Y3.46484
G01 X17.17490 Y3.48386
G01 X17.22326 Y3.64333
G01 X17.23827 Y3.67949
G01 X17.31681 Y3.82651
G01 X17.33857 Y3.85910
G01 X17.44429 Y3.98790
G01 X17.45262 Y3.99707
G01 X17.46291 Y4.00728
G01 X17.47205 Y4.01561
G01 X17.60088 Y4.12133
G01 X17.63347 Y4.14312
G01 X17.78043 Y4.22161
G01 X17.79811 Y4.23001
G01 X17.81665 Y4.23667
G01 X17.97611 Y4.28498
G01 X18.01454 Y4.29265
G01 X18.18038 Y4.30898
G01 X18.21960 Y4.30898
G01 X18.38541 Y4.29265
G01 X18.42386 Y4.28498
G01 X18.58333 Y4.23667
G01 X18.60177 Y4.23001
G01 X18.61952 Y4.22161
G01 X18.76651 Y4.14312
G01 X18.79907 Y4.12133
G01 X18.92785 Y4.01561
G01 X18.94246 Y4.00240
G01 X18.95559 Y3.98790
G01 X19.06130 Y3.85910
G01 X19.08310 Y3.82651
G01 X19.16163 Y3.67949
G01 X19.17664 Y3.64333
G01 X19.22498 Y3.48386
G01 X19.22978 Y3.46484
G01 X19.23270 Y3.44536
G01 X19.24901 Y3.27960
G01 X19.25000 Y3.25994
G01 X19.24901 Y3.24033
G01 X19.23270 Y3.07457
G01 X19.22978 Y3.05509
G01 X19.22498 Y3.03606
G01 X19.17664 Y2.87663
G01 X19.16163 Y2.84038
G01 X19.08310 Y2.69342
G01 X19.06130 Y2.66088
G01 X18.95559 Y2.53202
G01 X18.94726 Y2.52278
G01 X18.93715 Y2.51272
G01 X18.92785 Y2.50434
G01 X18.79907 Y2.39862
G01 X18.76651 Y2.37683
G01 X18.61952 Y2.29824
G01 X18.60177 Y2.28986
G01 X18.58333 Y2.28331
G01 X18.42386 Y2.23487
G01 X18.38541 Y2.22728
G01 X18.21960 Y2.21089
G01 X18.18038 Y2.21089
G01 X18.01454 Y2.22728
G01 X17.97611 Y2.23487
G01 X17.81665 Y2.28331
G01 X17.79811 Y2.28986
G01 X17.78043 Y2.29824
G01 X17.63347 Y2.37683
G01 X17.60088 Y2.39862
G01 X17.47205 Y2.50434
G01 X17.46260 Y2.51287
G01 X17.45292 Y2.52260
G01 X17.44429 Y2.53202
G01 X17.33857 Y2.66088
G01 X17.31681 Y2.69342
G01 X17.23827 Y2.84038
G01 X17.22326 Y2.87663
G01 X17.17490 Y3.03606
G01 X17.17017 Y3.05509
G01 X17.16725 Y3.07457
G01 X17.15094 Y3.24033
G01 X17.14998 Y3.25994
G01 X17.24993 Y3.25994
G01 X17.25041 Y3.26979
G01 X17.26679 Y3.43555
G01 X17.26824 Y3.44533
G01 X17.27063 Y3.45478
G01 X17.31896 Y3.61429
G01 X17.32651 Y3.63235
G01 X17.40505 Y3.77937
G01 X17.41007 Y3.78777
G01 X17.41594 Y3.79565
G01 X17.52166 Y3.92448
G01 X17.52824 Y3.93172
G01 X17.53550 Y3.93827
G01 X17.66425 Y4.04398
G01 X17.68061 Y4.05493
G01 X17.82755 Y4.13342
G01 X17.83644 Y4.13763
G01 X17.84568 Y4.14099
G01 X18.00512 Y4.18930
G01 X18.02435 Y4.19318
G01 X18.19018 Y4.20947
G01 X18.20979 Y4.20947
G01 X18.37560 Y4.19318
G01 X18.39483 Y4.18930
G01 X18.55429 Y4.14099
G01 X18.56354 Y4.13763
G01 X18.57235 Y4.13342
G01 X18.71937 Y4.05493
G01 X18.73562 Y4.04398
G01 X18.86448 Y3.93827
G01 X18.87174 Y3.93172
G01 X18.87832 Y3.92448
G01 X18.98404 Y3.79565
G01 X18.99493 Y3.77937
G01 X19.07347 Y3.63235
G01 X19.07766 Y3.62354
G01 X19.08094 Y3.61429
G01 X19.12935 Y3.45478
G01 X19.13174 Y3.44533
G01 X19.13319 Y3.43555
G01 X19.14947 Y3.26979
G01 X19.14997 Y3.25994
G01 X19.14947 Y3.25013
G01 X19.13319 Y3.08430
G01 X19.12935 Y3.06512
G01 X19.08094 Y2.90563
G01 X19.07347 Y2.88755
G01 X18.99493 Y2.74058
G01 X18.98404 Y2.72430
G01 X18.87832 Y2.59545
G01 X18.87174 Y2.58823
G01 X18.86448 Y2.58161
G01 X18.73562 Y2.47589
G01 X18.71937 Y2.46499
G01 X18.57235 Y2.38646
G01 X18.56354 Y2.38224
G01 X18.55429 Y2.37894
G01 X18.39483 Y2.33063
G01 X18.37560 Y2.32679
G01 X18.20979 Y2.31046
G01 X18.19018 Y2.31046
G01 X18.02435 Y2.32679
G01 X18.00512 Y2.33063
G01 X17.84568 Y2.37894
G01 X17.83644 Y2.38224
G01 X17.82755 Y2.38646
G01 X17.68061 Y2.46499
G01 X17.66425 Y2.47589
G01 X17.53550 Y2.58161
G01 X17.52824 Y2.58823
G01 X17.52166 Y2.59545
G01 X17.41594 Y2.72430
G01 X17.40505 Y2.74058
G01 X17.32651 Y2.88755
G01 X17.31896 Y2.90563
G01 X17.27063 Y3.06512
G01 X17.26679 Y3.08430
G01 X17.25041 Y3.25013
G01 X17.24993 Y3.25994
G04 P0 ( dwell for no time -- G64 should not smooth over this point )
G00 Z5.00000 ( retract )

G00 X19.68993 Y3.25994 ( rapid move to begin. )
G01 F250.00000
( Mill infeed pass 1/1 )
G01 Z-0.05000
G04 P0 ( dwell for no time -- G64 should not smooth over this point )
G01 F500.00000
G01 X19.68993 Y3.25994
G01 X19.69089 Y3.24033
G01 X19.70728 Y3.07457
G01 X19.71012 Y3.05509
G01 X19.71492 Y3.03606
G01 X19.76328 Y2.87663
G01 X19.77827 Y2.84038
G01 X19.85683 Y2.69342
G01 X19.87860 Y2.66088
G01 X19.98431 Y2.53202
G01 X19.99292 Y2.52260
G01 X20.00255 Y2.51287
G01 X20.01208 Y2.50434
G01 X20.14083 Y2.39862
G01 X20.17347 Y2.37683
G01 X20.32038 Y2.29824
G01 X20.33814 Y2.28986
G01 X20.35665 Y2.28331
G01 X20.51611 Y2.23487
G01 X20.55457 Y2.22728
G01 X20.72038 Y2.21089
G01 X20.75960 Y2.21089
G01 X20.92536 Y2.22728
G01 X20.96381 Y2.23487
G01 X21.12333 Y2.28331
G01 X21.14179 Y2.28986
G01 X21.15955 Y2.29824
G01 X21.30651 Y2.37683
G01 X21.33910 Y2.39862
G01 X21.46788 Y2.50434
G01 X21.47715 Y2.51272
G01 X21.48726 Y2.52278
G01 X21.49561 Y2.53202
G01 X21.60133 Y2.66088
G01 X21.62310 Y2.69342
G01 X21.70166 Y2.84038
G01 X21.71667 Y2.87663
G01 X21.76501 Y3.03606
G01 X21.76981 Y3.05509
G01 X21.77265 Y3.07457
G01 X21.78903 Y3.24033
G01 X21.79000 Y3.25994
G01 X21.78903 Y3.27960
G01 X21.77265 Y3.44536
G01 X21.76981 Y3.46484
G01 X21.76501 Y3.48386
G01 X21.71667 Y3.64333
G01 X21.70166 Y3.67949
G01 X21.62310 Y3.82651
G01 X21.60133 Y3.85910
G01 X21.49561 Y3.98790
G01 X21.48246 Y4.00240
G01 X21.46788 Y4.01561
G01 X21.33910 Y4.12133
G01 X21.30651 Y4.14312
G01 X21.15955 Y4.22161
G01 X21.14179 Y4.23001
G01 X21.12333 Y4.23667
G01 X20.96381 Y4.28498
G01 X20.92536 Y4.29265
G01 X20.75960 Y4.30898
G01 X20.72038 Y4.30898
G01 X20.55457 Y4.29265
G01 X20.51611 Y4.28498
G01 X20.35665 Y4.23667
G01 X20.33814 Y4.23001
G01 X20.32038 Y4.22161
G01 X20.17347 Y4.14312
G01 X20.14083 Y4.12133
G01 X20.01208 Y4.01561
G01 X19.99752 Y4.00240
G01 X19.98431 Y3.98790
G01 X19.87860 Y3.85910
G01 X19.85683 Y3.82651
G01 X19.77827 Y3.67949
G01 X19.76328 Y3.64333
G01 X19.71492 Y3.48386
G01 X19.71012 Y3.46484
G01 X19.70728 Y3.44536
G01 X19.69089 Y3.27960
G01 X19.68993 Y3.25994
G01 X19.78995 Y3.25994
G01 X19.79044 Y3.25013
G01 X19.80679 Y3.08430
G01 X19.81063 Y3.06512
G01 X19.85899 Y2.90563
G01 X19.86651 Y2.88755
G01 X19.94499 Y2.74058
G01 X19.95594 Y2.72430
G01 X20.06166 Y2.59545
G01 X20.06824 Y2.58823
G01 X20.07550 Y2.58161
G01 X20.20428 Y2.47589
G01 X20.22056 Y2.46499
G01 X20.36755 Y2.38646
G01 X20.37639 Y2.38224
G01 X20.38568 Y2.37894
G01 X20.54507 Y2.33063
G01 X20.56435 Y2.32679
G01 X20.73018 Y2.31046
G01 X20.74979 Y2.31046
G01 X20.91555 Y2.32679
G01 X20.93478 Y2.33063
G01 X21.09429 Y2.37894
G01 X21.10354 Y2.38224
G01 X21.11238 Y2.38646
G01 X21.25937 Y2.46499
G01 X21.27565 Y2.47589
G01 X21.40448 Y2.58161
G01 X21.41174 Y2.58823
G01 X21.41832 Y2.59545
G01 X21.52404 Y2.72430
G01 X21.53493 Y2.74058
G01 X21.61347 Y2.88755
G01 X21.62094 Y2.90563
G01 X21.66930 Y3.06512
G01 X21.67319 Y3.08430
G01 X21.68949 Y3.25013
G01 X21.68997 Y3.25994
G01 X21.68949 Y3.26979
G01 X21.67319 Y3.43555
G01 X21.67174 Y3.44533
G01 X21.66930 Y3.45478
G01 X21.62094 Y3.61429
G01 X21.61761 Y3.62354
G01 X21.61347 Y3.63235
G01 X21.53493 Y3.77937
G01 X21.52404 Y3.79565
G01 X21.41832 Y3.92448
G01 X21.41174 Y3.93172
G01 X21.40448 Y3.93827
G01 X21.27565 Y4.04398
G01 X21.25937 Y4.05493
G01 X21.11238 Y4.13342
G01 X21.10354 Y4.13763
G01 X21.09429 Y4.14099
G01 X20.93478 Y4.18930
G01 X20.91555 Y4.19318
G01 X20.74979 Y4.20947
G01 X20.73018 Y4.20947
G01 X20.56435 Y4.19318
G01 X20.54507 Y4.18930
G01 X20.38568 Y4.14099
G01 X20.37639 Y4.13763
G01 X20.36755 Y4.13342
G01 X20.22056 Y4.05493
G01 X20.20428 Y4.04398
G01 X20.07550 Y3.93827
G01 X20.06824 Y3.93172
G01 X20.06166 Y3.92448
G01 X19.95594 Y3.79565
G01 X19.95010 Y3.78777
G01 X19.94499 Y3.77937
G01 X19.86651 Y3.63235
G01 X19.85899 Y3.61429
G01 X19.81063 Y3.45478
G01 X19.80819 Y3.44533
G01 X19.80679 Y3.43555
G01 X19.79044 Y3.26979
G01 X19.78995 Y3.25994
G01 X19.68993 Y3.25994
G01 X19.68993 Y5.79994
G01 X19.69089 Y5.81955
G01 X19.70728 Y5.98536
G01 X19.71012 Y6.00484
G01 X19.71492 Y6.02386
G01 X19.76328 Y6.18327
G01 X19.77827 Y6.21949
G01 X19.85683 Y6.36648
G01 X19.86506 Y6.38018
G01 X19.87034 Y6.38792
G01 X19.87860 Y6.39910
G01 X19.98431 Y6.52790
G01 X19.99272 Y6.53712
G01 X20.00283 Y6.54723
G01 X20.01208 Y6.55561
G01 X20.14083 Y6.66133
G01 X20.17347 Y6.68310
G01 X20.32038 Y6.76166
G01 X20.35665 Y6.77664
G01 X20.51611 Y6.82501
G01 X20.55457 Y6.83270
G01 X20.72038 Y6.84903
G01 X20.73999 Y6.85000
G01 X20.75960 Y6.84903
G01 X20.92536 Y6.83270
G01 X20.96381 Y6.82501
G01 X21.12333 Y6.77664
G01 X21.14179 Y6.77004
G01 X21.15955 Y6.76166
G01 X21.30651 Y6.68310
G01 X21.33910 Y6.66133
G01 X21.46788 Y6.55561
G01 X21.47689 Y6.54746
G01 X21.48749 Y6.53687
G01 X21.49561 Y6.52790
G01 X21.60133 Y6.39910
G01 X21.62310 Y6.36648
G01 X21.70166 Y6.21949
G01 X21.71667 Y6.18327
G01 X21.76501 Y6.02386
G01 X21.76981 Y6.00484
G01 X21.77265 Y5.98536
G01 X21.78903 Y5.81955
G01 X21.79000 Y5.79994
G01 X21.78903 Y5.78033
G01 X21.77265 Y5.61452
G01 X21.76981 Y5.59514
G01 X21.76501 Y5.57611
G01 X21.71667 Y5.41660
G01 X21.70166 Y5.38038
G01 X21.62310 Y5.23347
G01 X21.60133 Y5.20083
G01 X21.49561 Y5.07208
G01 X21.48246 Y5.05750
G01 X21.46788 Y5.04429
G01 X21.33910 Y4.93857
G01 X21.30651 Y4.91681
G01 X21.15955 Y4.83827
G01 X21.14179 Y4.82986
G01 X21.12333 Y4.82331
G01 X20.96381 Y4.77487
G01 X20.92536 Y4.76722
G01 X20.75960 Y4.75089
G01 X20.72038 Y4.75089
G01 X20.55457 Y4.76722
G01 X20.51611 Y4.77487
G01 X20.35665 Y4.82331
G01 X20.33814 Y4.82986
G01 X20.32038 Y4.83827
G01 X20.17347 Y4.91681
G01 X20.14083 Y4.93857
G01 X20.01208 Y5.04429
G01 X19.99752 Y5.05750
G01 X19.98431 Y5.07208
G01 X19.87860 Y5.20083
G01 X19.85683 Y5.23347
G01 X19.77827 Y5.38038
G01 X19.76328 Y5.41660
G01 X19.71492 Y5.57611
G01 X19.71012 Y5.59514
G01 X19.70728 Y5.61452
G01 X19.69089 Y5.78033
G01 X19.68993 Y5.79994
G01 X19.78995 Y5.79994
G01 X19.79044 Y5.80974
G01 X19.80679 Y5.97555
G01 X19.80819 Y5.98528
G01 X19.81063 Y5.99483
G01 X19.85899 Y6.15429
G01 X19.86651 Y6.17240
G01 X19.94499 Y6.31932
G01 X19.95010 Y6.32777
G01 X19.95594 Y6.33560
G01 X20.06166 Y6.46445
G01 X20.06824 Y6.47172
G01 X20.07550 Y6.47832
G01 X20.20428 Y6.58401
G01 X20.22056 Y6.59493
G01 X20.36755 Y6.67344
G01 X20.37639 Y6.67766
G01 X20.38568 Y6.68099
G01 X20.54507 Y6.72932
G01 X20.55465 Y6.73174
G01 X20.56435 Y6.73316
G01 X20.73018 Y6.74949
G01 X20.74979 Y6.74949
G01 X20.91555 Y6.73316
G01 X20.93478 Y6.72932
G01 X21.09429 Y6.68099
G01 X21.10354 Y6.67766
G01 X21.11238 Y6.67344
G01 X21.25937 Y6.59493
G01 X21.27565 Y6.58401
G01 X21.40448 Y6.47832
G01 X21.41174 Y6.47172
G01 X21.41832 Y6.46445
G01 X21.52404 Y6.33560
G01 X21.53493 Y6.31932
G01 X21.61347 Y6.17240
G01 X21.61761 Y6.16354
G01 X21.62094 Y6.15429
G01 X21.66930 Y5.99483
G01 X21.67174 Y5.98528
G01 X21.67319 Y5.97555
G01 X21.68949 Y5.80974
G01 X21.68997 Y5.79994
G01 X21.68949 Y5.79013
G01 X21.67319 Y5.62430
G01 X21.67174 Y5.61459
G01 X21.66930 Y5.60512
G01 X21.62094 Y5.44568
G01 X21.61347 Y5.42757
G01 X21.53493 Y5.28056
G01 X21.52985 Y5.27220
G01 X21.52404 Y5.26425
G01 X21.41832 Y5.13550
G01 X21.41174 Y5.12818
G01 X21.40448 Y5.12166
G01 X21.27565 Y5.01592
G01 X21.25937 Y5.00504
G01 X21.11238 Y4.92646
G01 X21.10354 Y4.92224
G01 X21.09429 Y4.91894
G01 X20.93478 Y4.87063
G01 X20.91555 Y4.86674
G01 X20.74979 Y4.85041
G01 X20.73018 Y4.85041
G01 X20.56435 Y4.86674
G01 X20.54507 Y4.87063
G01 X20.38568 Y4.91894
G01 X20.37639 Y4.92224
G01 X20.36755 Y4.92646
G01 X20.22056 Y5.00504
G01 X20.20428 Y5.01592
G01 X20.07550 Y5.12166
G01 X20.06824 Y5.12818
G01 X20.06166 Y5.13550
G01 X19.95594 Y5.26425
G01 X19.95010 Y5.27220
G01 X19.94499 Y5.28056
G01 X19.86651 Y5.42757
G01 X19.85899 Y5.44568
G01 X19.81063 Y5.60512
G01 X19.80819 Y5.61459
G01 X19.80679 Y5.62430
G01 X19.79044 Y5.79013
G01 X19.78995 Y5.79994
G04 P0 ( dwell for no time -- G64 should not smooth over this point )
G00 Z5.00000 ( retract )

G00 X22.22993 Y3.25994 ( rapid move to begin. )
G01 F250.00000
( Mill infeed pass 1/1 )
G01 Z-0.05000
G04 P0 ( dwell for no time -- G64 should not smooth over this point )
G01 F500.00000
G01 X22.22993 Y3.25994
G01 X22.23092 Y3.27960
G01 X22.24728 Y3.44536
G01 X22.25015 Y3.46484
G01 X22.25492 Y3.48386
G01 X22.30328 Y3.64333
G01 X22.31829 Y3.67949
G01 X22.39686 Y3.82651
G01 X22.41862 Y3.85910
G01 X22.52434 Y3.98790
G01 X22.53747 Y4.00240
G01 X22.55208 Y4.01561
G01 X22.68085 Y4.12133
G01 X22.71342 Y4.14312
G01 X22.86041 Y4.22161
G01 X22.87816 Y4.23001
G01 X22.89660 Y4.23667
G01 X23.05611 Y4.28498
G01 X23.09457 Y4.29265
G01 X23.26033 Y4.30898
G01 X23.29955 Y4.30898
G01 X23.46538 Y4.29265
G01 X23.50381 Y4.28498
G01 X23.66327 Y4.23667
G01 X23.68182 Y4.23001
G01 X23.69955 Y4.22161
G01 X23.84646 Y4.14312
G01 X23.87910 Y4.12133
G01 X24.00788 Y4.01561
G01 X24.02241 Y4.00240
G01 X24.03564 Y3.98790
G01 X24.14133 Y3.85910
G01 X24.16312 Y3.82651
G01 X24.24166 Y3.67949
G01 X24.25667 Y3.64333
G01 X24.30503 Y3.48386
G01 X24.30981 Y3.46484
G01 X24.31268 Y3.44536
G01 X24.32903 Y3.27960
G01 X24.33000 Y3.25994
G01 X24.32903 Y3.24033
G01 X24.31268 Y3.07457
G01 X24.30981 Y3.05509
G01 X24.30503 Y3.03606
G01 X24.25667 Y2.87663
G01 X24.24166 Y2.84038
G01 X24.16312 Y2.69342
G01 X24.14133 Y2.66088
G01 X24.03564 Y2.53202
G01 X24.02721 Y2.52278
G01 X24.01710 Y2.51272
G01 X24.00788 Y2.50434
G01 X23.87910 Y2.39862
G01 X23.84646 Y2.37683
G01 X23.69955 Y2.29824
G01 X23.68182 Y2.28986
G01 X23.66327 Y2.28331
G01 X23.50381 Y2.23487
G01 X23.46538 Y2.22728
G01 X23.29955 Y2.21089
G01 X23.26033 Y2.21089
G01 X23.09457 Y2.22728
G01 X23.05611 Y2.23487
G01 X22.89660 Y2.28331
G01 X22.87816 Y2.28986
G01 X22.86041 Y2.29824
G01 X22.71342 Y2.37683
G01 X22.68085 Y2.39862
G01 X22.55208 Y2.50434
G01 X22.54258 Y2.51287
G01 X22.53287 Y2.52260
G01 X22.52434 Y2.53202
G01 X22.41862 Y2.66088
G01 X22.39686 Y2.69342
G01 X22.31829 Y2.84038
G01 X22.30328 Y2.87663
G01 X22.25492 Y3.03606
G01 X22.25015 Y3.05509
G01 X22.24728 Y3.07457
G01 X22.23092 Y3.24033
G01 X22.22993 Y3.25994
G01 X22.32998 Y3.25994
G01 X22.33046 Y3.26979
G01 X22.34674 Y3.43555
G01 X22.34822 Y3.44533
G01 X22.35063 Y3.45478
G01 X22.39899 Y3.61429
G01 X22.40646 Y3.63235
G01 X22.48502 Y3.77937
G01 X22.49010 Y3.78777
G01 X22.49589 Y3.79565
G01 X22.60161 Y3.92448
G01 X22.60818 Y3.93172
G01 X22.61545 Y3.93827
G01 X22.74430 Y4.04398
G01 X22.76058 Y4.05493
G01 X22.90757 Y4.13342
G01 X22.91641 Y4.13763
G01 X22.92563 Y4.14099
G01 X23.08507 Y4.18930
G01 X23.10430 Y4.19318
G01 X23.27013 Y4.20947
G01 X23.28974 Y4.20947
G01 X23.45558 Y4.19318
G01 X23.47481 Y4.18930
G01 X23.63424 Y4.14099
G01 X23.64354 Y4.13763
G01 X23.65240 Y4.13342
G01 X23.79937 Y4.05493
G01 X23.81565 Y4.04398
G01 X23.94443 Y3.93827
G01 X23.95169 Y3.93172
G01 X23.95827 Y3.92448
G01 X24.06399 Y3.79565
G01 X24.07493 Y3.77937
G01 X24.15342 Y3.63235
G01 X24.15764 Y3.62354
G01 X24.16096 Y3.61429
G01 X24.20932 Y3.45478
G01 X24.21174 Y3.44533
G01 X24.21313 Y3.43555
G01 X24.22952 Y3.26979
G01 X24.23000 Y3.25994
G01 X24.22952 Y3.25013
G01 X24.21313 Y3.08430
G01 X24.20932 Y3.06512
G01 X24.16096 Y2.90563
G01 X24.15342 Y2.88755
G01 X24.07493 Y2.74058
G01 X24.06399 Y2.72430
G01 X23.95827 Y2.59545
G01 X23.95169 Y2.58823
G01 X23.94443 Y2.58161
G01 X23.81565 Y2.47589
G01 X23.79937 Y2.46499
G01 X23.65240 Y2.38646
G01 X23.64354 Y2.38224
G01 X23.63424 Y2.37894
G01 X23.47481 Y2.33063
G01 X23.45558 Y2.32679
G01 X23.28974 Y2.31046
G01 X23.27013 Y2.31046
G01 X23.10430 Y2.32679
G01 X23.08507 Y2.33063
G01 X22.92563 Y2.37894
G01 X22.91641 Y2.38224
G01 X22.90757 Y2.38646
G01 X22.76058 Y2.46499
G01 X22.74430 Y2.47589
G01 X22.61545 Y2.58161
G01 X22.60818 Y2.58823
G01 X22.60161 Y2.59545
G01 X22.49589 Y2.72430
G01 X22.48502 Y2.74058
G01 X22.40646 Y2.88755
G01 X22.39899 Y2.90563
G01 X22.35063 Y3.06512
G01 X22.34674 Y3.08430
G01 X22.33046 Y3.25013
G01 X22.32998 Y3.25994
G04 P0 ( dwell for no time -- G64 should not smooth over this point )
G00 Z5.00000 ( retract )

G00 X24.17097 Y5.47873 ( rapid move to begin. )
G01 F250.00000
( Mill infeed pass 1/1 )
G01 Z-0.05000
G04 P0 ( dwell for no time -- G64 should not smooth over this point )
G01 F500.00000
G01 X24.17097 Y5.47873
G01 X24.16498 Y5.43806
G01 X24.15921 Y5.40931
G01 X24.11811 Y5.24507
G01 X24.10633 Y5.20626
G01 X24.07575 Y5.12094
G01 X24.03564 Y5.07208
G01 X24.02241 Y5.05750
G01 X24.00788 Y5.04429
G01 X23.87910 Y4.93857
G01 X23.84646 Y4.91681
G01 X23.69955 Y4.83827
G01 X23.68182 Y4.82986
G01 X23.66327 Y4.82331
G01 X23.50381 Y4.77487
G01 X23.46538 Y4.76722
G01 X23.29955 Y4.75089
G01 X23.26033 Y4.75089
G01 X23.09457 Y4.76722
G01 X23.05611 Y4.77487
G01 X22.89660 Y4.82331
G01 X22.87816 Y4.82986
G01 X22.86041 Y4.83827
G01 X22.71342 Y4.91681
G01 X22.68085 Y4.93857
G01 X22.55208 Y5.04429
G01 X22.53747 Y5.05750
G01 X22.52434 Y5.07208
G01 X22.41862 Y5.20083
G01 X22.39686 Y5.23347
G01 X22.31829 Y5.38038
G01 X22.30328 Y5.41660
G01 X22.25492 Y5.57611
G01 X22.25015 Y5.59514
G01 X22.24728 Y5.61452
G01 X22.23092 Y5.78033
G01 X22.22993 Y5.79994
G01 X22.32998 Y5.79994
G01 X22.22993 Y5.79994
G01 X22.23092 Y5.81955
G01 X22.24728 Y5.98536
G01 X22.25015 Y6.00484
G01 X22.25492 Y6.02386
G01 X22.30328 Y6.18327
G01 X22.31829 Y6.21949
G01 X22.39686 Y6.36648
G01 X22.40506 Y6.38018
G01 X22.41029 Y6.38792
G01 X22.41862 Y6.39910
G01 X22.52434 Y6.52790
G01 X22.53267 Y6.53712
G01 X22.54278 Y6.54723
G01 X22.55208 Y6.55561
G01 X22.68085 Y6.66133
G01 X22.71342 Y6.68310
G01 X22.86041 Y6.76166
G01 X22.89660 Y6.77664
G01 X23.05611 Y6.82501
G01 X23.09457 Y6.83270
G01 X23.26033 Y6.84903
G01 X23.27994 Y6.85000
G01 X23.29955 Y6.84903
G01 X23.46538 Y6.83270
G01 X23.50381 Y6.82501
G01 X23.66327 Y6.77664
G01 X23.68182 Y6.77004
G01 X23.69955 Y6.76166
G01 X23.84646 Y6.68310
G01 X23.87910 Y6.66133
G01 X24.00788 Y6.55561
G01 X24.02241 Y6.54246
G01 X24.03564 Y6.52790
G01 X24.07575 Y6.47898
G01 X24.10633 Y6.39361
G01 X24.11811 Y6.35483
G01 X24.15921 Y6.19054
G01 X24.16498 Y6.16189
G01 X24.17094 Y6.12130
G01 X24.20932 Y5.99483
G01 X24.21174 Y5.98528
G01 X24.21313 Y5.97555
G01 X24.22952 Y5.80974
G01 X24.23000 Y5.79994
G01 X24.22952 Y5.79013
G01 X24.21313 Y5.62430
G01 X24.21174 Y5.61459
G01 X24.20932 Y5.60512
G01 X24.17097 Y5.47873
G01 X24.16096 Y5.44568
G01 X24.15342 Y5.42757
G01 X24.07493 Y5.28056
G01 X24.06985 Y5.27220
G01 X24.06399 Y5.26425
G01 X23.95827 Y5.13550
G01 X23.95169 Y5.12818
G01 X23.94443 Y5.12166
G01 X23.81565 Y5.01592
G01 X23.79937 Y5.00504
G01 X23.65240 Y4.92646
G01 X23.64354 Y4.92224
G01 X23.63424 Y4.91894
G01 X23.47481 Y4.87063
G01 X23.45558 Y4.86674
G01 X23.28974 Y4.85041
G01 X23.27013 Y4.85041
G01 X23.10430 Y4.86674
G01 X23.08507 Y4.87063
G01 X22.92563 Y4.91894
G01 X22.91641 Y4.92224
G01 X22.90757 Y4.92646
G01 X22.76058 Y5.00504
G01 X22.74430 Y5.01592
G01 X22.61545 Y5.12166
G01 X22.60818 Y5.12818
G01 X22.60161 Y5.13550
G01 X22.49589 Y5.26425
G01 X22.49010 Y5.27220
G01 X22.48502 Y5.28056
G01 X22.40646 Y5.42757
G01 X22.39899 Y5.44568
G01 X22.35063 Y5.60512
G01 X22.34822 Y5.61459
G01 X22.34674 Y5.62430
G01 X22.33046 Y5.79013
G01 X22.32998 Y5.79994
G01 X22.33046 Y5.80974
G01 X22.34674 Y5.97555
G01 X22.34822 Y5.98528
G01 X22.35063 Y5.99483
G01 X22.39899 Y6.15429
G01 X22.40646 Y6.17240
G01 X22.48502 Y6.31932
G01 X22.49010 Y6.32777
G01 X22.49589 Y6.33560
G01 X22.60161 Y6.46445
G01 X22.60818 Y6.47172
G01 X22.61545 Y6.47832
G01 X22.74430 Y6.58401
G01 X22.76058 Y6.59493
G01 X22.90757 Y6.67344
G01 X22.91641 Y6.67766
G01 X22.92563 Y6.68099
G01 X23.08507 Y6.72932
G01 X23.09459 Y6.73174
G01 X23.10430 Y6.73316
G01 X23.27013 Y6.74949
G01 X23.28974 Y6.74949
G01 X23.45558 Y6.73316
G01 X23.47481 Y6.72932
G01 X23.63424 Y6.68099
G01 X23.64354 Y6.67766
G01 X23.65240 Y6.67344
G01 X23.79937 Y6.59493
G01 X23.81565 Y6.58401
G01 X23.94443 Y6.47832
G01 X23.95169 Y6.47172
G01 X23.95827 Y6.46445
G01 X24.06399 Y6.33560
G01 X24.07493 Y6.31932
G01 X24.15342 Y6.17240
G01 X24.15764 Y6.16354
G01 X24.16096 Y6.15429
G01 X24.17094 Y6.12130
G04 P0 ( dwell for no time -- G64 should not smooth over this point )
G00 Z5.00000 ( retract )

G00 X24.96698 Y6.21071 ( rapid move to begin. )
G01 F250.00000
( Mill infeed pass 1/1 )
G01 Z-0.05000
G04 P0 ( dwell for no time -- G64 should not smooth over this point )
G01 F500.00000
G01 X24.96698 Y6.21071
G01 X25.00051 Y6.34477
G01 X25.01100 Y6.37934
G01 X25.06406 Y6.52762
G01 X25.06434 Y6.52790
G01 X25.07750 Y6.54246
G01 X25.09208 Y6.55561
G01 X25.22088 Y6.66133
G01 X25.25342 Y6.68310
G01 X25.40041 Y6.76166
G01 X25.43665 Y6.77664
G01 X25.59611 Y6.82501
G01 X25.61511 Y6.82981
G01 X25.63457 Y6.83270
G01 X25.80035 Y6.84903
G01 X25.83957 Y6.84903
G01 X26.00541 Y6.83270
G01 X26.04386 Y6.82501
G01 X26.20333 Y6.77664
G01 X26.22177 Y6.77004
G01 X26.22354 Y6.76920
G01 X26.22758 Y6.75356
G01 X26.22354 Y6.76920
G01 X26.26998 Y6.81568
G01 X26.27757 Y6.81248
G01 X26.26998 Y6.81568
G01 X26.26998 Y29.35928
G01 X26.27757 Y29.36243
G01 X26.26998 Y29.35928
G01 X26.21471 Y29.41452
G01 X26.21874 Y29.42976
G01 X26.21471 Y29.41452
G01 X26.09433 Y29.37800
G01 X26.05588 Y29.37032
G01 X25.90957 Y29.35592
G01 X25.87036 Y29.35592
G01 X25.72405 Y29.37032
G01 X25.68560 Y29.37800
G01 X25.54491 Y29.42069
G01 X25.52642 Y29.42730
G01 X25.50866 Y29.43570
G01 X25.37902 Y29.50497
G01 X25.36218 Y29.51503
G01 X25.34641 Y29.52676
G01 X25.23274 Y29.62006
G01 X25.21821 Y29.63324
G01 X25.20505 Y29.64777
G01 X25.11179 Y29.76143
G01 X25.10005 Y29.77721
G01 X25.08994 Y29.79400
G01 X25.06690 Y29.83713
G01 X25.04572 Y29.92191
G01 X25.03749 Y29.96319
G01 X25.01600 Y30.10776
G01 X25.01247 Y30.14342
G01 X25.00541 Y30.28800
G01 X25.00541 Y30.32196
G01 X25.01247 Y30.46646
G01 X25.01600 Y30.50217
G01 X25.03749 Y30.64675
G01 X25.04572 Y30.68798
G01 X25.06698 Y30.77284
G01 X25.08994 Y30.81589
G01 X25.10005 Y30.83276
G01 X25.11179 Y30.84853
G01 X25.20505 Y30.96219
G01 X25.21821 Y30.97675
G01 X25.23274 Y30.98991
G01 X25.34641 Y31.08320
G01 X25.37902 Y31.10494
G01 X25.50866 Y31.17426
G01 X25.52642 Y31.18267
G01 X25.54491 Y31.18927
G01 X25.68560 Y31.23197
G01 X25.72405 Y31.23959
G01 X25.87036 Y31.25399
G01 X25.90957 Y31.25399
G01 X26.05588 Y31.23959
G01 X26.09433 Y31.23197
G01 X26.23500 Y31.18927
G01 X26.25352 Y31.18267
G01 X26.27127 Y31.17426
G01 X26.40091 Y31.10494
G01 X26.41778 Y31.09486
G01 X26.43355 Y31.08320
G01 X26.54714 Y30.98991
G01 X26.56175 Y30.97675
G01 X26.57490 Y30.96219
G01 X26.66815 Y30.84853
G01 X26.68994 Y30.81589
G01 X26.75926 Y30.68627
G01 X26.76764 Y30.66849
G01 X26.77427 Y30.65005
G01 X26.81691 Y30.50931
G01 X26.82458 Y30.47091
G01 X26.83899 Y30.32460
G01 X26.83899 Y30.28533
G01 X26.82458 Y30.13903
G01 X26.81691 Y30.10057
G01 X26.78044 Y29.98020
G01 X26.76591 Y29.97657
G01 X26.78044 Y29.98020
G01 X26.95280 Y29.80776
G01 X26.96347 Y29.79626
G01 X26.98384 Y29.77241
G01 X27.00231 Y29.74703
G01 X27.01869 Y29.72029
G01 X27.03294 Y29.69232
G01 X27.04493 Y29.66331
G01 X27.05468 Y29.63344
G01 X27.06200 Y29.60294
G01 X27.06687 Y29.57195
G01 X27.06934 Y29.54066
G01 X27.06995 Y29.52499
G01 X27.06995 Y6.65000
G01 X27.06934 Y6.63430
G01 X27.06687 Y6.60298
G01 X27.06200 Y6.57200
G01 X27.05468 Y6.54149
G01 X27.04493 Y6.51162
G01 X27.03294 Y6.48264
G01 X27.01869 Y6.45470
G01 X27.00231 Y6.42793
G01 X26.98384 Y6.40253
G01 X26.96350 Y6.37865
G01 X26.95280 Y6.36712
G01 X26.78923 Y6.20354
G01 X26.77386 Y6.20718
G01 X26.78923 Y6.20354
G01 X26.79004 Y6.20177
G01 X26.79662 Y6.18327
G01 X26.84503 Y6.02386
G01 X26.84981 Y6.00484
G01 X26.85270 Y5.98536
G01 X26.86901 Y5.81955
G01 X26.86901 Y5.78033
G01 X26.85270 Y5.61452
G01 X26.84981 Y5.59514
G01 X26.84503 Y5.57611
G01 X26.79662 Y5.41660
G01 X26.78166 Y5.38038
G01 X26.70312 Y5.23347
G01 X26.69494 Y5.21980
G01 X26.68953 Y5.21188
G01 X26.68130 Y5.20083
G01 X26.57559 Y5.07208
G01 X26.54790 Y5.04429
G01 X26.41907 Y4.93857
G01 X26.40797 Y4.93042
G01 X26.40015 Y4.92498
G01 X26.38651 Y4.91681
G01 X26.23952 Y4.83827
G01 X26.20333 Y4.82331
G01 X26.04386 Y4.77487
G01 X26.00541 Y4.76722
G01 X25.83957 Y4.75089
G01 X25.80035 Y4.75089
G01 X25.63457 Y4.76722
G01 X25.59611 Y4.77487
G01 X25.43665 Y4.82331
G01 X25.41816 Y4.82986
G01 X25.40041 Y4.83827
G01 X25.25342 Y4.91681
G01 X25.22088 Y4.93857
G01 X25.09208 Y5.04429
G01 X25.07750 Y5.05750
G01 X25.06434 Y5.07208
G01 X25.06406 Y5.07230
G01 X25.01100 Y5.22056
G01 X25.00051 Y5.25508
G01 X24.96696 Y5.38922
G01 X24.94648 Y5.42757
G01 X24.93899 Y5.44568
G01 X24.89058 Y5.60512
G01 X24.88822 Y5.61459
G01 X24.88677 Y5.62430
G01 X24.87046 Y5.79013
G01 X24.87018 Y5.79552
G01 X24.87018 Y5.80446
G01 X24.87046 Y5.80974
G01 X24.88677 Y5.97555
G01 X24.88822 Y5.98528
G01 X24.89058 Y5.99483
G01 X24.93899 Y6.15429
G01 X24.94648 Y6.17240
G01 X24.96698 Y6.21071
G01 X25.02502 Y6.31932
G01 X25.03010 Y6.32777
G01 X25.03592 Y6.33560
G01 X25.14163 Y6.46445
G01 X25.14821 Y6.47172
G01 X25.15545 Y6.47832
G01 X25.28430 Y6.58401
G01 X25.30058 Y6.59493
G01 X25.44757 Y6.67344
G01 X25.46566 Y6.68099
G01 X25.62512 Y6.72932
G01 X25.63465 Y6.73174
G01 X25.64432 Y6.73316
G01 X25.81016 Y6.74949
G01 X25.82977 Y6.74949
G01 X25.99560 Y6.73316
G01 X26.00533 Y6.73174
G01 X26.01481 Y6.72932
G01 X26.17427 Y6.68099
G01 X26.19238 Y6.67344
G01 X26.24247 Y6.64672
G01 X26.36998 Y6.77426
G01 X26.36998 Y29.40068
G01 X26.23891 Y29.53177
G01 X26.22410 Y29.52389
G01 X26.20602 Y29.51635
G01 X26.06533 Y29.47370
G01 X26.05580 Y29.47129
G01 X26.04607 Y29.46987
G01 X25.89977 Y29.45547
G01 X25.88016 Y29.45547
G01 X25.73386 Y29.46987
G01 X25.72413 Y29.47129
G01 X25.71460 Y29.47370
G01 X25.57391 Y29.51635
G01 X25.55583 Y29.52389
G01 X25.42616 Y29.59318
G01 X25.41775 Y29.59819
G01 X25.40986 Y29.60408
G01 X25.29619 Y29.69732
G01 X25.28893 Y29.70390
G01 X25.28235 Y29.71117
G01 X25.18908 Y29.82486
G01 X25.17818 Y29.84116
G01 X25.10887 Y29.97081
G01 X25.10132 Y29.98889
G01 X25.05867 Y30.12963
G01 X25.05631 Y30.13916
G01 X25.05484 Y30.14883
G01 X25.04044 Y30.29514
G01 X25.04044 Y30.31475
G01 X25.05484 Y30.46110
G01 X25.05631 Y30.47078
G01 X25.05867 Y30.48030
G01 X25.10132 Y30.62100
G01 X25.10887 Y30.63911
G01 X25.17818 Y30.76880
G01 X25.18908 Y30.78510
G01 X25.28235 Y30.89872
G01 X25.28893 Y30.90603
G01 X25.29619 Y30.91256
G01 X25.40986 Y31.00588
G01 X25.42616 Y31.01678
G01 X25.55583 Y31.08609
G01 X25.57391 Y31.09356
G01 X25.71460 Y31.13626
G01 X25.72413 Y31.13865
G01 X25.73386 Y31.14010
G01 X25.88016 Y31.15450
G01 X25.89977 Y31.15450
G01 X26.04607 Y31.14010
G01 X26.05580 Y31.13865
G01 X26.06533 Y31.13626
G01 X26.20602 Y31.09356
G01 X26.22410 Y31.08609
G01 X26.35374 Y31.01678
G01 X26.36218 Y31.01175
G01 X26.37008 Y31.00588
G01 X26.48374 Y30.91256
G01 X26.49101 Y30.90603
G01 X26.49758 Y30.89872
G01 X26.59088 Y30.78510
G01 X26.60178 Y30.76880
G01 X26.67109 Y30.63911
G01 X26.67856 Y30.62100
G01 X26.72128 Y30.48030
G01 X26.72362 Y30.47078
G01 X26.72504 Y30.46110
G01 X26.73944 Y30.31475
G01 X26.73944 Y30.29514
G01 X26.72504 Y30.14883
G01 X26.72362 Y30.13916
G01 X26.72128 Y30.12963
G01 X26.67856 Y29.98889
G01 X26.67528 Y29.97970
G01 X26.67109 Y29.97081
G01 X26.66314 Y29.95600
G01 X26.88212 Y29.73710
G01 X26.88745 Y29.73133
G01 X26.90782 Y29.70748
G01 X26.91701 Y29.69478
G01 X26.93345 Y29.66804
G01 X26.94059 Y29.65399
G01 X26.95257 Y29.62501
G01 X26.95740 Y29.61013
G01 X26.96472 Y29.57954
G01 X26.96721 Y29.56405
G01 X26.96967 Y29.53278
G01 X26.97000 Y29.52499
G01 X26.97000 Y6.65000
G01 X26.96967 Y6.64215
G01 X26.96721 Y6.61086
G01 X26.96472 Y6.59536
G01 X26.95740 Y6.56483
G01 X26.95257 Y6.54992
G01 X26.94059 Y6.52089
G01 X26.93345 Y6.50692
G01 X26.91707 Y6.48015
G01 X26.90782 Y6.46745
G01 X26.88745 Y6.44362
G01 X26.88212 Y6.43783
G01 X26.66670 Y6.22247
G01 X26.69344 Y6.17240
G01 X26.69764 Y6.16354
G01 X26.70099 Y6.15429
G01 X26.74932 Y5.99483
G01 X26.75171 Y5.98528
G01 X26.75316 Y5.97555
G01 X26.76947 Y5.80974
G01 X26.76947 Y5.79013
G01 X26.75316 Y5.62430
G01 X26.75171 Y5.61459
G01 X26.74932 Y5.60512
G01 X26.70099 Y5.44568
G01 X26.69344 Y5.42757
G01 X26.61493 Y5.28056
G01 X26.60988 Y5.27220
G01 X26.60404 Y5.26425
G01 X26.49832 Y5.13550
G01 X26.48448 Y5.12166
G01 X26.35565 Y5.01592
G01 X26.34778 Y5.01010
G01 X26.33934 Y5.00504
G01 X26.19238 Y4.92646
G01 X26.17427 Y4.91894
G01 X26.01481 Y4.87063
G01 X26.00533 Y4.86824
G01 X25.99560 Y4.86674
G01 X25.82977 Y4.85041
G01 X25.81016 Y4.85041
G01 X25.64432 Y4.86674
G01 X25.63465 Y4.86824
G01 X25.62512 Y4.87063
G01 X25.46566 Y4.91894
G01 X25.44757 Y4.92646
G01 X25.30058 Y5.00504
G01 X25.28430 Y5.01592
G01 X25.15545 Y5.12166
G01 X25.14821 Y5.12818
G01 X25.14163 Y5.13550
G01 X25.03592 Y5.26425
G01 X25.03010 Y5.27220
G01 X25.02502 Y5.28056
G01 X24.96696 Y5.38922
G01 X24.94648 Y5.42757
G01 X24.93899 Y5.44568
G01 X24.89058 Y5.60512
G01 X24.88822 Y5.61459
G01 X24.88677 Y5.62430
G01 X24.87046 Y5.79013
G01 X24.87018 Y5.79552
G01 X24.87018 Y5.80446
G01 X24.87046 Y5.80974
G01 X24.88677 Y5.97555
G01 X24.88822 Y5.98528
G01 X24.89058 Y5.99483
G01 X24.93899 Y6.15429
G01 X24.94648 Y6.17240
G01 X24.96698 Y6.21071
G01 X24.86998 Y6.23496
G01 X24.86998 Y14.89964
G01 X24.87038 Y14.90025
G01 X24.88783 Y14.93045
G01 X24.89520 Y14.94625
G01 X24.90714 Y14.97902
G01 X24.91163 Y14.99586
G01 X24.91765 Y15.03020
G01 X24.91923 Y15.04754
G01 X24.91923 Y15.08237
G01 X24.91765 Y15.09979
G01 X24.91163 Y15.13406
G01 X24.90714 Y15.15092
G01 X24.89520 Y15.18366
G01 X24.88783 Y15.19946
G01 X24.87038 Y15.22966
G01 X24.86038 Y15.24399
G01 X24.83800 Y15.27066
G01 X24.83211 Y15.27711
G01 X23.64994 Y16.45923
G01 X23.64994 Y23.79645
G01 X23.66602 Y23.80135
G01 X23.68408 Y23.80889
G01 X23.81380 Y23.87813
G01 X23.82223 Y23.88324
G01 X23.83010 Y23.88903
G01 X23.94374 Y23.98230
G01 X23.95101 Y23.98895
G01 X23.95758 Y23.99622
G01 X24.05083 Y24.10986
G01 X24.05672 Y24.11773
G01 X24.06172 Y24.12616
G01 X24.13107 Y24.25581
G01 X24.13528 Y24.26470
G01 X24.13859 Y24.27394
G01 X24.17097 Y24.38082
G01 X24.18126 Y24.41463
G01 X24.18509 Y24.43386
G01 X24.19949 Y24.58019
G01 X24.19998 Y24.58999
G01 X24.19949 Y24.59980
G01 X24.18509 Y24.74610
G01 X24.18126 Y24.76533
G01 X24.17094 Y24.79929
G01 X24.15352 Y24.91687
G01 X24.14732 Y24.94793
G01 X24.11113 Y25.09258
G01 X24.09888 Y25.13272
G01 X24.07575 Y25.19743
G01 X24.03493 Y25.24714
G01 X24.00719 Y25.27491
G01 X23.89355 Y25.36817
G01 X23.86089 Y25.38994
G01 X23.73125 Y25.45928
G01 X23.69505 Y25.47430
G01 X23.55433 Y25.51694
G01 X23.51588 Y25.52461
G01 X23.36957 Y25.53901
G01 X23.34997 Y25.53998
G01 X23.33033 Y25.53901
G01 X23.18403 Y25.52461
G01 X23.14560 Y25.51694
G01 X23.00486 Y25.47430
G01 X22.96869 Y25.45928
G01 X22.83902 Y25.38994
G01 X22.80638 Y25.36817
G01 X22.69272 Y25.27491
G01 X22.67821 Y25.26175
G01 X22.66505 Y25.24714
G01 X22.57179 Y25.13355
G01 X22.54999 Y25.10094
G01 X22.49698 Y25.00170
G01 X22.49165 Y24.98052
G01 X22.48276 Y24.93617
G01 X22.46137 Y24.79162
G01 X22.45756 Y24.75299
G01 X22.45040 Y24.60843
G01 X22.49998 Y24.58999
G01 X22.45040 Y24.60843
G01 X22.45040 Y24.57148
G01 X22.45756 Y24.42693
G01 X22.46137 Y24.38829
G01 X22.48276 Y24.24372
G01 X22.49165 Y24.19942
G01 X22.49696 Y24.17823
G01 X22.54999 Y24.07897
G01 X22.57179 Y24.04643
G01 X22.66505 Y23.93277
G01 X22.67821 Y23.91824
G01 X22.69272 Y23.90501
G01 X22.80638 Y23.81176
G01 X22.83902 Y23.78997
G01 X22.94994 Y23.73066
G01 X22.96358 Y23.73866
G01 X22.94994 Y23.73066
G01 X22.94994 Y17.43606
G01 X22.95553 Y17.41361
G01 X22.95611 Y17.41124
G01 X22.96541 Y17.36456
G01 X22.96584 Y17.36212
G01 X22.98761 Y17.21503
G01 X22.98789 Y17.21264
G01 X22.99200 Y17.17157
G01 X22.99218 Y17.16913
G01 X22.99937 Y17.02211
G01 X22.99947 Y17.01965
G01 X22.99947 Y16.98026
G01 X22.99937 Y16.97779
G01 X22.99218 Y16.83080
G01 X22.99200 Y16.82834
G01 X22.98789 Y16.78724
G01 X22.98761 Y16.78480
G01 X22.96584 Y16.63779
G01 X22.96541 Y16.63535
G01 X22.95611 Y16.58866
G01 X22.95553 Y16.58630
G01 X22.94994 Y16.56385
G01 X22.94994 Y16.33497
G01 X22.95053 Y16.31927
G01 X22.95299 Y16.28798
G01 X22.95789 Y16.25699
G01 X22.96523 Y16.22641
G01 X22.97496 Y16.19659
G01 X22.98692 Y16.16756
G01 X23.00122 Y16.13962
G01 X23.01761 Y16.11285
G01 X23.03605 Y16.08745
G01 X23.05644 Y16.06362
G01 X23.06711 Y16.05211
G01 X24.16995 Y14.94930
G01 X24.17755 Y14.95242
G01 X24.16995 Y14.94930
G01 X24.16995 Y6.51256
G01 X24.20089 Y6.42615
G01 X24.20163 Y6.42386
G01 X24.21412 Y6.38272
G01 X24.21481 Y6.38028
G01 X24.25649 Y6.21365
G01 X24.25708 Y6.21132
G01 X24.26325 Y6.18023
G01 X24.26371 Y6.17774
G01 X24.26993 Y6.13555
G01 X24.26993 Y5.46430
G01 X24.26371 Y5.42211
G01 X24.26325 Y5.41972
G01 X24.25708 Y5.38864
G01 X24.25649 Y5.38620
G01 X24.21481 Y5.21962
G01 X24.21412 Y5.21721
G01 X24.20163 Y5.17601
G01 X24.20089 Y5.17378
G01 X24.16995 Y5.08732
G01 X24.16995 Y4.50990
G01 X24.17087 Y4.49031
G01 X24.17478 Y4.45130
G01 X24.18243 Y4.41289
G01 X24.19380 Y4.37533
G01 X24.20882 Y4.33916
G01 X24.22726 Y4.30456
G01 X24.24902 Y4.27198
G01 X24.27394 Y4.24167
G01 X24.28707 Y4.22709
G01 X24.85136 Y3.66283
G01 X24.86764 Y3.66679
G01 X24.85136 Y3.66283
G01 X24.84331 Y3.64333
G01 X24.79487 Y3.48386
G01 X24.79017 Y3.46484
G01 X24.78722 Y3.44536
G01 X24.77094 Y3.27960
G01 X24.76995 Y3.25994
G01 X24.77094 Y3.24033
G01 X24.78722 Y3.07457
G01 X24.79017 Y3.05509
G01 X24.79487 Y3.03606
G01 X24.84331 Y2.87663
G01 X24.85829 Y2.84038
G01 X24.93686 Y2.69342
G01 X24.95862 Y2.66088
G01 X25.06434 Y2.53202
G01 X25.07290 Y2.52260
G01 X25.08260 Y2.51287
G01 X25.09208 Y2.50434
G01 X25.22088 Y2.39862
G01 X25.25342 Y2.37683
G01 X25.40041 Y2.29824
G01 X25.41816 Y2.28986
G01 X25.43665 Y2.28331
G01 X25.59611 Y2.23487
G01 X25.63457 Y2.22728
G01 X25.80035 Y2.21089
G01 X25.83957 Y2.21089
G01 X26.00541 Y2.22728
G01 X26.04386 Y2.23487
G01 X26.20333 Y2.28331
G01 X26.23952 Y2.29824
G01 X26.38651 Y2.37683
G01 X26.40333 Y2.38694
G01 X26.41907 Y2.39862
G01 X26.54790 Y2.50434
G01 X26.57559 Y2.53202
G01 X26.68130 Y2.66088
G01 X26.68948 Y2.67185
G01 X26.69497 Y2.67990
G01 X26.70312 Y2.69342
G01 X26.78166 Y2.84038
G01 X26.79662 Y2.87663
G01 X26.84503 Y3.03606
G01 X26.84981 Y3.05509
G01 X26.85270 Y3.07457
G01 X26.86901 Y3.24033
G01 X26.86901 Y3.27960
G01 X26.85270 Y3.44536
G01 X26.84981 Y3.46484
G01 X26.84503 Y3.48386
G01 X26.79662 Y3.64333
G01 X26.78166 Y3.67949
G01 X26.70312 Y3.82651
G01 X26.69510 Y3.83990
G01 X26.68925 Y3.84838
G01 X26.68130 Y3.85910
G01 X26.57559 Y3.98790
G01 X26.54790 Y4.01561
G01 X26.41907 Y4.12133
G01 X26.40838 Y4.12923
G01 X26.39987 Y4.13504
G01 X26.38651 Y4.14312
G01 X26.23952 Y4.22161
G01 X26.20333 Y4.23667
G01 X26.04386 Y4.28498
G01 X26.00541 Y4.29265
G01 X25.83957 Y4.30898
G01 X25.80035 Y4.30898
G01 X25.63457 Y4.29265
G01 X25.59611 Y4.28498
G01 X25.43665 Y4.23667
G01 X25.41704 Y4.22852
G01 X25.41300 Y4.21206
G01 X25.41704 Y4.22852
G01 X24.96993 Y4.67558
G01 X24.96236 Y4.67248
G01 X24.96993 Y4.67558
G01 X24.96993 Y5.03857
G01 X24.91646 Y5.18803
G01 X24.91570 Y5.19031
G01 X24.90450 Y5.22722
G01 X24.90381 Y5.22958
G01 X24.86998 Y5.36489
G01 X24.86998 Y6.23496
G01 X24.90381 Y6.37032
G01 X24.90450 Y6.37271
G01 X24.91570 Y6.40959
G01 X24.91646 Y6.41185
G01 X24.96993 Y6.56130
G01 X24.96993 Y14.87269
G01 X24.96833 Y14.87300
G01 X24.96993 Y14.87269
G01 X24.97442 Y14.88044
G01 X24.98913 Y14.91204
G01 X25.00109 Y14.94478
G01 X25.01014 Y14.97848
G01 X25.01618 Y15.01282
G01 X25.01923 Y15.04754
G01 X25.01923 Y15.08237
G01 X25.01618 Y15.11709
G01 X25.01014 Y15.15148
G01 X25.00109 Y15.18514
G01 X24.98913 Y15.21790
G01 X24.97442 Y15.24947
G01 X24.95697 Y15.27967
G01 X24.93696 Y15.30822
G01 X24.91461 Y15.33497
G01 X24.90282 Y15.34782
G01 X23.74997 Y16.50060
G01 X23.74232 Y16.49745
G01 X23.74997 Y16.50060
G01 X23.74997 Y23.73066
G01 X23.73633 Y23.73859
G01 X23.74997 Y23.73066
G01 X23.86089 Y23.78997
G01 X23.89355 Y23.81176
G01 X24.00719 Y23.90501
G01 X24.02172 Y23.91824
G01 X24.03493 Y23.93277
G01 X24.07575 Y23.98258
G01 X24.09888 Y24.04712
G01 X24.11113 Y24.08733
G01 X24.14732 Y24.23196
G01 X24.15352 Y24.26302
G01 X24.17097 Y24.38082
G01 X24.18126 Y24.41463
G01 X24.18509 Y24.43386
G01 X24.19949 Y24.58019
G01 X24.19998 Y24.58999
G01 X24.19949 Y24.59980
G01 X24.18509 Y24.74610
G01 X24.18126 Y24.76533
G01 X24.17094 Y24.79929
G01 X24.13859 Y24.90597
G01 X24.13528 Y24.91527
G01 X24.13107 Y24.92413
G01 X24.06172 Y25.05377
G01 X24.05672 Y25.06221
G01 X24.05083 Y25.07010
G01 X23.95758 Y25.18369
G01 X23.95101 Y25.19103
G01 X23.94374 Y25.19761
G01 X23.83010 Y25.29088
G01 X23.82223 Y25.29675
G01 X23.81380 Y25.30178
G01 X23.68408 Y25.37109
G01 X23.67524 Y25.37523
G01 X23.66602 Y25.37856
G01 X23.52530 Y25.42123
G01 X23.50607 Y25.42507
G01 X23.35977 Y25.43947
G01 X23.34997 Y25.43995
G01 X23.34016 Y25.43947
G01 X23.19383 Y25.42507
G01 X23.17460 Y25.42123
G01 X23.03389 Y25.37856
G01 X23.02467 Y25.37523
G01 X23.01583 Y25.37109
G01 X22.88611 Y25.30178
G01 X22.87775 Y25.29675
G01 X22.86983 Y25.29088
G01 X22.75616 Y25.19761
G01 X22.74890 Y25.19103
G01 X22.74235 Y25.18369
G01 X22.64908 Y25.07010
G01 X22.64319 Y25.06221
G01 X22.63818 Y25.05377
G01 X22.56887 Y24.92413
G01 X22.56465 Y24.91527
G01 X22.56137 Y24.90597
G01 X22.51865 Y24.76533
G01 X22.51489 Y24.74610
G01 X22.50041 Y24.59980
G01 X22.49998 Y24.58999
G01 X22.50041 Y24.58019
G01 X22.51489 Y24.43386
G01 X22.51865 Y24.41463
G01 X22.56137 Y24.27394
G01 X22.56465 Y24.26470
G01 X22.56887 Y24.25581
G01 X22.63818 Y24.12616
G01 X22.64319 Y24.11773
G01 X22.64908 Y24.10986
G01 X22.74235 Y23.99622
G01 X22.74890 Y23.98895
G01 X22.75616 Y23.98230
G01 X22.86983 Y23.88903
G01 X22.87775 Y23.88324
G01 X22.88611 Y23.87813
G01 X23.01583 Y23.80889
G01 X23.02467 Y23.80470
G01 X23.03389 Y23.80135
G01 X23.04994 Y23.79652
G01 X23.04994 Y16.33497
G01 X23.05027 Y16.32712
G01 X23.05271 Y16.29583
G01 X23.05517 Y16.28033
G01 X23.06251 Y16.24975
G01 X23.06734 Y16.23484
G01 X23.07930 Y16.20589
G01 X23.08644 Y16.19189
G01 X23.10290 Y16.16512
G01 X23.11212 Y16.15244
G01 X23.13244 Y16.12854
G01 X23.13783 Y16.12283
G01 X24.26993 Y14.99067
G01 X24.26993 Y6.13555
G01 X24.26993 Y5.46430
G01 X24.26993 Y4.50990
G01 X24.27041 Y4.50012
G01 X24.27430 Y4.46113
G01 X24.27806 Y4.44193
G01 X24.28944 Y4.40433
G01 X24.29698 Y4.38628
G01 X24.31542 Y4.35171
G01 X24.32632 Y4.33540
G01 X24.35121 Y4.30510
G01 X24.35779 Y4.29778
G01 X24.97323 Y3.68236
G01 X24.94648 Y3.63235
G01 X24.93899 Y3.61429
G01 X24.89058 Y3.45478
G01 X24.88822 Y3.44533
G01 X24.88677 Y3.43555
G01 X24.87046 Y3.26979
G01 X24.86998 Y3.25994
G01 X24.87046 Y3.25013
G01 X24.88677 Y3.08430
G01 X24.89058 Y3.06512
G01 X24.93899 Y2.90563
G01 X24.94648 Y2.88755
G01 X25.02502 Y2.74058
G01 X25.03592 Y2.72430
G01 X25.14163 Y2.59545
G01 X25.14821 Y2.58823
G01 X25.15545 Y2.58161
G01 X25.28430 Y2.47589
G01 X25.30058 Y2.46499
G01 X25.44757 Y2.38646
G01 X25.46566 Y2.37894
G01 X25.62512 Y2.33063
G01 X25.63465 Y2.32819
G01 X25.64432 Y2.32679
G01 X25.81016 Y2.31046
G01 X25.82977 Y2.31046
G01 X25.99560 Y2.32679
G01 X26.00533 Y2.32819
G01 X26.01481 Y2.33063
G01 X26.17427 Y2.37894
G01 X26.19238 Y2.38646
G01 X26.33934 Y2.46499
G01 X26.34778 Y2.47010
G01 X26.35565 Y2.47589
G01 X26.48448 Y2.58161
G01 X26.49832 Y2.59545
G01 X26.60404 Y2.72430
G01 X26.60988 Y2.73215
G01 X26.61493 Y2.74058
G01 X26.69344 Y2.88755
G01 X26.70099 Y2.90563
G01 X26.74932 Y3.06512
G01 X26.75171 Y3.07464
G01 X26.75316 Y3.08430
G01 X26.76947 Y3.25013
G01 X26.76947 Y3.26979
G01 X26.75316 Y3.43555
G01 X26.75171 Y3.44533
G01 X26.74932 Y3.45478
G01 X26.70099 Y3.61429
G01 X26.69764 Y3.62354
G01 X26.69344 Y3.63235
G01 X26.61493 Y3.77937
G01 X26.60988 Y3.78777
G01 X26.60404 Y3.79565
G01 X26.49832 Y3.92448
G01 X26.48448 Y3.93827
G01 X26.35565 Y4.04398
G01 X26.34778 Y4.04988
G01 X26.33934 Y4.05493
G01 X26.19238 Y4.13342
G01 X26.17427 Y4.14099
G01 X26.01481 Y4.18930
G01 X26.00533 Y4.19174
G01 X25.99560 Y4.19318
G01 X25.82977 Y4.20947
G01 X25.81016 Y4.20947
G01 X25.64432 Y4.19318
G01 X25.63465 Y4.19174
G01 X25.62512 Y4.18930
G01 X25.46566 Y4.14099
G01 X25.44757 Y4.13342
G01 X25.39749 Y4.10665
G01 X24.86998 Y4.63423
G01 X24.86998 Y5.36489
G04 P0 ( dwell for no time -- G64 should not smooth over this point )
G00 Z5.00000 ( retract )

G00 X27.92862 Y2.19217 ( rapid move to begin. )
G01 F250.00000
( Mill infeed pass 1/1 )
G01 Z-0.05000
G04 P0 ( dwell for no time -- G64 should not smooth over this point )
G01 F500.00000
G01 X27.92862 Y2.19217
G01 X28.00967 Y2.27322
G01 X28.00563 Y2.28859
G01 X28.00967 Y2.27322
G01 X28.13609 Y2.23487
G01 X28.17454 Y2.22728
G01 X28.34038 Y2.21089
G01 X28.37960 Y2.21089
G01 X28.54536 Y2.22728
G01 X28.58384 Y2.23487
G01 X28.71026 Y2.27322
G01 X28.71429 Y2.28857
G01 X28.71026 Y2.27322
G01 X28.79133 Y2.19217
G01 X28.88348 Y2.16888
G01 X28.79133 Y2.19217
G01 X28.75481 Y2.17521
G01 X28.56039 Y2.12306
G01 X28.56052 Y2.12260
G01 X28.56039 Y2.12306
G01 X28.35991 Y2.10553
G01 X28.35991 Y2.10515
G01 X28.35991 Y2.10553
G01 X28.15946 Y2.12306
G01 X28.15941 Y2.12260
G01 X28.15946 Y2.12306
G01 X27.96510 Y2.17521
G01 X27.92862 Y2.19217
G01 X27.83642 Y2.16891
G01 X27.75689 Y2.16190
G01 X27.98354 Y2.38857
G01 X27.98757 Y2.38646
G01 X28.00568 Y2.37894
G01 X28.16509 Y2.33063
G01 X28.17462 Y2.32819
G01 X28.18435 Y2.32679
G01 X28.35018 Y2.31046
G01 X28.36979 Y2.31046
G01 X28.53558 Y2.32679
G01 X28.54531 Y2.32819
G01 X28.55483 Y2.33063
G01 X28.71429 Y2.37894
G01 X28.73240 Y2.38646
G01 X28.73637 Y2.38857
G01 X28.96301 Y2.16190
G01 X28.78915 Y2.08082
G01 X28.57779 Y2.02425
G01 X28.35991 Y2.00520
G01 X28.14206 Y2.02425
G01 X27.93075 Y2.08082
G01 X27.75689 Y2.16190
G04 P0 ( dwell for no time -- G64 should not smooth over this point )
G00 Z5.00000 ( retract )

G00 X29.25094 Y5.47860 ( rapid move to begin. )
G01 F250.00000
( Mill infeed pass 1/1 )
G01 Z-0.05000
G04 P0 ( dwell for no time -- G64 should not smooth over this point )
G01 F500.00000
G01 X29.25094 Y5.47860
G01 X29.24094 Y5.44568
G01 X29.23347 Y5.42757
G01 X29.15491 Y5.28056
G01 X29.14983 Y5.27220
G01 X29.14401 Y5.26425
G01 X29.03830 Y5.13550
G01 X29.02445 Y5.12166
G01 X28.89562 Y5.01592
G01 X28.88775 Y5.01010
G01 X28.87937 Y5.00504
G01 X28.73240 Y4.92646
G01 X28.71429 Y4.91894
G01 X28.55483 Y4.87063
G01 X28.54531 Y4.86824
G01 X28.53558 Y4.86674
G01 X28.36979 Y4.85041
G01 X28.35018 Y4.85041
G01 X28.18435 Y4.86674
G01 X28.17462 Y4.86824
G01 X28.16509 Y4.87063
G01 X28.00568 Y4.91894
G01 X27.98757 Y4.92646
G01 X27.84061 Y5.00504
G01 X27.83218 Y5.01010
G01 X27.82430 Y5.01592
G01 X27.69547 Y5.12166
G01 X27.68163 Y5.13550
G01 X27.57592 Y5.26425
G01 X27.57007 Y5.27220
G01 X27.56502 Y5.28056
G01 X27.48651 Y5.42757
G01 X27.47896 Y5.44568
G01 X27.43063 Y5.60512
G01 X27.42824 Y5.61459
G01 X27.42679 Y5.62430
G01 X27.41041 Y5.79013
G01 X27.41041 Y5.80974
G01 X27.42679 Y5.97555
G01 X27.42824 Y5.98528
G01 X27.43063 Y5.99483
G01 X27.47896 Y6.15429
G01 X27.48651 Y6.17240
G01 X27.56502 Y6.31932
G01 X27.57007 Y6.32777
G01 X27.57592 Y6.33560
G01 X27.68163 Y6.46445
G01 X27.69547 Y6.47832
G01 X27.82430 Y6.58401
G01 X27.83218 Y6.58988
G01 X27.84061 Y6.59493
G01 X27.98757 Y6.67344
G01 X28.00568 Y6.68099
G01 X28.05991 Y6.69742
G01 X28.05991 Y33.98802
G01 X27.96614 Y34.03818
G01 X27.95775 Y34.04321
G01 X27.94988 Y34.04903
G01 X27.83622 Y34.14235
G01 X27.82230 Y34.15619
G01 X27.72905 Y34.26986
G01 X27.72324 Y34.27773
G01 X27.71816 Y34.28616
G01 X27.64887 Y34.41581
G01 X27.64137 Y34.43392
G01 X27.59867 Y34.57458
G01 X27.59626 Y34.58413
G01 X27.59489 Y34.59386
G01 X27.58044 Y34.74016
G01 X27.58044 Y34.75977
G01 X27.59489 Y34.90608
G01 X27.59626 Y34.91581
G01 X27.59867 Y34.92533
G01 X27.64137 Y35.06602
G01 X27.64887 Y35.08411
G01 X27.71816 Y35.21380
G01 X27.72324 Y35.22223
G01 X27.72905 Y35.23005
G01 X27.82230 Y35.34374
G01 X27.82895 Y35.35101
G01 X27.83622 Y35.35759
G01 X27.94988 Y35.45088
G01 X27.96614 Y35.46178
G01 X28.09583 Y35.53109
G01 X28.11394 Y35.53856
G01 X28.25463 Y35.58126
G01 X28.26415 Y35.58362
G01 X28.27381 Y35.58504
G01 X28.42019 Y35.59950
G01 X28.43980 Y35.59950
G01 X28.58610 Y35.58504
G01 X28.59575 Y35.58362
G01 X28.60528 Y35.58126
G01 X28.74602 Y35.53856
G01 X28.76413 Y35.53109
G01 X28.89377 Y35.46178
G01 X28.90220 Y35.45672
G01 X28.91010 Y35.45088
G01 X29.02377 Y35.35759
G01 X29.03103 Y35.35101
G01 X29.03761 Y35.34374
G01 X29.13085 Y35.23005
G01 X29.14175 Y35.21380
G01 X29.21107 Y35.08411
G01 X29.21859 Y35.06602
G01 X29.26123 Y34.92533
G01 X29.26364 Y34.91581
G01 X29.26507 Y34.90608
G01 X29.27947 Y34.75977
G01 X29.27947 Y34.74016
G01 X29.26507 Y34.59386
G01 X29.26364 Y34.58413
G01 X29.26123 Y34.57458
G01 X29.21859 Y34.43392
G01 X29.21107 Y34.41581
G01 X29.14175 Y34.28616
G01 X29.13085 Y34.26986
G01 X29.03761 Y34.15619
G01 X29.03103 Y34.14893
G01 X29.02377 Y34.14235
G01 X28.91010 Y34.04903
G01 X28.89377 Y34.03818
G01 X28.76413 Y33.96889
G01 X28.74602 Y33.96135
G01 X28.65999 Y33.93529
G01 X28.65999 Y6.69742
G01 X28.71429 Y6.68099
G01 X28.73240 Y6.67344
G01 X28.87937 Y6.59493
G01 X28.88775 Y6.58988
G01 X28.89562 Y6.58401
G01 X29.02445 Y6.47832
G01 X29.03830 Y6.46445
G01 X29.14401 Y6.33560
G01 X29.14983 Y6.32777
G01 X29.15491 Y6.31932
G01 X29.23347 Y6.17240
G01 X29.23766 Y6.16354
G01 X29.24094 Y6.15429
G01 X29.25089 Y6.12143
G01 X29.28935 Y5.99483
G01 X29.29174 Y5.98528
G01 X29.29319 Y5.97555
G01 X29.30949 Y5.80974
G01 X29.30949 Y5.79013
G01 X29.29319 Y5.62430
G01 X29.29174 Y5.61459
G01 X29.28935 Y5.60512
G01 X29.25094 Y5.47860
G01 X29.24498 Y5.43809
G01 X29.23924 Y5.40934
G01 X29.19809 Y5.24507
G01 X29.18630 Y5.20629
G01 X29.15572 Y5.12094
G01 X29.11561 Y5.07208
G01 X29.08785 Y5.04429
G01 X28.95910 Y4.93857
G01 X28.94333 Y4.92694
G01 X28.92649 Y4.91681
G01 X28.77955 Y4.83827
G01 X28.74330 Y4.82331
G01 X28.58384 Y4.77487
G01 X28.54536 Y4.76722
G01 X28.37960 Y4.75089
G01 X28.34038 Y4.75089
G01 X28.17454 Y4.76722
G01 X28.13609 Y4.77487
G01 X27.97663 Y4.82331
G01 X27.94043 Y4.83827
G01 X27.79344 Y4.91681
G01 X27.77960 Y4.92509
G01 X27.77218 Y4.93017
G01 X27.76088 Y4.93857
G01 X27.63205 Y5.04429
G01 X27.60429 Y5.07208
G01 X27.49857 Y5.20083
G01 X27.49014 Y5.21231
G01 X27.48514 Y5.21957
G01 X27.47686 Y5.23347
G01 X27.39827 Y5.38038
G01 X27.38326 Y5.41660
G01 X27.33492 Y5.57611
G01 X27.33015 Y5.59514
G01 X27.32725 Y5.61452
G01 X27.31094 Y5.78033
G01 X27.41041 Y5.79013
G01 X27.31094 Y5.78033
G01 X27.31094 Y5.81955
G01 X27.32725 Y5.98536
G01 X27.33015 Y6.00484
G01 X27.33492 Y6.02386
G01 X27.38326 Y6.18327
G01 X27.39827 Y6.21949
G01 X27.47686 Y6.36648
G01 X27.48691 Y6.38330
G01 X27.49857 Y6.39910
G01 X27.60429 Y6.52790
G01 X27.63205 Y6.55561
G01 X27.76088 Y6.66133
G01 X27.77663 Y6.67304
G01 X27.79344 Y6.68310
G01 X27.94043 Y6.76166
G01 X27.95996 Y6.76973
G01 X27.97434 Y6.76110
G01 X27.95996 Y6.76973
G01 X27.95996 Y33.92810
G01 X27.97058 Y33.93346
G01 X27.95996 Y33.92810
G01 X27.91902 Y33.94997
G01 X27.90218 Y33.96005
G01 X27.88641 Y33.97176
G01 X27.77274 Y34.06501
G01 X27.75821 Y34.07824
G01 X27.74503 Y34.09277
G01 X27.65179 Y34.20643
G01 X27.64008 Y34.22221
G01 X27.62999 Y34.23900
G01 X27.56070 Y34.36864
G01 X27.55227 Y34.38639
G01 X27.54566 Y34.40491
G01 X27.50302 Y34.54560
G01 X27.49535 Y34.58406
G01 X27.48095 Y34.73036
G01 X27.48095 Y34.76958
G01 X27.49535 Y34.91588
G01 X27.50302 Y34.95434
G01 X27.54566 Y35.09500
G01 X27.55227 Y35.11352
G01 X27.56070 Y35.13127
G01 X27.62999 Y35.26091
G01 X27.64008 Y35.27778
G01 X27.65179 Y35.29355
G01 X27.74503 Y35.40714
G01 X27.75821 Y35.42175
G01 X27.77274 Y35.43491
G01 X27.88641 Y35.52820
G01 X27.91902 Y35.54994
G01 X28.04869 Y35.61926
G01 X28.06644 Y35.62761
G01 X28.08488 Y35.63427
G01 X28.22562 Y35.67697
G01 X28.26408 Y35.68459
G01 X28.41038 Y35.69899
G01 X28.44960 Y35.69899
G01 X28.59590 Y35.68459
G01 X28.63436 Y35.67697
G01 X28.77502 Y35.63427
G01 X28.79354 Y35.62761
G01 X28.81125 Y35.61926
G01 X28.94094 Y35.54994
G01 X28.95773 Y35.53988
G01 X28.97350 Y35.52820
G01 X29.08717 Y35.43491
G01 X29.10172 Y35.42175
G01 X29.11493 Y35.40714
G01 X29.20817 Y35.29355
G01 X29.22996 Y35.26091
G01 X29.29928 Y35.13127
G01 X29.30766 Y35.11352
G01 X29.31429 Y35.09500
G01 X29.35694 Y34.95434
G01 X29.36461 Y34.91588
G01 X29.37901 Y34.76958
G01 X29.37901 Y34.73036
G01 X29.36461 Y34.58406
G01 X29.35694 Y34.54560
G01 X29.31429 Y34.40491
G01 X29.30766 Y34.38639
G01 X29.29928 Y34.36864
G01 X29.22996 Y34.23900
G01 X29.20817 Y34.20643
G01 X29.11493 Y34.09277
G01 X29.10172 Y34.07824
G01 X29.08717 Y34.06501
G01 X28.97350 Y33.97176
G01 X28.94094 Y33.94997
G01 X28.81125 Y33.88065
G01 X28.79354 Y33.87230
G01 X28.77502 Y33.86564
G01 X28.75996 Y33.86112
G01 X28.74541 Y33.86996
G01 X28.75996 Y33.86112
G01 X28.75996 Y6.77073
G01 X28.74569 Y6.76214
G01 X28.75996 Y6.77073
G01 X28.76182 Y6.77004
G01 X28.77955 Y6.76166
G01 X28.92649 Y6.68310
G01 X28.94333 Y6.67304
G01 X28.95910 Y6.66133
G01 X29.08785 Y6.55561
G01 X29.11561 Y6.52790
G01 X29.15572 Y6.47901
G01 X29.18630 Y6.39361
G01 X29.19809 Y6.35483
G01 X29.23924 Y6.19051
G01 X29.24498 Y6.16186
G01 X29.25089 Y6.12143
G04 P0 ( dwell for no time -- G64 should not smooth over this point )
G00 Z5.00000 ( retract )

G00 X30.04690 Y5.38932 ( rapid move to begin. )
G01 F250.00000
( Mill infeed pass 1/1 )
G01 Z-0.05000
G04 P0 ( dwell for no time -- G64 should not smooth over this point )
G01 F500.00000
G01 X30.04690 Y5.38932
G01 X30.08010 Y5.25658
G01 X30.08048 Y5.25508
G01 X30.09105 Y5.22056
G01 X30.14403 Y5.07233
G01 X30.14431 Y5.07208
G01 X30.17208 Y5.04429
G01 X30.30083 Y4.93857
G01 X30.31660 Y4.92694
G01 X30.33347 Y4.91681
G01 X30.48038 Y4.83827
G01 X30.51665 Y4.82331
G01 X30.64883 Y4.78315
G01 X30.67611 Y4.77487
G01 X30.71457 Y4.76722
G01 X30.88035 Y4.75089
G01 X30.91955 Y4.75089
G01 X31.08541 Y4.76722
G01 X31.12386 Y4.77487
G01 X31.28333 Y4.82331
G01 X31.31952 Y4.83827
G01 X31.46651 Y4.91681
G01 X31.48330 Y4.92694
G01 X31.49907 Y4.93857
G01 X31.62788 Y5.04429
G01 X31.65564 Y5.07208
G01 X31.76130 Y5.20083
G01 X31.77301 Y5.21663
G01 X31.78310 Y5.23347
G01 X31.86166 Y5.38038
G01 X31.87667 Y5.41660
G01 X31.92501 Y5.57611
G01 X31.92981 Y5.59514
G01 X31.93270 Y5.61452
G01 X31.94901 Y5.78033
G01 X31.94901 Y5.81955
G01 X31.93270 Y5.98536
G01 X31.92981 Y6.00484
G01 X31.92501 Y6.02386
G01 X31.87667 Y6.18327
G01 X31.86166 Y6.21949
G01 X31.78310 Y6.36648
G01 X31.76130 Y6.39910
G01 X31.65564 Y6.52790
G01 X31.62788 Y6.55561
G01 X31.54995 Y6.61960
G01 X31.54088 Y6.61548
G01 X31.54995 Y6.61960
G01 X31.54995 Y32.09666
