( pcb2gcode 2.4.0 )
( Software-independent Gcode )

G94 ( Millimeters per minute feed rate. )
G21 ( Units == Millimeters. )

G90 ( Absolute coordinates. )
G00 S10000 ( RPM spindle speed. )
G64 P0.01000 ( set maximum deviation from commanded toolpath )
G01 F600.00000 ( Feedrate. )


G00 Z50.00000 (Retract to tool change height)
T0
M5      (Spindle stop.)
G04 P1.00000 (Wait for spindle to stop)
(MSG, Change tool bit to mill diameter 0.40000mm)
M6      (Tool change.)
M0      (Temporary machine stop.)
M3 ( Spindle on clockwise. )
G04 P1.00000 (Wait for spindle to get up to speed)
G04 P0 ( dwell for no time -- G64 should not smooth over this point )
G00 Z1.00000 ( retract )

G00 X14.49199 Y39.59154 ( rapid move to begin. )
G01 F300.00000
( Mill infeed pass 1/1 )
G01 Z-0.05000
G04 P0 ( dwell for no time -- G64 should not smooth over this point )
G01 F600.00000
G01 X14.49199 Y39.59154
G01 X14.49199 Y39.78351
G01 X14.59999 Y39.78351
G01 X14.59999 Y39.65001
G01 X14.60108 Y39.62910
G01 X14.60436 Y39.59791
G01 X14.61305 Y39.55702
G01 X14.62275 Y39.52720
G01 X14.63974 Y39.48900
G01 X14.64597 Y39.47820
G01 X14.64597 Y39.30632
G01 X14.58518 Y39.36713
G01 X14.52628 Y39.46670
G01 X14.49270 Y39.58232
G01 X14.49199 Y39.59154
G04 P0 ( dwell for no time -- G64 should not smooth over this point )
G00 Z1.00000 ( retract )

G00 X14.49199 Y40.69154 ( rapid move to begin. )
G01 F300.00000
( Mill infeed pass 1/1 )
G01 Z-0.05000
G04 P0 ( dwell for no time -- G64 should not smooth over this point )
G01 F600.00000
G01 X14.49199 Y40.69154
G01 X14.49199 Y40.88376
G01 X14.49268 Y40.89268
G01 X14.52631 Y41.00838
G01 X14.58521 Y41.10797
G01 X14.64597 Y41.16873
G01 X14.64597 Y40.99682
G01 X14.63974 Y40.98602
G01 X14.62275 Y40.94782
G01 X14.61305 Y40.91800
G01 X14.60436 Y40.87711
G01 X14.60108 Y40.84592
G01 X14.59999 Y40.82501
G01 X14.59999 Y40.69154
G01 X14.49199 Y40.69154
G04 P0 ( dwell for no time -- G64 should not smooth over this point )
G00 Z1.00000 ( retract )

G00 X17.49287 Y39.58498 ( rapid move to begin. )
G01 F300.00000
( Mill infeed pass 1/1 )
G01 Z-0.05000
G04 P0 ( dwell for no time -- G64 should not smooth over this point )
G01 F600.00000
G01 X17.49287 Y39.58498
G01 X17.48693 Y39.55702
G01 X17.47723 Y39.52720
G01 X17.46023 Y39.48900
G01 X17.44454 Y39.46185
G01 X17.41998 Y39.42801
G01 X17.39900 Y39.40472
G01 X17.36791 Y39.37673
G01 X17.34256 Y39.35832
G01 X17.32498 Y39.34816
G01 X17.32498 Y38.28463
G01 X18.65960 Y36.95001
G01 X19.67499 Y36.95001
G01 X19.68545 Y36.94973
G01 X19.71159 Y36.94836
G01 X19.74270 Y36.94427
G01 X19.79383 Y36.93340
G01 X19.83359 Y36.92047
G01 X19.88134 Y36.89924
G01 X19.91753 Y36.87831
G01 X19.95982 Y36.84760
G01 X19.99089 Y36.81964
G01 X20.02586 Y36.78077
G01 X20.05045 Y36.74697
G01 X20.07659 Y36.70170
G01 X20.09358 Y36.66350
G01 X20.10973 Y36.61379
G01 X20.11842 Y36.57290
G01 X20.12388 Y36.52091
G01 X20.12500 Y36.50000
G01 X20.12500 Y35.70000
G01 X20.12388 Y35.67910
G01 X20.11842 Y35.62713
G01 X20.10973 Y35.58624
G01 X20.09358 Y35.53653
G01 X20.07659 Y35.49833
G01 X20.05045 Y35.45307
G01 X20.02586 Y35.41923
G01 X19.99089 Y35.38040
G01 X19.95982 Y35.35243
G01 X19.91753 Y35.32170
G01 X19.88134 Y35.30079
G01 X19.83359 Y35.27953
G01 X19.79383 Y35.26663
G01 X19.74270 Y35.25576
G01 X19.70112 Y35.25139
G01 X19.68888 Y35.25139
G01 X19.67499 Y35.25002
G01 X18.42498 Y35.25002
G01 X18.41451 Y35.25030
G01 X18.38838 Y35.25167
G01 X18.35726 Y35.25576
G01 X18.30616 Y35.26663
G01 X18.26638 Y35.27953
G01 X18.21863 Y35.30079
G01 X18.18243 Y35.32170
G01 X18.14014 Y35.35243
G01 X18.10908 Y35.38040
G01 X18.07410 Y35.41923
G01 X18.04954 Y35.45307
G01 X18.02340 Y35.49833
G01 X18.00639 Y35.53653
G01 X17.99023 Y35.58624
G01 X17.98154 Y35.62713
G01 X17.97608 Y35.67910
G01 X17.97499 Y35.70000
G01 X17.97499 Y36.50000
G01 X17.97608 Y36.52091
G01 X17.98154 Y36.57290
G01 X17.99023 Y36.61379
G01 X18.00639 Y36.66350
G01 X18.01271 Y36.67768
G01 X16.91906 Y37.77127
G01 X16.91190 Y37.77511
G01 X16.84299 Y37.80658
G01 X16.83687 Y37.80914
G01 X16.78769 Y37.82776
G01 X16.77179 Y37.86619
G01 X16.76052 Y37.89543
G01 X16.75297 Y37.91648
G01 X16.74177 Y37.95326
G01 X16.75698 Y37.93475
G01 X16.77014 Y37.92022
G01 X16.91906 Y37.77127
G01 X16.77014 Y37.92022
G01 X16.75698 Y37.93475
G01 X16.74177 Y37.95326
G01 X16.74144 Y37.95370
G01 X16.71965 Y37.98631
G01 X16.70812 Y38.00790
G01 X16.69310 Y38.04414
G01 X16.68599 Y38.06759
G01 X16.67835 Y38.10604
G01 X16.67593 Y38.13043
G01 X16.67497 Y38.15001
G01 X16.67497 Y39.21201
G01 X16.67487 Y39.21237
G01 X16.67337 Y39.21747
G01 X16.65249 Y39.28156
G01 X16.65076 Y39.28641
G01 X16.63941 Y39.31602
G01 X16.64228 Y39.31765
G01 X16.63941 Y39.31602
G01 X16.62905 Y39.33599
G01 X16.61449 Y39.35311
G01 X16.61327 Y39.35425
G01 X16.58904 Y39.37706
G01 X16.58688 Y39.38270
G01 X16.56755 Y39.44198
G01 X16.56623 Y39.44696
G01 X16.56755 Y39.44198
G01 X16.58688 Y39.38270
G01 X16.58904 Y39.37706
G01 X16.61327 Y39.35425
G01 X16.61449 Y39.35311
G01 X16.62905 Y39.33599
G01 X16.63941 Y39.31602
G01 X16.65076 Y39.28641
G01 X16.65249 Y39.28156
G01 X16.67337 Y39.21747
G01 X16.67487 Y39.21237
G01 X16.67497 Y39.21201
G01 X16.67497 Y39.34818
G01 X16.65744 Y39.35832
G01 X16.63207 Y39.37673
G01 X16.60098 Y39.40472
G01 X16.58000 Y39.42801
G01 X16.56623 Y39.44696
G01 X16.55544 Y39.46185
G01 X16.53974 Y39.48900
G01 X16.52275 Y39.52720
G01 X16.51304 Y39.55702
G01 X16.50436 Y39.59791
G01 X16.50108 Y39.62910
G01 X16.49999 Y39.65001
G01 X16.49999 Y40.82501
G01 X16.50108 Y40.84592
G01 X16.50436 Y40.87711
G01 X16.51304 Y40.91800
G01 X16.52275 Y40.94782
G01 X16.53974 Y40.98602
G01 X16.55544 Y41.01318
G01 X16.56621 Y41.02803
G01 X16.58000 Y41.04701
G01 X16.60098 Y41.07030
G01 X16.63207 Y41.09829
G01 X16.65744 Y41.11673
G01 X16.69364 Y41.13764
G01 X16.72229 Y41.15039
G01 X16.76206 Y41.16329
G01 X16.79270 Y41.16982
G01 X16.83428 Y41.17419
G01 X16.84162 Y41.17419
G01 X16.84997 Y41.17502
G01 X17.15000 Y41.17502
G01 X17.16044 Y41.17475
G01 X17.17614 Y41.17391
G01 X17.20723 Y41.16982
G01 X17.23791 Y41.16329
G01 X17.27768 Y41.15039
G01 X17.30634 Y41.13764
G01 X17.34256 Y41.11673
G01 X17.36791 Y41.09829
G01 X17.39900 Y41.07030
G01 X17.41998 Y41.04701
G01 X17.44454 Y41.01318
G01 X17.46023 Y40.98602
G01 X17.47723 Y40.94782
G01 X17.48693 Y40.91800
G01 X17.49562 Y40.87711
G01 X17.49889 Y40.84592
G01 X17.49999 Y40.82501
G01 X17.49999 Y39.65001
G01 X17.49889 Y39.62910
G01 X17.49562 Y39.59791
G01 X17.49287 Y39.58498
G01 X17.49595 Y39.58902
G01 X17.49742 Y39.59088
G01 X17.54296 Y39.64747
G01 X17.54449 Y39.64930
G01 X17.56895 Y39.67828
G01 X17.57045 Y39.68001
G01 X17.60255 Y39.71628
G01 X17.60369 Y39.71757
G01 X17.62800 Y39.74409
G01 X17.62914 Y39.74533
G01 X17.69640 Y39.81633
G01 X17.69841 Y39.81839
G01 X17.69999 Y39.81996
G01 X17.69999 Y40.82501
G01 X17.69780 Y40.86687
G01 X17.69452 Y40.89801
G01 X17.67713 Y40.97980
G01 X17.66745 Y41.00962
G01 X17.63344 Y41.08602
G01 X17.61774 Y41.11318
G01 X17.61182 Y41.12133
G01 X17.57868 Y41.13830
G01 X17.55211 Y41.15013
G01 X17.46478 Y41.18376
G01 X17.43842 Y41.19230
G01 X17.35990 Y41.21338
G01 X17.33367 Y41.21897
G01 X17.26034 Y41.23063
G01 X17.23379 Y41.23342
G01 X17.17324 Y41.23708
G01 X17.14906 Y41.23753
G01 X16.85091 Y41.23753
G01 X16.82673 Y41.23708
G01 X16.76613 Y41.23342
G01 X16.73961 Y41.23063
G01 X16.66628 Y41.21897
G01 X16.64114 Y41.21363
G01 X16.62724 Y41.18635
G01 X16.59696 Y41.11864
G01 X16.58683 Y41.09220
G01 X16.56755 Y41.03306
G01 X16.56621 Y41.02803
G01 X16.37497 Y41.08701
G01 X16.37497 Y41.41541
G01 X16.45958 Y41.50002
G01 X18.15000 Y41.50002
G01 X18.15109 Y41.47911
G01 X18.15655 Y41.42712
G01 X18.16524 Y41.38623
G01 X18.18139 Y41.33652
G01 X18.19838 Y41.29832
G01 X18.22452 Y41.25308
G01 X18.24911 Y41.21925
G01 X18.28408 Y41.18041
G01 X18.31515 Y41.15242
G01 X18.35744 Y41.12171
G01 X18.39363 Y41.10081
G01 X18.44139 Y41.07955
G01 X18.48116 Y41.06662
G01 X18.53227 Y41.05575
G01 X18.56338 Y41.05166
G01 X18.58952 Y41.05029
G01 X18.59998 Y41.05001
G01 X19.49998 Y41.05001
G01 X19.51390 Y41.05138
G01 X19.52612 Y41.05138
G01 X19.56770 Y41.05575
G01 X19.61883 Y41.06662
G01 X19.65858 Y41.07955
G01 X19.70633 Y41.10081
G01 X19.74255 Y41.12171
G01 X19.78482 Y41.15242
G01 X19.81591 Y41.18041
G01 X19.85088 Y41.21925
G01 X19.87544 Y41.25308
G01 X19.90158 Y41.29832
G01 X19.91857 Y41.33652
G01 X19.93473 Y41.38623
G01 X19.94344 Y41.42712
G01 X19.94890 Y41.47911
G01 X19.94999 Y41.50002
G01 X19.94999 Y42.09268
G01 X19.94999 Y42.15000
G01 X19.94890 Y42.17091
G01 X19.94344 Y42.22290
G01 X19.93473 Y42.26380
G01 X19.91857 Y42.31350
G01 X19.90158 Y42.35171
G01 X19.87544 Y42.39697
G01 X19.85088 Y42.43078
G01 X19.81591 Y42.46964
G01 X19.78482 Y42.49760
G01 X19.74255 Y42.52831
G01 X19.70633 Y42.54922
G01 X19.65858 Y42.57048
G01 X19.61883 Y42.58340
G01 X19.56770 Y42.59428
G01 X19.53658 Y42.59836
G01 X19.51045 Y42.59974
G01 X19.49998 Y42.60002
G01 X18.59998 Y42.60002
G01 X18.58609 Y42.59864
G01 X18.57385 Y42.59864
G01 X18.53227 Y42.59428
G01 X18.48116 Y42.58340
G01 X18.44139 Y42.57048
G01 X18.39363 Y42.54922
G01 X18.35744 Y42.52831
G01 X18.31515 Y42.49760
G01 X18.28408 Y42.46964
G01 X18.24911 Y42.43078
G01 X18.22452 Y42.39697
G01 X18.19838 Y42.35171
G01 X18.18139 Y42.31350
G01 X18.16524 Y42.26380
G01 X18.15655 Y42.22290
G01 X18.15355 Y42.19448
G01 X18.15272 Y42.19301
G01 X18.14073 Y42.17624
G01 X18.12556 Y42.16230
G01 X18.10786 Y42.15176
G01 X18.10283 Y42.15003
G01 X18.10786 Y42.15176
G01 X18.12556 Y42.16230
G01 X18.14073 Y42.17624
G01 X18.15272 Y42.19301
G01 X18.15355 Y42.19448
G01 X18.15109 Y42.17091
G01 X18.15000 Y42.15003
G01 X18.10283 Y42.15003
G01 X16.32498 Y42.15003
G01 X16.30537 Y42.14906
G01 X16.28099 Y42.14665
G01 X16.24253 Y42.13901
G01 X16.21909 Y42.13189
G01 X16.18284 Y42.11688
G01 X16.16125 Y42.10535
G01 X16.12864 Y42.08356
G01 X16.10969 Y42.06801
G01 X16.09516 Y42.05483
G01 X15.82016 Y41.77982
G01 X15.80697 Y41.76530
G01 X15.79143 Y41.74635
G01 X15.76964 Y41.71373
G01 X15.75810 Y41.69214
G01 X15.74309 Y41.65590
G01 X15.73598 Y41.63245
G01 X15.72834 Y41.59400
G01 X15.72592 Y41.56961
G01 X15.72496 Y41.55000
G01 X15.72496 Y39.25308
G01 X15.72402 Y39.25128
G01 X15.72496 Y39.25308
G01 X15.72496 Y39.25184
G01 X15.72402 Y39.25128
G01 X15.70743 Y39.24173
G01 X15.68206 Y39.22329
G01 X15.65099 Y39.19530
G01 X15.63001 Y39.17201
G01 X15.60543 Y39.13817
G01 X15.58975 Y39.11102
G01 X15.57274 Y39.07282
G01 X15.56306 Y39.04300
G01 X15.55437 Y39.00211
G01 X15.55109 Y38.97091
G01 X15.54998 Y38.95001
G01 X15.54998 Y37.77501
G01 X15.55109 Y37.75410
G01 X15.55437 Y37.72291
G01 X15.56306 Y37.68202
G01 X15.57274 Y37.65220
G01 X15.58975 Y37.61400
G01 X15.60543 Y37.58684
G01 X15.63001 Y37.55301
G01 X15.65099 Y37.52972
G01 X15.68206 Y37.50175
G01 X15.70743 Y37.48331
G01 X15.74365 Y37.46243
G01 X15.77228 Y37.44968
G01 X15.81205 Y37.43673
G01 X15.84274 Y37.43020
G01 X15.87385 Y37.42611
G01 X15.88952 Y37.42530
G01 X15.89999 Y37.42502
G01 X16.19999 Y37.42502
G01 X16.20832 Y37.42583
G01 X16.21566 Y37.42583
G01 X16.25724 Y37.43020
G01 X16.28792 Y37.43673
G01 X16.32770 Y37.44968
G01 X16.35633 Y37.46243
G01 X16.39255 Y37.48331
G01 X16.41792 Y37.50175
G01 X16.44898 Y37.52972
G01 X16.46996 Y37.55301
G01 X16.49455 Y37.58684
G01 X16.51022 Y37.61400
G01 X16.52724 Y37.65220
G01 X16.53692 Y37.68202
G01 X16.54561 Y37.72291
G01 X16.54888 Y37.75410
G01 X16.54997 Y37.77501
G01 X16.54997 Y37.89652
G01 X16.54997 Y37.77501
G01 X16.54888 Y37.75410
G01 X16.54561 Y37.72291
G01 X16.53692 Y37.68202
G01 X16.54108 Y37.70157
G01 X16.55267 Y37.71557
G01 X16.55686 Y37.72068
G01 X16.59572 Y37.76863
G01 X16.58655 Y37.79075
G01 X16.58566 Y37.79301
G01 X16.57350 Y37.82454
G01 X16.57263 Y37.82685
G01 X16.56387 Y37.85133
G01 X16.56234 Y37.85593
G01 X16.54997 Y37.89652
G01 X16.54997 Y38.95001
G01 X16.54888 Y38.97091
G01 X16.54561 Y39.00211
G01 X16.53692 Y39.04300
G01 X16.52724 Y39.07282
G01 X16.51022 Y39.11102
G01 X16.49455 Y39.13817
G01 X16.46996 Y39.17201
G01 X16.44898 Y39.19530
G01 X16.41792 Y39.22329
G01 X16.39255 Y39.24173
G01 X16.37497 Y39.25186
G01 X16.37497 Y39.38803
G01 X16.37507 Y39.38768
G01 X16.37657 Y39.38255
G01 X16.39752 Y39.31828
G01 X16.39925 Y39.31341
G01 X16.41053 Y39.28405
G01 X16.42089 Y39.26411
G01 X16.41713 Y39.26174
G01 X16.42089 Y39.26411
G01 X16.43545 Y39.24699
G01 X16.43684 Y39.24569
G01 X16.46085 Y39.22306
G01 X16.46311 Y39.21717
G01 X16.48239 Y39.15804
G01 X16.48371 Y39.15311
G01 X16.49455 Y39.13817
G01 X16.48371 Y39.15311
G01 X16.48239 Y39.15804
G01 X16.46311 Y39.21717
G01 X16.46085 Y39.22306
G01 X16.43684 Y39.24569
G01 X16.43545 Y39.24699
G01 X16.42089 Y39.26411
G01 X16.41053 Y39.28405
G01 X16.39925 Y39.31341
G01 X16.39752 Y39.31828
G01 X16.37657 Y39.38255
G01 X16.37507 Y39.38768
G01 X16.37497 Y39.38803
G01 X16.37497 Y41.08701
G01 X16.37507 Y41.08737
G01 X16.37657 Y41.09247
G01 X16.39745 Y41.15658
G01 X16.39918 Y41.16144
G01 X16.41121 Y41.19280
G01 X16.41327 Y41.19778
G01 X16.44568 Y41.27030
G01 X16.44789 Y41.27492
G01 X16.46387 Y41.30627
G01 X16.46290 Y41.30680
G01 X16.46387 Y41.30627
G01 X16.46509 Y41.30855
G01 X16.48660 Y41.34820
G01 X16.49844 Y41.36542
G01 X16.51358 Y41.37983
G01 X16.50644 Y41.38943
G01 X16.51358 Y41.37983
G01 X16.53138 Y41.39075
G01 X16.55107 Y41.39773
G01 X16.59326 Y41.40787
G01 X16.59587 Y41.40848
G01 X16.62724 Y41.41513
G01 X16.62706 Y41.41599
G01 X16.62724 Y41.41513
G01 X16.63235 Y41.41607
G01 X16.71083 Y41.42854
G01 X16.71607 Y41.42925
G01 X16.74741 Y41.43253
G01 X16.75180 Y41.43291
G01 X16.81673 Y41.43685
G01 X16.81673 Y41.43715
G01 X16.81673 Y41.43685
G01 X16.82092 Y41.43700
G01 X16.84809 Y41.43751
G01 X16.84997 Y41.43753
G01 X17.15000 Y41.43753
G01 X17.15000 Y41.43789
G01 X17.15000 Y41.43753
G01 X17.15185 Y41.43751
G01 X17.17908 Y41.43700
G01 X17.18325 Y41.43685
G01 X17.24812 Y41.43291
G01 X17.25254 Y41.43253
G01 X17.28388 Y41.42925
G01 X17.28911 Y41.42854
G01 X17.36760 Y41.41607
G01 X17.37271 Y41.41513
G01 X17.40408 Y41.40848
G01 X17.40921 Y41.40723
G01 X17.40954 Y41.40858
G01 X17.40921 Y41.40723
G01 X17.49277 Y41.38480
G01 X17.49773 Y41.38333
G01 X17.52907 Y41.37314
G01 X17.53412 Y41.37137
G01 X17.62638 Y41.33583
G01 X17.63113 Y41.33388
G01 X17.66249 Y41.31991
G01 X17.66735 Y41.31757
G01 X17.70169 Y41.30002
G01 X17.98297 Y41.30002
G01 X18.00296 Y41.33139
G01 X17.98297 Y41.30002
G01 X17.99117 Y41.27472
G01 X18.02518 Y41.19832
G01 X18.05132 Y41.15305
G01 X18.10047 Y41.08541
G01 X18.13544 Y41.04658
G01 X18.19760 Y40.99062
G01 X18.23986 Y40.95991
G01 X18.31230 Y40.91808
G01 X18.35287 Y40.90002
G01 X19.74710 Y40.90002
G01 X19.78769 Y40.91808
G01 X19.86010 Y40.95991
G01 X19.90239 Y40.99062
G01 X19.96452 Y41.04658
G01 X19.99950 Y41.08541
G01 X20.04865 Y41.15305
G01 X20.07478 Y41.19832
G01 X20.07880 Y41.20733
G01 X20.09145 Y41.26664
G01 X20.09889 Y41.31371
G01 X20.10874 Y41.40718
G01 X20.11128 Y41.45552
G01 X20.11248 Y41.50134
G01 X20.11248 Y41.75003
G01 X20.11250 Y41.75265
G01 X20.11377 Y41.80108
G01 X20.11387 Y41.80370
G01 X20.11443 Y41.81411
G01 X20.01012 Y41.97020
G01 X20.00973 Y41.96997
G01 X20.01012 Y41.97020
G01 X20.00387 Y41.98097
G01 X19.96828 Y42.05196
G01 X19.96640 Y42.05597
G01 X19.94999 Y42.09268
G01 X20.21669 Y42.02102
G01 X20.17989 Y42.07612
G01 X20.14809 Y42.13956
G01 X20.13193 Y42.17573
G01 X20.17908 Y42.14050
G01 X20.21159 Y42.12072
G01 X20.24725 Y42.10746
G01 X20.28482 Y42.10119
G01 X20.35566 Y42.09621
G01 X20.39360 Y42.09715
G01 X20.39470 Y42.09737
G01 X20.37491 Y42.08140
G01 X20.31558 Y42.03771
G01 X20.28761 Y42.01803
G01 X20.27057 Y42.00654
G01 X20.26399 Y42.00210
G01 X20.26147 Y42.00035
G01 X20.24057 Y41.98528
G01 X20.21669 Y42.02102
G01 X20.27057 Y42.00654
G01 X20.51819 Y41.94002
G01 X20.52340 Y41.95171
G01 X20.54954 Y41.99697
G01 X20.57410 Y42.03078
G01 X20.60907 Y42.06961
G01 X20.64014 Y42.09760
G01 X20.68243 Y42.12831
G01 X20.71865 Y42.14922
G01 X20.76638 Y42.17048
G01 X20.80615 Y42.18340
G01 X20.85728 Y42.19428
G01 X20.89886 Y42.19864
G01 X20.91108 Y42.19864
G01 X20.92500 Y42.20002
G01 X22.17498 Y42.20002
G01 X22.18545 Y42.19974
G01 X22.21158 Y42.19837
G01 X22.24270 Y42.19428
G01 X22.29383 Y42.18340
G01 X22.33358 Y42.17048
G01 X22.38133 Y42.14922
G01 X22.41755 Y42.12831
G01 X22.45982 Y42.09760
G01 X22.49091 Y42.06961
G01 X22.52586 Y42.03078
G01 X22.55045 Y41.99697
G01 X22.57658 Y41.95171
G01 X22.59357 Y41.91350
G01 X22.59505 Y41.90901
G01 X22.63627 Y41.87322
G01 X22.63828 Y41.87152
G01 X22.66886 Y41.84635
G01 X22.67084 Y41.84475
G01 X22.68730 Y41.83187
G01 X22.69998 Y41.82120
G01 X22.69998 Y40.57048
G01 X22.67450 Y40.53540
G01 X22.63952 Y40.49657
G01 X22.57739 Y40.44061
G01 X22.53510 Y40.40990
G01 X22.46269 Y40.36809
G01 X22.41494 Y40.34683
G01 X22.33541 Y40.32100
G01 X22.28428 Y40.31013
G01 X22.20112 Y40.30139
G01 X22.18890 Y40.30139
G01 X22.17498 Y40.30002
G01 X21.24242 Y40.30002
G01 X21.23625 Y40.31478
G01 X21.24242 Y40.30002
G01 X20.34621 Y39.40378
G01 X20.32381 Y39.38349
G01 X20.24735 Y39.37805
G01 X20.24598 Y39.37795
G01 X20.21939 Y39.37569
G01 X20.21799 Y39.37556
G01 X20.17097 Y39.37091
G01 X20.13496 Y39.36814
G01 X20.12342 Y39.36754
G01 X20.09978 Y39.36337
G01 X20.07783 Y39.35372
G01 X20.07603 Y39.35867
G01 X20.07783 Y39.35372
G01 X20.05302 Y39.33901
G01 X20.05159 Y39.33815
G01 X20.02320 Y39.32067
G01 X20.02175 Y39.31976
G01 X19.94969 Y39.27371
G01 X19.94621 Y39.27137
G01 X19.89894 Y39.23830
G01 X19.89543 Y39.23571
G01 X19.89340 Y39.23416
G01 X19.87544 Y39.20307
G01 X19.85088 Y39.16924
G01 X19.81591 Y39.13040
G01 X19.78482 Y39.10244
G01 X19.74255 Y39.07170
G01 X19.70633 Y39.05080
G01 X19.65858 Y39.02954
G01 X19.61883 Y39.01661
G01 X19.56770 Y39.00576
G01 X19.52612 Y39.00139
G01 X19.51390 Y39.00139
G01 X19.49998 Y39.00002
G01 X18.59998 Y39.00002
G01 X18.58952 Y39.00028
G01 X18.56338 Y39.00165
G01 X18.53227 Y39.00576
G01 X18.48116 Y39.01661
G01 X18.44139 Y39.02954
G01 X18.39363 Y39.05080
G01 X18.35744 Y39.07170
G01 X18.31515 Y39.10244
G01 X18.28408 Y39.13040
G01 X18.24911 Y39.16924
G01 X18.22452 Y39.20307
G01 X18.19838 Y39.24833
G01 X18.18139 Y39.28653
G01 X18.16524 Y39.33624
G01 X18.15655 Y39.37714
G01 X18.15109 Y39.42910
G01 X18.15000 Y39.45001
G01 X18.15000 Y39.49377
G01 X18.15000 Y40.10002
G01 X18.15109 Y40.12092
G01 X18.15655 Y40.17289
G01 X18.16524 Y40.21379
G01 X18.18139 Y40.26349
G01 X18.19838 Y40.30170
G01 X18.22452 Y40.34696
G01 X18.24911 Y40.38079
G01 X18.28408 Y40.41963
G01 X18.31515 Y40.44759
G01 X18.35744 Y40.47833
G01 X18.39363 Y40.49923
G01 X18.44139 Y40.52049
G01 X18.48116 Y40.53340
G01 X18.53227 Y40.54427
G01 X18.57385 Y40.54864
G01 X18.58609 Y40.54864
G01 X18.59998 Y40.55001
G01 X19.49998 Y40.55001
G01 X19.51045 Y40.54973
G01 X19.53658 Y40.54838
G01 X19.56770 Y40.54427
G01 X19.61883 Y40.53340
G01 X19.65858 Y40.52049
G01 X19.70633 Y40.49923
G01 X19.74255 Y40.47833
G01 X19.78482 Y40.44759
G01 X19.81591 Y40.41963
G01 X19.85088 Y40.38079
G01 X19.87544 Y40.34696
G01 X19.90158 Y40.30170
G01 X19.91857 Y40.26349
G01 X19.93473 Y40.21379
G01 X19.93813 Y40.19779
G01 X20.51271 Y40.77241
G01 X20.50638 Y40.78653
G01 X20.49025 Y40.83624
G01 X20.48154 Y40.87713
G01 X20.47608 Y40.92910
G01 X20.47499 Y40.95001
G01 X20.47499 Y41.75000
G01 X20.47608 Y41.77091
G01 X20.48154 Y41.82290
G01 X20.49025 Y41.86380
G01 X20.50638 Y41.91350
G01 X20.51819 Y41.94002
G01 X20.49879 Y41.92438
G01 X20.49528 Y41.92166
G01 X20.43330 Y41.87604
G01 X20.43160 Y41.87479
G01 X20.40194 Y41.85392
G01 X20.40026 Y41.85275
G01 X20.37707 Y41.83713
G01 X20.32906 Y41.80256
G01 X20.31357 Y41.79070
G01 X20.31248 Y41.74871
G01 X20.31248 Y41.50002
G01 X20.31245 Y41.49740
G01 X20.31118 Y41.44896
G01 X20.31108 Y41.44635
G01 X20.30834 Y41.39407
G01 X20.30877 Y41.39405
G01 X20.30834 Y41.39407
G01 X20.30793 Y41.38882
G01 X20.29752 Y41.29016
G01 X20.29683 Y41.28498
G01 X20.28855 Y41.23273
G01 X20.28758 Y41.22750
G01 X20.27499 Y41.16840
G01 X20.27499 Y40.95001
G01 X20.27717 Y40.90820
G01 X20.28263 Y40.85628
G01 X20.28809 Y40.83060
G01 X20.30511 Y40.82392
G01 X20.28809 Y40.83060
G01 X19.98652 Y40.52903
G01 X19.98891 Y40.45491
G01 X19.98652 Y40.52903
G01 X19.96452 Y40.55346
G01 X19.90239 Y40.60942
G01 X19.86010 Y40.64013
G01 X19.78769 Y40.68193
G01 X19.74707 Y40.70002
G01 X18.35292 Y40.70002
G01 X18.31230 Y40.68193
G01 X18.23986 Y40.64013
G01 X18.19760 Y40.60942
G01 X18.13544 Y40.55346
G01 X18.10047 Y40.51460
G01 X18.05132 Y40.44696
G01 X18.02518 Y40.40170
G01 X17.99117 Y40.32529
G01 X17.97502 Y40.27559
G01 X17.95764 Y40.19380
G01 X17.95218 Y40.14183
G01 X17.95000 Y40.10002
G01 X17.95000 Y39.80429
G01 X18.05767 Y39.66306
G01 X18.06460 Y39.65270
G01 X18.06508 Y39.65303
G01 X18.06460 Y39.65270
G01 X18.10590 Y39.58171
G01 X18.10893 Y39.57609
G01 X18.14957 Y39.49469
G01 X18.15000 Y39.49377
G01 X18.15000 Y39.45001
G01 X18.15109 Y39.42910
G01 X18.15655 Y39.37714
G01 X18.16524 Y39.33624
G01 X18.18139 Y39.28653
G01 X18.19838 Y39.24833
G01 X18.22452 Y39.20307
G01 X18.24911 Y39.16924
G01 X18.28408 Y39.13040
G01 X18.31515 Y39.10244
G01 X18.35744 Y39.07170
G01 X18.39363 Y39.05080
G01 X18.44139 Y39.02954
G01 X18.48116 Y39.01661
G01 X18.53227 Y39.00576
G01 X18.56338 Y39.00165
G01 X18.58952 Y39.00028
G01 X18.59998 Y39.00002
G01 X19.49998 Y39.00002
G01 X19.51390 Y39.00139
G01 X19.52612 Y39.00139
G01 X19.56770 Y39.00576
G01 X19.61883 Y39.01661
G01 X19.65858 Y39.02954
G01 X19.70633 Y39.05080
G01 X19.74255 Y39.07170
G01 X19.78482 Y39.10244
G01 X19.81591 Y39.13040
G01 X19.85088 Y39.16924
G01 X19.87544 Y39.20307
G01 X19.89340 Y39.23416
G01 X19.90158 Y39.24833
G01 X19.91857 Y39.28653
G01 X19.93473 Y39.33624
G01 X19.94344 Y39.37714
G01 X19.94890 Y39.42910
G01 X19.94999 Y39.45001
G01 X19.97499 Y39.45001
G01 X19.99457 Y39.45097
G01 X20.01895 Y39.45339
G01 X20.05741 Y39.46103
G01 X20.08085 Y39.46814
G01 X20.11710 Y39.48316
G01 X20.13869 Y39.49469
G01 X20.17130 Y39.51648
G01 X20.19025 Y39.53203
G01 X20.20478 Y39.54521
G01 X21.15959 Y40.50002
G01 X22.17498 Y40.50002
G01 X22.18890 Y40.50139
G01 X22.20112 Y40.50139
G01 X22.24270 Y40.50576
G01 X22.29383 Y40.51663
G01 X22.33358 Y40.52953
G01 X22.38133 Y40.55079
G01 X22.41755 Y40.57170
G01 X22.45982 Y40.60243
G01 X22.49091 Y40.63040
G01 X22.52586 Y40.66923
G01 X22.55045 Y40.70307
G01 X22.57658 Y40.74838
G01 X22.59357 Y40.78653
G01 X22.60973 Y40.83624
G01 X22.61842 Y40.87713
G01 X22.62390 Y40.92910
G01 X22.62499 Y40.95001
G01 X22.62499 Y41.75000
G01 X22.62390 Y41.77091
G01 X22.61842 Y41.82290
G01 X22.60973 Y41.86380
G01 X22.59357 Y41.91350
G04 P0 ( dwell for no time -- G64 should not smooth over this point )
G00 Z1.00000 ( retract )

G00 X23.00541 Y41.91046 ( rapid move to begin. )
G01 F300.00000
( Mill infeed pass 1/1 )
G01 Z-0.05000
G04 P0 ( dwell for no time -- G64 should not smooth over this point )
G01 F600.00000
G01 X23.00541 Y41.91046
G01 X22.96683 Y41.87490
G01 X22.96375 Y41.87218
G01 X22.91694 Y41.83243
G01 X22.91394 Y41.82999
G01 X22.89998 Y41.81904
G01 X22.89998 Y40.95003
G01 X22.89998 Y40.91061
G01 X22.89998 Y40.85808
G01 X22.89998 Y40.71945
G01 X22.89998 Y40.61932
G01 X22.89998 Y40.57050
G01 X22.92548 Y40.53540
G01 X22.96045 Y40.49657
G01 X23.02258 Y40.44061
G01 X23.06487 Y40.40990
G01 X23.13729 Y40.36809
G01 X23.18504 Y40.34683
G01 X23.26457 Y40.32100
G01 X23.31570 Y40.31013
G01 X23.37793 Y40.30193
G01 X23.40406 Y40.30055
G01 X23.42499 Y40.30002
G01 X24.35753 Y40.30002
G01 X24.36373 Y40.31480
G01 X24.35753 Y40.30002
G01 X25.25374 Y39.40378
G01 X25.28283 Y39.37742
G01 X25.30177 Y39.36187
G01 X25.36698 Y39.31831
G01 X25.38859 Y39.30675
G01 X25.46103 Y39.27676
G01 X25.47571 Y39.27229
G01 X25.48618 Y39.28298
G01 X25.47571 Y39.27229
G01 X25.49118 Y39.22471
G01 X25.52519 Y39.14833
G01 X25.55133 Y39.10307
G01 X25.60048 Y39.03540
G01 X25.63545 Y38.99657
G01 X25.67355 Y38.96225
G01 X25.67703 Y38.96093
G01 X25.72430 Y38.94557
G01 X25.81590 Y38.92093
G01 X25.86301 Y38.91092
G01 X25.94795 Y38.89743
G01 X25.99527 Y38.89248
G01 X26.06921 Y38.88821
G01 X26.10104 Y38.88755
G01 X26.99893 Y38.88755
G01 X27.03075 Y38.88821
G01 X27.10474 Y38.89248
G01 X27.15201 Y38.89743
G01 X27.23692 Y38.91092
G01 X27.28404 Y38.92093
G01 X27.37551 Y38.94551
G01 X27.42280 Y38.96088
G01 X27.42646 Y38.96228
G01 X27.46453 Y38.99657
G01 X27.49951 Y39.03540
G01 X27.54866 Y39.10307
G01 X27.57479 Y39.14833
G01 X27.60880 Y39.22471
G01 X27.62496 Y39.27442
G01 X27.64233 Y39.35623
G01 X27.64779 Y39.40820
G01 X27.64998 Y39.45001
G01 X27.64998 Y40.10002
G01 X27.64779 Y40.14183
G01 X27.64233 Y40.19380
G01 X27.62496 Y40.27559
G01 X27.60880 Y40.32529
G01 X27.57479 Y40.40170
G01 X27.54866 Y40.44696
G01 X27.49951 Y40.51460
G01 X27.46453 Y40.55346
G01 X27.40238 Y40.60942
G01 X27.36011 Y40.64013
G01 X27.28767 Y40.68193
G01 X27.24706 Y40.70002
G01 X25.85290 Y40.70002
G01 X25.81229 Y40.68193
G01 X25.73987 Y40.64013
G01 X25.69758 Y40.60942
G01 X25.63545 Y40.55346
G01 X25.61343 Y40.52900
G01 X25.61104 Y40.45488
G01 X25.61343 Y40.52900
G01 X25.31188 Y40.83058
G01 X25.29486 Y40.82392
G01 X25.31188 Y40.83058
G01 X25.31734 Y40.85628
G01 X25.32280 Y40.90820
G01 X25.32499 Y40.95001
G01 X25.32499 Y41.16829
G01 X25.31237 Y41.22750
G01 X25.31140 Y41.23273
G01 X25.30312 Y41.28498
G01 X25.30243 Y41.29016
G01 X25.29202 Y41.38882
G01 X25.29161 Y41.39407
G01 X25.29118 Y41.39405
G01 X25.29161 Y41.39407
G01 X25.28887 Y41.44635
G01 X25.28877 Y41.44896
G01 X25.28750 Y41.49740
G01 X25.28747 Y41.50002
G01 X25.28747 Y41.74871
G01 X25.28643 Y41.78803
G01 X25.21839 Y41.83669
G01 X25.21552 Y41.83880
G01 X25.16535 Y41.87746
G01 X25.16240 Y41.87980
G01 X25.15001 Y41.89014
G01 X25.10718 Y41.92295
G01 X25.09133 Y41.93408
G01 X25.08905 Y41.93573
G01 X25.08102 Y41.94170
G01 X25.09360 Y41.91350
G01 X25.10972 Y41.86380
G01 X25.11844 Y41.82290
G01 X25.12390 Y41.77091
G01 X25.12499 Y41.75000
G01 X25.12499 Y40.95001
G01 X25.12390 Y40.92910
G01 X25.11844 Y40.87713
G01 X25.10972 Y40.83624
G01 X25.09360 Y40.78653
G01 X25.08727 Y40.77238
G01 X25.66184 Y40.19779
G01 X25.66525 Y40.21379
G01 X25.68140 Y40.26349
G01 X25.69839 Y40.30170
G01 X25.72453 Y40.34696
G01 X25.74909 Y40.38079
G01 X25.78407 Y40.41963
G01 X25.81516 Y40.44759
G01 X25.85742 Y40.47833
G01 X25.89364 Y40.49923
G01 X25.94140 Y40.52049
G01 X25.98115 Y40.53340
G01 X26.03228 Y40.54427
G01 X26.07386 Y40.54864
G01 X26.08607 Y40.54864
G01 X26.09999 Y40.55001
G01 X26.99999 Y40.55001
G01 X27.01046 Y40.54973
G01 X27.03659 Y40.54838
G01 X27.06771 Y40.54427
G01 X27.11881 Y40.53340
G01 X27.15859 Y40.52049
G01 X27.20634 Y40.49923
G01 X27.24254 Y40.47833
G01 X27.28483 Y40.44759
G01 X27.31589 Y40.41963
G01 X27.35087 Y40.38079
G01 X27.37545 Y40.34696
G01 X27.40157 Y40.30170
G01 X27.41858 Y40.26349
G01 X27.43474 Y40.21379
G01 X27.44343 Y40.17289
G01 X27.44889 Y40.12092
G01 X27.44998 Y40.10002
G01 X27.44998 Y39.45001
G01 X27.44889 Y39.42910
G01 X27.44343 Y39.37714
G01 X27.43474 Y39.33624
G01 X27.41858 Y39.28653
G01 X27.40157 Y39.24833
G01 X27.37545 Y39.20307
G01 X27.35087 Y39.16924
G01 X27.31589 Y39.13040
G01 X27.28483 Y39.10244
G01 X27.24254 Y39.07170
G01 X27.20634 Y39.05080
G01 X27.15859 Y39.02954
G01 X27.11881 Y39.01661
G01 X27.06771 Y39.00576
G01 X27.02613 Y39.00139
G01 X27.01389 Y39.00139
G01 X26.99999 Y39.00002
G01 X26.09999 Y39.00002
G01 X26.08953 Y39.00028
G01 X26.06339 Y39.00165
G01 X26.03228 Y39.00576
G01 X25.98115 Y39.01661
G01 X25.94140 Y39.02954
G01 X25.89364 Y39.05080
G01 X25.85742 Y39.07170
G01 X25.81516 Y39.10244
G01 X25.78407 Y39.13040
G01 X25.74909 Y39.16924
G01 X25.72453 Y39.20307
G01 X25.69839 Y39.24833
G01 X25.68140 Y39.28653
G01 X25.66525 Y39.33624
G01 X25.65654 Y39.37714
G01 X25.65107 Y39.42910
G01 X25.64998 Y39.45001
G01 X25.62499 Y39.45001
G01 X25.60538 Y39.45097
G01 X25.58100 Y39.45339
G01 X25.54254 Y39.46103
G01 X25.51910 Y39.46814
G01 X25.48285 Y39.48316
G01 X25.46126 Y39.49469
G01 X25.42865 Y39.51648
G01 X25.40970 Y39.53203
G01 X25.39517 Y39.54521
G01 X24.44036 Y40.50002
G01 X23.42499 Y40.50002
G01 X23.41453 Y40.50030
G01 X23.38839 Y40.50165
G01 X23.35728 Y40.50576
G01 X23.30615 Y40.51663
G01 X23.26640 Y40.52953
G01 X23.21864 Y40.55079
G01 X23.18242 Y40.57170
G01 X23.14016 Y40.60243
G01 X23.10907 Y40.63040
G01 X23.07409 Y40.66923
G01 X23.04953 Y40.70307
G01 X23.02339 Y40.74838
G01 X23.00640 Y40.78653
G01 X22.99025 Y40.83624
G01 X22.98153 Y40.87713
G01 X22.97607 Y40.92910
G01 X22.97498 Y40.95001
G01 X22.89998 Y40.95003
G01 X22.97498 Y40.95001
G01 X22.97498 Y41.75000
G01 X22.97607 Y41.77091
G01 X22.98153 Y41.82290
G01 X22.99025 Y41.86380
G01 X23.00541 Y41.91046
G01 X23.00640 Y41.91350
G01 X23.02339 Y41.95171
G01 X23.04953 Y41.99697
G01 X23.07409 Y42.03078
G01 X23.10907 Y42.06961
G01 X23.14016 Y42.09760
G01 X23.18242 Y42.12831
G01 X23.21864 Y42.14922
G01 X23.26640 Y42.17048
G01 X23.30615 Y42.18340
G01 X23.35728 Y42.19428
G01 X23.39886 Y42.19864
G01 X23.41107 Y42.19864
G01 X23.42499 Y42.20002
G01 X24.67498 Y42.20002
G01 X24.68544 Y42.19974
G01 X24.71158 Y42.19837
G01 X24.74269 Y42.19428
G01 X24.79382 Y42.18340
G01 X24.83360 Y42.17048
G01 X24.88133 Y42.14922
G01 X24.91755 Y42.12831
G01 X24.95984 Y42.09760
G01 X24.99090 Y42.06961
G01 X25.02588 Y42.03078
G01 X25.05044 Y41.99697
G01 X25.07658 Y41.95171
G01 X25.08102 Y41.94170
G01 X25.32380 Y42.00787
G01 X25.39075 Y42.02610
G01 X25.64998 Y42.09677
G01 X25.56817 Y41.93306
G01 X25.56855 Y41.93286
G01 X25.56817 Y41.93306
G01 X25.56189 Y41.92227
G01 X25.51452 Y41.85127
G01 X25.51234 Y41.84815
G01 X25.48567 Y41.81129
G01 X25.48608 Y41.80370
G01 X25.48618 Y41.80108
G01 X25.48745 Y41.75265
G01 X25.48747 Y41.75003
G01 X25.48747 Y41.50134
G01 X25.48867 Y41.45552
G01 X25.49121 Y41.40718
G01 X25.50106 Y41.31371
G01 X25.50850 Y41.26664
G01 X25.52113 Y41.20744
G01 X25.52519 Y41.19832
G01 X25.55133 Y41.15305
G01 X25.60048 Y41.08541
G01 X25.63545 Y41.04658
G01 X25.69758 Y40.99062
G01 X25.73987 Y40.95991
G01 X25.81229 Y40.91808
G01 X25.85288 Y40.90002
G01 X27.24711 Y40.90002
G01 X27.28767 Y40.91808
G01 X27.36011 Y40.95991
G01 X27.40238 Y40.99062
G01 X27.46453 Y41.04658
G01 X27.49951 Y41.08541
G01 X27.54866 Y41.15305
G01 X27.57479 Y41.19832
G01 X27.60880 Y41.27472
G01 X27.61701 Y41.30002
G01 X27.59702 Y41.33139
G01 X27.61701 Y41.30002
G01 X27.73619 Y41.30002
G01 X27.79748 Y41.36006
G01 X27.73619 Y41.30002
G01 X27.73045 Y41.27302
G01 X27.72717 Y41.24183
G01 X27.72498 Y41.20002
G01 X27.72498 Y40.90002
G01 X27.72717 Y40.85821
G01 X27.73045 Y40.82702
G01 X27.74784 Y40.74523
G01 X27.75752 Y40.71539
G01 X27.79156 Y40.63901
G01 X27.80723 Y40.61186
G01 X27.85638 Y40.54419
G01 X27.87736 Y40.52090
G01 X27.93951 Y40.46494
G01 X27.96486 Y40.44650
G01 X28.03730 Y40.40469
G01 X28.06593 Y40.39194
G01 X28.14548 Y40.36609
G01 X28.17614 Y40.35958
G01 X28.23837 Y40.35138
G01 X28.25404 Y40.35057
G01 X28.27500 Y40.35001
G01 X29.45000 Y40.35001
G01 X29.45521 Y40.35054
G01 X29.46979 Y40.36603
G01 X29.48421 Y40.38178
G01 X29.49501 Y40.39372
G01 X29.49569 Y40.39448
G01 X29.51060 Y40.41069
G01 X29.51129 Y40.41145
G01 X29.56460 Y40.46819
G01 X29.57568 Y40.48023
G01 X29.58670 Y40.49248
G01 X29.58744 Y40.49329
G01 X29.59910 Y40.50594
G01 X29.59983 Y40.50675
G01 X29.64167 Y40.55120
G01 X29.65135 Y40.56174
G01 X29.66212 Y40.57371
G01 X29.66288 Y40.57454
G01 X29.67329 Y40.58585
G01 X29.67408 Y40.58666
G01 X29.71119 Y40.62608
G01 X29.72051 Y40.63621
G01 X29.73115 Y40.64805
G01 X29.73191 Y40.64889
G01 X29.74200 Y40.65984
G01 X29.74273 Y40.66065
G01 X29.77990 Y40.70007
G01 X29.78950 Y40.71056
G01 X29.79961 Y40.72174
G01 X29.79331 Y40.75283
G01 X29.79148 Y40.76154
G01 X29.78373 Y40.79725
G01 X29.77723 Y40.77726
G01 X29.76024 Y40.73901
G01 X29.74451 Y40.71186
G01 X29.71998 Y40.67802
G01 X29.69900 Y40.65471
G01 X29.66788 Y40.62674
G01 X29.64251 Y40.60830
G01 X29.60631 Y40.58740
G01 X29.57766 Y40.57464
G01 X29.53793 Y40.56172
G01 X29.50725 Y40.55521
G01 X29.46567 Y40.55085
G01 X29.45833 Y40.55085
G01 X29.45000 Y40.55001
G01 X28.27500 Y40.55001
G01 X28.26453 Y40.55029
G01 X28.24883 Y40.55110
G01 X28.21772 Y40.55521
G01 X28.18706 Y40.56172
G01 X28.14728 Y40.57464
G01 X28.11863 Y40.58740
G01 X28.08244 Y40.60830
G01 X28.05706 Y40.62674
G01 X28.02600 Y40.65471
G01 X28.00499 Y40.67802
G01 X27.98043 Y40.71186
G01 X27.96476 Y40.73901
G01 X27.94774 Y40.77726
G01 X27.93806 Y40.80703
G01 X27.92935 Y40.84792
G01 X27.92608 Y40.87911
G01 X27.92498 Y40.90002
G01 X27.92498 Y41.20002
G01 X27.92608 Y41.22092
G01 X27.92935 Y41.25211
G01 X27.93806 Y41.29301
G01 X27.94774 Y41.32283
G01 X27.96476 Y41.36103
G01 X27.98043 Y41.38818
G01 X28.00499 Y41.42201
G01 X28.01726 Y41.43563
G01 X27.95287 Y41.50002
G01 X27.44998 Y41.50002
G01 X27.44889 Y41.47911
G01 X27.44343 Y41.42712
G01 X27.43474 Y41.38623
G01 X27.41858 Y41.33652
G01 X27.40157 Y41.29832
G01 X27.37545 Y41.25308
G01 X27.35087 Y41.21925
G01 X27.31589 Y41.18041
G01 X27.28483 Y41.15242
G01 X27.24254 Y41.12171
G01 X27.20634 Y41.10081
G01 X27.15859 Y41.07955
G01 X27.11881 Y41.06662
G01 X27.06771 Y41.05575
G01 X27.02613 Y41.05138
G01 X27.01389 Y41.05138
G01 X26.99999 Y41.05001
G01 X26.09999 Y41.05001
G01 X26.08953 Y41.05029
G01 X26.06339 Y41.05166
G01 X26.03228 Y41.05575
G01 X25.98115 Y41.06662
G01 X25.94140 Y41.07955
G01 X25.89364 Y41.10081
G01 X25.85742 Y41.12171
G01 X25.81516 Y41.15242
G01 X25.78407 Y41.18041
G01 X25.74909 Y41.21925
G01 X25.72453 Y41.25308
G01 X25.69839 Y41.29832
G01 X25.68140 Y41.33652
G01 X25.66525 Y41.38623
G01 X25.65654 Y41.42712
G01 X25.65107 Y41.47911
G01 X25.64998 Y41.50002
G01 X25.48747 Y41.50134
G01 X25.64998 Y41.50002
G01 X25.64998 Y42.09677
G01 X25.64998 Y42.15000
G01 X25.65107 Y42.17091
G01 X25.65654 Y42.22290
G01 X25.66525 Y42.26380
G01 X25.68140 Y42.31350
G01 X25.69839 Y42.35171
G01 X25.72453 Y42.39697
G01 X25.74909 Y42.43078
G01 X25.78407 Y42.46964
G01 X25.81516 Y42.49760
G01 X25.85742 Y42.52831
G01 X25.89364 Y42.54922
G01 X25.94140 Y42.57048
G01 X25.98115 Y42.58340
G01 X26.03228 Y42.59428
G01 X26.07386 Y42.59864
G01 X26.08607 Y42.59864
G01 X26.09999 Y42.60002
G01 X26.99999 Y42.60002
G01 X27.01046 Y42.59974
G01 X27.03659 Y42.59836
G01 X27.06771 Y42.59428
G01 X27.11881 Y42.58340
G01 X27.15859 Y42.57048
G01 X27.20634 Y42.54922
G01 X27.24254 Y42.52831
G01 X27.28483 Y42.49760
G01 X27.31589 Y42.46964
G01 X27.35087 Y42.43078
G01 X27.37545 Y42.39697
G01 X27.40157 Y42.35171
G01 X27.41858 Y42.31350
G01 X27.43474 Y42.26380
G01 X27.44343 Y42.22290
G01 X27.44673 Y42.19153
G01 X27.44889 Y42.17091
G01 X27.44998 Y42.15003
G01 X27.49156 Y42.15003
G01 X27.49349 Y42.15003
G01 X27.49179 Y42.15061
G01 X27.47454 Y42.16067
G01 X27.45966 Y42.17396
G01 X27.44769 Y42.18993
G01 X27.44673 Y42.19153
G01 X27.44769 Y42.18993
G01 X27.45966 Y42.17396
G01 X27.47454 Y42.16067
G01 X27.49179 Y42.15061
G01 X27.49156 Y42.15003
G01 X27.49179 Y42.15061
G01 X27.49349 Y42.15003
G01 X28.08749 Y42.15003
G01 X28.10708 Y42.14906
G01 X28.13146 Y42.14665
G01 X28.16992 Y42.13901
G01 X28.19336 Y42.13189
G01 X28.22961 Y42.11688
G01 X28.25120 Y42.10535
G01 X28.28381 Y42.08356
G01 X28.30276 Y42.06801
G01 X28.31729 Y42.05483
G01 X28.82211 Y41.55000
G01 X29.45000 Y41.55000
G01 X29.46046 Y41.54975
G01 X29.47614 Y41.54891
G01 X29.50725 Y41.54482
G01 X29.53793 Y41.53830
G01 X29.57766 Y41.52539
G01 X29.60631 Y41.51262
G01 X29.64251 Y41.49171
G01 X29.66788 Y41.47330
G01 X29.69900 Y41.44531
G01 X29.71998 Y41.42201
G01 X29.74451 Y41.38818
G01 X29.76024 Y41.36103
G01 X29.77723 Y41.32283
G01 X29.78317 Y41.30454
G01 X29.77723 Y41.32283
G01 X29.76024 Y41.36103
G01 X29.74451 Y41.38818
G01 X29.75190 Y41.37546
G01 X29.78337 Y41.35595
G01 X29.78470 Y41.35514
G01 X29.79176 Y41.35092
G01 X29.79087 Y41.34670
G01 X29.79039 Y41.34421
G01 X29.78317 Y41.30454
G01 X29.78693 Y41.29301
G01 X29.79559 Y41.25211
G01 X29.79889 Y41.22092
G01 X29.79999 Y41.20002
G01 X29.79999 Y40.90002
G01 X29.79889 Y40.87911
G01 X29.79559 Y40.84792
G01 X29.78693 Y40.80703
G01 X29.78373 Y40.79725
G01 X30.01820 Y40.57358
G01 X29.96450 Y40.57988
G01 X29.96206 Y40.58021
G01 X29.94365 Y40.58282
G01 X29.93778 Y40.57635
G01 X29.93704 Y40.57551
G01 X29.92661 Y40.56421
G01 X29.92587 Y40.56339
G01 X29.88876 Y40.52397
G01 X29.87944 Y40.51384
G01 X29.86880 Y40.50200
G01 X29.86803 Y40.50116
G01 X29.85795 Y40.49022
G01 X29.85716 Y40.48940
G01 X29.82005 Y40.44998
G01 X29.81040 Y40.43949
G01 X29.79963 Y40.42753
G01 X29.79889 Y40.42672
G01 X29.78845 Y40.41536
G01 X29.78772 Y40.41455
G01 X29.74588 Y40.37010
G01 X29.73494 Y40.35821
G01 X29.72389 Y40.34597
G01 X29.72320 Y40.34521
G01 X29.71144 Y40.33241
G01 X29.71073 Y40.33164
G01 X29.65744 Y40.27492
G01 X29.64327 Y40.25948
G01 X29.63250 Y40.24757
G01 X29.63181 Y40.24681
G01 X29.61670 Y40.23035
G01 X29.61604 Y40.22964
G01 X29.59999 Y40.21252
G01 X29.59999 Y39.95001
G01 X29.60217 Y39.90820
G01 X29.60542 Y39.87701
G01 X29.62285 Y39.79522
G01 X29.63250 Y39.76540
G01 X29.66651 Y39.68900
G01 X29.68221 Y39.66185
G01 X29.73136 Y39.59421
G01 X29.75234 Y39.57089
G01 X29.81452 Y39.51493
G01 X29.83986 Y39.49649
G01 X29.91228 Y39.45468
G01 X29.94093 Y39.44193
G01 X30.02046 Y39.41610
G01 X30.05114 Y39.40957
G01 X30.11337 Y39.40139
G01 X30.12904 Y39.40056
G01 X30.14997 Y39.40002
G01 X30.92112 Y39.40002
G01 X31.28584 Y39.55108
G01 X31.30811 Y39.56080
G01 X31.35970 Y39.58580
G01 X31.38413 Y39.59908
G01 X31.40047 Y39.60906
G01 X31.41291 Y39.61173
G01 X31.45269 Y39.62463
G01 X31.48134 Y39.63741
G01 X31.51753 Y39.65831
G01 X31.54291 Y39.67673
G01 X31.57397 Y39.70472
G01 X31.59498 Y39.72801
G01 X31.61954 Y39.76185
G01 X31.63521 Y39.78900
G01 X31.65223 Y39.82720
G01 X31.66191 Y39.85702
G01 X31.66524 Y39.87261
G01 X31.66780 Y39.87683
G01 X31.69726 Y39.93116
G01 X31.70989 Y39.95765
G01 X31.72406 Y39.98948
G01 X31.79676 Y40.16499
G01 X31.80600 Y40.18229
G01 X31.80298 Y40.18435
G01 X31.80600 Y40.18229
G01 X31.81842 Y40.19743
G01 X31.87301 Y40.25199
G01 X31.87476 Y40.25372
G01 X31.90407 Y40.28163
G01 X31.90588 Y40.28331
G01 X31.92404 Y40.29977
G01 X31.92777 Y40.30299
G01 X31.92741 Y40.30342
G01 X31.92777 Y40.30299
G01 X31.99190 Y40.35562
G01 X31.99577 Y40.35864
G01 X32.01568 Y40.37340
G01 X32.01863 Y40.37551
G01 X32.07090 Y40.41140
G01 X32.08995 Y40.42166
G01 X32.08670 Y40.43177
G01 X32.08995 Y40.42166
G01 X32.11080 Y40.42758
G01 X32.13242 Y40.42887
G01 X32.15693 Y40.42766
G01 X32.15825 Y40.42760
G01 X32.18205 Y40.42611
G01 X32.18416 Y40.42598
G01 X32.26701 Y40.42103
G01 X32.27037 Y40.42085
G01 X32.29145 Y40.41968
G01 X32.29343 Y40.41955
G01 X32.32490 Y40.41719
G01 X32.32688 Y40.41701
G01 X32.33232 Y40.41650
G01 X32.39523 Y40.41320
G01 X32.42604 Y40.41254
G01 X33.67389 Y40.41254
G01 X33.70445 Y40.41320
G01 X33.77448 Y40.41719
G01 X33.82175 Y40.42217
G01 X33.89594 Y40.43393
G01 X33.91611 Y40.48371
G01 X33.91639 Y40.48440
G01 X33.92109 Y40.49575
G01 X33.92137 Y40.49644
G01 X33.93993 Y40.54035
G01 X33.95144 Y40.56946
G01 X33.96434 Y40.60441
G01 X33.96561 Y40.60761
G01 X33.99091 Y40.63040
G01 X33.95982 Y40.60243
G01 X33.91756 Y40.57170
G01 X33.88133 Y40.55079
G01 X33.83358 Y40.52953
G01 X33.79383 Y40.51663
G01 X33.74270 Y40.50576
G01 X33.70112 Y40.50139
G01 X33.68890 Y40.50139
G01 X33.67499 Y40.50002
G01 X32.42497 Y40.50002
G01 X32.41451 Y40.50030
G01 X32.38840 Y40.50165
G01 X32.35728 Y40.50576
G01 X32.30615 Y40.51663
G01 X32.26638 Y40.52953
G01 X32.21865 Y40.55079
G01 X32.18243 Y40.57170
G01 X32.14014 Y40.60243
G01 X32.10908 Y40.63040
G01 X32.10003 Y40.64046
G01 X31.67499 Y40.21541
G01 X31.67499 Y39.95001
G01 X31.67390 Y39.92910
G01 X31.67062 Y39.89791
G01 X31.66524 Y39.87261
G01 X31.66191 Y39.85702
G01 X31.65223 Y39.82720
G01 X31.63521 Y39.78900
G01 X31.61954 Y39.76185
G01 X31.59498 Y39.72801
G01 X31.57397 Y39.70472
G01 X31.54291 Y39.67673
G01 X31.51753 Y39.65831
G01 X31.48134 Y39.63741
G01 X31.45269 Y39.62463
G01 X31.41291 Y39.61173
G01 X31.40047 Y39.60906
G01 X31.38225 Y39.60520
G01 X31.34067 Y39.60083
G01 X31.33333 Y39.60083
G01 X31.32498 Y39.60002
G01 X30.14997 Y39.60002
G01 X30.13948 Y39.60028
G01 X30.12384 Y39.60111
G01 X30.09272 Y39.60520
G01 X30.06206 Y39.61173
G01 X30.02229 Y39.62463
G01 X29.99364 Y39.63741
G01 X29.95744 Y39.65831
G01 X29.93207 Y39.67673
G01 X29.90098 Y39.70472
G01 X29.88000 Y39.72801
G01 X29.85543 Y39.76185
G01 X29.83976 Y39.78900
G01 X29.82274 Y39.82720
G01 X29.81302 Y39.85702
G01 X29.80436 Y39.89791
G01 X29.80108 Y39.92910
G01 X29.79999 Y39.95001
G01 X29.59999 Y39.95001
G01 X29.79999 Y39.95001
G01 X29.79999 Y40.25001
G01 X29.80108 Y40.27091
G01 X29.80436 Y40.30210
G01 X29.81302 Y40.34300
G01 X29.82274 Y40.37282
G01 X29.83976 Y40.41102
G01 X29.85543 Y40.43817
G01 X29.88000 Y40.47200
G01 X29.90098 Y40.49532
G01 X29.93207 Y40.52329
G01 X29.95744 Y40.54173
G01 X29.99364 Y40.56263
G01 X30.01820 Y40.57358
G01 X30.02229 Y40.57538
G01 X30.06206 Y40.58831
G01 X30.09272 Y40.59481
G01 X30.13430 Y40.59918
G01 X30.14164 Y40.59918
G01 X30.14997 Y40.60002
G01 X31.14034 Y40.60002
G01 X31.48314 Y40.94279
G01 X31.97499 Y41.43464
G01 X31.97499 Y41.75000
G01 X31.97608 Y41.77091
G01 X31.98154 Y41.82290
G01 X31.99023 Y41.86380
G01 X32.00638 Y41.91350
G01 X32.02340 Y41.95171
G01 X32.04954 Y41.99697
G01 X32.07118 Y42.02674
G01 X32.04954 Y41.99697
G01 X32.02340 Y41.95171
G01 X32.00638 Y41.91350
G01 X31.99023 Y41.86380
G01 X31.98154 Y41.82290
G01 X31.97608 Y41.77091
G01 X31.97499 Y41.75000
G01 X31.97499 Y41.43464
G01 X31.48314 Y40.94279
G01 X31.53658 Y41.05143
G01 X31.54174 Y41.06403
G01 X31.54240 Y41.06377
G01 X31.54174 Y41.06403
G01 X31.56684 Y41.13936
G01 X31.56884 Y41.14620
G01 X31.59056 Y41.23129
G01 X31.59803 Y41.23611
G01 X31.60031 Y41.23764
G01 X31.62660 Y41.25572
G01 X31.63082 Y41.25877
G01 X31.69991 Y41.31175
G01 X31.70402 Y41.31508
G01 X31.72795 Y41.33550
G01 X31.72835 Y41.33504
G01 X31.72795 Y41.33550
G01 X31.73183 Y41.33901
G01 X31.79290 Y41.39694
G01 X31.79660 Y41.40065
G01 X31.81819 Y41.42339
G01 X31.81972 Y41.42506
G01 X31.84441 Y41.45227
G01 X31.85739 Y41.47025
G01 X31.86308 Y41.46705
G01 X31.85739 Y41.47025
G01 X31.86610 Y41.49067
G01 X31.88027 Y41.53791
G01 X31.88111 Y41.54078
G01 X31.88949 Y41.57213
G01 X31.89071 Y41.57716
G01 X31.90735 Y41.65516
G01 X31.90831 Y41.66037
G01 X31.90875 Y41.66029
G01 X31.90831 Y41.66037
G01 X31.91327 Y41.69176
G01 X31.91370 Y41.69468
G01 X31.91916 Y41.73730
G01 X31.91949 Y41.74028
G01 X31.92259 Y41.77200
G01 X31.92307 Y41.77665
G01 X31.92579 Y41.80263
G01 X31.92597 Y41.80446
G01 X31.92823 Y41.83034
G01 X31.92835 Y41.83217
G01 X31.92896 Y41.84099
G01 X31.93567 Y41.90032
G01 X31.94319 Y41.94777
G01 X31.94865 Y41.97335
G01 X31.95982 Y41.97789
G01 X31.96112 Y41.97843
G01 X32.03450 Y42.00944
G01 X32.03849 Y42.01122
G01 X32.07118 Y42.02674
G01 X32.07410 Y42.03078
G01 X32.10908 Y42.06961
G01 X32.14014 Y42.09760
G01 X32.18243 Y42.12831
G01 X32.21865 Y42.14922
G01 X32.26638 Y42.17048
G01 X32.30615 Y42.18340
G01 X32.35728 Y42.19428
G01 X32.39886 Y42.19864
G01 X32.41108 Y42.19864
G01 X32.42497 Y42.20002
G01 X33.67499 Y42.20002
G01 X33.68545 Y42.19974
G01 X33.71159 Y42.19837
G01 X33.74270 Y42.19428
G01 X33.79383 Y42.18340
G01 X33.83358 Y42.17048
G01 X33.88133 Y42.14922
G01 X33.91756 Y42.12831
G01 X33.95982 Y42.09760
G01 X33.99091 Y42.06961
G01 X34.02586 Y42.03078
G01 X34.05045 Y41.99697
G01 X34.07658 Y41.95171
G01 X34.09358 Y41.91350
G01 X34.10973 Y41.86380
G01 X34.11842 Y41.82290
G01 X34.12388 Y41.77091
G01 X34.12500 Y41.75000
G01 X34.12500 Y40.95001
G01 X34.12388 Y40.92910
G01 X34.11842 Y40.87713
G01 X34.10973 Y40.83624
G01 X34.09358 Y40.78653
G01 X34.07658 Y40.74838
G01 X34.05045 Y40.70307
G01 X34.02586 Y40.66923
G01 X33.99091 Y40.63040
G01 X34.09533 Y40.39349
G01 X34.09726 Y40.38912
G01 X34.21369 Y40.12504
G01 X34.13513 Y40.14861
G01 X34.12236 Y40.15344
G01 X34.12205 Y40.15273
G01 X34.12236 Y40.15344
G01 X34.05134 Y40.18587
G01 X34.04377 Y40.18971
G01 X33.95240 Y40.24119
G01 X33.94044 Y40.23863
G01 X33.93531 Y40.23769
G01 X33.85050 Y40.22423
G01 X33.84524 Y40.22352
G01 X33.79297 Y40.21805
G01 X33.78824 Y40.21767
G01 X33.71408 Y40.21343
G01 X33.71052 Y40.21328
G01 X33.67712 Y40.21257
G01 X33.67496 Y40.21254
G01 X33.67499 Y40.21229
G01 X33.67496 Y40.21254
G01 X32.42495 Y40.21247
G01 X32.42282 Y40.21257
G01 X32.38939 Y40.21328
G01 X32.38634 Y40.21341
G01 X32.31974 Y40.21689
G01 X32.31548 Y40.21719
G01 X32.30892 Y40.21783
G01 X32.27943 Y40.22004
G01 X32.25899 Y40.22118
G01 X32.25520 Y40.22138
G01 X32.17204 Y40.22636
G01 X32.16968 Y40.22649
G01 X32.15617 Y40.22733
G01 X32.13336 Y40.21168
G01 X32.11687 Y40.19946
G01 X32.05655 Y40.14996
G01 X32.04113 Y40.13596
G01 X32.01355 Y40.10972
G01 X31.97392 Y40.07007
G01 X31.90834 Y39.91176
G01 X31.90732 Y39.90937
G01 X31.89208 Y39.87515
G01 X31.89099 Y39.87274
G01 X31.87667 Y39.84272
G01 X31.87433 Y39.83812
G01 X31.84238 Y39.77917
G01 X31.83971 Y39.77457
G01 X31.83945 Y39.77414
G01 X31.50214 Y39.43683
G01 X31.48632 Y39.42715
G01 X31.48185 Y39.42456
G01 X31.45312 Y39.40896
G01 X31.44903 Y39.40685
G01 X31.39356 Y39.37996
G01 X31.38992 Y39.37828
G01 X31.36496 Y39.36738
G01 X31.36323 Y39.36667
G01 X30.99775 Y39.21526
G01 X30.55752 Y38.77503
G01 X30.56382 Y38.75979
G01 X30.55752 Y38.77503
G01 X27.49671 Y38.77503
G01 X27.49217 Y38.77328
G01 X27.48714 Y38.77150
G01 X27.43487 Y38.75451
G01 X27.42991 Y38.75303
G01 X27.33339 Y38.72710
G01 X27.32824 Y38.72586
G01 X27.32831 Y38.72545
G01 X27.32824 Y38.72586
G01 X27.27596 Y38.71476
G01 X27.27086 Y38.71379
G01 X27.18076 Y38.69949
G01 X27.17551 Y38.69880
G01 X27.12328 Y38.69332
G01 X27.11858 Y38.69294
G01 X27.11864 Y38.69238
G01 X27.11858 Y38.69294
G01 X27.04045 Y38.68844
G01 X27.03680 Y38.68829
G01 X27.00208 Y38.68755
G01 X26.99999 Y38.68753
G01 X26.09997 Y38.68753
G01 X26.09997 Y38.68727
G01 X26.09997 Y38.68753
G01 X26.09789 Y38.68755
G01 X26.06316 Y38.68829
G01 X26.05951 Y38.68844
G01 X25.98140 Y38.69294
G01 X25.97673 Y38.69332
G01 X25.92445 Y38.69880
G01 X25.91922 Y38.69949
G01 X25.82908 Y38.71379
G01 X25.82895 Y38.71310
G01 X25.82908 Y38.71379
G01 X25.82397 Y38.71476
G01 X25.77170 Y38.72586
G01 X25.76654 Y38.72710
G01 X25.66987 Y38.75308
G01 X25.66492 Y38.75456
G01 X25.61264 Y38.77155
G01 X25.60764 Y38.77333
G01 X25.60325 Y38.77503
G01 X25.31069 Y38.77503
G01 X25.27902 Y38.73370
G01 X25.31069 Y38.77503
G01 X25.29994 Y38.82560
G01 X25.28379 Y38.87531
G01 X25.24978 Y38.95169
G01 X25.22364 Y38.99695
G01 X25.17449 Y39.06461
G01 X25.13952 Y39.10345
G01 X25.07739 Y39.15941
G01 X25.03510 Y39.19012
G01 X24.96268 Y39.23192
G01 X24.91493 Y39.25318
G01 X24.83540 Y39.27904
G01 X24.78427 Y39.28991
G01 X24.72204 Y39.29809
G01 X24.69593 Y39.29946
G01 X24.67498 Y39.30002
G01 X23.42499 Y39.30002
G01 X23.41107 Y39.29865
G01 X23.39886 Y39.29865
G01 X23.31570 Y39.28991
G01 X23.26457 Y39.27904
G01 X23.18504 Y39.25318
G01 X23.13729 Y39.23192
G01 X23.06487 Y39.19012
G01 X23.02258 Y39.15941
G01 X22.96045 Y39.10345
G01 X22.92548 Y39.06461
G01 X22.87633 Y38.99695
G01 X22.85019 Y38.95169
G01 X22.81618 Y38.87531
G01 X22.79995 Y38.82560
G01 X22.79998 Y38.57503
G01 X22.79995 Y38.82560
G01 X22.78380 Y38.87531
G01 X22.74978 Y38.95169
G01 X22.72365 Y38.99695
G01 X22.67450 Y39.06461
G01 X22.63952 Y39.10345
G01 X22.57739 Y39.15941
G01 X22.53510 Y39.19012
G01 X22.46269 Y39.23192
G01 X22.41494 Y39.25318
G01 X22.33541 Y39.27904
G01 X22.28428 Y39.28991
G01 X22.22205 Y39.29809
G01 X22.19591 Y39.29946
G01 X22.17498 Y39.30002
G01 X20.92500 Y39.30002
G01 X20.91108 Y39.29865
G01 X20.89886 Y39.29865
G01 X20.81570 Y39.28991
G01 X20.76457 Y39.27904
G01 X20.68504 Y39.25318
G01 X20.63729 Y39.23192
G01 X20.56488 Y39.19012
G01 X20.54349 Y39.17460
G01 X20.54349 Y39.12044
G01 X20.54354 Y39.11813
G01 X20.54412 Y39.04871
G01 X20.54410 Y39.04539
G01 X20.54192 Y38.95664
G01 X20.54174 Y38.95252
G01 X20.53790 Y38.89438
G01 X20.53752 Y38.89009
G01 X20.53567 Y38.87292
G01 X20.54954 Y38.89695
G01 X20.57410 Y38.93078
G01 X20.60907 Y38.96962
G01 X20.64014 Y38.99761
G01 X20.68243 Y39.02832
G01 X20.71865 Y39.04922
G01 X20.76638 Y39.07048
G01 X20.80615 Y39.08341
G01 X20.85728 Y39.09428
G01 X20.89886 Y39.09865
G01 X20.91108 Y39.09865
G01 X20.92500 Y39.10002
G01 X22.17498 Y39.10002
G01 X22.18545 Y39.09974
G01 X22.21158 Y39.09837
G01 X22.24270 Y39.09428
G01 X22.29383 Y39.08341
G01 X22.33358 Y39.07048
G01 X22.38133 Y39.04922
G01 X22.41755 Y39.02832
G01 X22.45982 Y38.99761
G01 X22.49091 Y38.96962
G01 X22.52586 Y38.93078
G01 X22.55045 Y38.89695
G01 X22.57658 Y38.85169
G01 X22.59357 Y38.81351
G01 X22.60973 Y38.76380
G01 X22.61842 Y38.72291
G01 X22.62390 Y38.67092
G01 X22.62499 Y38.65001
G01 X22.62499 Y38.57503
G01 X22.79998 Y38.57503
G01 X22.97498 Y38.57503
G01 X22.97498 Y38.65001
G01 X22.97607 Y38.67092
G01 X22.98153 Y38.72291
G01 X22.99025 Y38.76380
G01 X23.00640 Y38.81351
G01 X23.02339 Y38.85169
G01 X23.04953 Y38.89695
G01 X23.07409 Y38.93078
G01 X23.10907 Y38.96962
G01 X23.14016 Y38.99761
G01 X23.18242 Y39.02832
G01 X23.21864 Y39.04922
G01 X23.26640 Y39.07048
G01 X23.30615 Y39.08341
G01 X23.35728 Y39.09428
G01 X23.39886 Y39.09865
G01 X23.41107 Y39.09865
G01 X23.42499 Y39.10002
G01 X24.67498 Y39.10002
G01 X24.68544 Y39.09974
G01 X24.71158 Y39.09837
G01 X24.74269 Y39.09428
G01 X24.79382 Y39.08341
G01 X24.83360 Y39.07048
G01 X24.88133 Y39.04922
G01 X24.91755 Y39.02832
G01 X24.95984 Y38.99761
G01 X24.99090 Y38.96962
G01 X25.02588 Y38.93078
G01 X25.05044 Y38.89695
G01 X25.07658 Y38.85169
G01 X25.09360 Y38.81351
G01 X25.10972 Y38.76380
G01 X25.11844 Y38.72291
G01 X25.12390 Y38.67092
G01 X25.12499 Y38.65001
G01 X25.12499 Y38.57503
G01 X30.64035 Y38.57503
G01 X31.50214 Y39.43683
G01 X31.83945 Y39.77414
G01 X32.09516 Y40.02984
G01 X32.10968 Y40.04302
G01 X32.12863 Y40.05857
G01 X32.16125 Y40.08036
G01 X32.18284 Y40.09189
G01 X32.21906 Y40.10690
G01 X32.24253 Y40.11402
G01 X32.28098 Y40.12166
G01 X32.30537 Y40.12407
G01 X32.32498 Y40.12504
G01 X34.21369 Y40.12504
G01 X34.54999 Y40.12504
G01 X34.56957 Y40.12407
G01 X34.59396 Y40.12166
G01 X34.63241 Y40.11402
G01 X34.65586 Y40.10690
G01 X34.69210 Y40.09189
G01 X34.71369 Y40.08036
G01 X34.74631 Y40.05857
G01 X34.76525 Y40.04302
G01 X34.77978 Y40.02984
G01 X35.27978 Y39.52984
G01 X35.29297 Y39.51531
G01 X35.30851 Y39.49636
G01 X35.33030 Y39.46375
G01 X35.34183 Y39.44216
G01 X35.35685 Y39.40591
G01 X35.36396 Y39.38247
G01 X35.37160 Y39.34401
G01 X35.37402 Y39.31963
G01 X35.37498 Y39.30002
G01 X35.37498 Y31.80903
G01 X35.37402 Y31.78945
G01 X35.37160 Y31.76506
G01 X35.36396 Y31.72661
G01 X35.35685 Y31.70316
G01 X35.34183 Y31.66692
G01 X35.33030 Y31.64533
G01 X35.30851 Y31.61271
G01 X35.29297 Y31.59376
G01 X35.27978 Y31.57924
G01 X35.02527 Y31.32475
G01 X35.01075 Y31.31154
G01 X34.99180 Y31.29603
G01 X34.95918 Y31.27421
G01 X34.93759 Y31.26267
G01 X34.90135 Y31.24769
G01 X34.87790 Y31.24055
G01 X34.83945 Y31.23291
G01 X34.81506 Y31.23052
G01 X34.79548 Y31.22953
G01 X34.31466 Y31.22953
G01 X34.03760 Y31.22953
G01 X34.31466 Y31.22953
G01 X34.18479 Y31.18294
G01 X34.17237 Y31.17751
G01 X34.16165 Y31.17192
G01 X34.12799 Y31.18914
G01 X34.12314 Y31.19148
G01 X34.03760 Y31.22953
G01 X33.75914 Y31.22955
G01 X33.67679 Y31.25630
G01 X33.64158 Y31.26577
G01 X33.46389 Y31.30357
G01 X33.43800 Y31.30766
G01 X33.26030 Y31.32633
G01 X33.23884 Y31.32744
G01 X33.06114 Y31.32744
G01 X33.03965 Y31.32633
G01 X32.86196 Y31.30766
G01 X32.83607 Y31.30357
G01 X32.65838 Y31.26577
G01 X32.62317 Y31.25630
G01 X32.54077 Y31.22953
G01 X32.46366 Y31.17350
G01 X32.43259 Y31.14550
G01 X32.34375 Y31.04685
G01 X32.26064 Y31.00987
G01 X32.19262 Y30.97507
G01 X32.10171 Y30.92259
G01 X32.07407 Y30.88655
G01 X32.02312 Y30.81236
G01 X31.93595 Y30.67009
G01 X31.92076 Y30.59854
G01 X31.90217 Y30.42183
G01 X31.90217 Y30.33819
G01 X31.92076 Y30.16148
G01 X31.93813 Y30.07967
G01 X31.97959 Y29.95211
G01 X32.01032 Y29.94408
G01 X31.97959 Y29.95211
G01 X29.37230 Y27.34480
G01 X29.37863 Y27.32948
G01 X29.37230 Y27.34480
G01 X26.95379 Y27.34480
G01 X26.95008 Y27.34892
G01 X26.94353 Y27.35481
G01 X26.78549 Y27.35481
G01 X26.75145 Y27.35478
G01 X26.75115 Y27.35478
G01 X26.67160 Y27.35478
G01 X26.67129 Y27.35478
G01 X26.63926 Y27.35481
G01 X26.57767 Y27.35478
G01 X24.82720 Y27.35478
G01 X24.82611 Y27.35481
G01 X24.76533 Y27.35481
G01 X24.73355 Y27.35478
G01 X24.73325 Y27.35478
G01 X24.65372 Y27.35478
G01 X24.65339 Y27.35478
G01 X24.61907 Y27.35481
G01 X24.60142 Y27.35481
G01 X24.57173 Y27.28834
G01 X24.56159 Y27.26190
G01 X24.53988 Y27.19525
G01 X24.53281 Y27.16896
G01 X24.51986 Y27.10817
G01 X24.51572 Y27.08201
G01 X24.51188 Y27.04574
G01 X24.50683 Y27.02189
G01 X24.50355 Y26.99070
G01 X24.50244 Y26.96980
G01 X24.50244 Y26.66980
G01 X24.50355 Y26.64889
G01 X24.50683 Y26.61770
G01 X24.51188 Y26.59382
G01 X24.51572 Y26.55760
G01 X24.51986 Y26.53144
G01 X24.53281 Y26.47066
G01 X24.53988 Y26.44437
G01 X24.56159 Y26.37772
G01 X24.57173 Y26.35128
G01 X24.60142 Y26.28481
G01 X24.61910 Y26.28481
G01 X24.61943 Y26.28481
G01 X24.65374 Y26.28481
G01 X24.73350 Y26.28481
G01 X24.76530 Y26.28481
G01 X24.76561 Y26.28481
G01 X24.82667 Y26.28481
G01 X24.82776 Y26.28481
G01 X26.55242 Y26.28481
G01 X26.57820 Y26.28481
G01 X26.63929 Y26.28481
G01 X26.63959 Y26.28481
G01 X26.67165 Y26.28481
G01 X26.75143 Y26.28481
G01 X26.78546 Y26.28481
G01 X26.78579 Y26.28481
G01 X26.88516 Y26.28481
G01 X26.92389 Y26.28481
G01 X26.94355 Y26.28481
G01 X26.95008 Y26.29068
G01 X26.95379 Y26.29479
G01 X29.58978 Y26.29479
G01 X29.62897 Y26.29672
G01 X29.65335 Y26.29913
G01 X29.73026 Y26.31442
G01 X29.75371 Y26.32154
G01 X29.82615 Y26.35153
G01 X29.84776 Y26.36309
G01 X29.91297 Y26.40665
G01 X29.93189 Y26.42220
G01 X29.96100 Y26.44856
G01 X31.77253 Y28.26012
G01 X31.84682 Y28.38135
G01 X31.84964 Y28.38569
G01 X31.90422 Y28.46568
G01 X31.90755 Y28.46982
G01 X32.01664 Y28.61201
G01 X32.01995 Y28.61607
G01 X32.07710 Y28.68300
G01 X32.07672 Y28.68333
G01 X32.07710 Y28.68300
G01 X32.08060 Y28.68691
G01 X32.20298 Y28.81587
G01 X32.20669 Y28.81958
G01 X32.26925 Y28.87894
G01 X32.27313 Y28.88242
G01 X32.40869 Y28.99819
G01 X32.41278 Y29.00149
G01 X32.41233 Y29.00205
G01 X32.41278 Y29.00149
G01 X32.48535 Y29.05714
G01 X32.48957 Y29.06019
G01 X32.63849 Y29.16255
G01 X32.64085 Y29.16413
G01 X32.68708 Y29.19400
G01 X32.70404 Y29.20279
G01 X32.71987 Y29.20746
G01 X32.72045 Y29.20804
G01 X32.71784 Y29.21663
G01 X32.72045 Y29.20804
G01 X32.72101 Y29.20781
G01 X32.72236 Y29.20820
G01 X32.74136 Y29.21002
G01 X32.78916 Y29.21002
G01 X32.97085 Y29.21002
G01 X33.23884 Y29.21002
G01 X33.31527 Y29.21002
G01 X33.40783 Y29.30733
G01 X33.41517 Y29.31432
G01 X33.41591 Y29.31495
G01 X33.46858 Y29.36509
G01 X33.47250 Y29.36862
G01 X33.49856 Y29.39092
G01 X33.65634 Y29.46118
G01 X33.69254 Y29.48208
G01 X33.83630 Y29.58653
G01 X33.86736 Y29.61452
G01 X33.98629 Y29.74657
G01 X34.01085 Y29.78041
G01 X34.09970 Y29.93428
G01 X34.11672 Y29.97248
G01 X34.17163 Y30.14149
G01 X34.18032 Y30.18239
G01 X34.19889 Y30.35910
G01 X34.19889 Y30.40093
G01 X34.18032 Y30.57764
G01 X34.17163 Y30.61853
G01 X34.11672 Y30.78754
G01 X34.09970 Y30.82574
G01 X34.07305 Y30.87184
G01 X34.06396 Y30.99724
G01 X34.03932 Y31.00987
G01 X33.95621 Y31.04685
G01 X33.86736 Y31.14550
G01 X33.83630 Y31.17350
G01 X33.75914 Y31.22955
G01 X33.83630 Y31.17350
G01 X33.86736 Y31.14550
G01 X33.98629 Y31.01345
G01 X34.01085 Y30.97967
G01 X34.07305 Y30.87184
G01 X34.09970 Y30.82574
G01 X34.11672 Y30.78754
G01 X34.17163 Y30.61853
G01 X34.18032 Y30.57764
G01 X34.19889 Y30.40093
G01 X34.19889 Y30.35910
G01 X34.18032 Y30.18239
G01 X34.17163 Y30.14149
G01 X34.11672 Y29.97248
G01 X34.09970 Y29.93428
G01 X34.01085 Y29.78041
G01 X33.98629 Y29.74657
G01 X33.86736 Y29.61452
G01 X33.83630 Y29.58653
G01 X33.69254 Y29.48208
G01 X33.65634 Y29.46118
G01 X33.49856 Y29.39092
G01 X33.49401 Y29.38892
G01 X33.45423 Y29.37599
G01 X33.28042 Y29.33903
G01 X33.23884 Y29.33466
G01 X33.06114 Y29.33466
G01 X33.01956 Y29.33903
G01 X32.84575 Y29.37599
G01 X32.80597 Y29.38892
G01 X32.67623 Y29.44668
G01 X29.81957 Y26.58999
G01 X29.80504 Y26.57681
G01 X29.78607 Y26.56126
G01 X29.75348 Y26.53947
G01 X29.73189 Y26.52794
G01 X29.69564 Y26.51293
G01 X29.67220 Y26.50581
G01 X29.63374 Y26.49817
G01 X29.60933 Y26.49576
G01 X29.58978 Y26.49479
G01 X26.85460 Y26.49479
G01 X26.84701 Y26.48163
G01 X26.82242 Y26.44780
G01 X26.80144 Y26.42448
G01 X26.77038 Y26.39652
G01 X26.74500 Y26.37808
G01 X26.70878 Y26.35717
G01 X26.68016 Y26.34442
G01 X26.64038 Y26.33149
G01 X26.60970 Y26.32499
G01 X26.56812 Y26.32062
G01 X26.56080 Y26.32062
G01 X26.55244 Y26.31978
G01 X24.85245 Y26.31978
G01 X24.84198 Y26.32006
G01 X24.82631 Y26.32088
G01 X24.79520 Y26.32499
G01 X24.76451 Y26.33149
G01 X24.72474 Y26.34442
G01 X24.69611 Y26.35717
G01 X24.65989 Y26.37808
G01 X24.63452 Y26.39652
G01 X24.60345 Y26.42448
G01 X24.58247 Y26.44780
G01 X24.55788 Y26.48163
G01 X24.54221 Y26.50879
G01 X24.52519 Y26.54699
G01 X24.51552 Y26.57681
G01 X24.51188 Y26.59382
G01 X24.50683 Y26.61770
G01 X24.50355 Y26.64889
G01 X24.50244 Y26.66980
G01 X24.50244 Y26.96980
G01 X24.50355 Y26.99070
G01 X24.50683 Y27.02189
G01 X24.51188 Y27.04574
G01 X24.51552 Y27.06278
G01 X24.52519 Y27.09260
G01 X24.54221 Y27.13081
G01 X24.55788 Y27.15796
G01 X24.58247 Y27.19179
G01 X24.60345 Y27.21508
G01 X24.63452 Y27.24307
G01 X24.65989 Y27.26149
G01 X24.69611 Y27.28239
G01 X24.72474 Y27.29517
G01 X24.76451 Y27.30807
G01 X24.79520 Y27.31460
G01 X24.83678 Y27.31897
G01 X24.84409 Y27.31897
G01 X24.85245 Y27.31978
G01 X26.55244 Y27.31978
G01 X26.56291 Y27.31953
G01 X26.57858 Y27.31869
G01 X26.60970 Y27.31460
G01 X26.64038 Y27.30807
G01 X26.68016 Y27.29517
G01 X26.70878 Y27.28239
G01 X26.74500 Y27.26149
G01 X26.77038 Y27.24307
G01 X26.80144 Y27.21508
G01 X26.82242 Y27.19179
G01 X26.84701 Y27.15796
G01 X26.85460 Y27.14480
G01 X29.45513 Y27.14480
G01 X32.21649 Y29.90616
G01 X32.20026 Y29.93428
G01 X32.18327 Y29.97248
G01 X32.12835 Y30.14149
G01 X32.11967 Y30.18239
G01 X32.10107 Y30.35910
G01 X32.10107 Y30.40093
G01 X32.11967 Y30.57764
G01 X32.12835 Y30.61853
G01 X32.18327 Y30.78754
G01 X32.20026 Y30.82574
G01 X32.28911 Y30.97967
G01 X32.31370 Y31.01345
G01 X32.34375 Y31.04685
G01 X32.43259 Y31.14550
G01 X32.46366 Y31.17350
G01 X32.54077 Y31.22953
G01 X32.26234 Y31.22953
G01 X31.93910 Y31.22953
G01 X29.83953 Y29.12999
G01 X29.82501 Y29.11681
G01 X29.80606 Y29.10126
G01 X29.77344 Y29.07947
G01 X29.75185 Y29.06794
G01 X29.71558 Y29.05293
G01 X29.69214 Y29.04581
G01 X29.65368 Y29.03817
G01 X29.62932 Y29.03576
G01 X29.60974 Y29.03479
G01 X26.85460 Y29.03479
G01 X26.84701 Y29.02163
G01 X26.82242 Y28.98780
G01 X26.80144 Y28.96448
G01 X26.77038 Y28.93652
G01 X26.74500 Y28.91808
G01 X26.70878 Y28.89717
G01 X26.68016 Y28.88442
G01 X26.64038 Y28.87149
G01 X26.60970 Y28.86499
G01 X26.56812 Y28.86062
G01 X26.56080 Y28.86062
G01 X26.55244 Y28.85978
G01 X24.85245 Y28.85978
G01 X24.84198 Y28.86006
G01 X24.82631 Y28.86088
G01 X24.79520 Y28.86499
G01 X24.76451 Y28.87149
G01 X24.72474 Y28.88442
G01 X24.69611 Y28.89717
G01 X24.65989 Y28.91808
G01 X24.63452 Y28.93652
G01 X24.60345 Y28.96448
G01 X24.58247 Y28.98780
G01 X24.55788 Y29.02163
G01 X24.55029 Y29.03479
G01 X24.49436 Y29.03479
G01 X24.31247 Y28.85290
G01 X24.31247 Y28.33172
G01 X24.31247 Y27.84790
G01 X24.31247 Y27.06172
G01 X24.31247 Y26.57790
G01 X24.31247 Y25.79172
G01 X24.31247 Y25.30790
G01 X24.31247 Y24.52172
G01 X24.31247 Y24.03790
G01 X24.31247 Y23.25172
G01 X24.31247 Y22.76790
G01 X24.31247 Y21.98172
G01 X24.31247 Y21.49790
G01 X24.31247 Y20.71172
G01 X24.31247 Y20.22790
G01 X24.31247 Y19.79767
G01 X24.31247 Y20.22790
G01 X24.31709 Y20.18403
G01 X24.31778 Y20.17888
G01 X24.32276 Y20.14751
G01 X24.32372 Y20.14233
G01 X24.33777 Y20.07644
G01 X24.33896 Y20.07141
G01 X24.34737 Y20.04007
G01 X24.34887 Y20.03496
G01 X24.37221 Y19.96333
G01 X24.37325 Y19.95990
G01 X24.34082 Y19.88891
G01 X24.33601 Y19.87613
G01 X24.31247 Y19.79767
G01 X24.31247 Y18.74030
G01 X24.31247 Y18.65003
G01 X24.39111 Y18.65003
G01 X24.38671 Y18.65201
G01 X24.38270 Y18.65394
G01 X24.36787 Y18.66153
G01 X24.35047 Y18.67283
G01 X24.33579 Y18.68746
G01 X24.32443 Y18.70481
G01 X24.31689 Y18.72414
G01 X24.31247 Y18.74030
G01 X24.31689 Y18.72414
G01 X24.32443 Y18.70481
G01 X24.33579 Y18.68746
G01 X24.33119 Y18.68396
G01 X24.33579 Y18.68746
G01 X24.35047 Y18.67283
G01 X24.36787 Y18.66153
G01 X24.36545 Y18.65648
G01 X24.36787 Y18.66153
G01 X24.38270 Y18.65394
G01 X24.38671 Y18.65201
G01 X24.39111 Y18.65003
G01 X24.40000 Y18.65003
G01 X24.41046 Y18.64975
G01 X24.43660 Y18.64837
G01 X24.46771 Y18.64431
G01 X24.51882 Y18.63341
G01 X24.55859 Y18.62049
G01 X24.60635 Y18.59923
G01 X24.64254 Y18.57832
G01 X24.68483 Y18.54764
G01 X24.71590 Y18.51962
G01 X24.75087 Y18.48079
G01 X24.77543 Y18.44695
G01 X24.80157 Y18.40169
G01 X24.81859 Y18.36349
G01 X24.83474 Y18.31381
G01 X24.84343 Y18.27289
G01 X24.84889 Y18.22092
G01 X24.84998 Y18.20001
G01 X24.84998 Y16.90002
G01 X24.84889 Y16.87911
G01 X24.84343 Y16.82712
G01 X24.83474 Y16.78622
G01 X24.81859 Y16.73652
G01 X24.80157 Y16.69834
G01 X24.77543 Y16.65308
G01 X24.75087 Y16.61924
G01 X24.71590 Y16.58041
G01 X24.68483 Y16.55242
G01 X24.64254 Y16.52171
G01 X24.60635 Y16.50080
G01 X24.57716 Y16.48780
G01 X24.55859 Y16.47954
G01 X24.51882 Y16.46662
G01 X24.46771 Y16.45574
G01 X24.42611 Y16.45138
G01 X24.41389 Y16.45138
G01 X24.40000 Y16.45000
G01 X24.31247 Y16.45000
G01 X24.31247 Y16.15001
G01 X24.40000 Y16.15001
G01 X24.41046 Y16.14975
G01 X24.43660 Y16.14838
G01 X24.46771 Y16.14426
G01 X24.51882 Y16.13342
G01 X24.55859 Y16.12049
G01 X24.57762 Y16.11201
G01 X24.57033 Y16.12029
G01 X24.56754 Y16.12359
G01 X24.53058 Y16.16913
G01 X24.52804 Y16.17241
G01 X24.47749 Y16.24033
G01 X24.46782 Y16.25620
G01 X24.46126 Y16.27358
G01 X24.45804 Y16.29189
G01 X24.45827 Y16.31048
G01 X24.46190 Y16.32869
G01 X24.46886 Y16.34594
G01 X24.47889 Y16.36159
G01 X24.52933 Y16.42618
G01 X24.53030 Y16.42747
G01 X24.56578 Y16.47398
G01 X24.56842 Y16.47731
G01 X24.57716 Y16.48780
G01 X24.56842 Y16.47731
G01 X24.56578 Y16.47398
G01 X24.53030 Y16.42747
G01 X24.52933 Y16.42618
G01 X24.47889 Y16.36159
G01 X24.46886 Y16.34594
G01 X24.46406 Y16.34810
G01 X24.46886 Y16.34594
G01 X24.46190 Y16.32869
G01 X24.45827 Y16.31048
G01 X24.45804 Y16.29189
G01 X24.45001 Y16.29123
G01 X24.45804 Y16.29189
G01 X24.46126 Y16.27358
G01 X24.46782 Y16.25620
G01 X24.47749 Y16.24033
G01 X24.47549 Y16.23918
G01 X24.47749 Y16.24033
G01 X24.52804 Y16.17241
G01 X24.53058 Y16.16913
G01 X24.56754 Y16.12359
G01 X24.57033 Y16.12029
G01 X24.57762 Y16.11201
G01 X24.60635 Y16.09923
G01 X24.64254 Y16.07833
G01 X24.68483 Y16.04759
G01 X24.71590 Y16.01963
G01 X24.75087 Y15.98079
G01 X24.77543 Y15.94696
G01 X24.80157 Y15.90169
G01 X24.81859 Y15.86349
G01 X24.83474 Y15.81379
G01 X24.84343 Y15.77289
G01 X24.84889 Y15.72092
G01 X24.84998 Y15.70002
G01 X24.84998 Y14.40002
G01 X24.84889 Y14.37912
G01 X24.84343 Y14.32712
G01 X24.83474 Y14.28623
G01 X24.81859 Y14.23652
G01 X24.80157 Y14.19832
G01 X24.77543 Y14.15306
G01 X24.75087 Y14.11925
G01 X24.71590 Y14.08041
G01 X24.68483 Y14.05242
G01 X24.64254 Y14.02171
G01 X24.60635 Y14.00081
G01 X24.55859 Y13.97955
G01 X24.51882 Y13.96662
G01 X24.46771 Y13.95575
G01 X24.42611 Y13.95138
G01 X24.41389 Y13.95138
G01 X24.40000 Y13.95001
G01 X24.39334 Y13.95001
G01 X24.31247 Y13.95001
G01 X24.31247 Y13.87577
G01 X24.31247 Y13.85717
G01 X24.31686 Y13.87419
G01 X24.31247 Y13.87577
G01 X24.31686 Y13.87419
G01 X24.32453 Y13.89441
G01 X24.33634 Y13.91254
G01 X24.35181 Y13.92768
G01 X24.37015 Y13.93914
G01 X24.38499 Y13.94633
G01 X24.38902 Y13.94816
G01 X24.39334 Y13.95001
G01 X24.38902 Y13.94816
G01 X24.38499 Y13.94633
G01 X24.37015 Y13.93914
G01 X24.36398 Y13.94930
G01 X24.37015 Y13.93914
G01 X24.35181 Y13.92768
G01 X24.33634 Y13.91254
G01 X24.32453 Y13.89441
G01 X24.31686 Y13.87419
G01 X24.31247 Y13.85717
G01 X24.31247 Y13.08623
G01 X24.31247 Y12.92504
G01 X24.48730 Y12.92504
G01 X24.40873 Y12.94864
G01 X24.39596 Y12.95344
G01 X24.39205 Y12.95522
G01 X24.37511 Y12.96507
G01 X24.36040 Y12.97805
G01 X24.34851 Y12.99365
G01 X24.33990 Y13.01125
G01 X24.31488 Y13.07831
G01 X24.31247 Y13.08623
G01 X24.31488 Y13.07831
G01 X24.33990 Y13.01125
G01 X24.34851 Y12.99365
G01 X24.34374 Y12.99030
G01 X24.34851 Y12.99365
G01 X24.36040 Y12.97805
G01 X24.37511 Y12.96507
G01 X24.39205 Y12.95522
G01 X24.38989 Y12.95138
G01 X24.39205 Y12.95522
G01 X24.39596 Y12.95344
G01 X24.40873 Y12.94864
G01 X24.48730 Y12.92504
G01 X31.93877 Y12.92504
G01 X32.09998 Y12.92504
G01 X32.09998 Y13.09990
G01 X32.07639 Y13.02128
G01 X32.07156 Y13.00851
G01 X32.06981 Y13.00465
G01 X32.05995 Y12.98768
G01 X32.04700 Y12.97300
G01 X32.03140 Y12.96111
G01 X32.01380 Y12.95248
G01 X31.94667 Y12.92746
G01 X31.93877 Y12.92504
G01 X31.94667 Y12.92746
G01 X32.01380 Y12.95248
G01 X32.03140 Y12.96111
G01 X32.03625 Y12.95471
G01 X32.03140 Y12.96111
G01 X32.04700 Y12.97300
G01 X32.05995 Y12.98768
G01 X32.06981 Y13.00465
G01 X32.07156 Y13.00851
G01 X32.07639 Y13.02128
G01 X32.07915 Y13.01989
G01 X32.07639 Y13.02128
G01 X32.09998 Y13.09990
G01 X32.09998 Y13.45001
G01 X32.10384 Y13.48902
G01 X32.11522 Y13.52654
G01 X32.13369 Y13.56114
G01 X32.15855 Y13.59144
G01 X32.18888 Y13.61630
G01 X32.22345 Y13.63480
G01 X32.26097 Y13.64617
G01 X32.29998 Y13.65001
G01 X32.42343 Y13.65001
G01 X33.85840 Y13.65001
G01 X33.87186 Y13.65001
G01 X33.85840 Y13.65001
G01 X32.42343 Y13.65001
G01 X32.53856 Y13.69840
G01 X32.54867 Y13.70332
G01 X32.54893 Y13.70282
G01 X32.54867 Y13.70332
G01 X32.61964 Y13.74305
G01 X32.62622 Y13.74706
G01 X32.71611 Y13.80693
G01 X32.77895 Y13.79695
G01 X32.78418 Y13.79624
G01 X32.96188 Y13.77757
G01 X32.96709 Y13.77716
G01 X33.05589 Y13.77249
G01 X33.06114 Y13.77234
G01 X33.06112 Y13.77201
G01 X33.06114 Y13.77234
G01 X33.23884 Y13.77234
G01 X33.24407 Y13.77249
G01 X33.33287 Y13.77716
G01 X33.33808 Y13.77757
G01 X33.51578 Y13.79624
G01 X33.52101 Y13.79695
G01 X33.58255 Y13.80670
G01 X33.63976 Y13.76693
G01 X33.65108 Y13.76012
G01 X33.84555 Y13.66002
G01 X33.85964 Y13.65410
G01 X33.85840 Y13.65001
G01 X33.85964 Y13.65410
G01 X33.87186 Y13.65001
G01 X33.99998 Y13.65001
G01 X34.03902 Y13.64617
G01 X34.07653 Y13.63480
G01 X34.11110 Y13.61630
G01 X34.14141 Y13.59144
G01 X34.16627 Y13.56114
G01 X34.18476 Y13.52654
G01 X34.19614 Y13.48902
G01 X34.19998 Y13.45001
G01 X34.19998 Y11.75001
G01 X34.19614 Y11.71100
G01 X34.18476 Y11.67348
G01 X34.16627 Y11.63889
G01 X34.14141 Y11.60859
G01 X34.11110 Y11.58372
G01 X34.07653 Y11.56523
G01 X34.03902 Y11.55385
G01 X33.99998 Y11.55001
G01 X32.29998 Y11.55001
G01 X32.26097 Y11.55385
G01 X32.22345 Y11.56523
G01 X32.18888 Y11.58372
G01 X32.15855 Y11.60859
G01 X32.13369 Y11.63889
G01 X32.11522 Y11.67348
G01 X32.10384 Y11.71100
G01 X32.09998 Y11.75001
G01 X32.09998 Y12.11377
G01 X32.09998 Y12.27503
G01 X31.92515 Y12.27503
G01 X32.00374 Y12.25144
G01 X32.01652 Y12.24663
G01 X32.02038 Y12.24486
G01 X32.03732 Y12.23503
G01 X32.05203 Y12.22205
G01 X32.06391 Y12.20645
G01 X32.07252 Y12.18885
G01 X32.09757 Y12.12172
G01 X32.09998 Y12.11377
G01 X32.09757 Y12.12172
G01 X32.07252 Y12.18885
G01 X32.07453 Y12.18994
G01 X32.07252 Y12.18885
G01 X32.06391 Y12.20645
G01 X32.05203 Y12.22205
G01 X32.03732 Y12.23503
G01 X32.04240 Y12.24196
G01 X32.03732 Y12.23503
G01 X32.02038 Y12.24486
G01 X32.01652 Y12.24663
G01 X32.00374 Y12.25144
G01 X31.92515 Y12.27503
G01 X25.22634 Y12.27503
G01 X24.37498 Y12.27503
G01 X24.37498 Y11.95001
G01 X24.67498 Y11.95001
G01 X24.68544 Y11.94973
G01 X24.71158 Y11.94836
G01 X24.74269 Y11.94427
G01 X24.79382 Y11.93340
G01 X24.83360 Y11.92050
G01 X24.88133 Y11.89924
G01 X24.91755 Y11.87833
G01 X24.95984 Y11.84760
G01 X24.98590 Y11.82411
G01 X24.99090 Y11.81964
G01 X25.02588 Y11.78077
G01 X25.05044 Y11.74697
G01 X25.07658 Y11.70170
G01 X25.09360 Y11.66350
G01 X25.10972 Y11.61379
G01 X25.11844 Y11.57290
G01 X25.12390 Y11.52091
G01 X25.12499 Y11.50000
G01 X25.12499 Y11.32906
G01 X25.12499 Y10.70000
G01 X25.12390 Y10.67910
G01 X25.11844 Y10.62713
G01 X25.10972 Y10.58624
G01 X25.09360 Y10.53653
G01 X25.07803 Y10.50155
G01 X25.09360 Y10.53653
G01 X25.10972 Y10.58624
G01 X25.11844 Y10.62713
G01 X25.12390 Y10.67910
G01 X25.12499 Y10.70000
G01 X25.12499 Y11.32906
G01 X25.12499 Y11.50000
G01 X25.12390 Y11.52091
G01 X25.11844 Y11.57290
G01 X25.10972 Y11.61379
G01 X25.09360 Y11.66350
G01 X25.07658 Y11.70170
G01 X25.05044 Y11.74697
G01 X25.02588 Y11.78077
G01 X24.99090 Y11.81964
G01 X24.98590 Y11.82411
G01 X24.98534 Y11.82558
G01 X24.97462 Y11.85398
G01 X24.97381 Y11.85619
G01 X24.94838 Y11.92865
G01 X24.94721 Y11.93221
G01 X24.92794 Y11.99454
G01 X24.92695 Y11.99792
G01 X24.91554 Y12.03995
G01 X24.91237 Y12.05834
G01 X24.91265 Y12.07699
G01 X24.91640 Y12.09528
G01 X24.92347 Y12.11255
G01 X24.93363 Y12.12819
G01 X24.94653 Y12.14168
G01 X24.96169 Y12.15253
G01 X24.97747 Y12.16172
G01 X24.97833 Y12.16223
G01 X25.04932 Y12.20269
G01 X25.06144 Y12.20853
G01 X25.22634 Y12.27503
G01 X25.06144 Y12.20853
G01 X25.04932 Y12.20269
G01 X24.97833 Y12.16223
G01 X24.97747 Y12.16172
G01 X24.96169 Y12.15253
G01 X24.95961 Y12.15542
G01 X24.96169 Y12.15253
G01 X24.94653 Y12.14168
G01 X24.93363 Y12.12819
G01 X24.92347 Y12.11255
G01 X24.91628 Y12.11631
G01 X24.92347 Y12.11255
G01 X24.91640 Y12.09528
G01 X24.91265 Y12.07699
G01 X24.91237 Y12.05834
G01 X24.90579 Y12.05801
G01 X24.91237 Y12.05834
G01 X24.91554 Y12.03995
G01 X24.92695 Y11.99792
G01 X24.92794 Y11.99454
G01 X24.94721 Y11.93221
G01 X24.94838 Y11.92865
G01 X24.97381 Y11.85619
G01 X24.97462 Y11.85398
G01 X24.98534 Y11.82558
G01 X24.98590 Y11.82411
G01 X24.99090 Y11.81964
G01 X25.02588 Y11.78077
G01 X25.05044 Y11.74697
G01 X25.07658 Y11.70170
G01 X25.09360 Y11.66350
G01 X25.10972 Y11.61379
G01 X25.11844 Y11.57290
G01 X25.12390 Y11.52091
G01 X25.12499 Y11.50000
G01 X25.12499 Y11.32906
G01 X25.13779 Y11.28560
G01 X25.13350 Y11.28430
G01 X25.13779 Y11.28560
G01 X25.14186 Y11.27435
G01 X25.17241 Y11.20333
G01 X25.17907 Y11.19053
G01 X25.29169 Y11.00717
G01 X25.29161 Y11.00597
G01 X25.28887 Y10.95370
G01 X25.28877 Y10.95108
G01 X25.28750 Y10.90264
G01 X25.28747 Y10.90000
G01 X25.28747 Y10.70132
G01 X25.28628 Y10.65548
G01 X25.28585 Y10.64740
G01 X25.26004 Y10.62873
G01 X25.23337 Y10.61011
G01 X25.18732 Y10.57907
G01 X25.18686 Y10.57874
G01 X25.17866 Y10.57318
G01 X25.17820 Y10.57285
G01 X25.11216 Y10.52726
G01 X25.10863 Y10.52472
G01 X25.07803 Y10.50155
G01 X25.07658 Y10.49833
G01 X25.05044 Y10.45306
G01 X25.02588 Y10.41923
G01 X24.99090 Y10.38040
G01 X24.95984 Y10.35243
G01 X24.91755 Y10.32170
G01 X24.88133 Y10.30079
G01 X24.83360 Y10.27953
G01 X24.79382 Y10.26663
G01 X24.74269 Y10.25576
G01 X24.70111 Y10.25139
G01 X24.68890 Y10.25139
G01 X24.67498 Y10.25002
G01 X23.42499 Y10.25002
G01 X23.41453 Y10.25030
G01 X23.38839 Y10.25167
G01 X23.35728 Y10.25576
G01 X23.30615 Y10.26663
G01 X23.26640 Y10.27953
G01 X23.21864 Y10.30079
G01 X23.18242 Y10.32170
G01 X23.14016 Y10.35243
G01 X23.10907 Y10.38040
G01 X23.07409 Y10.41923
G01 X23.04953 Y10.45306
G01 X23.02339 Y10.49833
G01 X23.00640 Y10.53653
G01 X22.99025 Y10.58624
G01 X22.98153 Y10.62713
G01 X22.97607 Y10.67910
G01 X22.97498 Y10.70000
G01 X22.97498 Y11.06172
G01 X22.97498 Y11.50000
G01 X22.97607 Y11.52091
G01 X22.98153 Y11.57290
G01 X22.99025 Y11.61379
G01 X23.00640 Y11.66350
G01 X23.02339 Y11.70170
G01 X23.04953 Y11.74697
G01 X23.07409 Y11.78077
G01 X23.10907 Y11.81964
G01 X23.14016 Y11.84760
G01 X23.18242 Y11.87833
G01 X23.21864 Y11.89924
G01 X23.26640 Y11.92050
G01 X23.30615 Y11.93340
G01 X23.35728 Y11.94427
G01 X23.39886 Y11.94864
G01 X23.41107 Y11.94864
G01 X23.42499 Y11.95001
G01 X23.72497 Y11.95001
G01 X23.72497 Y12.27503
G01 X22.62499 Y12.27503
G01 X22.62499 Y11.60000
G01 X22.62390 Y11.57910
G01 X22.61842 Y11.52713
G01 X22.60973 Y11.48623
G01 X22.59357 Y11.43653
G01 X22.57658 Y11.39833
G01 X22.55045 Y11.35306
G01 X22.52586 Y11.31923
G01 X22.50648 Y11.29772
G01 X22.49091 Y11.28039
G01 X22.45982 Y11.25243
G01 X22.41755 Y11.22169
G01 X22.38133 Y11.20079
G01 X22.33358 Y11.17953
G01 X22.29383 Y11.16663
G01 X22.24270 Y11.15576
G01 X22.20112 Y11.15139
G01 X22.18890 Y11.15139
G01 X22.17498 Y11.15002
G01 X21.37498 Y11.15002
G01 X21.36452 Y11.15029
G01 X21.33838 Y11.15167
G01 X21.30727 Y11.15576
G01 X21.25616 Y11.16663
G01 X21.21639 Y11.17953
G01 X21.16863 Y11.20079
G01 X21.13244 Y11.22169
G01 X21.09015 Y11.25243
G01 X21.05908 Y11.28039
G01 X21.02411 Y11.31923
G01 X20.99952 Y11.35306
G01 X20.97338 Y11.39833
G01 X20.95639 Y11.43653
G01 X20.94024 Y11.48623
G01 X20.93155 Y11.52713
G01 X20.92609 Y11.57910
G01 X20.92500 Y11.60000
G01 X20.92500 Y14.50002
G01 X20.92609 Y14.52093
G01 X20.93155 Y14.57289
G01 X20.94024 Y14.61379
G01 X20.95639 Y14.66350
G01 X20.97338 Y14.70170
G01 X20.99952 Y14.74696
G01 X21.02411 Y14.78079
G01 X21.05908 Y14.81963
G01 X21.09015 Y14.84759
G01 X21.13244 Y14.87833
G01 X21.16863 Y14.89923
G01 X21.21639 Y14.92049
G01 X21.25616 Y14.93340
G01 X21.30727 Y14.94427
G01 X21.34885 Y14.94864
G01 X21.36109 Y14.94864
G01 X21.37498 Y14.95001
G01 X22.17498 Y14.95001
G01 X22.18545 Y14.94973
G01 X22.21158 Y14.94836
G01 X22.24270 Y14.94427
G01 X22.29383 Y14.93340
G01 X22.33358 Y14.92049
G01 X22.38133 Y14.89923
G01 X22.41755 Y14.87833
G01 X22.45982 Y14.84759
G01 X22.49091 Y14.81963
G01 X22.52586 Y14.78079
G01 X22.55045 Y14.74696
G01 X22.56122 Y14.72827
G04 P0 ( dwell for no time -- G64 should not smooth over this point )
G00 Z1.00000 ( retract )

G00 X21.75230 Y15.86199 ( rapid move to begin. )
G01 F300.00000
( Mill infeed pass 1/1 )
G01 Z-0.05000
G04 P0 ( dwell for no time -- G64 should not smooth over this point )
G01 F600.00000
G01 X21.75230 Y15.86199
G01 X21.71570 Y15.86994
G01 X21.70572 Y15.87883
G01 X21.70148 Y15.88282
G01 X21.64179 Y15.94251
G01 X21.63805 Y15.94647
G01 X21.60689 Y15.98122
G01 X21.57699 Y16.01315
G01 X21.56548 Y16.02801
G01 X21.55698 Y16.04475
G01 X21.54361 Y16.03957
G01 X21.55698 Y16.04475
G01 X21.55174 Y16.06281
G01 X21.54997 Y16.08150
G01 X21.54997 Y19.48693
G01 X21.53376 Y19.53052
G01 X21.53282 Y19.53163
G01 X21.48088 Y19.57428
G01 X21.38507 Y19.59788
G01 X21.24588 Y19.60931
G01 X20.85213 Y19.60931
G01 X20.80399 Y19.60725
G01 X20.65817 Y19.50816
G01 X20.54999 Y19.38556
G01 X20.54999 Y16.08153
G01 X20.54811 Y16.06225
G01 X20.54255 Y16.04373
G01 X20.55586 Y16.03858
G01 X20.54255 Y16.04373
G01 X20.53353 Y16.02659
G01 X20.52139 Y16.01152
G01 X20.49010 Y15.97957
G01 X20.40953 Y15.89369
G01 X20.40521 Y15.88938
G01 X20.38842 Y15.87355
G01 X20.37138 Y15.86898
G01 X20.30486 Y15.84414
G01 X20.25484 Y15.81681
G01 X20.19965 Y15.77541
G01 X20.11367 Y15.74317
G01 X20.08728 Y15.74033
G01 X19.61268 Y15.74033
G01 X19.58629 Y15.74317
G01 X19.50029 Y15.77543
G01 X19.42957 Y15.82842
G01 X19.37659 Y15.89913
G01 X19.34433 Y15.98513
G01 X19.34149 Y16.01150
G01 X19.34149 Y19.28612
G01 X19.34433 Y19.31251
G01 X19.38108 Y19.41050
G01 X19.38190 Y19.41187
G01 X19.39549 Y19.44911
G01 X19.41024 Y19.50682
G01 X19.41649 Y19.55635
G01 X19.41649 Y19.58152
G01 X19.41626 Y19.59094
G01 X19.41570 Y19.60280
G01 X19.41502 Y19.61230
G01 X19.41316 Y19.63196
G01 X19.41431 Y19.64172
G01 X19.41586 Y19.66143
G01 X19.41624 Y19.67126
G01 X19.42117 Y19.69033
G01 X19.42338 Y19.69991
G01 X19.42576 Y19.71152
G01 X19.42739 Y19.72046
G01 X19.43051 Y19.74014
G01 X19.43399 Y19.74913
G01 X19.44042 Y19.76785
G01 X19.44311 Y19.77713
G01 X19.44875 Y19.78739
G01 X19.46620 Y19.83029
G01 X19.48172 Y19.88632
G01 X19.48802 Y19.92028
G01 X19.48840 Y19.95482
G01 X19.48281 Y19.98894
G01 X19.46534 Y20.05774
G01 X19.44362 Y20.11035
G01 X19.42828 Y20.13628
G01 X19.39465 Y20.25208
G01 X19.39394 Y20.26127
G01 X19.39394 Y20.67847
G01 X19.39457 Y20.68675
G01 X19.39462 Y20.68749
G01 X19.42828 Y20.80334
G01 X19.49477 Y20.91576
G01 X19.50016 Y20.92244
G01 X19.51032 Y20.93826
G01 X19.52746 Y20.97143
G01 X19.53816 Y21.00720
G01 X19.54832 Y21.05802
G01 X19.55205 Y21.07682
G01 X19.55591 Y21.11464
G01 X19.55309 Y21.14641
G01 X19.55591 Y21.11464
G01 X19.55205 Y21.07682
G01 X19.54832 Y21.05802
G01 X19.57204 Y21.09008
G01 X19.57433 Y21.09307
G01 X19.58510 Y21.10654
G01 X19.57509 Y21.11946
G01 X19.55309 Y21.14641
G01 X19.55256 Y21.15248
G01 X19.54209 Y21.18903
G01 X19.51682 Y21.25340
G01 X19.49823 Y21.28949
G01 X19.49503 Y21.29345
G01 X19.42828 Y21.40628
G01 X19.39465 Y21.52210
G01 X19.39444 Y21.52449
G01 X19.39394 Y21.53125
G01 X19.39394 Y21.94842
G01 X19.39465 Y21.95751
G01 X19.42828 Y22.07336
G01 X19.44959 Y22.10935
G01 X19.46607 Y22.14468
G01 X19.48235 Y22.19089
G01 X19.49277 Y22.23780
G01 X19.49185 Y22.27877
G01 X19.49422 Y22.28301
G01 X19.50923 Y22.31166
G01 X19.52706 Y22.34794
G01 X19.52815 Y22.35012
G01 X19.53554 Y22.36429
G01 X19.50714 Y22.39917
G01 X19.48774 Y22.42182
G01 X19.44710 Y22.46709
G01 X19.44684 Y22.46739
G01 X19.44339 Y22.47128
G01 X19.44311 Y22.47158
G01 X19.42233 Y22.49508
G01 X19.42056 Y22.49716
G01 X19.41245 Y22.50686
G01 X19.38576 Y22.51466
G01 X19.36071 Y22.53851
G01 X19.38822 Y22.51230
G01 X19.43473 Y22.45865
G01 X19.45680 Y22.42769
G01 X19.47260 Y22.39310
G01 X19.48157 Y22.35614
G01 X19.49168 Y22.28586
G01 X19.49277 Y22.23780
G01 X19.49168 Y22.28586
G01 X19.48157 Y22.35614
G01 X19.47260 Y22.39310
G01 X19.45680 Y22.42769
G01 X19.43473 Y22.45865
G01 X19.38822 Y22.51230
G01 X19.36071 Y22.53851
G01 X19.32876 Y22.55906
G01 X19.29348 Y22.57318
G01 X19.22536 Y22.59320
G01 X19.16899 Y22.60133
G01 X16.41383 Y22.60133
G01 X16.37362 Y22.59724
G01 X16.32409 Y22.58708
G01 X16.27804 Y22.57161
G01 X16.23707 Y22.54547
G01 X16.20766 Y22.52121
G01 X16.18228 Y22.50031
G01 X16.15539 Y22.47346
G01 X16.14871 Y22.46361
G01 X16.15539 Y22.47346
G01 X16.18228 Y22.50031
G01 X16.20766 Y22.52121
G01 X16.20629 Y22.52093
G01 X16.15640 Y22.50300
G01 X16.15122 Y22.47933
G01 X16.14871 Y22.46361
G01 X16.13402 Y22.44197
G01 X16.11904 Y22.40702
G01 X16.09737 Y22.33940
G01 X16.08790 Y22.28319
G01 X16.08724 Y22.25576
G01 X16.08683 Y22.23894
G01 X16.06120 Y22.04435
G01 X16.00581 Y21.86203
G01 X15.93049 Y21.70966
G01 X15.92140 Y21.69127
G01 X15.82613 Y21.55871
G01 X15.81025 Y21.53661
G01 X15.80118 Y21.52759
G01 X15.71729 Y21.44397
G01 X15.69857 Y21.42241
G01 X15.67703 Y21.39373
G01 X15.65513 Y21.35700
G01 X15.64157 Y21.31647
G01 X15.63372 Y21.28073
G01 X15.62635 Y21.24710
G01 X15.62178 Y21.20935
G01 X15.62442 Y21.17143
G01 X15.63420 Y21.13470
G01 X15.65889 Y21.06816
G01 X15.67545 Y21.03392
G01 X15.69819 Y21.00344
G01 X15.71482 Y20.98825
G01 X15.69819 Y21.00344
G01 X15.67545 Y21.03392
G01 X15.65889 Y21.06816
G01 X15.63420 Y21.13470
G01 X15.62442 Y21.17143
G01 X15.62178 Y21.20935
G01 X15.62635 Y21.24710
G01 X15.63372 Y21.28073
G01 X15.63103 Y21.27743
G01 X15.61386 Y21.25116
G01 X15.61221 Y21.24872
G01 X15.58940 Y21.21601
G01 X15.58772 Y21.21367
G01 X15.57093 Y21.19102
G01 X15.51409 Y21.09175
G01 X15.52404 Y21.08484
G01 X15.70588 Y20.99124
G01 X15.71482 Y20.98825
G01 X15.72628 Y20.97781
G01 X15.78305 Y20.93516
G01 X15.83293 Y20.90781
G01 X15.90146 Y20.88210
G01 X15.92468 Y20.87341
G01 X15.99537 Y20.82043
G01 X16.04835 Y20.74972
G01 X16.08061 Y20.66371
G01 X16.08345 Y20.63732
G01 X16.08345 Y20.50956
G01 X16.08528 Y20.48266
G01 X16.08985 Y20.44901
G01 X16.09986 Y20.40816
G01 X16.11820 Y20.37032
G01 X16.15569 Y20.31002
G01 X16.16572 Y20.29683
G01 X16.17870 Y20.27979
G01 X16.19176 Y20.26813
G01 X16.17870 Y20.27979
G01 X16.16572 Y20.29683
G01 X16.16814 Y20.28840
G01 X16.17299 Y20.27428
G01 X16.19176 Y20.26813
G01 X16.20705 Y20.25449
G01 X16.23966 Y20.23499
G01 X16.30377 Y20.20451
G01 X16.35386 Y20.18835
G01 X16.35414 Y20.18830
G01 X16.37433 Y20.18568
G01 X16.39417 Y20.18413
G01 X16.40382 Y20.18378
G01 X16.42310 Y20.17883
G01 X16.43220 Y20.17672
G01 X16.44383 Y20.17430
G01 X16.45310 Y20.17260
G01 X16.47284 Y20.16948
G01 X16.48193 Y20.16595
G01 X16.50062 Y20.15955
G01 X16.51002 Y20.15673
G01 X16.52752 Y20.14713
G01 X16.53555 Y20.14294
G01 X16.54619 Y20.13770
G01 X16.55505 Y20.13361
G01 X16.57271 Y20.12599
G01 X16.58122 Y20.12005
G01 X16.59773 Y20.10920
G01 X16.60613 Y20.10415
G01 X16.62061 Y20.09056
G01 X16.62770 Y20.08421
G01 X16.63557 Y20.07751
G01 X16.64807 Y20.06501
G01 X16.65066 Y20.06244
G01 X16.65351 Y20.05970
G01 X16.65541 Y20.05790
G01 X16.69341 Y20.02221
G01 X16.69823 Y20.01589
G01 X16.70578 Y20.00760
G01 X16.71220 Y20.00087
G01 X17.60618 Y19.10690
G01 X17.61296 Y19.10042
G01 X17.62175 Y19.09242
G01 X17.62892 Y19.08619
G01 X17.64423 Y19.07352
G01 X17.65020 Y19.06595
G01 X17.66303 Y19.05091
G01 X17.66976 Y19.04365
G01 X17.67992 Y19.02645
G01 X17.68472 Y19.01876
G01 X17.69122 Y19.00883
G01 X17.69678 Y19.00077
G01 X17.70844 Y18.98472
G01 X17.71236 Y18.97591
G01 X17.72104 Y18.95815
G01 X17.72572 Y18.94947
G01 X17.73130 Y18.93029
G01 X17.73407 Y18.92150
G01 X17.73791 Y18.91027
G01 X17.74123 Y18.90128
G01 X17.74855 Y18.88282
G01 X17.75010 Y18.87337
G01 X17.75409 Y18.85401
G01 X17.75650 Y18.84428
G01 X17.75708 Y18.82559
G01 X17.75721 Y18.82277
G01 X17.75726 Y18.82165
G01 X17.75764 Y18.81535
G01 X17.75846 Y18.80458
G01 X17.75846 Y18.78696
G01 X17.75851 Y18.78312
G01 X17.75858 Y18.77916
G01 X17.75863 Y18.77675
G01 X17.76028 Y18.72473
G01 X17.75922 Y18.71698
G01 X17.75868 Y18.70580
G01 X17.75846 Y18.69625
G01 X17.75846 Y15.31269
G01 X17.75876 Y15.30187
G01 X17.75950 Y15.28828
G01 X17.76420 Y15.25471
G01 X17.77451 Y15.22240
G01 X17.80174 Y15.15684
G01 X17.81959 Y15.12329
G01 X17.84347 Y15.09370
G01 X17.87250 Y15.06918
G01 X17.90174 Y15.04892
G01 X17.91576 Y15.03634
G01 X17.94944 Y15.01635
G01 X17.95607 Y15.01325
G01 X17.95802 Y15.01249
G01 X18.00593 Y14.98298
G01 X18.07347 Y14.94132
G01 X18.16564 Y14.84930
G01 X18.23420 Y14.73855
G01 X18.27583 Y14.61371
G01 X18.28347 Y14.54005
G01 X18.28347 Y11.55984
G01 X18.27606 Y11.48735
G01 X18.23460 Y11.36238
G01 X18.22477 Y11.34646
G01 X18.16625 Y11.25151
G01 X18.07425 Y11.15934
G01 X17.96349 Y11.09081
G01 X17.95647 Y11.08847
G01 X17.83867 Y11.04915
G01 X17.76486 Y11.04153
G01 X16.88477 Y11.04153
G01 X16.84017 Y11.04608
G01 X16.81231 Y11.04895
G01 X16.73199 Y11.07559
G01 X16.68734 Y11.09040
G01 X16.57642 Y11.15878
G01 X16.48429 Y11.25073
G01 X16.41576 Y11.36150
G01 X16.37411 Y11.48634
G01 X16.36659 Y11.55875
G01 X16.36649 Y11.55992
G01 X16.36649 Y14.54023
G01 X16.37390 Y14.61272
G01 X16.41535 Y14.73766
G01 X16.43352 Y14.76713
G01 X16.48368 Y14.84851
G01 X16.57571 Y14.94071
G01 X16.68983 Y15.01132
G01 X16.69145 Y15.01198
G01 X16.72158 Y15.02694
G01 X16.74878 Y15.04678
G01 X16.80245 Y15.09329
G01 X16.82869 Y15.12080
G01 X16.84924 Y15.15280
G01 X16.86339 Y15.18811
G01 X16.88338 Y15.25620
G01 X16.89145 Y15.31252
G01 X16.89145 Y18.46044
G01 X16.89033 Y18.48172
G01 X16.88746 Y18.50852
G01 X16.87946 Y18.54698
G01 X16.86410 Y18.58310
G01 X16.83006 Y18.64540
G01 X16.79597 Y18.69094
G01 X16.59404 Y18.89287
G01 X16.57261 Y18.91147
G01 X16.54408 Y18.93285
G01 X16.50743 Y18.95467
G01 X16.46697 Y18.96821
G01 X16.39763 Y18.98343
G01 X16.38564 Y18.98487
G01 X16.35986 Y18.98800
G01 X16.32191 Y18.98536
G01 X16.28515 Y18.97555
G01 X16.21858 Y18.95084
G01 X16.18437 Y18.93428
G01 X16.16504 Y18.91988
G01 X16.18437 Y18.93428
G01 X16.21858 Y18.95084
G01 X16.28515 Y18.97555
G01 X16.32191 Y18.98536
G01 X16.35986 Y18.98800
G01 X16.38564 Y18.98487
G01 X16.37766 Y18.98924
G01 X16.22861 Y19.04340
G01 X16.16504 Y18.91988
G01 X16.15389 Y18.91154
G01 X16.12828 Y18.88345
G01 X16.08566 Y18.82671
G01 X16.05828 Y18.77680
G01 X16.04838 Y18.75038
G01 X15.99537 Y18.67962
G01 X15.92465 Y18.62663
G01 X15.83865 Y18.59440
G01 X15.81228 Y18.59153
G01 X14.03769 Y18.59153
G01 X14.01127 Y18.59440
G01 X13.92529 Y18.62663
G01 X13.85458 Y18.67962
G01 X13.80159 Y18.75033
G01 X13.76934 Y18.83633
G01 X13.76649 Y18.86273
G01 X13.76649 Y20.63732
G01 X13.76934 Y20.66371
G01 X13.80159 Y20.74972
G01 X13.85458 Y20.82043
G01 X13.92532 Y20.87344
G01 X13.97348 Y20.89150
G01 X14.01391 Y20.90666
G01 X14.04764 Y20.92307
G01 X14.08793 Y20.94758
G01 X14.12516 Y20.97677
G01 X14.13644 Y20.99107
G01 X14.23029 Y21.03049
G01 X14.29301 Y21.06559
G01 X14.33548 Y21.09389
G01 X14.31251 Y21.13460
G01 X14.27787 Y21.18672
G01 X14.27726 Y21.18764
G01 X14.26761 Y21.20252
G01 X14.26700 Y21.20346
G01 X14.23832 Y21.24883
G01 X14.21698 Y21.27616
G01 X14.21513 Y21.29190
G01 X14.21955 Y21.25416
G01 X14.22105 Y21.18319
G01 X14.21823 Y21.14527
G01 X14.20830 Y21.10857
G01 X14.19158 Y21.07443
G01 X14.15448 Y21.01390
G01 X14.13644 Y20.99107
G01 X14.15448 Y21.01390
G01 X14.19158 Y21.07443
G01 X14.20830 Y21.10857
G01 X14.21823 Y21.14527
G01 X14.22105 Y21.18319
G01 X14.21955 Y21.25416
G01 X14.21513 Y21.29190
G01 X14.20365 Y21.32815
G01 X14.18554 Y21.36155
G01 X14.14592 Y21.42045
G01 X14.12209 Y21.44679
G01 X14.12240 Y21.44705
G01 X13.98691 Y21.60346
G01 X13.95564 Y21.65449
G01 X13.91206 Y21.72556
G01 X13.88737 Y21.76587
G01 X13.81569 Y21.94240
G01 X13.78069 Y22.09767
G01 X13.77381 Y22.12828
G01 X13.77241 Y22.15236
G01 X13.76283 Y22.31834
G01 X13.78308 Y22.50785
G01 X13.83398 Y22.69142
G01 X13.84333 Y22.71156
G01 X13.91427 Y22.86432
G01 X14.02156 Y23.02159
G01 X14.15315 Y23.15929
G01 X14.30911 Y23.27638
G01 X14.33824 Y23.29566
G01 X14.37871 Y23.32901
G01 X14.40235 Y23.35205
G01 X14.42189 Y23.37864
G01 X14.43680 Y23.40808
G01 X14.44543 Y23.42937
G01 X14.46352 Y23.47387
G01 X14.47439 Y23.51026
G01 X14.47820 Y23.54809
G01 X14.47479 Y23.58593
G01 X14.46174 Y23.65571
G01 X14.45239 Y23.68812
G01 X14.46174 Y23.65571
G01 X14.47479 Y23.58593
G01 X14.47820 Y23.54809
G01 X14.47439 Y23.51026
G01 X14.46352 Y23.47387
G01 X14.44543 Y23.42937
G01 X14.46311 Y23.44374
G01 X14.46624 Y23.44697
G01 X14.46974 Y23.45040
G01 X14.51899 Y23.49655
G01 X14.52250 Y23.49967
G01 X14.52341 Y23.50046
G01 X14.58150 Y23.56157
G01 X14.53225 Y23.61204
G01 X14.52194 Y23.62243
G01 X14.47203 Y23.67163
G01 X14.45239 Y23.68812
G01 X14.45122 Y23.69226
G01 X14.43395 Y23.72616
G01 X14.41058 Y23.75619
G01 X14.36184 Y23.80783
G01 X14.31731 Y23.84323
G01 X14.26133 Y23.87595
G01 X14.25826 Y23.87775
G01 X14.11163 Y23.99947
G01 X13.98691 Y24.14346
G01 X13.88734 Y24.30589
G01 X13.81569 Y24.48240
G01 X13.78069 Y24.63767
G01 X13.77381 Y24.66830
G01 X13.76283 Y24.85832
G01 X13.78308 Y25.04785
G01 X13.83398 Y25.23142
G01 X13.84333 Y25.25156
G01 X13.90543 Y25.38529
G01 X13.91422 Y25.40424
G01 X14.02156 Y25.56159
G01 X14.15323 Y25.69939
G01 X14.30825 Y25.81575
G01 X14.33880 Y25.83599
G01 X14.37924 Y25.86934
G01 X14.40286 Y25.89233
G01 X14.42237 Y25.91890
G01 X14.43725 Y25.94828
G01 X14.46400 Y26.01404
G01 X14.47492 Y26.05049
G01 X14.47873 Y26.08834
G01 X14.47533 Y26.12624
G01 X14.46225 Y26.19604
G01 X14.45173 Y26.23256
G01 X14.43449 Y26.26644
G01 X14.41114 Y26.29644
G01 X14.36243 Y26.34808
G01 X14.31782 Y26.38351
G01 X14.25846 Y26.41821
G01 X14.11198 Y26.53982
G01 X13.98727 Y26.68382
G01 X13.88778 Y26.84620
G01 X13.85940 Y26.91602
G01 X13.98003 Y26.91602
G01 X14.06413 Y26.77041
G01 X14.08869 Y26.73657
G01 X14.20759 Y26.60452
G01 X14.23868 Y26.57653
G01 X14.38244 Y26.47208
G01 X14.41864 Y26.45118
G01 X14.58097 Y26.37892
G01 X14.62074 Y26.36599
G01 X14.79456 Y26.32903
G01 X14.83614 Y26.32466
G01 X15.01383 Y26.32466
G01 X15.05541 Y26.32903
G01 X15.22923 Y26.36599
G01 X15.26900 Y26.37892
G01 X15.43133 Y26.45118
G01 X15.46755 Y26.47208
G01 X15.61132 Y26.57653
G01 X15.64238 Y26.60452
G01 X15.76128 Y26.73657
G01 X15.78587 Y26.77041
G01 X15.86994 Y26.91602
G01 X15.99237 Y26.91602
G01 X15.92099 Y26.77162
G01 X15.80987 Y26.61694
G01 X15.67500 Y26.48250
G01 X15.50913 Y26.36421
G01 X15.48587 Y26.34478
G01 X15.45851 Y26.31818
G01 X15.43070 Y26.28448
G01 X15.41086 Y26.24554
G01 X15.38574 Y26.17912
G01 X15.37573 Y26.14242
G01 X15.37284 Y26.10452
G01 X15.37718 Y26.06672
G01 X15.39196 Y25.99728
G01 X15.40027 Y25.97086
G01 X15.37843 Y25.98915
G01 X15.32846 Y26.03906
G01 X15.27004 Y26.09746
G01 X15.20687 Y26.16718
G01 X15.19135 Y26.18107
G01 X15.17330 Y26.19144
G01 X15.15348 Y26.19786
G01 X15.13278 Y26.20002
G01 X15.10411 Y26.20002
G01 X15.01383 Y26.20002
G01 X14.71846 Y26.20002
G01 X14.69834 Y26.19799
G01 X14.67904 Y26.19192
G01 X14.66136 Y26.18212
G01 X14.64602 Y26.16896
G01 X14.52354 Y26.04026
G01 X14.52305 Y26.03985
G01 X14.51952 Y26.03670
G01 X14.46987 Y25.99024
G01 X14.46634 Y25.98679
G01 X14.46357 Y25.98392
G01 X14.44594 Y25.96959
G01 X14.43725 Y25.94828
G01 X14.44594 Y25.96959
G01 X14.46357 Y25.98392
G01 X14.46634 Y25.98679
G01 X14.46987 Y25.99024
G01 X14.51952 Y26.03670
G01 X14.52305 Y26.03985
G01 X14.52354 Y26.04026
G01 X14.64602 Y26.16896
G01 X14.66136 Y26.18212
G01 X14.65839 Y26.18707
G01 X14.66136 Y26.18212
G01 X14.67904 Y26.19192
G01 X14.69834 Y26.19799
G01 X14.71846 Y26.20002
G01 X14.71810 Y26.20241
G01 X14.71846 Y26.20002
G01 X15.01383 Y26.20002
G01 X15.10411 Y26.20002
G01 X15.13278 Y26.20002
G01 X15.15348 Y26.19786
G01 X15.15529 Y26.20449
G01 X15.15348 Y26.19786
G01 X15.17330 Y26.19144
G01 X15.19135 Y26.18107
G01 X15.20687 Y26.16718
G01 X15.20802 Y26.16863
G01 X15.20687 Y26.16718
G01 X15.27004 Y26.09746
G01 X15.32846 Y26.03906
G01 X15.37843 Y25.98915
G01 X15.40027 Y25.97086
G01 X15.40337 Y25.96101
G01 X15.42145 Y25.92758
G01 X15.44551 Y25.89814
G01 X15.49547 Y25.84772
G01 X15.54081 Y25.81346
G01 X15.56829 Y25.79827
G01 X15.71774 Y25.68026
G01 X15.84599 Y25.53932
G01 X15.94949 Y25.37935
G01 X16.02541 Y25.20467
G01 X16.07187 Y25.01984
G01 X16.07451 Y24.98758
G01 X16.08030 Y24.95354
G01 X16.09125 Y24.91153
G01 X16.10781 Y24.86878
G01 X16.13367 Y24.83096
G01 X16.15793 Y24.80297
G01 X16.18018 Y24.77732
G01 X16.18142 Y24.77610
G01 X16.18018 Y24.77732
G01 X16.15793 Y24.80297
G01 X16.15912 Y24.79878
G01 X16.16468 Y24.78115
G01 X16.18142 Y24.77610
G01 X16.20768 Y24.75111
G01 X16.23964 Y24.73056
G01 X16.27492 Y24.71643
G01 X16.34304 Y24.69642
G01 X16.39943 Y24.68829
G01 X17.76097 Y24.68829
G01 X17.77116 Y24.68857
G01 X17.78408 Y24.68923
G01 X17.81749 Y24.69378
G01 X17.84967 Y24.70386
G01 X17.91538 Y24.73076
G01 X17.94901 Y24.74844
G01 X17.97872 Y24.77216
G01 X17.98406 Y24.77844
G01 X18.00339 Y24.80109
G01 X18.04413 Y24.85923
G01 X18.06290 Y24.89233
G01 X18.07507 Y24.92837
G01 X18.08017 Y24.96607
G01 X18.08299 Y25.03701
G01 X18.08088 Y25.07496
G01 X18.07616 Y25.09388
G01 X18.07164 Y25.11181
G01 X18.05559 Y25.14625
G01 X18.01962 Y25.20747
G01 X17.98408 Y25.25197
G01 X17.95688 Y25.27749
G01 X17.95213 Y25.28372
G01 X17.94459 Y25.29202
G01 X17.93796 Y25.29898
G01 X17.26877 Y25.96815
G01 X17.26222 Y25.97442
G01 X17.25345 Y25.98242
G01 X17.24601 Y25.98887
G01 X17.23072 Y26.00152
G01 X17.22475 Y26.00912
G01 X17.21192 Y26.02415
G01 X17.20517 Y26.03142
G01 X17.19506 Y26.04854
G01 X17.18993 Y26.05677
G01 X17.18340 Y26.06667
G01 X17.17827 Y26.07412
G01 X17.16651 Y26.09029
G01 X17.16260 Y26.09913
G01 X17.15391 Y26.11689
G01 X17.14921 Y26.12560
G01 X17.14365 Y26.14473
G01 X17.14088 Y26.15354
G01 X17.13705 Y26.16477
G01 X17.13372 Y26.17376
G01 X17.12640 Y26.19223
G01 X17.12480 Y26.20193
G01 X17.12079 Y26.22128
G01 X17.11843 Y26.23071
G01 X17.11779 Y26.25065
G01 X17.11728 Y26.26007
G01 X17.11650 Y26.27023
G01 X17.11650 Y26.28806
G01 X17.11642 Y26.29192
G01 X17.11637 Y26.29588
G01 X17.11632 Y26.29827
G01 X17.11469 Y26.35037
G01 X17.11573 Y26.35809
G01 X17.11627 Y26.36929
G01 X17.11650 Y26.37879
G01 X17.11650 Y29.01551
G01 X17.11190 Y29.05811
G01 X17.10049 Y29.11046
G01 X17.09072 Y29.14223
G01 X17.07586 Y29.17198
G01 X17.05620 Y29.19885
G01 X17.00971 Y29.25249
G01 X17.00844 Y29.25371
G01 X17.00971 Y29.25249
G01 X17.05620 Y29.19885
G01 X17.03532 Y29.22295
G01 X17.03303 Y29.23253
G01 X17.02724 Y29.24807
G01 X17.00844 Y29.25371
G01 X16.98223 Y29.27873
G01 X16.95025 Y29.29928
G01 X16.91497 Y29.31340
G01 X16.84682 Y29.33342
G01 X16.79049 Y29.34155
G01 X16.40979 Y29.34155
G01 X16.36532 Y29.34609
G01 X16.33730 Y29.34894
G01 X16.26072 Y29.37434
G01 X16.21241 Y29.39036
G01 X16.10146 Y29.45874
G01 X16.00929 Y29.55077
G01 X15.94076 Y29.66148
G01 X15.89913 Y29.78630
G01 X15.89148 Y29.86016
G01 X15.89148 Y31.24022
G01 X15.89890 Y31.31271
G01 X15.94035 Y31.43766
G01 X15.95541 Y31.46212
G01 X16.00870 Y31.54853
G01 X16.10067 Y31.64070
G01 X16.21147 Y31.70923
G01 X16.25155 Y31.72262
G01 X16.33628 Y31.75089
G01 X16.40984 Y31.75851
G01 X17.31515 Y31.75851
G01 X17.35952 Y31.75399
G01 X17.38772 Y31.75109
G01 X17.40951 Y31.74383
G01 X17.51256 Y31.70969
G01 X17.59338 Y31.65988
G01 X17.62803 Y31.63852
G01 X17.62953 Y31.63717
G01 X17.63049 Y31.63641
G01 X17.64695 Y31.62374
G01 X17.67484 Y31.60822
G01 X17.73943 Y31.57870
G01 X17.77537 Y31.56626
G01 X17.79498 Y31.56341
G01 X17.81304 Y31.56082
G01 X17.85104 Y31.56265
G01 X17.92130 Y31.57276
G01 X17.95823 Y31.58172
G01 X17.99282 Y31.59752
G01 X18.02378 Y31.61957
G01 X18.07745 Y31.66608
G01 X18.07865 Y31.66732
G01 X18.10369 Y31.69359
G01 X18.12424 Y31.72559
G01 X18.13839 Y31.76090
G01 X18.15838 Y31.82899
G01 X18.16648 Y31.88530
G01 X18.16648 Y31.93367
G01 X18.16531 Y31.95508
G01 X18.16242 Y31.98198
G01 X18.15439 Y32.02046
G01 X18.13902 Y32.05660
G01 X18.10494 Y32.11888
G01 X18.07077 Y32.16440
G01 X17.98431 Y32.25073
G01 X17.91576 Y32.36148
G01 X17.87410 Y32.48632
G01 X17.86874 Y32.53819
G01 X17.86648 Y32.55995
G01 X17.86648 Y33.44019
G01 X17.87390 Y33.51271
G01 X17.91538 Y33.63773
G01 X17.92102 Y33.64687
G01 X17.98363 Y33.74847
G01 X18.07570 Y33.84070
G01 X18.18642 Y33.90923
G01 X18.19346 Y33.91156
G01 X18.31131 Y33.95088
G01 X18.38485 Y33.95850
G01 X19.71517 Y33.95850
G01 X19.75965 Y33.95396
G01 X19.78759 Y33.95111
G01 X19.91260 Y33.90966
G01 X19.95754 Y33.88195
G01 X20.02348 Y33.84131
G01 X20.11565 Y33.74931
G01 X20.18418 Y33.63857
G01 X20.22584 Y33.51370
G01 X20.23346 Y33.44006
G01 X20.23346 Y32.55983
G01 X20.22604 Y32.48731
G01 X20.18464 Y32.36247
G01 X20.11621 Y32.25147
G01 X20.02431 Y32.15937
G01 X19.91347 Y32.09079
G01 X19.78868 Y32.04916
G01 X19.71509 Y32.04154
G01 X19.35949 Y32.04154
G01 X19.31700 Y32.03697
G01 X19.26465 Y32.02559
G01 X19.23280 Y32.01584
G01 X19.20303 Y32.00090
G01 X19.17613 Y31.98127
G01 X19.15205 Y31.96041
G01 X19.12249 Y31.93476
G01 X19.12127 Y31.93349
G01 X19.12249 Y31.93476
G01 X19.15205 Y31.96041
G01 X19.14243 Y31.95810
G01 X19.12691 Y31.95231
G01 X19.12127 Y31.93349
G01 X19.09627 Y31.90725
G01 X19.07573 Y31.87530
G01 X19.06160 Y31.84002
G01 X19.04159 Y31.77189
G01 X19.03346 Y31.71551
G01 X19.03346 Y30.12498
G01 X19.04011 Y30.07390
G01 X19.05657 Y30.01162
G01 X19.06897 Y29.97756
G01 X19.08728 Y29.94632
G01 X19.11096 Y29.91889
G01 X19.11868 Y29.91142
G01 X19.16201 Y29.86956
G01 X19.19175 Y29.84586
G01 X19.22543 Y29.82821
G01 X19.26186 Y29.81726
G01 X19.33150 Y29.80337
G01 X19.36935 Y29.79951
G01 X19.40722 Y29.80286
G01 X19.44377 Y29.81335
G01 X19.50984 Y29.83931
G01 X19.55924 Y29.86740
G01 X19.56536 Y29.87215
G01 X19.66910 Y29.93349
G01 X19.78487 Y29.96710
G01 X19.79363 Y29.96778
G01 X20.24842 Y29.96778
G01 X20.24842 Y29.85978
G01 X19.85246 Y29.85978
G01 X19.84410 Y29.85897
G01 X19.83676 Y29.85897
G01 X19.79518 Y29.85460
G01 X19.76452 Y29.84807
G01 X19.72475 Y29.83517
G01 X19.69610 Y29.82239
G01 X19.65990 Y29.80149
G01 X19.63453 Y29.78307
G01 X19.60344 Y29.75508
G01 X19.58246 Y29.73179
G01 X19.55789 Y29.69796
G01 X19.54220 Y29.67081
G01 X19.52520 Y29.63260
G01 X19.51550 Y29.60278
G01 X19.50681 Y29.56189
G01 X19.50354 Y29.53070
G01 X19.50245 Y29.50980
G01 X19.50245 Y29.20980
G01 X19.50354 Y29.18889
G01 X19.50681 Y29.15770
G01 X19.51550 Y29.11681
G01 X19.52520 Y29.08699
G01 X19.54220 Y29.04879
G01 X19.55789 Y29.02163
G01 X19.58246 Y28.98780
G01 X19.60344 Y28.96448
G01 X19.63453 Y28.93652
G01 X19.65990 Y28.91808
G01 X19.69610 Y28.89717
G01 X19.72475 Y28.88442
G01 X19.76452 Y28.87149
G01 X19.79518 Y28.86499
G01 X19.82630 Y28.86088
G01 X19.84197 Y28.86006
G01 X19.85246 Y28.85978
G01 X21.55245 Y28.85978
G01 X21.56079 Y28.86062
G01 X21.56813 Y28.86062
G01 X21.60971 Y28.86499
G01 X21.64039 Y28.87149
G01 X21.68014 Y28.88442
G01 X21.70879 Y28.89717
G01 X21.74501 Y28.91808
G01 X21.77036 Y28.93652
G01 X21.78984 Y28.95404
G01 X21.78304 Y28.93634
G01 X21.75576 Y28.87523
G01 X21.74214 Y28.84856
G01 X21.72837 Y28.82481
G01 X21.67166 Y28.82481
G01 X21.63960 Y28.82481
G01 X21.63930 Y28.82481
G01 X21.57821 Y28.82481
G01 X21.55243 Y28.82481
G01 X19.82777 Y28.82481
G01 X19.82668 Y28.82481
G01 X19.76551 Y28.82481
G01 X19.76523 Y28.82481
G01 X19.73346 Y28.82481
G01 X19.65375 Y28.82481
G01 X19.61944 Y28.82481
G01 X19.46132 Y28.82481
G01 X19.45482 Y28.83068
G01 X19.43384 Y28.85397
G01 X19.38469 Y28.92163
G01 X19.36899 Y28.94879
G01 X19.33498 Y29.02516
G01 X19.32531 Y29.05501
G01 X19.32439 Y29.05922
G01 X19.31642 Y29.13512
G01 X19.31497 Y29.16253
G01 X19.31370 Y29.21112
G01 X19.31370 Y29.50924
G01 X19.31395 Y29.53098
G01 X19.31263 Y29.54838
G01 X19.30831 Y29.56527
G01 X19.30648 Y29.56926
G01 X19.30791 Y29.58280
G01 X19.31266 Y29.60515
G01 X19.36150 Y29.64807
G01 X19.31266 Y29.60515
G01 X19.29239 Y29.60723
G01 X19.28197 Y29.60931
G01 X19.15386 Y29.81518
G01 X19.12932 Y29.87299
G01 X19.11868 Y29.91142
G01 X19.12932 Y29.87299
G01 X19.15386 Y29.81518
G01 X19.28197 Y29.60931
G01 X19.29239 Y29.60723
G01 X19.31266 Y29.60515
G01 X19.30791 Y29.58280
G01 X19.30648 Y29.56926
G01 X19.30831 Y29.56527
G01 X19.31263 Y29.54838
G01 X19.31395 Y29.53098
G01 X19.31370 Y29.50924
G01 X19.31370 Y29.21112
G01 X19.31497 Y29.16253
G01 X19.31642 Y29.13512
G01 X19.32439 Y29.05922
G01 X19.32531 Y29.05501
G01 X19.33498 Y29.02516
G01 X19.36899 Y28.94879
G01 X19.38469 Y28.92163
G01 X19.43384 Y28.85397
G01 X19.45482 Y28.83068
G01 X19.46132 Y28.82481
G01 X19.61944 Y28.82481
G01 X19.65375 Y28.82481
G01 X19.73346 Y28.82481
G01 X19.76523 Y28.82481
G01 X19.76551 Y28.82481
G01 X19.82668 Y28.82481
G01 X19.82777 Y28.82481
G01 X21.55243 Y28.82481
G01 X21.57821 Y28.82481
G01 X21.63930 Y28.82481
G01 X21.63960 Y28.82481
G01 X21.67166 Y28.82481
G01 X21.72837 Y28.82481
G01 X21.74214 Y28.84856
G01 X21.75576 Y28.87523
G01 X21.78304 Y28.93634
G01 X21.78984 Y28.95404
G01 X21.80145 Y28.96448
G01 X21.82243 Y28.98780
G01 X21.84699 Y29.02163
G01 X21.86269 Y29.04879
G01 X21.87968 Y29.08699
G01 X21.88939 Y29.11681
G01 X21.89807 Y29.15770
G01 X21.90135 Y29.18889
G01 X21.90244 Y29.20980
G01 X21.90244 Y29.50980
G01 X21.90135 Y29.53070
G01 X21.89807 Y29.56189
G01 X21.88939 Y29.60278
G01 X21.87968 Y29.63260
G01 X21.86269 Y29.67081
G01 X21.84699 Y29.69796
G01 X21.82959 Y29.72189
G01 X21.82243 Y29.73179
G01 X21.80145 Y29.75508
G01 X21.77036 Y29.78307
G01 X21.74501 Y29.80149
G01 X21.70879 Y29.82239
G01 X21.68014 Y29.83517
G01 X21.64039 Y29.84807
G01 X21.60971 Y29.85460
G01 X21.57859 Y29.85869
G01 X21.56292 Y29.85953
G01 X21.55245 Y29.85978
G01 X21.15644 Y29.85978
G01 X21.15644 Y29.96778
G01 X21.61123 Y29.96778
G01 X21.62002 Y29.96710
G01 X21.73754 Y29.93296
G01 X21.74402 Y29.92950
G01 X21.76414 Y29.91990
G01 X21.79916 Y29.90705
G01 X21.83597 Y29.90093
G01 X21.90678 Y29.89585
G01 X21.92561 Y29.89628
G01 X21.91829 Y29.89186
G01 X21.87775 Y29.86842
G01 X21.86294 Y29.85798
G01 X21.85027 Y29.84505
G01 X21.84016 Y29.83004
G01 X21.83290 Y29.81345
G01 X21.82876 Y29.79580
G01 X21.82787 Y29.77771
G01 X21.82863 Y29.75897
G01 X21.82909 Y29.74327
G01 X21.82926 Y29.73268
G01 X21.82931 Y29.73080
G01 X21.82959 Y29.72189
G01 X21.82931 Y29.73080
G01 X21.82926 Y29.73268
G01 X21.82909 Y29.74327
G01 X21.82863 Y29.75897
G01 X21.82787 Y29.77771
G01 X21.82876 Y29.79580
G01 X21.82426 Y29.79671
G01 X21.82876 Y29.79580
G01 X21.83290 Y29.81345
G01 X21.84016 Y29.83004
G01 X21.85027 Y29.84505
G01 X21.84402 Y29.85026
G01 X21.85027 Y29.84505
G01 X21.86294 Y29.85798
G01 X21.87775 Y29.86842
G01 X21.91829 Y29.89186
G01 X21.92561 Y29.89628
G01 X21.94483 Y29.89674
G01 X21.98199 Y29.90482
G01 X22.01697 Y29.91980
G01 X22.07928 Y29.95384
G01 X22.12482 Y29.98795
G01 X27.87810 Y35.74123
G01 X27.88457 Y35.74801
G01 X27.89257 Y35.75680
G01 X27.89877 Y35.76394
G01 X27.91145 Y35.77925
G01 X27.91922 Y35.78537
G01 X27.93426 Y35.79823
G01 X27.94134 Y35.80478
G01 X27.95844 Y35.81489
G01 X27.96672 Y35.82007
G01 X27.97662 Y35.82660
G01 X27.98414 Y35.83180
G01 X28.00022 Y35.84346
G01 X28.00908 Y35.84740
G01 X28.02684 Y35.85609
G01 X28.03555 Y35.86079
G01 X28.05468 Y35.86635
G01 X28.06349 Y35.86912
G01 X28.07472 Y35.87295
G01 X28.08366 Y35.87625
G01 X28.10223 Y35.88360
G01 X28.11188 Y35.88520
G01 X28.13123 Y35.88921
G01 X28.14081 Y35.89157
G01 X28.16067 Y35.89218
G01 X28.17012 Y35.89271
G01 X28.18013 Y35.89350
G01 X28.19803 Y35.89350
G01 X28.20187 Y35.89355
G01 X28.20583 Y35.89363
G01 X28.20822 Y35.89368
G01 X28.26031 Y35.89530
G01 X28.26804 Y35.89426
G01 X28.27924 Y35.89373
G01 X28.28876 Y35.89350
G01 X31.87100 Y35.89350
G01 X31.91088 Y35.89754
G01 X31.96005 Y35.90755
G01 X32.00603 Y35.92289
G01 X32.04695 Y35.94885
G01 X32.10186 Y35.99386
G01 X32.14029 Y36.03582
G01 X32.24667 Y36.19172
G01 X32.37814 Y36.32931
G01 X32.43966 Y36.37549
G01 X32.53061 Y36.44377
G01 X32.54103 Y36.44920
G01 X32.58350 Y36.47887
G01 X32.63130 Y36.52251
G01 X32.65578 Y36.54930
G01 X32.67501 Y36.58009
G01 X32.68835 Y36.61385
G01 X32.70836 Y36.68197
G01 X32.71649 Y36.73833
G01 X32.71649 Y36.96551
G01 X32.71192 Y37.00800
G01 X32.70054 Y37.06035
G01 X32.69079 Y37.09220
G01 X32.67585 Y37.12197
G01 X32.65622 Y37.14887
G01 X32.63534 Y37.17298
G01 X32.63303 Y37.18258
G01 X32.62724 Y37.19807
G01 X32.60846 Y37.20373
G01 X32.58220 Y37.22873
G01 X32.60971 Y37.20252
G01 X32.65622 Y37.14887
G01 X32.60971 Y37.20252
G01 X32.58220 Y37.22873
G01 X32.55025 Y37.24928
G01 X32.51497 Y37.26340
G01 X32.44684 Y37.28341
G01 X32.39048 Y37.29154
G01 X32.38477 Y37.29154
G01 X32.33615 Y37.29650
G01 X32.31225 Y37.29896
G01 X32.24491 Y37.32129
G01 X32.18733 Y37.34039
G01 X32.07649 Y37.40874
G01 X31.98428 Y37.50076
G01 X31.91576 Y37.61148
