( pcb2gcode 2.5.0 )
( Software-independent Gcode )

G94 ( Millimeters per minute feed rate. )
G21 ( Units == Millimeters. )

G90 ( Absolute coordinates. )
G00 S10000 ( RPM spindle speed. )
G64 P0.01000 ( set maximum deviation from commanded toolpath )
G01 F300.00000 ( Feedrate. )


G00 Z10.00000 (Retract to tool change height)
T1
M5      (Spindle stop.)
G04 P1.00000 (Wait for spindle to stop)
(MSG, Change tool bit to mill diameter 0.20000mm)
M6      (Tool change.)
M0      (Temporary machine stop.)
M3 ( Spindle on clockwise. )
G04 P1.00000 (Wait for spindle to get up to speed)
G04 P0 ( dwell for no time -- G64 should not smooth over this point )
G00 Z5.00000 ( retract )

G00 X100.00000 Y0.05621 ( rapid move to begin. )
G01 F150.00000
( Mill infeed pass 1/1 )
G01 Z-0.05000
G04 P0 ( dwell for no time -- G64 should not smooth over this point )
G01 F300.00000
G01 X100.00000 Y0.05621
G01 X100.00000 Y69.94365
G01 X99.99510 Y69.94959
G01 X99.94968 Y69.99496
G01 X99.94371 Y69.99996
G01 X0.05633 Y69.99996
G01 X0.05042 Y69.99496
G01 X0.00500 Y69.94959
G01 X0.00007 Y69.94365
G01 X0.00007 Y0.05621
G01 X0.00500 Y0.05032
G01 X0.05042 Y0.00490
G01 X0.05631 Y0.00000
G01 X99.94379 Y0.00000
G01 X99.94968 Y0.00490
G01 X99.99510 Y0.05032
G01 X100.00000 Y0.05621
G01 X99.99954 Y0.32446
G01 X99.99954 Y69.67548
G01 X99.99782 Y69.70154
G01 X99.99274 Y69.72722
G01 X99.97615 Y69.78919
G01 X99.96419 Y69.82193
G01 X99.94676 Y69.85218
G01 X99.92436 Y69.87883
G01 X99.87894 Y69.92427
G01 X99.85225 Y69.94670
G01 X99.82205 Y69.96412
G01 X99.78931 Y69.97601
G01 X99.72728 Y69.99262
G01 X99.70163 Y69.99770
G01 X99.67554 Y69.99948
G01 X0.32456 Y69.99948
G01 X0.29842 Y69.99770
G01 X0.27277 Y69.99262
G01 X0.21077 Y69.97601
G01 X0.17800 Y69.96412
G01 X0.14782 Y69.94670
G01 X0.12110 Y69.92427
G01 X0.07577 Y69.87883
G01 X0.05331 Y69.85218
G01 X0.03589 Y69.82193
G01 X0.02395 Y69.78919
G01 X0.00734 Y69.72722
G01 X0.00223 Y69.70154
G01 X0.00056 Y69.67548
G01 X0.00056 Y0.32446
G01 X0.00223 Y0.29837
G01 X0.00734 Y0.27272
G01 X0.02395 Y0.21069
G01 X0.03589 Y0.17795
G01 X0.05331 Y0.14775
G01 X0.07577 Y0.12106
G01 X0.12110 Y0.07564
G01 X0.14782 Y0.05324
G01 X0.17800 Y0.03581
G01 X0.21077 Y0.02385
G01 X0.27277 Y0.00726
G01 X0.29842 Y0.00218
G01 X0.32456 Y0.00046
G01 X99.67554 Y0.00046
G01 X99.70163 Y0.00218
G01 X99.72728 Y0.00726
G01 X99.78931 Y0.02385
G01 X99.82205 Y0.03581
G01 X99.85225 Y0.05324
G01 X99.87894 Y0.07564
G01 X99.92436 Y0.12106
G01 X99.94676 Y0.14775
G01 X99.96419 Y0.17795
G01 X99.97615 Y0.21069
G01 X99.99274 Y0.27272
G01 X99.99782 Y0.29837
G01 X99.99954 Y0.32446
G01 X99.89954 Y0.32446
G01 X99.89868 Y0.31140
G01 X99.89616 Y0.29860
G01 X99.87955 Y0.23660
G01 X99.87361 Y0.22022
G01 X99.86485 Y0.20511
G01 X99.85367 Y0.19177
G01 X99.80823 Y0.14633
G01 X99.79489 Y0.13515
G01 X99.77978 Y0.12639
G01 X99.76340 Y0.12045
G01 X99.70140 Y0.10384
G01 X99.68860 Y0.10132
G01 X99.67554 Y0.10046
G01 X0.32456 Y0.10046
G01 X0.31148 Y0.10132
G01 X0.29865 Y0.10384
G01 X0.23667 Y0.12045
G01 X0.22029 Y0.12639
G01 X0.20520 Y0.13515
G01 X0.19182 Y0.14633
G01 X0.14645 Y0.19177
G01 X0.13523 Y0.20511
G01 X0.12651 Y0.22022
G01 X0.12055 Y0.23660
G01 X0.10393 Y0.29860
G01 X0.10142 Y0.31140
G01 X0.10053 Y0.32446
G01 X0.10053 Y69.67548
G01 X0.10142 Y69.68848
G01 X0.10393 Y69.70131
G01 X0.12055 Y69.76334
G01 X0.12651 Y69.77972
G01 X0.13523 Y69.79483
G01 X0.14645 Y69.80814
G01 X0.19182 Y69.85356
G01 X0.20520 Y69.86478
G01 X0.22029 Y69.87349
G01 X0.23667 Y69.87941
G01 X0.29865 Y69.89602
G01 X0.31148 Y69.89862
G01 X0.32456 Y69.89948
G01 X99.67554 Y69.89948
G01 X99.68860 Y69.89862
G01 X99.70140 Y69.89602
G01 X99.76340 Y69.87941
G01 X99.77978 Y69.87349
G01 X99.79489 Y69.86478
G01 X99.80823 Y69.85356
G01 X99.85367 Y69.80814
G01 X99.86485 Y69.79483
G01 X99.87361 Y69.77972
G01 X99.87955 Y69.76334
G01 X99.89616 Y69.70131
G01 X99.89868 Y69.68848
G01 X99.89954 Y69.67548
G01 X99.89954 Y0.32446
G04 P0 ( dwell for no time -- G64 should not smooth over this point )
G00 Z5.00000 ( retract )

G00 X95.65530 Y3.24000 ( rapid move to begin. )
G01 F150.00000
( Mill infeed pass 1/1 )
G01 Z-0.05000
G04 P0 ( dwell for no time -- G64 should not smooth over this point )
G01 F300.00000
G01 X95.65530 Y3.24000
G01 X95.63625 Y3.02196
G01 X95.57966 Y2.81064
G01 X95.48718 Y2.61229
G01 X95.36168 Y2.43309
G01 X95.20689 Y2.27838
G01 X95.02770 Y2.15288
G01 X94.82942 Y2.06035
G01 X94.61804 Y2.00370
G01 X94.40001 Y1.98465
G01 X94.18205 Y2.00370
G01 X93.97070 Y2.06035
G01 X93.77238 Y2.15288
G01 X93.59315 Y2.27838
G01 X93.43842 Y2.43309
G01 X93.31353 Y2.61148
G01 X93.30606 Y2.62085
G01 X93.29757 Y2.62928
G01 X93.25320 Y2.66819
G01 X93.24043 Y2.67772
G01 X93.22625 Y2.68511
G01 X93.21109 Y2.69014
G01 X93.15381 Y2.70416
G01 X93.13804 Y2.70670
G01 X93.12204 Y2.70670
G01 X93.10626 Y2.70416
G01 X93.04899 Y2.69014
G01 X93.03385 Y2.68511
G01 X93.01967 Y2.67772
G01 X93.00687 Y2.66819
G01 X92.96255 Y2.62928
G01 X92.95401 Y2.62085
G01 X92.94655 Y2.61148
G01 X92.82163 Y2.43309
G01 X92.66692 Y2.27838
G01 X92.48765 Y2.15288
G01 X92.28937 Y2.06035
G01 X92.07799 Y2.00370
G01 X91.86004 Y1.98465
G01 X91.64208 Y2.00370
G01 X91.43070 Y2.06035
G01 X91.23240 Y2.15288
G01 X91.05318 Y2.27838
G01 X90.89844 Y2.43309
G01 X90.77355 Y2.61148
G01 X90.76606 Y2.62085
G01 X90.75752 Y2.62928
G01 X90.71320 Y2.66819
G01 X90.70040 Y2.67772
G01 X90.68623 Y2.68511
G01 X90.67106 Y2.69014
G01 X90.61381 Y2.70416
G01 X90.59801 Y2.70670
G01 X90.58204 Y2.70670
G01 X90.56624 Y2.70416
G01 X90.50901 Y2.69014
G01 X90.49382 Y2.68511
G01 X90.47965 Y2.67772
G01 X90.46685 Y2.66819
G01 X90.42252 Y2.62928
G01 X90.41399 Y2.62085
G01 X90.40655 Y2.61148
G01 X90.28166 Y2.43309
G01 X90.12689 Y2.27838
G01 X89.94765 Y2.15288
G01 X89.74940 Y2.06035
G01 X89.53802 Y2.00370
G01 X89.32001 Y1.98465
G01 X89.10205 Y2.00370
G01 X88.89073 Y2.06035
G01 X88.69238 Y2.15288
G01 X88.51318 Y2.27838
G01 X88.35842 Y2.43309
G01 X88.23353 Y2.61148
G01 X88.22608 Y2.62085
G01 X88.21755 Y2.62928
G01 X88.17323 Y2.66819
G01 X88.16043 Y2.67772
G01 X88.14625 Y2.68511
G01 X88.13106 Y2.69014
G01 X88.07384 Y2.70416
G01 X88.05804 Y2.70670
G01 X88.04206 Y2.70670
G01 X88.02626 Y2.70416
G01 X87.96899 Y2.69014
G01 X87.95385 Y2.68511
G01 X87.93967 Y2.67772
G01 X87.92687 Y2.66819
G01 X87.88255 Y2.62928
G01 X87.87401 Y2.62085
G01 X87.86652 Y2.61148
G01 X87.74163 Y2.43309
G01 X87.58689 Y2.27838
G01 X87.40767 Y2.15288
G01 X87.20937 Y2.06035
G01 X86.99802 Y2.00370
G01 X86.78001 Y1.98465
G01 X86.56210 Y2.00370
G01 X86.35070 Y2.06035
G01 X86.15238 Y2.15288
G01 X85.97315 Y2.27838
G01 X85.81847 Y2.43309
G01 X85.69353 Y2.61148
G01 X85.68608 Y2.62085
G01 X85.67755 Y2.62928
G01 X85.63323 Y2.66819
G01 X85.62040 Y2.67772
G01 X85.60625 Y2.68511
G01 X85.59106 Y2.69014
G01 X85.53381 Y2.70416
G01 X85.51801 Y2.70670
G01 X85.50204 Y2.70670
G01 X85.48624 Y2.70416
G01 X85.42899 Y2.69014
G01 X85.41385 Y2.68511
G01 X85.39965 Y2.67772
G01 X85.38687 Y2.66819
G01 X85.34255 Y2.62928
G01 X85.33401 Y2.62085
G01 X85.32657 Y2.61148
G01 X85.20163 Y2.43309
G01 X85.04689 Y2.27838
G01 X84.86765 Y2.15288
G01 X84.66942 Y2.06035
G01 X84.45799 Y2.00370
G01 X84.24001 Y1.98465
G01 X84.02210 Y2.00370
G01 X83.81075 Y2.06035
G01 X83.61238 Y2.15288
G01 X83.43321 Y2.27838
G01 X83.27844 Y2.43309
G01 X83.15353 Y2.61148
G01 X83.14606 Y2.62085
G01 X83.13752 Y2.62928
G01 X83.09320 Y2.66819
G01 X83.08045 Y2.67772
G01 X83.06623 Y2.68511
G01 X83.05106 Y2.69014
G01 X82.99386 Y2.70416
G01 X82.97801 Y2.70670
G01 X82.96209 Y2.70670
G01 X82.94624 Y2.70416
G01 X82.88904 Y2.69014
G01 X82.87382 Y2.68511
G01 X82.85965 Y2.67772
G01 X82.84687 Y2.66819
G01 X82.80255 Y2.62928
G01 X82.79401 Y2.62085
G01 X82.78655 Y2.61148
G01 X82.66163 Y2.43309
G01 X82.50689 Y2.27838
G01 X82.32770 Y2.15288
G01 X82.12940 Y2.06035
G01 X81.91799 Y2.00370
G01 X81.70001 Y1.98465
G01 X81.48208 Y2.00370
G01 X81.27075 Y2.06035
G01 X81.07238 Y2.15288
G01 X80.89318 Y2.27838
G01 X80.73844 Y2.43309
G01 X80.61353 Y2.61148
G01 X80.60606 Y2.62085
G01 X80.59752 Y2.62928
G01 X80.55320 Y2.66819
G01 X80.54045 Y2.67772
G01 X80.52623 Y2.68511
G01 X80.51111 Y2.69014
G01 X80.45384 Y2.70416
G01 X80.43806 Y2.70670
G01 X80.42206 Y2.70670
G01 X80.40629 Y2.70416
G01 X80.34901 Y2.69014
G01 X80.33382 Y2.68511
G01 X80.31970 Y2.67772
G01 X80.30685 Y2.66819
G01 X80.26252 Y2.62928
G01 X80.25399 Y2.62085
G01 X80.24652 Y2.61148
G01 X80.12163 Y2.43309
G01 X79.96694 Y2.27838
G01 X79.78767 Y2.15288
G01 X79.58940 Y2.06035
G01 X79.37799 Y2.00370
G01 X79.16006 Y1.98465
G01 X78.94205 Y2.00370
G01 X78.73073 Y2.06035
G01 X78.53243 Y2.15288
G01 X78.35315 Y2.27838
G01 X78.19842 Y2.43309
G01 X78.07358 Y2.61148
G01 X78.06606 Y2.62085
G01 X78.05752 Y2.62928
G01 X78.01320 Y2.66819
G01 X78.00042 Y2.67772
G01 X77.98623 Y2.68511
G01 X77.97109 Y2.69014
G01 X77.91384 Y2.70416
G01 X77.89804 Y2.70670
G01 X77.88206 Y2.70670
G01 X77.86626 Y2.70416
G01 X77.80899 Y2.69014
G01 X77.79382 Y2.68511
G01 X77.77967 Y2.67772
G01 X77.76685 Y2.66819
G01 X77.72252 Y2.62928
G01 X77.71399 Y2.62085
G01 X77.70652 Y2.61148
G01 X77.58168 Y2.43309
G01 X77.42692 Y2.27838
G01 X77.24767 Y2.15288
G01 X77.04937 Y2.06035
G01 X76.83804 Y2.00370
G01 X76.62004 Y1.98465
G01 X76.40205 Y2.00370
G01 X76.19070 Y2.06035
G01 X75.99240 Y2.15288
G01 X75.81315 Y2.27838
G01 X75.65842 Y2.43309
G01 X75.53355 Y2.61148
G01 X75.52611 Y2.62085
G01 X75.51757 Y2.62928
G01 X75.47325 Y2.66819
G01 X75.46040 Y2.67772
G01 X75.44628 Y2.68511
G01 X75.43109 Y2.69014
G01 X75.37381 Y2.70416
G01 X75.35801 Y2.70670
G01 X75.34204 Y2.70670
G01 X75.32624 Y2.70416
G01 X75.26899 Y2.69014
G01 X75.25387 Y2.68511
G01 X75.23965 Y2.67772
G01 X75.22690 Y2.66819
G01 X75.18257 Y2.62928
G01 X75.17404 Y2.62085
G01 X75.16652 Y2.61148
G01 X75.04166 Y2.43309
G01 X74.88692 Y2.27838
G01 X74.70765 Y2.15288
G01 X74.50937 Y2.06035
G01 X74.29802 Y2.00370
G01 X74.08001 Y1.98465
G01 X73.86208 Y2.00370
G01 X73.65070 Y2.06035
G01 X73.45238 Y2.15288
G01 X73.27315 Y2.27838
G01 X73.11844 Y2.43309
G01 X72.99325 Y2.61191
G01 X72.98578 Y2.62133
G01 X72.97722 Y2.62976
G01 X72.93292 Y2.66863
G01 X72.92009 Y2.67815
G01 X72.90592 Y2.68554
G01 X72.89076 Y2.69052
G01 X72.83351 Y2.70459
G01 X72.81773 Y2.70708
G01 X72.80178 Y2.70708
G01 X72.78593 Y2.70459
G01 X72.72868 Y2.69052
G01 X72.71354 Y2.68554
G01 X72.69934 Y2.67815
G01 X72.68654 Y2.66863
G01 X72.64382 Y2.63116
G01 X72.41141 Y2.86360
G01 X72.41354 Y2.86751
G01 X72.41771 Y2.87640
G01 X72.42101 Y2.88567
G01 X72.46940 Y3.04510
G01 X72.47181 Y3.05463
G01 X72.47326 Y3.06436
G01 X72.48956 Y3.23019
G01 X72.48956 Y3.24978
G01 X72.47326 Y3.41561
G01 X72.47181 Y3.42532
G01 X72.46940 Y3.43479
G01 X72.42101 Y3.59425
G01 X72.41354 Y3.61239
G01 X72.41141 Y3.61638
G01 X72.64382 Y3.84873
G01 X72.68654 Y3.81127
G01 X72.69934 Y3.80180
G01 X72.71354 Y3.79435
G01 X72.72868 Y3.78932
G01 X72.78593 Y3.77530
G01 X72.80178 Y3.77281
G01 X72.81773 Y3.77281
G01 X72.83351 Y3.77530
G01 X72.89076 Y3.78932
G01 X72.90592 Y3.79435
G01 X72.92009 Y3.80180
G01 X72.93292 Y3.81127
G01 X72.97722 Y3.85013
G01 X72.98578 Y3.85856
G01 X72.99325 Y3.86804
G01 X73.11844 Y4.04680
G01 X73.27315 Y4.20157
G01 X73.45156 Y4.32648
G01 X73.46094 Y4.33395
G01 X73.46937 Y4.34246
G01 X73.50826 Y4.38671
G01 X73.51778 Y4.39958
G01 X73.52517 Y4.41378
G01 X73.53020 Y4.42892
G01 X73.54425 Y4.48625
G01 X73.54676 Y4.50200
G01 X73.54676 Y4.51797
G01 X73.54425 Y4.53372
G01 X73.53020 Y4.59092
G01 X73.52517 Y4.60616
G01 X73.51778 Y4.62036
G01 X73.50826 Y4.63314
G01 X73.46937 Y4.67749
G01 X73.46094 Y4.68600
G01 X73.45156 Y4.69344
G01 X73.27315 Y4.81838
G01 X73.11844 Y4.97304
G01 X72.99325 Y5.15191
G01 X72.98578 Y5.16128
G01 X72.97722 Y5.16971
G01 X72.93292 Y5.20857
G01 X72.92009 Y5.21815
G01 X72.90592 Y5.22549
G01 X72.89076 Y5.23052
G01 X72.83351 Y5.24454
G01 X72.81773 Y5.24713
G01 X72.80178 Y5.24713
G01 X72.78593 Y5.24454
G01 X72.72868 Y5.23052
G01 X72.71354 Y5.22549
G01 X72.69934 Y5.21815
G01 X72.68654 Y5.20857
G01 X72.64382 Y5.17111
G01 X72.41141 Y5.40360
G01 X72.41354 Y5.40756
G01 X72.41771 Y5.41640
G01 X72.42101 Y5.42562
G01 X72.46940 Y5.58508
G01 X72.47181 Y5.59465
G01 X72.47326 Y5.60436
G01 X72.48956 Y5.77019
G01 X72.48956 Y5.78978
G01 X72.47326 Y5.95559
G01 X72.47181 Y5.96532
G01 X72.46940 Y5.97479
G01 X72.42101 Y6.13430
G01 X72.41771 Y6.14355
G01 X72.41354 Y6.15236
G01 X72.41141 Y6.15638
G01 X72.64382 Y6.38879
G01 X72.68654 Y6.35130
G01 X72.69934 Y6.34180
G01 X72.71354 Y6.33435
G01 X72.72868 Y6.32932
G01 X72.78593 Y6.31530
G01 X72.80178 Y6.31281
G01 X72.81773 Y6.31281
G01 X72.83351 Y6.31530
G01 X72.89076 Y6.32932
G01 X72.90592 Y6.33435
G01 X72.92009 Y6.34180
G01 X72.93292 Y6.35130
G01 X72.97722 Y6.39013
G01 X72.98578 Y6.39862
G01 X72.99325 Y6.40801
G01 X73.11844 Y6.58685
G01 X73.27315 Y6.74154
G01 X73.45238 Y6.86707
G01 X73.65070 Y6.95955
G01 X73.86208 Y7.01617
G01 X74.08001 Y7.03524
G01 X74.29802 Y7.01617
G01 X74.50937 Y6.95955
G01 X74.70765 Y6.86707
G01 X74.88692 Y6.74154
G01 X75.04166 Y6.58685
G01 X75.16652 Y6.40847
G01 X75.17404 Y6.39905
G01 X75.18257 Y6.39061
G01 X75.22690 Y6.35173
G01 X75.23965 Y6.34218
G01 X75.25387 Y6.33484
G01 X75.26899 Y6.32981
G01 X75.32624 Y6.31579
G01 X75.34204 Y6.31320
G01 X75.35801 Y6.31320
G01 X75.37381 Y6.31579
G01 X75.43109 Y6.32981
G01 X75.44628 Y6.33484
G01 X75.46040 Y6.34218
G01 X75.47325 Y6.35173
G01 X75.51757 Y6.39061
G01 X75.52611 Y6.39905
G01 X75.53355 Y6.40847
G01 X75.65842 Y6.58685
G01 X75.81315 Y6.74154
G01 X75.99240 Y6.86707
G01 X76.19070 Y6.95955
G01 X76.40205 Y7.01617
G01 X76.62004 Y7.03524
G01 X76.83804 Y7.01617
G01 X77.04937 Y6.95955
G01 X77.24767 Y6.86707
G01 X77.42692 Y6.74154
G01 X77.58168 Y6.58685
G01 X77.70652 Y6.40847
G01 X77.71399 Y6.39905
G01 X77.72252 Y6.39061
G01 X77.76685 Y6.35173
G01 X77.77967 Y6.34218
G01 X77.79382 Y6.33484
G01 X77.80899 Y6.32981
G01 X77.86626 Y6.31579
G01 X77.88206 Y6.31320
G01 X77.89804 Y6.31320
G01 X77.91384 Y6.31579
G01 X77.97109 Y6.32981
G01 X77.98623 Y6.33484
G01 X78.00042 Y6.34218
G01 X78.01320 Y6.35173
G01 X78.05752 Y6.39061
G01 X78.06606 Y6.39905
G01 X78.07358 Y6.40847
G01 X78.19842 Y6.58685
G01 X78.35315 Y6.74154
G01 X78.53243 Y6.86707
G01 X78.73073 Y6.95955
G01 X78.94205 Y7.01617
G01 X79.16006 Y7.03524
G01 X79.37799 Y7.01617
G01 X79.58940 Y6.95955
G01 X79.78767 Y6.86707
G01 X79.96694 Y6.74154
G01 X80.12163 Y6.58685
G01 X80.24652 Y6.40847
G01 X80.25399 Y6.39905
G01 X80.26252 Y6.39061
G01 X80.30685 Y6.35173
G01 X80.31970 Y6.34218
G01 X80.33382 Y6.33484
G01 X80.34901 Y6.32981
G01 X80.40629 Y6.31579
G01 X80.42206 Y6.31320
G01 X80.43806 Y6.31320
G01 X80.45384 Y6.31579
G01 X80.51111 Y6.32981
G01 X80.52623 Y6.33484
G01 X80.54045 Y6.34218
G01 X80.55320 Y6.35173
G01 X80.59752 Y6.39061
G01 X80.60606 Y6.39905
G01 X80.61353 Y6.40847
G01 X80.73844 Y6.58685
G01 X80.89318 Y6.74154
G01 X81.07238 Y6.86707
G01 X81.27075 Y6.95955
G01 X81.48208 Y7.01617
G01 X81.70001 Y7.03524
G01 X81.91799 Y7.01617
G01 X82.12940 Y6.95955
G01 X82.32770 Y6.86707
G01 X82.50689 Y6.74154
G01 X82.66163 Y6.58685
G01 X82.78655 Y6.40847
G01 X82.79401 Y6.39905
G01 X82.80255 Y6.39061
G01 X82.84687 Y6.35173
G01 X82.85965 Y6.34218
G01 X82.87382 Y6.33484
G01 X82.88904 Y6.32981
G01 X82.94624 Y6.31579
G01 X82.96209 Y6.31320
G01 X82.97801 Y6.31320
G01 X82.99386 Y6.31579
G01 X83.05106 Y6.32981
G01 X83.06623 Y6.33484
G01 X83.08045 Y6.34218
G01 X83.09320 Y6.35173
G01 X83.13752 Y6.39061
G01 X83.14606 Y6.39905
G01 X83.15353 Y6.40847
G01 X83.27844 Y6.58685
G01 X83.43321 Y6.74154
G01 X83.61238 Y6.86707
G01 X83.81075 Y6.95955
G01 X84.02210 Y7.01617
G01 X84.24001 Y7.03524
G01 X84.45799 Y7.01617
G01 X84.66942 Y6.95955
G01 X84.86765 Y6.86707
G01 X85.04689 Y6.74154
G01 X85.20163 Y6.58685
G01 X85.32688 Y6.40801
G01 X85.33432 Y6.39862
G01 X85.34285 Y6.39013
G01 X85.38718 Y6.35130
G01 X85.39995 Y6.34180
G01 X85.41415 Y6.33435
G01 X85.42934 Y6.32932
G01 X85.48654 Y6.31530
G01 X85.50234 Y6.31281
G01 X85.51832 Y6.31281
G01 X85.53412 Y6.31530
G01 X85.59137 Y6.32932
G01 X85.60656 Y6.33435
G01 X85.62070 Y6.34180
G01 X85.63353 Y6.35130
G01 X85.67628 Y6.38879
G01 X85.90869 Y6.15638
G01 X85.90653 Y6.15236
G01 X85.90234 Y6.14355
G01 X85.89901 Y6.13430
G01 X85.85065 Y5.97479
G01 X85.84829 Y5.96532
G01 X85.84682 Y5.95559
G01 X85.83053 Y5.78978
G01 X85.83005 Y5.78000
G01 X85.83053 Y5.77019
G01 X85.84682 Y5.60436
G01 X85.84829 Y5.59465
G01 X85.85065 Y5.58508
G01 X85.89901 Y5.42562
G01 X85.90653 Y5.40756
G01 X85.90869 Y5.40357
G01 X85.67628 Y5.17111
G01 X85.63353 Y5.20857
G01 X85.62070 Y5.21815
G01 X85.60656 Y5.22549
G01 X85.59137 Y5.23052
G01 X85.53412 Y5.24454
G01 X85.51832 Y5.24713
G01 X85.50234 Y5.24713
G01 X85.48654 Y5.24454
G01 X85.42934 Y5.23052
G01 X85.41415 Y5.22549
G01 X85.39995 Y5.21815
G01 X85.38718 Y5.20857
G01 X85.34285 Y5.16971
G01 X85.33432 Y5.16128
G01 X85.32688 Y5.15191
G01 X85.20163 Y4.97304
G01 X85.04689 Y4.81838
G01 X84.86851 Y4.69349
G01 X84.85911 Y4.68600
G01 X84.85068 Y4.67749
G01 X84.81182 Y4.63314
G01 X84.80232 Y4.62036
G01 X84.79495 Y4.60619
G01 X84.78987 Y4.59097
G01 X84.77585 Y4.53375
G01 X84.77331 Y4.51797
G01 X84.77331 Y4.50200
G01 X84.77585 Y4.48620
G01 X84.78987 Y4.42887
G01 X84.79495 Y4.41376
G01 X84.80232 Y4.39958
G01 X84.81184 Y4.38671
G01 X84.85075 Y4.34246
G01 X84.85919 Y4.33395
G01 X84.86851 Y4.32648
G01 X85.04689 Y4.20157
G01 X85.20163 Y4.04680
G01 X85.32657 Y3.86842
G01 X85.33401 Y3.85905
G01 X85.34255 Y3.85061
G01 X85.38687 Y3.81175
G01 X85.39965 Y3.80218
G01 X85.41385 Y3.79484
G01 X85.42899 Y3.78981
G01 X85.48624 Y3.77579
G01 X85.50204 Y3.77320
G01 X85.51801 Y3.77320
G01 X85.53381 Y3.77579
G01 X85.59106 Y3.78981
G01 X85.60625 Y3.79484
G01 X85.62040 Y3.80218
G01 X85.63323 Y3.81175
G01 X85.67755 Y3.85061
G01 X85.68608 Y3.85905
G01 X85.69353 Y3.86842
G01 X85.81847 Y4.04680
G01 X85.97315 Y4.20157
G01 X86.15200 Y4.32676
G01 X86.16142 Y4.33423
G01 X86.16985 Y4.34271
G01 X86.20869 Y4.38706
G01 X86.21821 Y4.39984
G01 X86.22566 Y4.41404
G01 X86.23063 Y4.42928
G01 X86.24468 Y4.48650
G01 X86.24722 Y4.50225
G01 X86.24722 Y4.51823
G01 X86.24468 Y4.53398
G01 X86.23063 Y4.59128
G01 X86.22566 Y4.60642
G01 X86.21829 Y4.62059
G01 X86.20869 Y4.63342
G01 X86.17122 Y4.67614
G01 X86.40363 Y4.90860
G01 X86.40765 Y4.90649
G01 X86.42571 Y4.89895
G01 X86.58517 Y4.85064
G01 X86.60440 Y4.84675
G01 X86.77021 Y4.83047
G01 X86.78982 Y4.83047
G01 X86.95565 Y4.84675
G01 X86.97488 Y4.85064
G01 X87.13434 Y4.89895
G01 X87.14356 Y4.90230
G01 X87.15248 Y4.90649
G01 X87.15641 Y4.90863
G01 X87.38887 Y4.67614
G01 X87.35138 Y4.63344
G01 X87.34186 Y4.62062
G01 X87.33447 Y4.60642
G01 X87.32941 Y4.59128
G01 X87.31544 Y4.53398
G01 X87.31288 Y4.51823
G01 X87.31288 Y4.50225
G01 X87.31544 Y4.48650
G01 X87.32941 Y4.42928
G01 X87.33447 Y4.41404
G01 X87.34186 Y4.39984
G01 X87.35143 Y4.38704
G01 X87.39030 Y4.34271
G01 X87.39873 Y4.33423
G01 X87.40810 Y4.32676
G01 X87.58689 Y4.20157
G01 X87.74163 Y4.04680
G01 X87.86652 Y3.86842
G01 X87.87401 Y3.85905
G01 X87.88255 Y3.85061
G01 X87.92687 Y3.81175
G01 X87.93967 Y3.80218
G01 X87.95385 Y3.79484
G01 X87.96899 Y3.78981
G01 X88.02626 Y3.77579
G01 X88.04206 Y3.77320
G01 X88.05804 Y3.77320
G01 X88.07384 Y3.77579
G01 X88.13106 Y3.78981
G01 X88.14625 Y3.79484
G01 X88.16043 Y3.80218
G01 X88.17323 Y3.81175
G01 X88.21755 Y3.85061
G01 X88.22608 Y3.85905
G01 X88.23353 Y3.86842
G01 X88.35842 Y4.04680
G01 X88.51318 Y4.20157
G01 X88.69159 Y4.32648
G01 X88.70096 Y4.33395
G01 X88.70940 Y4.34246
G01 X88.74823 Y4.38671
G01 X88.75783 Y4.39958
G01 X88.76520 Y4.41378
G01 X88.77020 Y4.42892
G01 X88.78422 Y4.48625
G01 X88.78676 Y4.50200
G01 X88.78676 Y4.51797
G01 X88.78422 Y4.53372
G01 X88.77020 Y4.59092
G01 X88.76520 Y4.60616
G01 X88.75783 Y4.62036
G01 X88.74823 Y4.63314
G01 X88.70940 Y4.67749
G01 X88.70096 Y4.68600
G01 X88.69159 Y4.69344
G01 X88.51318 Y4.81838
G01 X88.35842 Y4.97304
G01 X88.23325 Y5.15191
G01 X88.22578 Y5.16128
G01 X88.21724 Y5.16971
G01 X88.17292 Y5.20857
G01 X88.16012 Y5.21815
G01 X88.14595 Y5.22549
G01 X88.13076 Y5.23052
G01 X88.07353 Y5.24454
G01 X88.05771 Y5.24713
G01 X88.04176 Y5.24713
G01 X88.02593 Y5.24454
G01 X87.96871 Y5.23052
G01 X87.95354 Y5.22549
G01 X87.93934 Y5.21815
G01 X87.92654 Y5.20857
G01 X87.88382 Y5.17111
G01 X87.65141 Y5.40360
G01 X87.65352 Y5.40756
G01 X87.66101 Y5.42562
G01 X87.70937 Y5.58508
G01 X87.71176 Y5.59465
G01 X87.71323 Y5.60436
G01 X87.72956 Y5.77019
G01 X87.72956 Y5.78978
G01 X87.71323 Y5.95559
G01 X87.71176 Y5.96532
G01 X87.70937 Y5.97479
G01 X87.66101 Y6.13430
G01 X87.65773 Y6.14355
G01 X87.65352 Y6.15236
G01 X87.65141 Y6.15638
G01 X87.88382 Y6.38879
G01 X87.92654 Y6.35130
G01 X87.93934 Y6.34180
G01 X87.95354 Y6.33435
G01 X87.96871 Y6.32932
G01 X88.02593 Y6.31530
G01 X88.04176 Y6.31281
G01 X88.05771 Y6.31281
G01 X88.07353 Y6.31530
G01 X88.13076 Y6.32932
G01 X88.14595 Y6.33435
G01 X88.16012 Y6.34180
G01 X88.17292 Y6.35130
G01 X88.21724 Y6.39013
G01 X88.22578 Y6.39862
G01 X88.23325 Y6.40801
G01 X88.35842 Y6.58685
G01 X88.51318 Y6.74154
G01 X88.69238 Y6.86707
G01 X88.89073 Y6.95955
G01 X89.10205 Y7.01617
G01 X89.32001 Y7.03524
G01 X89.53802 Y7.01617
G01 X89.74940 Y6.95955
G01 X89.94765 Y6.86707
G01 X90.12689 Y6.74154
G01 X90.28166 Y6.58685
G01 X90.40655 Y6.40847
G01 X90.41399 Y6.39905
G01 X90.42252 Y6.39061
G01 X90.46685 Y6.35173
G01 X90.47965 Y6.34218
G01 X90.49382 Y6.33484
G01 X90.50901 Y6.32981
G01 X90.56624 Y6.31579
G01 X90.58204 Y6.31320
G01 X90.59801 Y6.31320
G01 X90.61381 Y6.31579
G01 X90.67106 Y6.32981
G01 X90.68623 Y6.33484
G01 X90.70040 Y6.34218
G01 X90.71320 Y6.35173
G01 X90.75752 Y6.39061
G01 X90.76606 Y6.39905
G01 X90.77355 Y6.40847
G01 X90.89844 Y6.58685
G01 X91.05318 Y6.74154
G01 X91.23240 Y6.86707
G01 X91.43070 Y6.95955
G01 X91.64208 Y7.01617
G01 X91.86004 Y7.03524
G01 X92.07799 Y7.01617
G01 X92.28937 Y6.95955
G01 X92.48765 Y6.86707
G01 X92.66692 Y6.74154
G01 X92.82163 Y6.58685
G01 X92.94655 Y6.40847
G01 X92.95401 Y6.39905
G01 X92.96255 Y6.39061
G01 X93.00687 Y6.35173
G01 X93.01967 Y6.34218
G01 X93.03385 Y6.33484
G01 X93.04899 Y6.32981
G01 X93.10626 Y6.31579
G01 X93.12204 Y6.31320
G01 X93.13804 Y6.31320
G01 X93.15381 Y6.31579
G01 X93.21109 Y6.32981
G01 X93.22625 Y6.33484
G01 X93.24043 Y6.34218
G01 X93.25320 Y6.35173
G01 X93.29757 Y6.39061
G01 X93.30606 Y6.39905
G01 X93.31353 Y6.40847
G01 X93.43842 Y6.58685
G01 X93.59315 Y6.74154
G01 X93.77238 Y6.86707
G01 X93.97070 Y6.95955
G01 X94.18205 Y7.01617
G01 X94.40001 Y7.03524
G01 X94.61804 Y7.01617
G01 X94.82942 Y6.95955
G01 X95.02770 Y6.86707
G01 X95.20689 Y6.74154
G01 X95.36168 Y6.58685
G01 X95.48718 Y6.40763
G01 X95.57966 Y6.20931
G01 X95.63625 Y5.99791
G01 X95.65530 Y5.78000
G01 X95.63625 Y5.56202
G01 X95.57966 Y5.35064
G01 X95.48718 Y5.15226
G01 X95.36168 Y4.97304
G01 X95.20689 Y4.81838
G01 X95.02851 Y4.69349
G01 X95.01916 Y4.68600
G01 X95.01073 Y4.67749
G01 X94.97187 Y4.63314
G01 X94.96229 Y4.62036
G01 X94.95495 Y4.60619
G01 X94.94987 Y4.59097
G01 X94.93590 Y4.53375
G01 X94.93333 Y4.51797
G01 X94.93333 Y4.50200
G01 X94.93590 Y4.48620
G01 X94.94987 Y4.42887
G01 X94.95495 Y4.41376
G01 X94.96229 Y4.39958
G01 X94.97189 Y4.38671
G01 X95.01075 Y4.34246
G01 X95.01919 Y4.33395
G01 X95.02851 Y4.32648
G01 X95.20689 Y4.20157
G01 X95.36168 Y4.04680
G01 X95.48718 Y3.86758
G01 X95.57966 Y3.66931
G01 X95.63625 Y3.45796
G01 X95.65530 Y3.24000
G01 X95.55530 Y3.24000
G01 X95.55495 Y3.24048
G01 X95.55271 Y3.24340
G01 X95.55226 Y3.24340
G01 X95.55063 Y3.26809
G01 X95.55048 Y3.26926
G01 X95.53504 Y3.43596
G01 X95.53394 Y3.44267
G01 X95.53427 Y3.44274
G01 X95.53394 Y3.44267
G01 X95.52279 Y3.49014
G01 X95.52218 Y3.49247
G01 X95.48281 Y3.63024
G01 X95.48149 Y3.63438
G01 X95.48177 Y3.63451
G01 X95.48149 Y3.63438
G01 X95.47314 Y3.65623
G01 X95.47215 Y3.65849
G01 X95.45231 Y3.70360
G01 X95.45132 Y3.70586
G01 X95.39788 Y3.81259
G01 X95.39821 Y3.81277
G01 X95.39788 Y3.81259
G01 X95.39577 Y3.81640
G01 X95.37103 Y3.85681
G01 X95.36968 Y3.85887
G01 X95.34192 Y3.89941
G01 X95.34047 Y3.90141
G01 X95.28299 Y3.97759
G01 X95.28005 Y3.98084
G01 X95.23209 Y4.03372
G01 X95.23034 Y4.03545
G01 X95.19556 Y4.07030
G01 X95.19376 Y4.07200
G01 X95.19407 Y4.07223
G01 X95.19376 Y4.07200
G01 X95.14088 Y4.11993
G01 X95.13758 Y4.12270
G01 X95.06158 Y4.18038
G01 X95.05952 Y4.18181
G01 X95.01893 Y4.20952
G01 X95.01693 Y4.21089
G01 X94.96717 Y4.24142
G01 X94.91858 Y4.27551
G01 X94.88396 Y4.30301
G01 X94.88340 Y4.30337
G01 X94.87220 Y4.31208
G01 X94.87174 Y4.31241
G01 X94.83979 Y4.33644
G01 X94.75863 Y4.40941
G01 X94.74530 Y4.42351
G01 X94.74159 Y4.43860
G01 X94.73394 Y4.48597
G01 X94.73394 Y4.53393
G01 X94.74159 Y4.58135
G01 X94.74530 Y4.59643
G01 X94.75866 Y4.61056
G01 X94.83979 Y4.68340
G01 X94.87161 Y4.70738
G01 X94.87212 Y4.70781
G01 X94.88340 Y4.71648
G01 X94.88396 Y4.71693
G01 X94.91855 Y4.74442
G01 X94.96717 Y4.77845
G01 X95.01693 Y4.80906
G01 X95.01893 Y4.81033
G01 X95.05955 Y4.83817
G01 X95.06161 Y4.83959
G01 X95.13758 Y4.89725
G01 X95.14088 Y4.90004
G01 X95.14118 Y4.89969
G01 X95.14088 Y4.90004
G01 X95.19379 Y4.94800
G01 X95.19556 Y4.94965
G01 X95.23034 Y4.98439
G01 X95.23206 Y4.98622
G01 X95.28002 Y5.03911
G01 X95.28020 Y5.03893
G01 X95.28002 Y5.03911
G01 X95.28281 Y5.04248
G01 X95.34047 Y5.11840
G01 X95.34189 Y5.12041
G01 X95.36968 Y5.16108
G01 X95.36996 Y5.16087
G01 X95.36968 Y5.16108
G01 X95.37103 Y5.16313
G01 X95.39577 Y5.20344
G01 X95.39788 Y5.20725
G01 X95.45132 Y5.31409
G01 X95.45231 Y5.31625
G01 X95.47215 Y5.36136
G01 X95.47314 Y5.36362
G01 X95.48149 Y5.38543
G01 X95.48281 Y5.38958
G01 X95.48324 Y5.38945
G01 X95.48281 Y5.38958
G01 X95.52218 Y5.52747
G01 X95.52279 Y5.52981
G01 X95.53394 Y5.57723
G01 X95.53427 Y5.57715
G01 X95.53394 Y5.57723
G01 X95.53504 Y5.58404
G01 X95.55048 Y5.75061
G01 X95.55063 Y5.75186
G01 X95.55226 Y5.77652
G01 X95.55226 Y5.78340
G01 X95.55274 Y5.78340
G01 X95.55226 Y5.78340
G01 X95.55063 Y5.80809
G01 X95.55048 Y5.80926
G01 X95.53504 Y5.97596
G01 X95.53394 Y5.98267
G01 X95.53427 Y5.98279
G01 X95.53394 Y5.98267
G01 X95.52279 Y6.03014
G01 X95.52218 Y6.03242
G01 X95.48281 Y6.17029
G01 X95.48149 Y6.17438
G01 X95.48180 Y6.17456
G01 X95.48149 Y6.17438
G01 X95.47314 Y6.19623
G01 X95.47215 Y6.19854
G01 X95.45231 Y6.24365
G01 X95.45132 Y6.24586
G01 X95.39788 Y6.35262
G01 X95.39577 Y6.35643
G01 X95.39610 Y6.35663
G01 X95.39577 Y6.35643
G01 X95.37103 Y6.39679
G01 X95.36968 Y6.39884
G01 X95.34192 Y6.43946
G01 X95.34047 Y6.44147
G01 X95.28281 Y6.51746
G01 X95.28005 Y6.52084
G01 X95.28027 Y6.52104
G01 X95.28005 Y6.52084
G01 X95.23209 Y6.57370
G01 X95.23034 Y6.57548
G01 X95.19556 Y6.61027
G01 X95.19376 Y6.61200
G01 X95.14088 Y6.65991
G01 X95.14118 Y6.66018
G01 X95.14088 Y6.65991
G01 X95.13758 Y6.66270
G01 X95.06158 Y6.72036
G01 X95.05952 Y6.72178
G01 X95.01893 Y6.74954
G01 X95.01693 Y6.75086
G01 X94.97649 Y6.77568
G01 X94.97667 Y6.77601
G01 X94.97649 Y6.77568
G01 X94.97273 Y6.77784
G01 X94.86592 Y6.83118
G01 X94.86369 Y6.83224
G01 X94.81855 Y6.85211
G01 X94.81632 Y6.85305
G01 X94.79450 Y6.86138
G01 X94.79465 Y6.86173
G01 X94.79450 Y6.86138
G01 X94.79036 Y6.86275
G01 X94.65256 Y6.90212
G01 X94.65018 Y6.90270
G01 X94.60275 Y6.91380
G01 X94.59600 Y6.91492
G01 X94.59612 Y6.91528
G01 X94.59600 Y6.91492
G01 X94.42935 Y6.93042
G01 X94.42810 Y6.93052
G01 X94.40344 Y6.93219
G01 X94.39666 Y6.93219
G01 X94.39666 Y6.93257
G01 X94.39666 Y6.93219
G01 X94.37199 Y6.93052
G01 X94.37075 Y6.93042
G01 X94.20405 Y6.91492
G01 X94.19734 Y6.91380
G01 X94.19729 Y6.91418
G01 X94.19734 Y6.91380
G01 X94.14992 Y6.90270
G01 X94.14754 Y6.90212
G01 X94.00974 Y6.86275
G01 X94.00560 Y6.86138
G01 X94.00547 Y6.86173
G01 X94.00560 Y6.86138
G01 X93.98381 Y6.85305
G01 X93.98155 Y6.85211
G01 X93.93641 Y6.83224
G01 X93.93420 Y6.83118
G01 X93.82737 Y6.77784
G01 X93.82714 Y6.77827
G01 X93.82737 Y6.77784
G01 X93.82361 Y6.77568
G01 X93.78317 Y6.75086
G01 X93.78111 Y6.74954
G01 X93.74058 Y6.72178
G01 X93.73854 Y6.72036
G01 X93.66255 Y6.66270
G01 X93.65925 Y6.65991
G01 X93.60634 Y6.61200
G01 X93.60453 Y6.61027
G01 X93.60428 Y6.61058
G01 X93.60453 Y6.61027
G01 X93.56971 Y6.57548
G01 X93.56806 Y6.57370
G01 X93.52010 Y6.52084
G01 X93.51731 Y6.51746
G01 X93.51711 Y6.51761
G01 X93.51731 Y6.51746
G01 X93.45965 Y6.44147
G01 X93.45818 Y6.43946
G01 X93.43042 Y6.39884
G01 X93.42910 Y6.39679
G01 X93.39854 Y6.34703
G01 X93.36450 Y6.29849
G01 X93.33705 Y6.26379
G01 X93.33661 Y6.26334
G01 X93.32793 Y6.25211
G01 X93.32755 Y6.25160
G01 X93.30357 Y6.21972
G01 X93.23060 Y6.13857
G01 X93.21652 Y6.12526
G01 X93.20139 Y6.12148
G01 X93.15401 Y6.11388
G01 X93.10606 Y6.11388
G01 X93.05869 Y6.12148
G01 X93.04355 Y6.12524
G01 X93.02948 Y6.13857
G01 X92.95650 Y6.21975
G01 X92.93253 Y6.25160
G01 X92.93215 Y6.25211
G01 X92.92346 Y6.26334
G01 X92.92308 Y6.26379
G01 X92.89557 Y6.29849
G01 X92.86153 Y6.34705
G01 X92.83098 Y6.39679
G01 X92.82966 Y6.39884
G01 X92.80187 Y6.43946
G01 X92.80045 Y6.44147
G01 X92.74276 Y6.51746
G01 X92.73997 Y6.52084
G01 X92.74043 Y6.52125
G01 X92.73997 Y6.52084
G01 X92.69206 Y6.57370
G01 X92.69036 Y6.57548
G01 X92.65554 Y6.61027
G01 X92.65379 Y6.61200
G01 X92.60088 Y6.65991
G01 X92.59758 Y6.66270
G01 X92.52153 Y6.72036
G01 X92.52194 Y6.72094
G01 X92.52153 Y6.72036
G01 X92.51952 Y6.72178
G01 X92.47893 Y6.74954
G01 X92.47688 Y6.75086
G01 X92.43651 Y6.77568
G01 X92.43268 Y6.77784
G01 X92.32595 Y6.83118
G01 X92.32369 Y6.83224
G01 X92.27858 Y6.85211
G01 X92.27878 Y6.85264
G01 X92.27858 Y6.85211
G01 X92.27632 Y6.85305
G01 X92.25450 Y6.86138
G01 X92.25038 Y6.86275
G01 X92.11251 Y6.90212
G01 X92.11020 Y6.90270
G01 X92.06278 Y6.91380
G01 X92.06283 Y6.91424
G01 X92.06278 Y6.91380
G01 X92.05602 Y6.91492
G01 X91.88935 Y6.93042
G01 X91.88813 Y6.93052
G01 X91.86347 Y6.93219
G01 X91.86347 Y6.93263
G01 X91.86347 Y6.93219
G01 X91.85661 Y6.93219
G01 X91.83194 Y6.93052
G01 X91.83070 Y6.93042
G01 X91.66405 Y6.91492
G01 X91.65732 Y6.91380
G01 X91.65727 Y6.91418
G01 X91.65732 Y6.91380
G01 X91.60987 Y6.90270
G01 X91.60756 Y6.90212
G01 X91.46971 Y6.86275
G01 X91.46555 Y6.86138
G01 X91.46542 Y6.86173
G01 X91.46555 Y6.86138
G01 X91.44378 Y6.85305
G01 X91.44152 Y6.85211
G01 X91.39636 Y6.83224
G01 X91.39418 Y6.83118
G01 X91.28737 Y6.77784
G01 X91.28711 Y6.77827
G01 X91.28737 Y6.77784
G01 X91.28358 Y6.77568
G01 X91.24320 Y6.75086
G01 X91.24114 Y6.74954
G01 X91.20053 Y6.72178
G01 X91.19852 Y6.72036
G01 X91.12252 Y6.66270
G01 X91.11919 Y6.65991
G01 X91.06629 Y6.61200
G01 X91.06451 Y6.61027
G01 X91.06428 Y6.61058
G01 X91.06451 Y6.61027
G01 X91.02971 Y6.57548
G01 X91.02803 Y6.57370
G01 X90.98008 Y6.52084
G01 X90.97728 Y6.51746
G01 X90.97708 Y6.51761
G01 X90.97728 Y6.51746
G01 X90.91963 Y6.44147
G01 X90.91820 Y6.43946
G01 X90.89044 Y6.39884
G01 X90.88907 Y6.39679
G01 X90.85857 Y6.34705
G01 X90.82450 Y6.29849
G01 X90.79700 Y6.26379
G01 X90.79659 Y6.26334
G01 X90.78793 Y6.25211
G01 X90.78752 Y6.25160
G01 X90.76354 Y6.21972
G01 X90.69060 Y6.13857
G01 X90.67652 Y6.12526
G01 X90.66141 Y6.12148
G01 X90.61404 Y6.11388
G01 X90.56603 Y6.11388
G01 X90.51869 Y6.12148
G01 X90.50352 Y6.12524
G01 X90.48945 Y6.13857
G01 X90.41653 Y6.21975
G01 X90.39255 Y6.25160
G01 X90.39217 Y6.25211
G01 X90.38348 Y6.26334
G01 X90.38305 Y6.26379
G01 X90.35554 Y6.29849
G01 X90.32151 Y6.34705
G01 X90.29098 Y6.39679
G01 X90.28963 Y6.39884
G01 X90.26189 Y6.43946
G01 X90.26042 Y6.44147
G01 X90.20276 Y6.51746
G01 X90.20299 Y6.51761
G01 X90.20276 Y6.51746
G01 X90.19997 Y6.52084
G01 X90.15206 Y6.57370
G01 X90.15034 Y6.57548
G01 X90.11556 Y6.61027
G01 X90.11572 Y6.61048
G01 X90.11556 Y6.61027
G01 X90.11376 Y6.61200
G01 X90.06090 Y6.65991
G01 X90.05753 Y6.66270
G01 X89.98153 Y6.72036
G01 X89.97955 Y6.72178
G01 X89.93896 Y6.74954
G01 X89.93916 Y6.74987
G01 X89.93896 Y6.74954
G01 X89.93690 Y6.75086
G01 X89.89649 Y6.77568
G01 X89.89268 Y6.77784
G01 X89.78592 Y6.83118
G01 X89.78371 Y6.83224
G01 X89.78387 Y6.83265
G01 X89.78371 Y6.83224
G01 X89.73855 Y6.85211
G01 X89.73629 Y6.85305
G01 X89.71452 Y6.86138
G01 X89.71036 Y6.86275
G01 X89.57254 Y6.90212
G01 X89.57018 Y6.90270
G01 X89.52275 Y6.91380
G01 X89.52286 Y6.91434
G01 X89.52275 Y6.91380
G01 X89.51600 Y6.91492
G01 X89.34937 Y6.93042
G01 X89.34810 Y6.93052
G01 X89.32344 Y6.93219
G01 X89.32344 Y6.93263
G01 X89.32344 Y6.93219
G01 X89.31663 Y6.93219
G01 X89.29197 Y6.93052
G01 X89.29070 Y6.93042
G01 X89.12408 Y6.91492
G01 X89.11734 Y6.91380
G01 X89.11727 Y6.91418
G01 X89.11734 Y6.91380
G01 X89.06990 Y6.90270
G01 X89.06754 Y6.90212
G01 X88.92971 Y6.86275
G01 X88.92555 Y6.86138
G01 X88.92540 Y6.86181
G01 X88.92555 Y6.86138
G01 X88.90376 Y6.85305
G01 X88.90152 Y6.85211
G01 X88.85636 Y6.83224
G01 X88.85415 Y6.83118
G01 X88.74739 Y6.77784
G01 X88.74358 Y6.77568
G01 X88.70317 Y6.75091
G01 X88.70292 Y6.75135
G01 X88.70317 Y6.75091
G01 X88.70175 Y6.74997
G01 X88.67381 Y6.73148
G01 X88.67183 Y6.73011
G01 X88.65918 Y6.72084
G01 X88.65854 Y6.72036
G01 X88.58255 Y6.66270
G01 X88.57917 Y6.65991
G01 X88.52631 Y6.61200
G01 X88.52611 Y6.61220
G01 X88.52631 Y6.61200
G01 X88.52453 Y6.61027
G01 X88.48974 Y6.57548
G01 X88.48801 Y6.57370
G01 X88.44010 Y6.52084
G01 X88.43731 Y6.51746
G01 X88.43711 Y6.51761
G01 X88.43731 Y6.51746
G01 X88.37965 Y6.44147
G01 X88.37818 Y6.43946
G01 X88.35042 Y6.39884
G01 X88.34910 Y6.39679
G01 X88.31826 Y6.34665
G01 X88.28417 Y6.29801
G01 X88.25707 Y6.26379
G01 X88.25667 Y6.26331
G01 X88.24760 Y6.25157
G01 X88.24717 Y6.25099
G01 X88.22362 Y6.21967
G01 X88.15032 Y6.13804
G01 X88.13640 Y6.12480
G01 X88.12111 Y6.12110
G01 X88.07373 Y6.11345
G01 X88.02573 Y6.11345
G01 X87.97836 Y6.12110
G01 X87.92113 Y6.13512
G01 X87.91501 Y6.13715
G01 X87.91110 Y6.15036
G01 X87.91501 Y6.13715
G01 X87.87981 Y6.10194
G01 X87.86525 Y6.10588
G01 X87.87981 Y6.10194
G01 X87.90079 Y6.03291
G01 X87.90795 Y6.00428
G01 X87.91227 Y5.97522
G01 X87.92860 Y5.80939
G01 X87.92860 Y5.75053
G01 X87.91227 Y5.58475
G01 X87.90795 Y5.55564
G01 X87.90079 Y5.52701
G01 X87.87981 Y5.45795
G01 X87.86426 Y5.45394
G01 X87.87981 Y5.45795
G01 X87.91501 Y5.42275
G01 X87.91110 Y5.40949
G01 X87.91501 Y5.42275
G01 X87.92113 Y5.42478
G01 X87.97836 Y5.43885
G01 X88.02573 Y5.44650
G01 X88.07373 Y5.44650
G01 X88.12111 Y5.43885
G01 X88.13640 Y5.43509
G01 X88.15032 Y5.42191
G01 X88.22362 Y5.34022
G01 X88.24717 Y5.30890
G01 X88.24760 Y5.30837
G01 X88.25667 Y5.29659
G01 X88.25707 Y5.29605
G01 X88.28417 Y5.26194
G01 X88.31826 Y5.21330
G01 X88.34910 Y5.16313
G01 X88.35042 Y5.16108
G01 X88.37823 Y5.12041
G01 X88.37965 Y5.11840
G01 X88.43731 Y5.04248
G01 X88.44010 Y5.03911
G01 X88.48806 Y4.98622
G01 X88.48778 Y4.98597
G01 X88.48806 Y4.98622
G01 X88.48974 Y4.98439
G01 X88.52448 Y4.94965
G01 X88.52626 Y4.94800
G01 X88.57917 Y4.90004
G01 X88.58255 Y4.89725
G01 X88.58234 Y4.89699
G01 X88.58255 Y4.89725
G01 X88.65849 Y4.83959
G01 X88.66055 Y4.83817
G01 X88.70111 Y4.81033
G01 X88.70317 Y4.80903
G01 X88.75293 Y4.77843
G01 X88.80150 Y4.74444
G01 X88.83614 Y4.71693
G01 X88.83665 Y4.71650
G01 X88.84788 Y4.70786
G01 X88.84841 Y4.70743
G01 X88.88029 Y4.68343
G01 X88.96149 Y4.61046
G01 X88.97477 Y4.59646
G01 X88.97848 Y4.58117
G01 X88.98610 Y4.53390
G01 X88.98610 Y4.48600
G01 X88.97848 Y4.43873
G01 X88.97477 Y4.42349
G01 X88.96157 Y4.40952
G01 X88.88029 Y4.33641
G01 X88.84841 Y4.31241
G01 X88.84788 Y4.31208
G01 X88.83665 Y4.30334
G01 X88.83614 Y4.30301
G01 X88.80150 Y4.27551
G01 X88.75293 Y4.24142
G01 X88.70317 Y4.21089
G01 X88.70111 Y4.20952
G01 X88.66055 Y4.18181
G01 X88.65854 Y4.18036
G01 X88.58255 Y4.12270
G01 X88.58234 Y4.12285
G01 X88.58255 Y4.12270
G01 X88.57917 Y4.11993
G01 X88.52631 Y4.07200
G01 X88.52453 Y4.07030
G01 X88.48974 Y4.03545
G01 X88.48948 Y4.03573
G01 X88.48974 Y4.03545
G01 X88.48801 Y4.03372
G01 X88.44010 Y3.98084
G01 X88.43731 Y3.97749
G01 X88.37965 Y3.90141
G01 X88.37818 Y3.89941
G01 X88.35042 Y3.85887
G01 X88.34910 Y3.85681
G01 X88.31857 Y3.80705
G01 X88.28448 Y3.75841
G01 X88.25702 Y3.72382
G01 X88.25661 Y3.72331
G01 X88.24785 Y3.71201
G01 X88.24750 Y3.71155
G01 X88.22352 Y3.67967
G01 X88.15062 Y3.59854
G01 X88.13650 Y3.58518
G01 X88.12139 Y3.58148
G01 X88.07401 Y3.57383
G01 X88.02603 Y3.57383
G01 X87.97866 Y3.58148
G01 X87.96360 Y3.58518
G01 X87.94948 Y3.59854
G01 X87.87653 Y3.67977
G01 X87.85260 Y3.71155
G01 X87.85220 Y3.71201
G01 X87.84348 Y3.72331
G01 X87.84308 Y3.72382
G01 X87.81562 Y3.75841
G01 X87.78153 Y3.80705
G01 X87.75100 Y3.85681
G01 X87.74963 Y3.85887
G01 X87.72187 Y3.89941
G01 X87.72045 Y3.90141
G01 X87.66299 Y3.97759
G01 X87.65999 Y3.98084
G01 X87.61204 Y4.03372
G01 X87.61036 Y4.03545
G01 X87.57556 Y4.07030
G01 X87.57574 Y4.07053
G01 X87.57556 Y4.07030
G01 X87.57379 Y4.07200
G01 X87.52088 Y4.11993
G01 X87.51755 Y4.12270
G01 X87.44155 Y4.18038
G01 X87.43955 Y4.18181
G01 X87.39893 Y4.20952
G01 X87.39693 Y4.21089
G01 X87.34671 Y4.24175
G01 X87.29820 Y4.27573
G01 X87.26388 Y4.30296
G01 X87.26337 Y4.30332
G01 X87.25174 Y4.31231
G01 X87.25123 Y4.31267
G01 X87.21974 Y4.33636
G01 X87.13797 Y4.40974
G01 X87.12492 Y4.42361
G01 X87.12118 Y4.43908
G01 X87.11354 Y4.48635
G01 X87.11354 Y4.53426
G01 X87.12118 Y4.58153
G01 X87.13513 Y4.63878
G01 X87.13719 Y4.64497
G01 X87.14857 Y4.64868
G01 X87.13719 Y4.64497
G01 X87.10198 Y4.68018
G01 X87.10599 Y4.69471
G01 X87.10198 Y4.68018
G01 X87.03292 Y4.65922
G01 X86.97526 Y4.64777
G01 X86.80942 Y4.63144
G01 X86.78001 Y4.62999
G01 X86.75060 Y4.63144
G01 X86.58479 Y4.64777
G01 X86.52710 Y4.65922
G01 X86.45807 Y4.68018
G01 X86.45405 Y4.69468
G01 X86.45807 Y4.68018
G01 X86.42286 Y4.64497
G01 X86.40963 Y4.64886
G01 X86.42286 Y4.64497
G01 X86.42492 Y4.63878
G01 X86.43894 Y4.58153
G01 X86.44659 Y4.53426
G01 X86.44659 Y4.48635
G01 X86.43894 Y4.43908
G01 X86.43513 Y4.42361
G01 X86.42207 Y4.40974
G01 X86.34039 Y4.33636
G01 X86.30889 Y4.31277
G01 X86.30841 Y4.31236
G01 X86.29675 Y4.30332
G01 X86.29617 Y4.30296
G01 X86.26193 Y4.27573
G01 X86.21339 Y4.24175
G01 X86.16317 Y4.21089
G01 X86.16111 Y4.20952
G01 X86.12053 Y4.18181
G01 X86.11854 Y4.18036
G01 X86.04255 Y4.12270
G01 X86.03922 Y4.11993
G01 X85.98629 Y4.07200
G01 X85.98451 Y4.07030
G01 X85.98431 Y4.07060
G01 X85.98451 Y4.07030
G01 X85.94971 Y4.03545
G01 X85.94801 Y4.03372
G01 X85.90008 Y3.98084
G01 X85.89731 Y3.97749
G01 X85.83965 Y3.90141
G01 X85.83818 Y3.89941
G01 X85.81044 Y3.85887
G01 X85.80907 Y3.85681
G01 X85.77857 Y3.80705
G01 X85.74445 Y3.75841
G01 X85.71700 Y3.72382
G01 X85.71659 Y3.72331
G01 X85.70785 Y3.71201
G01 X85.70747 Y3.71155
G01 X85.68354 Y3.67967
G01 X85.61060 Y3.59854
G01 X85.59655 Y3.58518
G01 X85.58144 Y3.58148
G01 X85.53401 Y3.57383
G01 X85.48603 Y3.57383
G01 X85.43866 Y3.58148
G01 X85.42357 Y3.58518
G01 X85.40945 Y3.59854
G01 X85.33650 Y3.67977
G01 X85.31258 Y3.71155
G01 X85.31225 Y3.71201
G01 X85.30346 Y3.72331
G01 X85.30305 Y3.72382
G01 X85.27559 Y3.75841
G01 X85.24156 Y3.80705
G01 X85.21098 Y3.85681
G01 X85.20968 Y3.85887
G01 X85.18192 Y3.89941
G01 X85.18045 Y3.90141
G01 X85.12299 Y3.97759
G01 X85.11997 Y3.98084
G01 X85.07209 Y4.03372
G01 X85.07034 Y4.03545
G01 X85.03554 Y4.07030
G01 X85.03376 Y4.07200
G01 X85.03396 Y4.07218
G01 X85.03376 Y4.07200
G01 X84.98088 Y4.11993
G01 X84.97755 Y4.12270
G01 X84.90155 Y4.18038
G01 X84.89952 Y4.18181
G01 X84.85898 Y4.20952
G01 X84.85693 Y4.21089
G01 X84.80714 Y4.24142
G01 X84.75858 Y4.27551
G01 X84.72396 Y4.30301
G01 X84.72340 Y4.30337
G01 X84.71220 Y4.31208
G01 X84.71169 Y4.31241
G01 X84.67981 Y4.33644
G01 X84.59863 Y4.40941
G01 X84.58530 Y4.42351
G01 X84.58159 Y4.43860
G01 X84.57394 Y4.48597
G01 X84.57394 Y4.53393
G01 X84.58159 Y4.58135
G01 X84.58530 Y4.59643
G01 X84.59866 Y4.61056
G01 X84.67981 Y4.68340
G01 X84.71161 Y4.70738
G01 X84.71212 Y4.70781
G01 X84.72340 Y4.71648
G01 X84.72396 Y4.71693
G01 X84.75858 Y4.74442
G01 X84.80722 Y4.77845
G01 X84.85693 Y4.80906
G01 X84.85898 Y4.81033
G01 X84.89960 Y4.83817
G01 X84.90155 Y4.83959
G01 X84.97755 Y4.89725
G01 X84.97775 Y4.89699
G01 X84.97755 Y4.89725
G01 X84.98088 Y4.90004
G01 X85.03384 Y4.94800
G01 X85.03562 Y4.94965
G01 X85.07034 Y4.98439
G01 X85.07201 Y4.98622
G01 X85.07229 Y4.98597
G01 X85.07201 Y4.98622
G01 X85.11997 Y5.03911
G01 X85.12279 Y5.04248
G01 X85.18045 Y5.11840
G01 X85.18184 Y5.12041
G01 X85.20968 Y5.16108
G01 X85.21098 Y5.16313
G01 X85.24184 Y5.21330
G01 X85.27587 Y5.26194
G01 X85.30303 Y5.29605
G01 X85.30343 Y5.29659
G01 X85.31248 Y5.30837
G01 X85.31293 Y5.30890
G01 X85.33640 Y5.34020
G01 X85.40973 Y5.42188
G01 X85.42368 Y5.43509
G01 X85.43897 Y5.43885
G01 X85.48634 Y5.44650
G01 X85.53437 Y5.44650
G01 X85.58174 Y5.43885
G01 X85.63894 Y5.42478
G01 X85.64509 Y5.42275
G01 X85.64895 Y5.40949
G01 X85.64509 Y5.42275
G01 X85.68022 Y5.45793
G01 X85.69581 Y5.45391
G01 X85.68022 Y5.45793
G01 X85.65931 Y5.52701
G01 X85.65215 Y5.55564
G01 X85.64783 Y5.58475
G01 X85.63145 Y5.75053
G01 X85.63000 Y5.78000
G01 X85.63145 Y5.80939
G01 X85.64783 Y5.97522
G01 X85.65215 Y6.00428
G01 X85.65931 Y6.03291
G01 X85.68022 Y6.10197
G01 X85.69581 Y6.10593
G01 X85.68022 Y6.10197
G01 X85.64509 Y6.13715
G01 X85.64895 Y6.15036
G01 X85.64509 Y6.13715
G01 X85.63894 Y6.13512
G01 X85.58174 Y6.12110
G01 X85.53437 Y6.11345
G01 X85.48634 Y6.11345
G01 X85.43897 Y6.12110
G01 X85.42368 Y6.12480
G01 X85.40973 Y6.13806
G01 X85.33640 Y6.21970
G01 X85.31293 Y6.25099
G01 X85.31248 Y6.25157
G01 X85.30343 Y6.26331
G01 X85.30303 Y6.26379
G01 X85.27587 Y6.29801
G01 X85.24184 Y6.34665
G01 X85.21098 Y6.39679
G01 X85.20968 Y6.39884
G01 X85.18192 Y6.43946
G01 X85.18045 Y6.44147
G01 X85.12279 Y6.51746
G01 X85.12299 Y6.51761
G01 X85.12279 Y6.51746
G01 X85.11997 Y6.52084
G01 X85.07209 Y6.57370
G01 X85.07034 Y6.57548
G01 X85.03554 Y6.61027
G01 X85.03376 Y6.61200
G01 X85.03396 Y6.61220
G01 X85.03376 Y6.61200
G01 X84.98088 Y6.65991
G01 X84.97755 Y6.66270
G01 X84.90155 Y6.72036
G01 X84.89952 Y6.72178
G01 X84.85898 Y6.74954
G01 X84.85693 Y6.75086
G01 X84.85723 Y6.75135
G01 X84.85693 Y6.75086
G01 X84.81654 Y6.77568
G01 X84.81270 Y6.77784
G01 X84.70592 Y6.83118
G01 X84.70369 Y6.83224
G01 X84.65855 Y6.85211
G01 X84.65629 Y6.85305
G01 X84.63452 Y6.86138
G01 X84.63041 Y6.86275
G01 X84.63059 Y6.86316
G01 X84.63041 Y6.86275
G01 X84.49251 Y6.90212
G01 X84.49018 Y6.90270
G01 X84.44280 Y6.91380
G01 X84.44283 Y6.91418
G01 X84.44280 Y6.91380
G01 X84.43602 Y6.91492
G01 X84.26935 Y6.93042
G01 X84.26813 Y6.93052
G01 X84.24344 Y6.93219
G01 X84.23666 Y6.93219
G01 X84.23666 Y6.93263
G01 X84.23666 Y6.93219
G01 X84.21194 Y6.93052
G01 X84.21070 Y6.93042
G01 X84.04405 Y6.91492
G01 X84.03729 Y6.91380
G01 X84.03719 Y6.91434
G01 X84.03729 Y6.91380
G01 X83.98992 Y6.90270
G01 X83.98756 Y6.90212
G01 X83.84969 Y6.86275
G01 X83.84557 Y6.86138
G01 X83.82381 Y6.85305
G01 X83.82155 Y6.85211
G01 X83.77636 Y6.83224
G01 X83.77623 Y6.83265
G01 X83.77636 Y6.83224
G01 X83.77418 Y6.83118
G01 X83.66739 Y6.77784
G01 X83.66356 Y6.77568
G01 X83.62317 Y6.75086
G01 X83.62111 Y6.74954
G01 X83.62091 Y6.74987
G01 X83.62111 Y6.74954
G01 X83.58053 Y6.72178
G01 X83.57854 Y6.72036
G01 X83.50255 Y6.66270
G01 X83.49919 Y6.65991
G01 X83.44634 Y6.61200
G01 X83.44451 Y6.61027
G01 X83.40976 Y6.57548
G01 X83.40801 Y6.57370
G01 X83.36008 Y6.52084
G01 X83.35731 Y6.51746
G01 X83.35711 Y6.51761
G01 X83.35731 Y6.51746
G01 X83.29963 Y6.44147
G01 X83.29818 Y6.43946
G01 X83.27042 Y6.39884
G01 X83.26907 Y6.39679
G01 X83.23854 Y6.34705
G01 X83.20450 Y6.29849
G01 X83.17705 Y6.26379
G01 X83.17659 Y6.26334
G01 X83.16793 Y6.25211
G01 X83.16755 Y6.25160
G01 X83.14354 Y6.21972
G01 X83.07065 Y6.13857
G01 X83.05652 Y6.12526
G01 X83.04144 Y6.12148
G01 X82.99406 Y6.11388
G01 X82.94603 Y6.11388
G01 X82.89866 Y6.12148
G01 X82.88355 Y6.12524
G01 X82.86945 Y6.13857
G01 X82.79648 Y6.21975
G01 X82.77253 Y6.25160
G01 X82.77215 Y6.25211
G01 X82.76351 Y6.26334
G01 X82.76305 Y6.26379
G01 X82.73557 Y6.29849
G01 X82.70153 Y6.34705
G01 X82.67103 Y6.39679
G01 X82.66966 Y6.39884
G01 X82.64189 Y6.43946
G01 X82.64042 Y6.44147
G01 X82.58276 Y6.51746
G01 X82.58297 Y6.51761
G01 X82.58276 Y6.51746
G01 X82.58002 Y6.52084
G01 X82.53206 Y6.57370
G01 X82.53034 Y6.57548
G01 X82.49559 Y6.61027
G01 X82.49579 Y6.61058
G01 X82.49559 Y6.61027
G01 X82.49376 Y6.61200
G01 X82.44088 Y6.65991
G01 X82.43753 Y6.66270
G01 X82.36153 Y6.72036
G01 X82.35957 Y6.72178
G01 X82.31898 Y6.74954
G01 X82.31690 Y6.75086
G01 X82.27652 Y6.77568
G01 X82.27268 Y6.77784
G01 X82.27298 Y6.77827
G01 X82.27268 Y6.77784
G01 X82.16592 Y6.83118
G01 X82.16374 Y6.83224
G01 X82.11855 Y6.85211
G01 X82.11629 Y6.85305
G01 X82.09450 Y6.86138
G01 X82.09463 Y6.86173
G01 X82.09450 Y6.86138
G01 X82.09038 Y6.86275
G01 X81.95251 Y6.90212
G01 X81.95018 Y6.90270
G01 X81.90278 Y6.91380
G01 X81.90288 Y6.91418
G01 X81.90278 Y6.91380
G01 X81.89602 Y6.91492
G01 X81.72940 Y6.93042
G01 X81.72813 Y6.93052
G01 X81.70344 Y6.93219
G01 X81.70344 Y6.93263
G01 X81.70344 Y6.93219
G01 X81.69663 Y6.93219
G01 X81.67194 Y6.93052
G01 X81.67075 Y6.93042
G01 X81.50405 Y6.91492
G01 X81.49729 Y6.91380
G01 X81.49727 Y6.91424
G01 X81.49729 Y6.91380
G01 X81.44990 Y6.90270
G01 X81.44756 Y6.90212
G01 X81.30969 Y6.86275
G01 X81.30555 Y6.86138
G01 X81.28378 Y6.85305
G01 X81.28152 Y6.85211
G01 X81.28127 Y6.85264
G01 X81.28152 Y6.85211
G01 X81.23641 Y6.83224
G01 X81.23415 Y6.83118
G01 X81.12737 Y6.77784
G01 X81.12356 Y6.77568
G01 X81.08317 Y6.75086
G01 X81.08111 Y6.74954
G01 X81.04058 Y6.72178
G01 X81.03852 Y6.72036
G01 X81.03814 Y6.72094
G01 X81.03852 Y6.72036
G01 X80.96252 Y6.66270
G01 X80.95917 Y6.65991
G01 X80.90631 Y6.61200
G01 X80.90456 Y6.61027
G01 X80.86974 Y6.57548
G01 X80.86801 Y6.57370
G01 X80.82013 Y6.52084
G01 X80.81962 Y6.52125
G01 X80.82013 Y6.52084
G01 X80.81728 Y6.51746
G01 X80.75963 Y6.44147
G01 X80.75818 Y6.43946
G01 X80.73042 Y6.39884
G01 X80.72912 Y6.39679
G01 X80.69854 Y6.34705
G01 X80.66450 Y6.29849
G01 X80.63702 Y6.26379
G01 X80.63664 Y6.26334
G01 X80.62790 Y6.25211
G01 X80.62752 Y6.25160
G01 X80.60359 Y6.21972
G01 X80.53062 Y6.13857
G01 X80.51652 Y6.12526
G01 X80.50141 Y6.12148
G01 X80.45404 Y6.11388
G01 X80.40608 Y6.11388
G01 X80.35871 Y6.12148
G01 X80.34352 Y6.12524
G01 X80.32950 Y6.13857
G01 X80.25653 Y6.21975
G01 X80.23253 Y6.25160
G01 X80.23215 Y6.25211
G01 X80.22348 Y6.26334
G01 X80.22310 Y6.26379
G01 X80.19554 Y6.29849
G01 X80.16151 Y6.34705
G01 X80.13100 Y6.39679
G01 X80.12963 Y6.39884
G01 X80.10189 Y6.43946
G01 X80.10042 Y6.44147
G01 X80.04276 Y6.51746
G01 X80.04297 Y6.51761
G01 X80.04276 Y6.51746
G01 X80.03999 Y6.52084
G01 X79.99204 Y6.57370
G01 X79.99039 Y6.57548
G01 X79.95556 Y6.61027
G01 X79.95579 Y6.61058
G01 X79.95556 Y6.61027
G01 X79.95381 Y6.61200
G01 X79.90088 Y6.65991
G01 X79.89753 Y6.66270
G01 X79.82153 Y6.72036
G01 X79.81955 Y6.72178
G01 X79.77896 Y6.74954
G01 X79.77690 Y6.75086
G01 X79.73649 Y6.77568
G01 X79.73268 Y6.77784
G01 X79.73296 Y6.77827
G01 X79.73268 Y6.77784
G01 X79.62597 Y6.83118
G01 X79.62371 Y6.83224
G01 X79.57860 Y6.85211
G01 X79.57634 Y6.85305
G01 X79.55450 Y6.86138
G01 X79.55468 Y6.86173
G01 X79.55450 Y6.86138
G01 X79.55036 Y6.86275
G01 X79.41251 Y6.90212
G01 X79.41023 Y6.90270
G01 X79.36275 Y6.91380
G01 X79.36286 Y6.91418
G01 X79.36275 Y6.91380
G01 X79.35600 Y6.91492
G01 X79.18937 Y6.93042
G01 X79.18810 Y6.93052
G01 X79.16349 Y6.93219
G01 X79.16349 Y6.93257
G01 X79.16349 Y6.93219
G01 X79.15663 Y6.93219
G01 X79.13194 Y6.93052
G01 X79.13072 Y6.93042
G01 X78.96405 Y6.91492
G01 X78.96402 Y6.91535
G01 X78.96405 Y6.91492
G01 X78.95734 Y6.91380
G01 X78.90990 Y6.90270
G01 X78.90754 Y6.90212
G01 X78.76974 Y6.86275
G01 X78.76555 Y6.86138
G01 X78.74376 Y6.85305
G01 X78.74150 Y6.85211
G01 X78.74132 Y6.85269
G01 X78.74150 Y6.85211
G01 X78.69638 Y6.83224
G01 X78.69415 Y6.83118
G01 X78.58737 Y6.77784
G01 X78.58361 Y6.77568
G01 X78.54322 Y6.75086
G01 X78.54117 Y6.74954
G01 X78.50055 Y6.72178
G01 X78.49852 Y6.72036
G01 X78.49811 Y6.72094
G01 X78.49852 Y6.72036
G01 X78.42252 Y6.66270
G01 X78.41917 Y6.65991
G01 X78.36631 Y6.61200
G01 X78.36453 Y6.61027
G01 X78.32974 Y6.57548
G01 X78.32806 Y6.57370
G01 X78.28010 Y6.52084
G01 X78.27962 Y6.52125
G01 X78.28010 Y6.52084
G01 X78.27728 Y6.51746
G01 X78.21963 Y6.44147
G01 X78.21823 Y6.43946
G01 X78.19047 Y6.39884
G01 X78.18910 Y6.39679
G01 X78.15859 Y6.34705
G01 X78.12450 Y6.29849
G01 X78.09702 Y6.26379
G01 X78.09661 Y6.26334
G01 X78.08790 Y6.25211
G01 X78.08752 Y6.25160
G01 X78.06357 Y6.21972
G01 X77.99062 Y6.13857
G01 X77.97652 Y6.12526
G01 X77.96139 Y6.12148
G01 X77.91401 Y6.11388
G01 X77.86606 Y6.11388
G01 X77.81871 Y6.12148
G01 X77.80352 Y6.12524
G01 X77.78948 Y6.13857
G01 X77.71650 Y6.21975
G01 X77.69258 Y6.25160
G01 X77.69220 Y6.25211
G01 X77.68346 Y6.26334
G01 X77.68308 Y6.26379
G01 X77.65554 Y6.29849
G01 X77.62151 Y6.34705
G01 X77.59100 Y6.39679
G01 X77.58963 Y6.39884
G01 X77.56187 Y6.43946
G01 X77.56042 Y6.44147
G01 X77.50276 Y6.51746
G01 X77.49999 Y6.52084
G01 X77.50027 Y6.52104
G01 X77.49999 Y6.52084
G01 X77.45204 Y6.57370
G01 X77.45036 Y6.57548
G01 X77.41554 Y6.61027
G01 X77.41379 Y6.61200
G01 X77.36093 Y6.65991
G01 X77.36113 Y6.66011
G01 X77.36093 Y6.65991
G01 X77.35753 Y6.66270
G01 X77.28153 Y6.72036
G01 X77.27952 Y6.72178
G01 X77.23893 Y6.74954
G01 X77.23688 Y6.75086
G01 X77.23708 Y6.75114
G01 X77.23688 Y6.75086
G01 X77.19649 Y6.77568
G01 X77.19268 Y6.77784
G01 X77.08595 Y6.83118
G01 X77.08369 Y6.83224
G01 X77.03858 Y6.85211
G01 X77.03870 Y6.85246
G01 X77.03858 Y6.85211
G01 X77.03632 Y6.85305
G01 X77.01455 Y6.86138
G01 X77.01036 Y6.86275
G01 X76.87256 Y6.90212
G01 X76.87266 Y6.90258
G01 X76.87256 Y6.90212
G01 X76.87020 Y6.90270
G01 X76.82275 Y6.91380
G01 X76.81600 Y6.91492
G01 X76.64935 Y6.93042
G01 X76.64810 Y6.93052
G01 X76.62347 Y6.93219
G01 X76.61661 Y6.93219
G01 X76.59199 Y6.93052
G01 X76.59199 Y6.93100
G01 X76.59199 Y6.93052
G01 X76.59072 Y6.93042
G01 X76.42410 Y6.91492
G01 X76.41732 Y6.91380
G01 X76.41724 Y6.91418
G01 X76.41732 Y6.91380
G01 X76.36987 Y6.90270
G01 X76.36754 Y6.90212
G01 X76.22974 Y6.86275
G01 X76.22954 Y6.86316
G01 X76.22974 Y6.86275
G01 X76.22555 Y6.86138
G01 X76.20376 Y6.85305
G01 X76.20150 Y6.85211
G01 X76.15639 Y6.83224
G01 X76.15415 Y6.83118
G01 X76.04742 Y6.77784
G01 X76.04361 Y6.77568
G01 X76.00320 Y6.75086
G01 X76.00299 Y6.75119
G01 X76.00320 Y6.75086
G01 X76.00114 Y6.74954
G01 X75.96053 Y6.72178
G01 X75.95857 Y6.72036
G01 X75.88257 Y6.66270
G01 X75.87917 Y6.65991
G01 X75.87897 Y6.66011
G01 X75.87917 Y6.65991
G01 X75.82629 Y6.61200
G01 X75.82451 Y6.61027
G01 X75.78971 Y6.57548
G01 X75.78803 Y6.57370
G01 X75.74008 Y6.52084
G01 X75.73980 Y6.52104
G01 X75.74008 Y6.52084
G01 X75.73734 Y6.51746
G01 X75.67968 Y6.44147
G01 X75.67820 Y6.43946
G01 X75.65044 Y6.39884
G01 X75.64907 Y6.39679
G01 X75.61859 Y6.34705
G01 X75.58455 Y6.29849
G01 X75.55700 Y6.26379
G01 X75.55659 Y6.26334
G01 X75.54790 Y6.25211
G01 X75.54757 Y6.25160
G01 X75.52354 Y6.21972
G01 X75.45060 Y6.13857
G01 X75.43657 Y6.12526
G01 X75.42139 Y6.12148
G01 X75.37401 Y6.11388
G01 X75.32606 Y6.11388
G01 X75.27869 Y6.12148
G01 X75.26358 Y6.12524
G01 X75.24945 Y6.13857
G01 X75.17650 Y6.21975
G01 X75.15258 Y6.25160
G01 X75.15217 Y6.25211
G01 X75.14346 Y6.26334
G01 X75.14305 Y6.26379
G01 X75.11559 Y6.29849
G01 X75.08156 Y6.34705
G01 X75.05098 Y6.39679
G01 X75.04963 Y6.39884
G01 X75.02187 Y6.43946
G01 X75.02047 Y6.44147
G01 X74.96281 Y6.51746
G01 X74.95997 Y6.52084
G01 X74.96027 Y6.52104
G01 X74.95997 Y6.52084
G01 X74.91204 Y6.57370
G01 X74.91034 Y6.57548
G01 X74.87554 Y6.61027
G01 X74.87376 Y6.61200
G01 X74.82090 Y6.65991
G01 X74.82111 Y6.66011
G01 X74.82090 Y6.65991
G01 X74.81758 Y6.66270
G01 X74.74158 Y6.72036
G01 X74.73952 Y6.72178
G01 X74.69893 Y6.74954
G01 X74.69688 Y6.75086
G01 X74.69705 Y6.75114
G01 X74.69688 Y6.75086
G01 X74.65654 Y6.77573
G01 X74.65273 Y6.77784
G01 X74.54592 Y6.83123
G01 X74.54374 Y6.83224
G01 X74.49855 Y6.85211
G01 X74.49870 Y6.85246
G01 X74.49855 Y6.85211
G01 X74.49629 Y6.85305
G01 X74.47455 Y6.86138
G01 X74.47038 Y6.86275
G01 X74.33251 Y6.90212
G01 X74.33264 Y6.90258
G01 X74.33251 Y6.90212
G01 X74.33018 Y6.90270
G01 X74.28280 Y6.91380
G01 X74.27602 Y6.91492
G01 X74.10935 Y6.93042
G01 X74.10813 Y6.93052
G01 X74.08344 Y6.93219
G01 X74.07666 Y6.93219
G01 X74.05197 Y6.93052
G01 X74.05192 Y6.93115
G01 X74.05197 Y6.93052
G01 X74.05072 Y6.93042
G01 X73.88408 Y6.91492
G01 X73.87729 Y6.91380
G01 X73.82992 Y6.90270
G01 X73.82754 Y6.90212
G01 X73.82746 Y6.90242
G01 X73.82754 Y6.90212
G01 X73.68971 Y6.86275
G01 X73.68555 Y6.86138
G01 X73.66381 Y6.85305
G01 X73.66365 Y6.85333
G01 X73.66381 Y6.85305
G01 X73.66155 Y6.85211
G01 X73.61636 Y6.83224
G01 X73.61418 Y6.83118
G01 X73.50737 Y6.77784
G01 X73.50358 Y6.77568
G01 X73.50338 Y6.77596
G01 X73.50358 Y6.77568
G01 X73.46320 Y6.75091
G01 X73.46178 Y6.74997
G01 X73.43378 Y6.73148
G01 X73.43180 Y6.73011
G01 X73.41918 Y6.72084
G01 X73.41852 Y6.72036
G01 X73.34255 Y6.66270
G01 X73.33919 Y6.65991
G01 X73.28634 Y6.61200
G01 X73.28453 Y6.61027
G01 X73.24971 Y6.57548
G01 X73.24801 Y6.57370
G01 X73.24773 Y6.57395
G01 X73.24801 Y6.57370
G01 X73.20008 Y6.52084
G01 X73.19728 Y6.51746
G01 X73.13963 Y6.44147
G01 X73.13818 Y6.43946
G01 X73.11042 Y6.39884
G01 X73.10912 Y6.39679
G01 X73.07826 Y6.34665
G01 X73.04417 Y6.29801
G01 X73.01705 Y6.26379
G01 X73.01664 Y6.26331
G01 X73.00757 Y6.25157
G01 X73.00717 Y6.25099
G01 X72.98359 Y6.21967
G01 X72.91032 Y6.13804
G01 X72.89640 Y6.12480
G01 X72.88108 Y6.12110
G01 X72.83371 Y6.11345
G01 X72.78573 Y6.11345
G01 X72.73836 Y6.12110
G01 X72.68111 Y6.13512
G01 X72.67501 Y6.13715
G01 X72.67110 Y6.15036
G01 X72.67501 Y6.13715
G01 X72.63983 Y6.10194
G01 X72.62525 Y6.10588
G01 X72.63983 Y6.10194
G01 X72.66076 Y6.03291
G01 X72.66795 Y6.00428
G01 X72.67227 Y5.97522
G01 X72.68857 Y5.80939
G01 X72.68857 Y5.75053
G01 X72.67227 Y5.58475
G01 X72.66795 Y5.55564
G01 X72.66076 Y5.52701
G01 X72.63983 Y5.45795
G01 X72.62429 Y5.45394
G01 X72.63983 Y5.45795
G01 X72.67501 Y5.42275
G01 X72.67110 Y5.40949
G01 X72.67501 Y5.42275
G01 X72.68111 Y5.42478
G01 X72.73836 Y5.43885
G01 X72.78573 Y5.44650
G01 X72.83371 Y5.44650
G01 X72.88108 Y5.43885
G01 X72.89640 Y5.43509
G01 X72.91032 Y5.42191
G01 X72.98359 Y5.34022
G01 X73.00717 Y5.30890
G01 X73.00757 Y5.30837
G01 X73.01664 Y5.29659
G01 X73.01705 Y5.29605
G01 X73.04417 Y5.26194
G01 X73.07826 Y5.21330
G01 X73.10912 Y5.16313
G01 X73.11042 Y5.16108
G01 X73.13826 Y5.12041
G01 X73.13963 Y5.11840
G01 X73.19728 Y5.04248
G01 X73.20008 Y5.03911
G01 X73.24809 Y4.98622
G01 X73.24971 Y4.98439
G01 X73.24946 Y4.98419
G01 X73.24971 Y4.98439
G01 X73.28448 Y4.94965
G01 X73.28626 Y4.94800
G01 X73.33919 Y4.90004
G01 X73.34255 Y4.89725
G01 X73.34234 Y4.89699
G01 X73.34255 Y4.89725
G01 X73.41849 Y4.83959
G01 X73.42050 Y4.83817
G01 X73.46114 Y4.81033
G01 X73.46320 Y4.80903
G01 X73.51298 Y4.77843
G01 X73.56152 Y4.74444
G01 X73.59614 Y4.71693
G01 X73.59667 Y4.71650
G01 X73.60788 Y4.70786
G01 X73.60841 Y4.70743
G01 X73.64029 Y4.68343
G01 X73.72152 Y4.61046
G01 X73.73475 Y4.59646
G01 X73.73853 Y4.58117
G01 X73.74613 Y4.53390
G01 X73.74613 Y4.48600
G01 X73.73853 Y4.43873
G01 X73.73475 Y4.42349
G01 X73.72152 Y4.40952
G01 X73.64029 Y4.33641
G01 X73.60841 Y4.31241
G01 X73.60788 Y4.31208
G01 X73.59667 Y4.30334
G01 X73.59614 Y4.30301
G01 X73.56152 Y4.27551
G01 X73.51291 Y4.24142
G01 X73.46320 Y4.21089
G01 X73.46178 Y4.21000
G01 X73.43381 Y4.19151
G01 X73.43180 Y4.19011
G01 X73.41918 Y4.18079
G01 X73.41852 Y4.18036
G01 X73.34255 Y4.12270
G01 X73.34234 Y4.12285
G01 X73.34255 Y4.12270
G01 X73.33919 Y4.11993
G01 X73.28634 Y4.07200
G01 X73.28453 Y4.07030
G01 X73.24971 Y4.03545
G01 X73.24801 Y4.03372
G01 X73.24773 Y4.03395
G01 X73.24801 Y4.03372
G01 X73.20008 Y3.98084
G01 X73.19728 Y3.97746
G01 X73.13963 Y3.90141
G01 X73.13818 Y3.89941
G01 X73.11042 Y3.85887
G01 X73.10912 Y3.85681
G01 X73.07826 Y3.80665
G01 X73.04417 Y3.75801
G01 X73.01705 Y3.72379
G01 X73.01664 Y3.72326
G01 X73.00757 Y3.71157
G01 X73.00717 Y3.71104
G01 X72.98359 Y3.67962
G01 X72.91032 Y3.59804
G01 X72.89640 Y3.58485
G01 X72.88108 Y3.58110
G01 X72.83371 Y3.57345
G01 X72.78573 Y3.57345
G01 X72.73836 Y3.58110
G01 X72.68111 Y3.59507
G01 X72.67501 Y3.59710
G01 X72.67110 Y3.61036
G01 X72.67501 Y3.59710
G01 X72.63983 Y3.56189
G01 X72.62525 Y3.56588
G01 X72.63983 Y3.56189
G01 X72.66076 Y3.49286
G01 X72.66795 Y3.46433
G01 X72.67227 Y3.43522
G01 X72.68857 Y3.26934
G01 X72.68857 Y3.21059
G01 X72.67227 Y3.04475
G01 X72.66795 Y3.01559
G01 X72.66076 Y2.98701
G01 X72.63983 Y2.91795
G01 X72.62429 Y2.91399
G01 X72.63983 Y2.91795
G01 X72.67501 Y2.88275
G01 X72.67110 Y2.86954
G01 X72.67501 Y2.88275
G01 X72.68111 Y2.88478
G01 X72.73836 Y2.89883
G01 X72.78573 Y2.90650
G01 X72.83371 Y2.90650
G01 X72.88108 Y2.89883
G01 X72.89640 Y2.89504
G01 X72.91032 Y2.88191
G01 X72.98359 Y2.80022
G01 X73.00717 Y2.76885
G01 X73.00757 Y2.76837
G01 X73.01664 Y2.75664
G01 X73.01705 Y2.75608
G01 X73.04417 Y2.72189
G01 X73.07826 Y2.67325
G01 X73.10912 Y2.62313
G01 X73.11042 Y2.62108
G01 X73.13826 Y2.58046
G01 X73.13963 Y2.57843
G01 X73.19728 Y2.50243
G01 X73.20008 Y2.49911
G01 X73.24809 Y2.44622
G01 X73.24781 Y2.44592
G01 X73.24809 Y2.44622
G01 X73.24971 Y2.44445
G01 X73.28448 Y2.40962
G01 X73.28626 Y2.40795
G01 X73.33919 Y2.35999
G01 X73.34255 Y2.35720
G01 X73.41849 Y2.29959
G01 X73.41913 Y2.29913
G01 X73.43180 Y2.28978
G01 X73.43378 Y2.28839
G01 X73.46178 Y2.26995
G01 X73.46320 Y2.26898
G01 X73.50358 Y2.24424
G01 X73.50338 Y2.24396
G01 X73.50358 Y2.24424
G01 X73.50737 Y2.24211
G01 X73.61418 Y2.18869
G01 X73.61636 Y2.18765
G01 X73.66155 Y2.16781
G01 X73.66381 Y2.16685
G01 X73.66365 Y2.16662
G01 X73.66381 Y2.16685
G01 X73.68560 Y2.15857
G01 X73.68971 Y2.15717
G01 X73.82754 Y2.11778
G01 X73.82746 Y2.11742
G01 X73.82754 Y2.11778
G01 X73.82992 Y2.11717
G01 X73.87729 Y2.10612
G01 X73.88408 Y2.10502
G01 X74.05072 Y2.08953
G01 X74.05197 Y2.08943
G01 X74.07666 Y2.08775
G01 X74.07666 Y2.08714
G01 X74.07666 Y2.08775
G01 X74.08344 Y2.08775
G01 X74.10813 Y2.08943
G01 X74.10935 Y2.08953
G01 X74.27602 Y2.10502
G01 X74.28280 Y2.10612
G01 X74.28288 Y2.10574
G01 X74.28280 Y2.10612
G01 X74.33018 Y2.11717
G01 X74.33251 Y2.11778
G01 X74.47038 Y2.15720
G01 X74.47059 Y2.15674
G01 X74.47038 Y2.15720
G01 X74.47455 Y2.15857
G01 X74.49629 Y2.16685
G01 X74.49855 Y2.16781
G01 X74.54374 Y2.18763
G01 X74.54592 Y2.18867
G01 X74.65273 Y2.24211
G01 X74.65654 Y2.24422
G01 X74.69688 Y2.26901
G01 X74.69893 Y2.27038
G01 X74.69914 Y2.27002
G01 X74.69893 Y2.27038
G01 X74.73955 Y2.29817
G01 X74.74158 Y2.29959
G01 X74.81758 Y2.35720
G01 X74.82090 Y2.35999
G01 X74.82111 Y2.35981
G01 X74.82090 Y2.35999
G01 X74.87379 Y2.40795
G01 X74.87556 Y2.40962
G01 X74.91034 Y2.44445
G01 X74.91201 Y2.44622
G01 X74.95997 Y2.49911
G01 X74.96027 Y2.49883
G01 X74.95997 Y2.49911
G01 X74.96281 Y2.50243
G01 X75.02047 Y2.57843
G01 X75.02184 Y2.58046
G01 X75.04963 Y2.62108
G01 X75.05098 Y2.62313
G01 X75.08156 Y2.67284
G01 X75.11559 Y2.72148
G01 X75.14305 Y2.75608
G01 X75.14346 Y2.75653
G01 X75.15220 Y2.76784
G01 X75.15258 Y2.76840
G01 X75.17650 Y2.80015
G01 X75.24945 Y2.88130
G01 X75.26358 Y2.89466
G01 X75.27869 Y2.89842
G01 X75.32606 Y2.90601
G01 X75.37401 Y2.90601
G01 X75.42139 Y2.89842
G01 X75.43650 Y2.89466
G01 X75.45060 Y2.88130
G01 X75.52354 Y2.80017
G01 X75.54747 Y2.76840
G01 X75.54788 Y2.76784
G01 X75.55659 Y2.75653
G01 X75.55700 Y2.75608
G01 X75.58445 Y2.72148
G01 X75.61859 Y2.67284
G01 X75.64907 Y2.62313
G01 X75.65044 Y2.62108
G01 X75.67820 Y2.58046
G01 X75.67968 Y2.57843
G01 X75.73734 Y2.50243
G01 X75.74008 Y2.49911
G01 X75.73980 Y2.49883
G01 X75.74008 Y2.49911
G01 X75.78803 Y2.44622
G01 X75.78971 Y2.44445
G01 X75.82451 Y2.40962
G01 X75.82629 Y2.40795
G01 X75.87917 Y2.35999
G01 X75.87897 Y2.35981
G01 X75.87917 Y2.35999
G01 X75.88257 Y2.35720
G01 X75.95849 Y2.29959
G01 X75.96053 Y2.29817
G01 X76.00114 Y2.27038
G01 X76.00320 Y2.26901
G01 X76.00299 Y2.26868
G01 X76.00320 Y2.26901
G01 X76.04361 Y2.24424
G01 X76.04742 Y2.24211
G01 X76.15415 Y2.18869
G01 X76.15639 Y2.18765
G01 X76.20150 Y2.16781
G01 X76.20376 Y2.16685
G01 X76.22560 Y2.15857
G01 X76.22974 Y2.15717
G01 X76.22954 Y2.15674
G01 X76.22974 Y2.15717
G01 X76.36754 Y2.11778
G01 X76.36987 Y2.11717
G01 X76.41732 Y2.10612
G01 X76.41724 Y2.10576
G01 X76.41732 Y2.10612
G01 X76.42410 Y2.10502
G01 X76.59072 Y2.08953
G01 X76.59199 Y2.08943
G01 X76.61661 Y2.08775
G01 X76.61661 Y2.08732
G01 X76.61661 Y2.08775
G01 X76.62347 Y2.08775
G01 X76.64810 Y2.08943
G01 X76.64935 Y2.08953
G01 X76.81600 Y2.10502
G01 X76.82275 Y2.10612
G01 X76.82283 Y2.10574
G01 X76.82275 Y2.10612
G01 X76.87020 Y2.11717
G01 X76.87256 Y2.11778
G01 X77.01036 Y2.15717
G01 X77.01054 Y2.15674
G01 X77.01036 Y2.15717
G01 X77.01455 Y2.15857
G01 X77.03632 Y2.16685
G01 X77.03858 Y2.16781
G01 X77.08369 Y2.18763
G01 X77.08595 Y2.18869
G01 X77.19268 Y2.24211
G01 X77.19649 Y2.24424
G01 X77.23688 Y2.26901
G01 X77.23893 Y2.27038
G01 X77.23914 Y2.27002
G01 X77.23893 Y2.27038
G01 X77.27955 Y2.29817
G01 X77.28158 Y2.29959
G01 X77.35753 Y2.35720
G01 X77.36093 Y2.35999
G01 X77.36113 Y2.35981
G01 X77.36093 Y2.35999
G01 X77.41379 Y2.40795
G01 X77.41556 Y2.40962
G01 X77.45036 Y2.44445
G01 X77.45204 Y2.44622
G01 X77.49999 Y2.49911
G01 X77.50027 Y2.49883
G01 X77.49999 Y2.49911
G01 X77.50276 Y2.50243
G01 X77.56042 Y2.57843
G01 X77.56187 Y2.58046
G01 X77.58963 Y2.62108
G01 X77.59100 Y2.62313
G01 X77.62151 Y2.67284
G01 X77.65562 Y2.72148
G01 X77.68308 Y2.75608
G01 X77.68346 Y2.75653
G01 X77.69220 Y2.76784
G01 X77.69258 Y2.76840
G01 X77.71650 Y2.80015
G01 X77.78948 Y2.88130
G01 X77.80360 Y2.89466
G01 X77.81871 Y2.89842
G01 X77.86606 Y2.90601
G01 X77.91401 Y2.90601
G01 X77.96139 Y2.89842
G01 X77.97650 Y2.89466
G01 X77.99062 Y2.88130
G01 X78.06357 Y2.80017
G01 X78.08750 Y2.76840
G01 X78.08790 Y2.76784
G01 X78.09661 Y2.75653
G01 X78.09702 Y2.75608
G01 X78.12448 Y2.72148
G01 X78.15859 Y2.67284
G01 X78.18910 Y2.62313
G01 X78.19047 Y2.62108
G01 X78.21823 Y2.58046
G01 X78.21963 Y2.57843
G01 X78.27728 Y2.50243
G01 X78.28010 Y2.49911
G01 X78.27980 Y2.49883
G01 X78.28010 Y2.49911
G01 X78.32806 Y2.44622
G01 X78.32974 Y2.44445
G01 X78.36453 Y2.40962
G01 X78.36631 Y2.40795
G01 X78.41917 Y2.35999
G01 X78.41897 Y2.35981
G01 X78.41917 Y2.35999
G01 X78.42252 Y2.35720
G01 X78.49849 Y2.29959
G01 X78.50055 Y2.29817
G01 X78.54117 Y2.27038
G01 X78.54322 Y2.26901
G01 X78.54302 Y2.26868
G01 X78.54322 Y2.26901
G01 X78.58361 Y2.24424
G01 X78.58737 Y2.24211
G01 X78.69415 Y2.18869
G01 X78.69638 Y2.18765
G01 X78.74150 Y2.16781
G01 X78.74376 Y2.16685
G01 X78.76563 Y2.15857
G01 X78.76974 Y2.15717
G01 X78.76956 Y2.15674
G01 X78.76974 Y2.15717
G01 X78.90754 Y2.11778
G01 X78.90990 Y2.11717
G01 X78.95734 Y2.10612
G01 X78.95724 Y2.10576
G01 X78.95734 Y2.10612
G01 X78.96405 Y2.10502
G01 X79.13072 Y2.08953
G01 X79.13194 Y2.08943
G01 X79.15663 Y2.08775
G01 X79.15663 Y2.08732
G01 X79.15663 Y2.08775
G01 X79.16349 Y2.08775
G01 X79.18810 Y2.08943
G01 X79.18937 Y2.08953
G01 X79.35600 Y2.10502
G01 X79.36275 Y2.10612
G01 X79.36286 Y2.10574
G01 X79.36275 Y2.10612
G01 X79.41023 Y2.11717
G01 X79.41251 Y2.11778
G01 X79.55036 Y2.15717
G01 X79.55056 Y2.15674
G01 X79.55036 Y2.15717
G01 X79.55450 Y2.15857
G01 X79.57634 Y2.16685
G01 X79.57860 Y2.16781
G01 X79.62371 Y2.18763
G01 X79.62597 Y2.18869
G01 X79.73268 Y2.24211
G01 X79.73649 Y2.24424
G01 X79.77690 Y2.26901
G01 X79.77896 Y2.27038
G01 X79.77914 Y2.27002
G01 X79.77896 Y2.27038
G01 X79.81955 Y2.29817
G01 X79.82160 Y2.29959
G01 X79.89753 Y2.35720
G01 X79.90088 Y2.35999
G01 X79.90113 Y2.35981
G01 X79.90088 Y2.35999
G01 X79.95381 Y2.40795
G01 X79.95556 Y2.40962
G01 X79.99039 Y2.44445
G01 X79.99204 Y2.44622
G01 X80.03999 Y2.49911
G01 X80.04030 Y2.49883
G01 X80.03999 Y2.49911
G01 X80.04276 Y2.50243
G01 X80.10042 Y2.57843
G01 X80.10189 Y2.58046
G01 X80.12963 Y2.62108
G01 X80.13100 Y2.62313
G01 X80.16151 Y2.67284
G01 X80.19565 Y2.72148
G01 X80.22310 Y2.75608
G01 X80.22348 Y2.75653
G01 X80.23222 Y2.76784
G01 X80.23260 Y2.76840
G01 X80.25653 Y2.80015
G01 X80.32950 Y2.88130
G01 X80.34363 Y2.89466
G01 X80.35871 Y2.89842
G01 X80.40608 Y2.90601
G01 X80.45404 Y2.90601
G01 X80.50141 Y2.89842
G01 X80.51650 Y2.89466
G01 X80.53062 Y2.88130
G01 X80.60352 Y2.80017
G01 X80.62752 Y2.76840
G01 X80.62790 Y2.76784
G01 X80.63664 Y2.75653
G01 X80.63702 Y2.75608
G01 X80.66450 Y2.72148
G01 X80.69854 Y2.67284
G01 X80.72912 Y2.62313
G01 X80.73042 Y2.62108
G01 X80.75826 Y2.58046
G01 X80.75963 Y2.57843
G01 X80.81728 Y2.50243
G01 X80.82013 Y2.49911
G01 X80.81982 Y2.49883
G01 X80.82013 Y2.49911
G01 X80.86808 Y2.44622
G01 X80.86974 Y2.44445
G01 X80.90448 Y2.40962
G01 X80.90626 Y2.40795
G01 X80.95917 Y2.35999
G01 X80.95899 Y2.35981
G01 X80.95917 Y2.35999
G01 X80.96252 Y2.35720
G01 X81.03852 Y2.29959
G01 X81.04050 Y2.29817
G01 X81.08111 Y2.27038
G01 X81.08317 Y2.26901
G01 X81.08297 Y2.26868
G01 X81.08317 Y2.26901
G01 X81.12356 Y2.24424
G01 X81.12737 Y2.24211
G01 X81.23415 Y2.18869
G01 X81.23641 Y2.18765
G01 X81.28152 Y2.16781
G01 X81.28378 Y2.16685
G01 X81.30557 Y2.15857
G01 X81.30977 Y2.15717
G01 X81.30956 Y2.15674
G01 X81.30977 Y2.15717
G01 X81.44756 Y2.11778
G01 X81.44990 Y2.11717
G01 X81.49729 Y2.10612
G01 X81.49727 Y2.10576
G01 X81.49729 Y2.10612
G01 X81.50405 Y2.10502
G01 X81.67075 Y2.08953
G01 X81.67194 Y2.08943
G01 X81.69663 Y2.08775
G01 X81.69663 Y2.08732
G01 X81.69663 Y2.08775
G01 X81.70344 Y2.08775
G01 X81.72813 Y2.08943
G01 X81.72940 Y2.08953
G01 X81.89602 Y2.10502
G01 X81.90278 Y2.10612
G01 X81.90288 Y2.10574
G01 X81.90278 Y2.10612
G01 X81.95018 Y2.11717
G01 X81.95251 Y2.11778
G01 X82.09038 Y2.15717
G01 X82.09059 Y2.15674
G01 X82.09038 Y2.15717
G01 X82.09450 Y2.15857
G01 X82.11629 Y2.16685
G01 X82.11855 Y2.16781
G01 X82.16374 Y2.18763
G01 X82.16592 Y2.18869
G01 X82.27268 Y2.24211
G01 X82.27652 Y2.24424
G01 X82.31690 Y2.26901
G01 X82.31898 Y2.27038
G01 X82.31916 Y2.27002
G01 X82.31898 Y2.27038
G01 X82.35957 Y2.29817
G01 X82.36155 Y2.29959
G01 X82.43753 Y2.35720
G01 X82.44088 Y2.35999
G01 X82.44108 Y2.35981
G01 X82.44088 Y2.35999
G01 X82.49381 Y2.40795
G01 X82.49559 Y2.40962
G01 X82.53034 Y2.44445
G01 X82.53206 Y2.44622
G01 X82.58002 Y2.49911
G01 X82.58032 Y2.49883
G01 X82.58002 Y2.49911
G01 X82.58276 Y2.50243
G01 X82.64042 Y2.57843
G01 X82.64189 Y2.58046
G01 X82.66966 Y2.62108
G01 X82.67103 Y2.62313
G01 X82.70153 Y2.67284
G01 X82.73565 Y2.72148
G01 X82.76305 Y2.75608
G01 X82.76351 Y2.75653
G01 X82.77225 Y2.76784
G01 X82.77263 Y2.76840
G01 X82.79655 Y2.80015
G01 X82.86945 Y2.88130
G01 X82.88357 Y2.89466
G01 X82.89866 Y2.89842
G01 X82.94603 Y2.90601
G01 X82.99406 Y2.90601
G01 X83.04144 Y2.89842
G01 X83.05652 Y2.89466
G01 X83.07065 Y2.88130
G01 X83.14352 Y2.80017
G01 X83.16747 Y2.76840
G01 X83.16785 Y2.76784
G01 X83.17659 Y2.75653
G01 X83.17705 Y2.75608
G01 X83.20450 Y2.72148
G01 X83.23854 Y2.67284
G01 X83.26907 Y2.62313
G01 X83.27042 Y2.62108
G01 X83.29826 Y2.58046
G01 X83.29963 Y2.57843
G01 X83.35731 Y2.50243
G01 X83.36008 Y2.49911
G01 X83.35977 Y2.49883
G01 X83.36008 Y2.49911
G01 X83.40803 Y2.44622
G01 X83.40976 Y2.44445
G01 X83.44448 Y2.40962
G01 X83.44626 Y2.40795
G01 X83.49919 Y2.35999
G01 X83.49902 Y2.35981
G01 X83.49919 Y2.35999
G01 X83.50255 Y2.35720
G01 X83.57854 Y2.29959
G01 X83.58050 Y2.29817
G01 X83.62111 Y2.27038
G01 X83.62317 Y2.26901
G01 X83.62297 Y2.26868
G01 X83.62317 Y2.26901
G01 X83.66356 Y2.24424
G01 X83.66739 Y2.24211
G01 X83.77418 Y2.18869
G01 X83.77636 Y2.18765
G01 X83.82155 Y2.16781
G01 X83.82381 Y2.16685
G01 X83.84557 Y2.15857
G01 X83.84971 Y2.15717
G01 X83.84959 Y2.15674
G01 X83.84971 Y2.15717
G01 X83.98756 Y2.11778
G01 X83.98992 Y2.11717
G01 X84.03729 Y2.10612
G01 X84.03729 Y2.10576
G01 X84.03729 Y2.10612
G01 X84.04405 Y2.10502
G01 X84.21070 Y2.08953
G01 X84.21194 Y2.08943
G01 X84.21194 Y2.08890
G01 X84.21194 Y2.08943
G01 X84.23666 Y2.08775
G01 X84.24344 Y2.08775
G01 X84.26813 Y2.08943
G01 X84.26935 Y2.08953
G01 X84.43602 Y2.10502
G01 X84.44280 Y2.10612
G01 X84.49018 Y2.11717
G01 X84.49251 Y2.11778
G01 X84.49261 Y2.11737
G01 X84.49251 Y2.11778
G01 X84.63041 Y2.15717
G01 X84.63452 Y2.15857
G01 X84.65629 Y2.16685
G01 X84.65855 Y2.16781
G01 X84.65873 Y2.16746
G01 X84.65855 Y2.16781
G01 X84.70369 Y2.18763
G01 X84.70592 Y2.18869
G01 X84.81270 Y2.24211
G01 X84.81654 Y2.24424
G01 X84.85693 Y2.26901
G01 X84.85705 Y2.26873
G01 X84.85693 Y2.26901
G01 X84.85898 Y2.27038
G01 X84.89960 Y2.29817
G01 X84.90155 Y2.29959
G01 X84.97755 Y2.35720
G01 X84.98088 Y2.35999
G01 X84.98108 Y2.35981
G01 X84.98088 Y2.35999
G01 X85.03384 Y2.40795
G01 X85.03562 Y2.40962
G01 X85.07034 Y2.44445
G01 X85.07201 Y2.44622
G01 X85.11997 Y2.49911
G01 X85.12027 Y2.49883
G01 X85.11997 Y2.49911
G01 X85.12279 Y2.50243
G01 X85.18045 Y2.57843
G01 X85.18184 Y2.58046
G01 X85.20968 Y2.62108
G01 X85.21098 Y2.62313
G01 X85.24156 Y2.67284
G01 X85.27559 Y2.72148
G01 X85.30305 Y2.75608
G01 X85.30346 Y2.75653
G01 X85.31225 Y2.76784
G01 X85.31258 Y2.76840
G01 X85.33650 Y2.80015
G01 X85.40945 Y2.88130
G01 X85.42357 Y2.89466
G01 X85.43866 Y2.89842
G01 X85.48603 Y2.90601
G01 X85.53401 Y2.90601
G01 X85.58144 Y2.89842
G01 X85.59655 Y2.89466
G01 X85.61060 Y2.88130
G01 X85.68354 Y2.80017
G01 X85.70747 Y2.76840
G01 X85.70785 Y2.76784
G01 X85.71659 Y2.75653
G01 X85.71700 Y2.75608
G01 X85.74445 Y2.72148
G01 X85.77857 Y2.67284
G01 X85.80907 Y2.62313
G01 X85.81044 Y2.62108
G01 X85.83820 Y2.58046
G01 X85.83965 Y2.57843
G01 X85.89731 Y2.50243
G01 X85.90008 Y2.49911
G01 X85.89967 Y2.49870
G01 X85.90008 Y2.49911
G01 X85.94803 Y2.44622
G01 X85.94971 Y2.44445
G01 X85.98451 Y2.40962
G01 X85.98626 Y2.40795
G01 X86.03922 Y2.35999
G01 X86.04255 Y2.35720
G01 X86.11849 Y2.29959
G01 X86.11809 Y2.29895
G01 X86.11849 Y2.29959
G01 X86.12053 Y2.29817
G01 X86.16111 Y2.27038
G01 X86.16317 Y2.26901
G01 X86.20358 Y2.24424
G01 X86.20739 Y2.24211
G01 X86.31420 Y2.18869
G01 X86.31636 Y2.18765
G01 X86.36150 Y2.16781
G01 X86.36127 Y2.16720
G01 X86.36150 Y2.16781
G01 X86.36376 Y2.16685
G01 X86.38560 Y2.15857
G01 X86.38971 Y2.15717
G01 X86.52759 Y2.11778
G01 X86.52987 Y2.11717
G01 X86.57732 Y2.10612
G01 X86.58408 Y2.10502
G01 X86.58397 Y2.10459
G01 X86.58408 Y2.10502
G01 X86.75070 Y2.08953
G01 X86.75197 Y2.08943
G01 X86.77661 Y2.08775
G01 X86.78344 Y2.08775
G01 X86.78344 Y2.08735
G01 X86.78344 Y2.08775
G01 X86.80815 Y2.08943
G01 X86.80935 Y2.08953
G01 X86.97605 Y2.10502
G01 X86.98275 Y2.10612
G01 X86.98283 Y2.10574
G01 X86.98275 Y2.10612
G01 X87.03018 Y2.11717
G01 X87.03254 Y2.11778
G01 X87.17041 Y2.15717
G01 X87.17452 Y2.15857
G01 X87.17463 Y2.15821
G01 X87.17452 Y2.15857
G01 X87.19632 Y2.16685
G01 X87.19855 Y2.16781
G01 X87.24369 Y2.18763
G01 X87.24592 Y2.18869
G01 X87.35271 Y2.24211
G01 X87.35298 Y2.24160
G01 X87.35271 Y2.24211
G01 X87.35652 Y2.24424
G01 X87.39688 Y2.26901
G01 X87.39893 Y2.27038
G01 X87.43955 Y2.29817
G01 X87.44155 Y2.29959
G01 X87.51755 Y2.35720
G01 X87.52088 Y2.35999
G01 X87.57379 Y2.40795
G01 X87.57556 Y2.40962
G01 X87.57584 Y2.40934
G01 X87.57556 Y2.40962
G01 X87.61036 Y2.44445
G01 X87.61204 Y2.44622
G01 X87.65999 Y2.49911
G01 X87.66279 Y2.50243
G01 X87.66299 Y2.50231
G01 X87.66279 Y2.50243
G01 X87.72045 Y2.57843
G01 X87.72187 Y2.58046
G01 X87.74963 Y2.62108
G01 X87.75100 Y2.62313
G01 X87.78153 Y2.67284
G01 X87.81562 Y2.72148
G01 X87.84308 Y2.75608
G01 X87.84348 Y2.75653
G01 X87.85220 Y2.76784
G01 X87.85260 Y2.76840
G01 X87.87653 Y2.80015
G01 X87.94948 Y2.88130
G01 X87.96360 Y2.89466
G01 X87.97866 Y2.89842
G01 X88.02603 Y2.90601
G01 X88.07401 Y2.90601
G01 X88.12139 Y2.89842
G01 X88.13650 Y2.89466
G01 X88.15062 Y2.88130
G01 X88.22352 Y2.80017
G01 X88.24750 Y2.76840
G01 X88.24785 Y2.76784
G01 X88.25661 Y2.75653
G01 X88.25702 Y2.75608
G01 X88.28448 Y2.72148
G01 X88.31857 Y2.67284
G01 X88.34910 Y2.62313
G01 X88.35042 Y2.62108
G01 X88.37823 Y2.58046
G01 X88.37965 Y2.57843
G01 X88.43731 Y2.50243
G01 X88.44010 Y2.49911
G01 X88.48806 Y2.44622
G01 X88.48778 Y2.44592
G01 X88.48806 Y2.44622
G01 X88.48974 Y2.44445
G01 X88.52448 Y2.40962
G01 X88.52626 Y2.40795
G01 X88.57917 Y2.35999
G01 X88.58255 Y2.35720
G01 X88.58234 Y2.35704
G01 X88.58255 Y2.35720
G01 X88.65849 Y2.29959
G01 X88.66055 Y2.29817
G01 X88.70111 Y2.27038
G01 X88.70317 Y2.26901
G01 X88.74358 Y2.24424
G01 X88.74739 Y2.24211
G01 X88.74722 Y2.24180
G01 X88.74739 Y2.24211
G01 X88.85415 Y2.18869
G01 X88.85636 Y2.18765
G01 X88.90152 Y2.16781
G01 X88.90376 Y2.16685
G01 X88.92557 Y2.15857
G01 X88.92545 Y2.15821
G01 X88.92557 Y2.15857
G01 X88.92971 Y2.15717
G01 X89.06754 Y2.11778
G01 X89.06990 Y2.11717
G01 X89.11734 Y2.10612
G01 X89.11722 Y2.10574
G01 X89.11734 Y2.10612
G01 X89.12408 Y2.10502
G01 X89.29070 Y2.08953
G01 X89.29197 Y2.08943
G01 X89.31663 Y2.08775
G01 X89.32344 Y2.08775
G01 X89.32344 Y2.08732
G01 X89.32344 Y2.08775
G01 X89.34810 Y2.08943
G01 X89.34937 Y2.08953
G01 X89.51600 Y2.10502
G01 X89.52275 Y2.10612
G01 X89.52286 Y2.10569
G01 X89.52275 Y2.10612
G01 X89.57018 Y2.11717
G01 X89.57254 Y2.11778
G01 X89.71036 Y2.15717
G01 X89.71452 Y2.15857
G01 X89.73629 Y2.16685
G01 X89.73855 Y2.16781
G01 X89.73881 Y2.16723
G01 X89.73855 Y2.16781
G01 X89.78371 Y2.18763
G01 X89.78592 Y2.18869
G01 X89.89268 Y2.24211
G01 X89.89649 Y2.24424
G01 X89.93690 Y2.26901
G01 X89.93896 Y2.27038
G01 X89.97955 Y2.29817
G01 X89.98155 Y2.29959
G01 X89.98201 Y2.29895
G01 X89.98155 Y2.29959
G01 X90.05753 Y2.35720
G01 X90.06090 Y2.35999
G01 X90.11381 Y2.40795
G01 X90.11556 Y2.40962
G01 X90.15034 Y2.44445
G01 X90.15201 Y2.44622
G01 X90.19997 Y2.49911
G01 X90.20045 Y2.49870
G01 X90.19997 Y2.49911
G01 X90.20276 Y2.50243
G01 X90.26042 Y2.57843
G01 X90.26184 Y2.58046
G01 X90.28963 Y2.62108
G01 X90.29098 Y2.62313
G01 X90.32151 Y2.67284
G01 X90.35559 Y2.72148
G01 X90.38305 Y2.75608
G01 X90.38348 Y2.75653
G01 X90.39222 Y2.76784
G01 X90.39260 Y2.76840
G01 X90.41653 Y2.80015
G01 X90.48945 Y2.88130
G01 X90.50357 Y2.89466
G01 X90.51869 Y2.89842
G01 X90.56603 Y2.90601
G01 X90.61404 Y2.90601
G01 X90.66141 Y2.89842
G01 X90.67652 Y2.89466
G01 X90.69060 Y2.88130
G01 X90.76354 Y2.80017
G01 X90.78747 Y2.76840
G01 X90.78788 Y2.76784
G01 X90.79659 Y2.75653
G01 X90.79700 Y2.75608
G01 X90.82445 Y2.72148
G01 X90.85857 Y2.67284
G01 X90.88907 Y2.62313
G01 X90.89044 Y2.62108
G01 X90.91820 Y2.58046
G01 X90.91963 Y2.57843
G01 X90.97728 Y2.50243
G01 X90.98008 Y2.49911
G01 X90.97977 Y2.49883
G01 X90.98008 Y2.49911
G01 X91.02803 Y2.44622
G01 X91.02971 Y2.44445
G01 X91.06451 Y2.40962
G01 X91.06629 Y2.40795
G01 X91.11919 Y2.35999
G01 X91.11899 Y2.35981
G01 X91.11919 Y2.35999
G01 X91.12252 Y2.35720
G01 X91.19852 Y2.29959
G01 X91.20053 Y2.29817
G01 X91.24114 Y2.27038
G01 X91.24320 Y2.26901
G01 X91.24299 Y2.26873
G01 X91.24320 Y2.26901
G01 X91.28358 Y2.24424
G01 X91.28737 Y2.24211
G01 X91.39418 Y2.18869
G01 X91.39636 Y2.18765
G01 X91.44152 Y2.16781
G01 X91.44134 Y2.16746
G01 X91.44152 Y2.16781
G01 X91.44378 Y2.16685
G01 X91.46560 Y2.15857
G01 X91.46971 Y2.15717
G01 X91.60756 Y2.11778
G01 X91.60746 Y2.11737
G01 X91.60756 Y2.11778
G01 X91.60987 Y2.11717
G01 X91.65732 Y2.10612
G01 X91.66405 Y2.10502
G01 X91.83070 Y2.08953
G01 X91.83194 Y2.08943
G01 X91.85661 Y2.08775
G01 X91.86347 Y2.08775
G01 X91.88813 Y2.08943
G01 X91.88935 Y2.08953
G01 X91.88935 Y2.08900
G01 X91.88935 Y2.08953
G01 X92.05602 Y2.10502
G01 X92.06278 Y2.10612
G01 X92.06283 Y2.10576
G01 X92.06278 Y2.10612
G01 X92.11020 Y2.11717
G01 X92.11251 Y2.11778
G01 X92.25038 Y2.15717
G01 X92.25054 Y2.15674
G01 X92.25038 Y2.15717
G01 X92.25450 Y2.15857
G01 X92.27632 Y2.16685
G01 X92.27858 Y2.16781
G01 X92.32369 Y2.18763
G01 X92.32595 Y2.18869
G01 X92.43268 Y2.24211
G01 X92.43651 Y2.24424
G01 X92.47688 Y2.26901
G01 X92.47893 Y2.27038
G01 X92.47916 Y2.27002
G01 X92.47893 Y2.27038
G01 X92.51957 Y2.29817
G01 X92.52158 Y2.29959
G01 X92.59758 Y2.35720
G01 X92.60088 Y2.35999
G01 X92.60111 Y2.35981
G01 X92.60088 Y2.35999
G01 X92.65379 Y2.40795
G01 X92.65559 Y2.40962
G01 X92.69036 Y2.44445
G01 X92.69201 Y2.44622
G01 X92.73997 Y2.49911
G01 X92.74027 Y2.49883
G01 X92.73997 Y2.49911
G01 X92.74276 Y2.50243
G01 X92.80045 Y2.57843
G01 X92.80187 Y2.58046
G01 X92.82966 Y2.62108
G01 X92.83098 Y2.62313
G01 X92.86153 Y2.67284
G01 X92.89562 Y2.72148
G01 X92.92308 Y2.75608
G01 X92.92346 Y2.75653
G01 X92.93220 Y2.76784
G01 X92.93258 Y2.76840
G01 X92.95650 Y2.80015
G01 X93.02948 Y2.88130
G01 X93.04360 Y2.89466
G01 X93.05869 Y2.89842
G01 X93.10606 Y2.90601
G01 X93.15401 Y2.90601
G01 X93.20139 Y2.89842
G01 X93.21652 Y2.89466
G01 X93.23060 Y2.88130
G01 X93.30352 Y2.80017
G01 X93.32750 Y2.76840
G01 X93.32788 Y2.76784
G01 X93.33661 Y2.75653
G01 X93.33705 Y2.75608
G01 X93.36448 Y2.72148
G01 X93.39854 Y2.67284
G01 X93.42910 Y2.62313
G01 X93.43042 Y2.62108
G01 X93.45823 Y2.58046
G01 X93.45965 Y2.57843
G01 X93.51731 Y2.50243
G01 X93.52010 Y2.49911
G01 X93.51980 Y2.49883
G01 X93.52010 Y2.49911
G01 X93.56806 Y2.44622
G01 X93.56976 Y2.44445
G01 X93.60448 Y2.40962
G01 X93.60626 Y2.40795
G01 X93.65925 Y2.35996
G01 X93.65899 Y2.35981
G01 X93.65925 Y2.35996
G01 X93.66255 Y2.35720
G01 X93.73852 Y2.29961
G01 X93.74055 Y2.29817
G01 X93.78111 Y2.27038
G01 X93.78317 Y2.26901
G01 X93.78299 Y2.26873
G01 X93.78317 Y2.26901
G01 X93.82361 Y2.24424
G01 X93.82737 Y2.24211
G01 X93.93420 Y2.18869
G01 X93.93641 Y2.18765
G01 X93.98155 Y2.16781
G01 X93.98139 Y2.16746
G01 X93.98155 Y2.16781
G01 X93.98381 Y2.16685
G01 X94.00563 Y2.15857
G01 X94.00977 Y2.15717
G01 X94.14754 Y2.11778
G01 X94.14743 Y2.11737
G01 X94.14754 Y2.11778
G01 X94.14992 Y2.11717
G01 X94.19734 Y2.10612
G01 X94.20405 Y2.10502
G01 X94.37075 Y2.08953
G01 X94.37199 Y2.08943
G01 X94.39666 Y2.08775
G01 X94.40344 Y2.08775
G01 X94.42810 Y2.08943
G01 X94.42810 Y2.08890
G01 X94.42810 Y2.08943
G01 X94.42935 Y2.08953
G01 X94.59600 Y2.10502
G01 X94.60275 Y2.10612
G01 X94.60283 Y2.10576
G01 X94.60275 Y2.10612
G01 X94.65018 Y2.11717
G01 X94.65256 Y2.11778
G01 X94.79036 Y2.15717
G01 X94.79450 Y2.15857
G01 X94.79463 Y2.15821
G01 X94.79450 Y2.15857
G01 X94.81632 Y2.16685
G01 X94.81855 Y2.16781
G01 X94.86369 Y2.18763
G01 X94.86592 Y2.18869
G01 X94.97273 Y2.24211
G01 X94.97649 Y2.24424
G01 X94.97667 Y2.24391
G01 X94.97649 Y2.24424
G01 X95.01693 Y2.26901
G01 X95.01893 Y2.27038
G01 X95.05955 Y2.29817
G01 X95.06161 Y2.29959
G01 X95.13758 Y2.35720
G01 X95.14088 Y2.35999
G01 X95.14118 Y2.35976
G01 X95.14088 Y2.35999
G01 X95.19379 Y2.40795
G01 X95.19556 Y2.40962
G01 X95.23034 Y2.44445
G01 X95.23206 Y2.44622
G01 X95.28002 Y2.49911
G01 X95.28025 Y2.49883
G01 X95.28002 Y2.49911
G01 X95.28281 Y2.50243
G01 X95.34047 Y2.57843
G01 X95.34189 Y2.58046
G01 X95.36968 Y2.62108
G01 X95.37103 Y2.62313
G01 X95.39577 Y2.66344
G01 X95.39610 Y2.66332
G01 X95.39577 Y2.66344
G01 X95.39788 Y2.66725
G01 X95.45132 Y2.77406
G01 X95.45231 Y2.77625
G01 X95.47215 Y2.82136
G01 X95.47314 Y2.82367
G01 X95.48149 Y2.84549
G01 X95.48180 Y2.84531
G01 X95.48149 Y2.84549
G01 X95.48281 Y2.84958
G01 X95.52218 Y2.98742
G01 X95.52279 Y2.98976
G01 X95.53394 Y3.03728
G01 X95.53504 Y3.04404
G01 X95.53537 Y3.04396
G01 X95.53504 Y3.04404
G01 X95.55048 Y3.21061
G01 X95.55063 Y3.21191
G01 X95.55226 Y3.23657
G01 X95.55226 Y3.24000
G01 X95.55226 Y3.24340
G01 X95.55271 Y3.24340
G01 X95.55495 Y3.24048
G01 X95.55497 Y3.24000
G01 X95.53745 Y3.03944
G01 X95.53775 Y3.03936
G01 X95.53745 Y3.03944
G01 X95.48530 Y2.84493
G01 X95.48563 Y2.84485
G01 X95.48530 Y2.84493
G01 X95.40019 Y2.66245
G01 X95.40057 Y2.66233
G01 X95.40019 Y2.66245
G01 X95.28479 Y2.49761
G01 X95.28507 Y2.49738
G01 X95.28479 Y2.49761
G01 X95.14243 Y2.35529
G01 X95.14268 Y2.35499
G01 X95.14243 Y2.35529
G01 X94.97751 Y2.23977
G01 X94.97771 Y2.23944
G01 X94.97751 Y2.23977
G01 X94.79508 Y2.15473
G01 X94.79516 Y2.15438
G01 X94.79508 Y2.15473
G01 X94.60062 Y2.10261
G01 X94.60065 Y2.10226
G01 X94.60062 Y2.10261
G01 X94.40001 Y2.08504
G01 X94.40001 Y2.08465
G01 X94.40001 Y2.08504
G01 X94.19950 Y2.10261
G01 X94.19948 Y2.10226
G01 X94.19950 Y2.10261
G01 X94.00504 Y2.15473
G01 X94.00494 Y2.15438
G01 X94.00504 Y2.15473
G01 X93.82257 Y2.23977
G01 X93.82239 Y2.23944
G01 X93.82257 Y2.23977
G01 X93.65767 Y2.35529
G01 X93.65742 Y2.35499
G01 X93.65767 Y2.35529
G01 X93.51530 Y2.49761
G01 X93.51505 Y2.49738
G01 X93.51530 Y2.49761
G01 X93.39547 Y2.66878
G01 X93.38051 Y2.68765
G01 X93.36349 Y2.70452
G01 X93.31916 Y2.74338
G01 X93.29351 Y2.76243
G01 X93.26516 Y2.77721
G01 X93.23486 Y2.78722
G01 X93.17761 Y2.80124
G01 X93.14601 Y2.80637
G01 X93.11406 Y2.80637
G01 X93.08249 Y2.80124
G01 X93.02521 Y2.78722
G01 X92.99491 Y2.77721
G01 X92.96656 Y2.76243
G01 X92.94091 Y2.74338
G01 X92.89659 Y2.70452
G01 X92.87957 Y2.68765
G01 X92.86463 Y2.66878
G01 X92.74474 Y2.49761
G01 X92.74502 Y2.49738
G01 X92.74474 Y2.49761
G01 X92.60240 Y2.35529
G01 X92.60263 Y2.35499
G01 X92.60240 Y2.35529
G01 X92.43745 Y2.23977
G01 X92.43768 Y2.23944
G01 X92.43745 Y2.23977
G01 X92.25503 Y2.15473
G01 X92.25518 Y2.15438
G01 X92.25503 Y2.15473
G01 X92.06057 Y2.10261
G01 X92.06067 Y2.10226
G01 X92.06057 Y2.10261
G01 X91.86004 Y2.08504
G01 X91.86004 Y2.08465
G01 X91.86004 Y2.08504
G01 X91.65948 Y2.10261
G01 X91.65943 Y2.10226
G01 X91.65948 Y2.10261
G01 X91.46507 Y2.15473
G01 X91.46491 Y2.15438
G01 X91.46507 Y2.15473
G01 X91.28257 Y2.23977
G01 X91.28242 Y2.23944
G01 X91.28257 Y2.23977
G01 X91.11767 Y2.35529
G01 X91.11742 Y2.35499
G01 X91.11767 Y2.35529
G01 X90.97533 Y2.49761
G01 X90.97508 Y2.49738
G01 X90.97533 Y2.49761
G01 X90.85544 Y2.66878
G01 X90.84053 Y2.68765
G01 X90.82346 Y2.70452
G01 X90.77914 Y2.74338
G01 X90.75354 Y2.76243
G01 X90.72516 Y2.77721
G01 X90.69486 Y2.78722
G01 X90.63759 Y2.80124
G01 X90.60601 Y2.80637
G01 X90.57403 Y2.80637
G01 X90.54246 Y2.80124
G01 X90.48524 Y2.78722
G01 X90.45488 Y2.77721
G01 X90.42654 Y2.76243
G01 X90.40091 Y2.74338
G01 X90.35661 Y2.70452
G01 X90.33957 Y2.68765
G01 X90.32461 Y2.66878
G01 X90.20477 Y2.49761
G01 X90.20505 Y2.49738
G01 X90.20477 Y2.49761
G01 X90.06238 Y2.35529
G01 X90.06266 Y2.35499
G01 X90.06238 Y2.35529
G01 X89.98201 Y2.29895
G01 X89.89748 Y2.23977
G01 X89.89771 Y2.23944
G01 X89.89748 Y2.23977
G01 X89.71503 Y2.15473
G01 X89.71516 Y2.15438
G01 X89.71503 Y2.15473
G01 X89.52060 Y2.10261
G01 X89.52065 Y2.10226
G01 X89.52060 Y2.10261
G01 X89.32001 Y2.08504
G01 X89.32001 Y2.08465
G01 X89.32001 Y2.08504
G01 X89.11950 Y2.10261
G01 X89.11945 Y2.10226
G01 X89.11950 Y2.10261
G01 X88.92504 Y2.15473
G01 X88.92494 Y2.15438
G01 X88.92504 Y2.15473
G01 X88.74259 Y2.23977
G01 X88.74239 Y2.23944
G01 X88.74259 Y2.23977
G01 X88.57770 Y2.35529
G01 X88.57744 Y2.35499
G01 X88.57770 Y2.35529
G01 X88.43530 Y2.49761
G01 X88.43505 Y2.49738
G01 X88.43530 Y2.49761
G01 X88.31547 Y2.66878
G01 X88.30051 Y2.68765
G01 X88.28349 Y2.70452
G01 X88.23916 Y2.74338
G01 X88.21354 Y2.76243
G01 X88.18519 Y2.77721
G01 X88.15484 Y2.78722
G01 X88.09761 Y2.80124
G01 X88.06604 Y2.80637
G01 X88.03406 Y2.80637
G01 X88.00249 Y2.80124
G01 X87.94521 Y2.78722
G01 X87.91491 Y2.77721
G01 X87.88656 Y2.76243
G01 X87.86093 Y2.74338
G01 X87.81661 Y2.70452
G01 X87.79954 Y2.68765
G01 X87.78463 Y2.66878
G01 X87.66474 Y2.49761
G01 X87.66500 Y2.49738
G01 X87.66474 Y2.49761
G01 X87.52240 Y2.35529
G01 X87.52266 Y2.35499
G01 X87.52240 Y2.35529
G01 X87.35745 Y2.23977
G01 X87.35766 Y2.23944
G01 X87.35745 Y2.23977
G01 X87.17503 Y2.15473
G01 X87.17516 Y2.15438
G01 X87.17503 Y2.15473
G01 X86.98057 Y2.10261
G01 X86.98067 Y2.10226
G01 X86.98057 Y2.10261
G01 X86.78001 Y2.08504
G01 X86.78001 Y2.08465
G01 X86.78001 Y2.08504
G01 X86.57948 Y2.10261
G01 X86.57948 Y2.10226
G01 X86.57948 Y2.10261
G01 X86.38509 Y2.15473
G01 X86.38491 Y2.15438
G01 X86.38509 Y2.15473
G01 X86.20259 Y2.23977
G01 X86.20242 Y2.23944
G01 X86.20259 Y2.23977
G01 X86.11809 Y2.29895
G01 X86.03767 Y2.35529
G01 X86.03747 Y2.35499
G01 X86.03767 Y2.35529
G01 X85.89535 Y2.49761
G01 X85.89508 Y2.49738
G01 X85.89535 Y2.49761
G01 X85.77544 Y2.66878
G01 X85.76051 Y2.68765
G01 X85.74346 Y2.70452
G01 X85.69914 Y2.74338
G01 X85.67354 Y2.76243
G01 X85.64519 Y2.77721
G01 X85.61489 Y2.78722
G01 X85.55761 Y2.80124
G01 X85.52604 Y2.80637
G01 X85.49406 Y2.80637
G01 X85.46249 Y2.80124
G01 X85.40521 Y2.78722
G01 X85.37491 Y2.77721
G01 X85.34659 Y2.76243
G01 X85.32091 Y2.74338
G01 X85.27659 Y2.70452
G01 X85.25959 Y2.68765
G01 X85.24461 Y2.66878
G01 X85.12474 Y2.49761
G01 X85.12505 Y2.49738
G01 X85.12474 Y2.49761
G01 X84.98238 Y2.35529
G01 X84.98266 Y2.35499
G01 X84.98238 Y2.35529
G01 X84.81751 Y2.23977
G01 X84.81771 Y2.23944
G01 X84.81751 Y2.23977
G01 X84.63503 Y2.15473
G01 X84.63521 Y2.15438
G01 X84.63503 Y2.15473
G01 X84.44057 Y2.10261
G01 X84.44065 Y2.10226
G01 X84.44057 Y2.10261
G01 X84.24001 Y2.08504
G01 X84.24001 Y2.08465
G01 X84.24001 Y2.08504
G01 X84.03948 Y2.10261
G01 X84.03945 Y2.10226
G01 X84.03948 Y2.10261
G01 X83.84509 Y2.15473
G01 X83.84491 Y2.15438
G01 X83.84509 Y2.15473
G01 X83.66257 Y2.23977
G01 X83.66239 Y2.23944
G01 X83.66257 Y2.23977
G01 X83.49772 Y2.35529
G01 X83.49744 Y2.35499
G01 X83.49772 Y2.35529
G01 X83.35533 Y2.49761
G01 X83.35505 Y2.49738
G01 X83.35533 Y2.49761
G01 X83.23549 Y2.66878
G01 X83.22051 Y2.68765
G01 X83.20346 Y2.70452
G01 X83.15914 Y2.74338
G01 X83.13351 Y2.76243
G01 X83.10516 Y2.77721
G01 X83.07486 Y2.78722
G01 X83.01759 Y2.80124
G01 X82.98601 Y2.80637
G01 X82.95406 Y2.80637
G01 X82.92246 Y2.80124
G01 X82.86521 Y2.78722
G01 X82.83491 Y2.77721
G01 X82.80656 Y2.76243
G01 X82.78096 Y2.74338
G01 X82.73664 Y2.70452
G01 X82.71957 Y2.68765
G01 X82.70466 Y2.66878
G01 X82.58474 Y2.49761
G01 X82.58502 Y2.49738
G01 X82.58474 Y2.49761
G01 X82.44243 Y2.35529
G01 X82.44263 Y2.35499
G01 X82.44243 Y2.35529
G01 X82.27748 Y2.23977
G01 X82.27768 Y2.23944
G01 X82.27748 Y2.23977
G01 X82.09508 Y2.15473
G01 X82.09518 Y2.15438
G01 X82.09508 Y2.15473
G01 X81.90062 Y2.10261
G01 X81.90065 Y2.10226
G01 X81.90062 Y2.10261
G01 X81.70001 Y2.08504
G01 X81.70001 Y2.08465
G01 X81.70001 Y2.08504
G01 X81.49953 Y2.10261
G01 X81.49943 Y2.10226
G01 X81.49953 Y2.10261
G01 X81.30507 Y2.15473
G01 X81.30496 Y2.15438
G01 X81.30507 Y2.15473
G01 X81.12257 Y2.23977
G01 X81.12239 Y2.23944
G01 X81.12257 Y2.23977
G01 X80.95772 Y2.35529
G01 X80.95742 Y2.35499
G01 X80.95772 Y2.35529
G01 X80.81533 Y2.49761
G01 X80.81505 Y2.49738
G01 X80.81533 Y2.49761
G01 X80.69549 Y2.66878
G01 X80.68051 Y2.68765
G01 X80.66351 Y2.70452
G01 X80.61919 Y2.74338
G01 X80.59351 Y2.76243
G01 X80.56516 Y2.77721
G01 X80.53484 Y2.78722
G01 X80.47759 Y2.80124
G01 X80.44601 Y2.80637
G01 X80.41403 Y2.80637
G01 X80.38246 Y2.80124
G01 X80.32521 Y2.78722
G01 X80.29488 Y2.77721
G01 X80.26654 Y2.76243
G01 X80.24093 Y2.74338
G01 X80.19661 Y2.70452
G01 X80.17954 Y2.68765
G01 X80.16466 Y2.66878
G01 X80.04474 Y2.49761
G01 X80.04500 Y2.49738
G01 X80.04474 Y2.49761
G01 X79.90243 Y2.35529
G01 X79.90263 Y2.35499
G01 X79.90243 Y2.35529
G01 X79.73748 Y2.23977
G01 X79.73766 Y2.23944
G01 X79.73748 Y2.23977
G01 X79.55506 Y2.15473
G01 X79.55516 Y2.15438
G01 X79.55506 Y2.15473
G01 X79.36060 Y2.10261
G01 X79.36070 Y2.10226
G01 X79.36060 Y2.10261
G01 X79.16006 Y2.08504
G01 X79.16006 Y2.08465
G01 X79.16006 Y2.08504
G01 X78.95950 Y2.10261
G01 X78.95943 Y2.10226
G01 X78.95950 Y2.10261
G01 X78.76504 Y2.15473
G01 X78.76494 Y2.15438
G01 X78.76504 Y2.15473
G01 X78.58257 Y2.23977
G01 X78.58244 Y2.23944
G01 X78.58257 Y2.23977
G01 X78.41770 Y2.35529
G01 X78.41742 Y2.35499
G01 X78.41770 Y2.35529
G01 X78.27530 Y2.49761
G01 X78.27510 Y2.49738
G01 X78.27530 Y2.49761
G01 X78.15547 Y2.66878
G01 X78.14056 Y2.68765
G01 X78.12349 Y2.70452
G01 X78.07917 Y2.74338
G01 X78.05356 Y2.76243
G01 X78.02516 Y2.77721
G01 X77.99484 Y2.78722
G01 X77.93759 Y2.80124
G01 X77.90601 Y2.80637
G01 X77.87403 Y2.80637
G01 X77.84246 Y2.80124
G01 X77.78526 Y2.78722
G01 X77.75488 Y2.77721
G01 X77.72654 Y2.76243
G01 X77.70093 Y2.74338
G01 X77.65659 Y2.70452
G01 X77.63954 Y2.68765
G01 X77.62463 Y2.66878
G01 X77.50479 Y2.49761
G01 X77.50500 Y2.49738
G01 X77.50479 Y2.49761
G01 X77.36240 Y2.35529
G01 X77.36268 Y2.35499
G01 X77.36240 Y2.35529
G01 X77.19745 Y2.23977
G01 X77.19766 Y2.23944
G01 X77.19745 Y2.23977
G01 X77.01506 Y2.15473
G01 X77.01516 Y2.15438
G01 X77.01506 Y2.15473
G01 X76.82057 Y2.10261
G01 X76.82067 Y2.10226
G01 X76.82057 Y2.10261
G01 X76.62004 Y2.08504
G01 X76.62004 Y2.08465
G01 X76.62004 Y2.08504
G01 X76.41948 Y2.10261
G01 X76.41948 Y2.10226
G01 X76.41948 Y2.10261
G01 X76.22504 Y2.15473
G01 X76.22491 Y2.15438
G01 X76.22504 Y2.15473
G01 X76.04262 Y2.23977
G01 X76.04242 Y2.23944
G01 X76.04262 Y2.23977
G01 X75.87767 Y2.35529
G01 X75.87747 Y2.35499
G01 X75.87767 Y2.35529
G01 X75.73530 Y2.49761
G01 X75.73508 Y2.49738
G01 X75.73530 Y2.49761
G01 X75.61544 Y2.66878
G01 X75.60053 Y2.68765
G01 X75.58346 Y2.70452
G01 X75.53914 Y2.74338
G01 X75.51356 Y2.76243
G01 X75.48522 Y2.77721
G01 X75.45484 Y2.78722
G01 X75.39764 Y2.80124
G01 X75.36606 Y2.80637
G01 X75.33409 Y2.80637
G01 X75.30251 Y2.80124
G01 X75.24524 Y2.78722
G01 X75.21493 Y2.77721
G01 X75.18659 Y2.76243
G01 X75.16091 Y2.74338
G01 X75.11659 Y2.70452
G01 X75.09954 Y2.68765
G01 X75.08461 Y2.66878
G01 X74.96477 Y2.49761
G01 X74.96500 Y2.49738
G01 X74.96477 Y2.49761
G01 X74.82238 Y2.35529
G01 X74.82268 Y2.35499
G01 X74.82238 Y2.35529
G01 X74.65745 Y2.23977
G01 X74.65766 Y2.23944
G01 X74.65745 Y2.23977
G01 X74.47503 Y2.15473
G01 X74.47516 Y2.15438
G01 X74.47503 Y2.15473
G01 X74.28060 Y2.10261
G01 X74.28067 Y2.10226
G01 X74.28060 Y2.10261
G01 X74.08001 Y2.08504
G01 X74.08001 Y2.08465
G01 X74.08001 Y2.08504
G01 X73.87948 Y2.10261
G01 X73.87943 Y2.10226
G01 X73.87948 Y2.10261
G01 X73.68507 Y2.15473
G01 X73.68491 Y2.15438
G01 X73.68507 Y2.15473
G01 X73.50257 Y2.23977
G01 X73.50242 Y2.23944
G01 X73.50257 Y2.23977
G01 X73.33767 Y2.35529
G01 X73.33742 Y2.35499
G01 X73.33767 Y2.35529
G01 X73.19530 Y2.49761
G01 X73.19508 Y2.49738
G01 X73.19530 Y2.49761
G01 X73.07516 Y2.66926
G01 X73.06023 Y2.68806
G01 X73.04316 Y2.70495
G01 X72.99886 Y2.74376
G01 X72.97323 Y2.76283
G01 X72.94486 Y2.77759
G01 X72.91456 Y2.78770
G01 X72.85731 Y2.80167
G01 X72.82571 Y2.80680
G01 X72.79376 Y2.80680
G01 X72.76216 Y2.80167
G01 X72.70491 Y2.78770
G01 X72.67460 Y2.77759
G01 X72.65103 Y2.76532
G01 X72.64710 Y2.75140
G01 X72.65103 Y2.76532
G01 X72.52672 Y2.88966
G01 X72.51088 Y2.88564
G01 X72.52672 Y2.88966
G01 X72.56510 Y3.01610
G01 X72.56985 Y3.03515
G01 X72.57272 Y3.05455
G01 X72.58906 Y3.22039
G01 X72.58906 Y3.25953
G01 X72.57272 Y3.42542
G01 X72.56985 Y3.44477
G01 X72.56510 Y3.46382
G01 X72.52672 Y3.59029
G01 X72.51088 Y3.59425
G01 X72.52672 Y3.59029
G01 X72.65101 Y3.71457
G01 X72.64704 Y3.72854
G01 X72.65101 Y3.71457
G01 X72.67460 Y3.70230
G01 X72.70491 Y3.69219
G01 X72.76216 Y3.67817
G01 X72.79376 Y3.67309
G01 X72.82571 Y3.67309
G01 X72.85731 Y3.67817
G01 X72.91456 Y3.69219
G01 X72.94486 Y3.70230
G01 X72.97323 Y3.71701
G01 X72.99886 Y3.73614
G01 X73.04316 Y3.77500
G01 X73.06023 Y3.79186
G01 X73.07516 Y3.81063
G01 X73.19530 Y3.98234
G01 X73.19508 Y3.98252
G01 X73.19530 Y3.98234
G01 X73.33767 Y4.12468
G01 X73.33747 Y4.12488
G01 X73.33767 Y4.12468
G01 X73.50894 Y4.24459
G01 X73.52771 Y4.25948
G01 X73.54458 Y4.27647
G01 X73.58344 Y4.32082
G01 X73.60252 Y4.34642
G01 X73.61732 Y4.37487
G01 X73.62733 Y4.40525
G01 X73.64133 Y4.46253
G01 X73.64641 Y4.49402
G01 X73.64641 Y4.52595
G01 X73.64133 Y4.55747
G01 X73.62733 Y4.61472
G01 X73.61732 Y4.64510
G01 X73.60252 Y4.67342
G01 X73.58344 Y4.69913
G01 X73.54458 Y4.74337
G01 X73.52771 Y4.76047
G01 X73.50894 Y4.77535
G01 X73.33767 Y4.89527
G01 X73.33747 Y4.89496
G01 X73.33767 Y4.89527
G01 X73.19530 Y5.03761
G01 X73.19508 Y5.03733
G01 X73.19530 Y5.03761
G01 X73.07516 Y5.20921
G01 X73.06023 Y5.22808
G01 X73.04316 Y5.24495
G01 X72.99886 Y5.28378
G01 X72.97323 Y5.30283
G01 X72.94486 Y5.31762
G01 X72.91456 Y5.32765
G01 X72.85731 Y5.34167
G01 X72.82571 Y5.34675
G01 X72.79376 Y5.34675
G01 X72.76216 Y5.34167
G01 X72.70491 Y5.32765
G01 X72.67460 Y5.31762
G01 X72.65103 Y5.30537
G01 X72.64710 Y5.29140
G01 X72.65103 Y5.30537
G01 X72.52672 Y5.42968
G01 X72.51088 Y5.42559
G01 X72.52672 Y5.42968
G01 X72.56510 Y5.55605
G01 X72.56985 Y5.57510
G01 X72.57272 Y5.59455
G01 X72.58906 Y5.76034
G01 X72.58906 Y5.79958
G01 X72.57272 Y5.96542
G01 X72.56985 Y5.98477
G01 X72.56510 Y6.00382
G01 X72.52672 Y6.13029
G01 X72.51088 Y6.13430
G01 X72.52672 Y6.13029
G01 X72.65101 Y6.25452
G01 X72.64704 Y6.26854
G01 X72.65101 Y6.25452
G01 X72.67460 Y6.24230
G01 X72.70491 Y6.23219
G01 X72.76216 Y6.21822
G01 X72.79376 Y6.21309
G01 X72.82571 Y6.21309
G01 X72.85731 Y6.21822
G01 X72.91456 Y6.23219
G01 X72.94486 Y6.24230
G01 X72.97323 Y6.25706
G01 X72.99886 Y6.27614
G01 X73.04316 Y6.31500
G01 X73.06023 Y6.33186
G01 X73.07516 Y6.35066
G01 X73.19530 Y6.52231
G01 X73.19508 Y6.52257
G01 X73.19530 Y6.52231
G01 X73.33767 Y6.66466
G01 X73.33742 Y6.66496
G01 X73.33767 Y6.66466
G01 X73.50257 Y6.78012
G01 X73.50242 Y6.78043
G01 X73.50257 Y6.78012
G01 X73.68507 Y6.86521
G01 X73.68491 Y6.86554
G01 X73.68507 Y6.86521
G01 X73.87948 Y6.91733
G01 X73.87943 Y6.91766
G01 X73.87948 Y6.91733
G01 X74.08001 Y6.93483
G01 X74.08001 Y6.93522
G01 X74.08001 Y6.93483
G01 X74.28060 Y6.91733
G01 X74.28067 Y6.91766
G01 X74.28060 Y6.91733
G01 X74.47503 Y6.86521
G01 X74.47516 Y6.86554
G01 X74.47503 Y6.86521
G01 X74.65745 Y6.78012
G01 X74.65766 Y6.78043
G01 X74.65745 Y6.78012
G01 X74.82238 Y6.66466
G01 X74.82268 Y6.66496
G01 X74.82238 Y6.66466
G01 X74.96477 Y6.52231
G01 X74.96500 Y6.52257
G01 X74.96477 Y6.52231
G01 X75.08461 Y6.35109
G01 X75.09954 Y6.33225
G01 X75.11659 Y6.31538
G01 X75.16091 Y6.27652
G01 X75.18659 Y6.25744
G01 X75.21493 Y6.24268
G01 X75.24524 Y6.23263
G01 X75.30251 Y6.21861
G01 X75.33409 Y6.21358
G01 X75.36606 Y6.21358
G01 X75.39764 Y6.21861
G01 X75.45484 Y6.23263
G01 X75.48522 Y6.24268
G01 X75.51356 Y6.25744
G01 X75.53914 Y6.27652
G01 X75.58346 Y6.31538
G01 X75.60053 Y6.33225
G01 X75.61544 Y6.35109
G01 X75.73530 Y6.52231
G01 X75.73508 Y6.52257
G01 X75.73530 Y6.52231
G01 X75.87767 Y6.66466
G01 X75.87747 Y6.66496
G01 X75.87767 Y6.66466
G01 X76.04262 Y6.78012
G01 X76.04242 Y6.78043
G01 X76.04262 Y6.78012
G01 X76.22504 Y6.86521
G01 X76.22491 Y6.86554
G01 X76.22504 Y6.86521
G01 X76.41948 Y6.91733
G01 X76.41948 Y6.91766
G01 X76.41948 Y6.91733
G01 X76.62004 Y6.93483
G01 X76.62004 Y6.93522
G01 X76.62004 Y6.93483
G01 X76.82057 Y6.91733
G01 X76.82067 Y6.91766
G01 X76.82057 Y6.91733
G01 X77.01506 Y6.86521
G01 X77.01516 Y6.86554
G01 X77.01506 Y6.86521
G01 X77.19745 Y6.78012
G01 X77.19766 Y6.78043
G01 X77.19745 Y6.78012
G01 X77.36240 Y6.66466
G01 X77.36268 Y6.66496
G01 X77.36240 Y6.66466
G01 X77.50479 Y6.52231
G01 X77.50500 Y6.52257
G01 X77.50479 Y6.52231
G01 X77.62463 Y6.35109
G01 X77.63954 Y6.33225
G01 X77.65659 Y6.31538
G01 X77.70093 Y6.27652
G01 X77.72654 Y6.25744
G01 X77.75488 Y6.24268
G01 X77.78526 Y6.23263
G01 X77.84246 Y6.21861
G01 X77.87403 Y6.21358
G01 X77.90601 Y6.21358
G01 X77.93759 Y6.21861
G01 X77.99484 Y6.23263
G01 X78.02516 Y6.24268
G01 X78.05356 Y6.25744
G01 X78.07917 Y6.27652
G01 X78.12349 Y6.31538
G01 X78.14056 Y6.33225
G01 X78.15547 Y6.35109
G01 X78.27530 Y6.52231
G01 X78.27510 Y6.52257
G01 X78.27530 Y6.52231
G01 X78.41770 Y6.66466
G01 X78.41742 Y6.66496
G01 X78.41770 Y6.66466
G01 X78.49811 Y6.72094
G01 X78.58257 Y6.78012
G01 X78.58244 Y6.78043
G01 X78.58257 Y6.78012
G01 X78.76504 Y6.86521
G01 X78.76494 Y6.86554
G01 X78.76504 Y6.86521
G01 X78.95950 Y6.91733
G01 X78.95943 Y6.91766
G01 X78.95950 Y6.91733
G01 X79.16006 Y6.93483
G01 X79.16006 Y6.93522
G01 X79.16006 Y6.93483
G01 X79.36060 Y6.91733
G01 X79.36070 Y6.91766
G01 X79.36060 Y6.91733
G01 X79.55506 Y6.86521
G01 X79.55516 Y6.86554
G01 X79.55506 Y6.86521
G01 X79.73748 Y6.78012
G01 X79.73766 Y6.78043
G01 X79.73748 Y6.78012
G01 X79.90243 Y6.66466
G01 X79.90263 Y6.66496
G01 X79.90243 Y6.66466
G01 X80.04474 Y6.52231
G01 X80.04500 Y6.52257
G01 X80.04474 Y6.52231
G01 X80.16466 Y6.35109
G01 X80.17954 Y6.33225
G01 X80.19661 Y6.31538
G01 X80.24093 Y6.27652
G01 X80.26654 Y6.25744
G01 X80.29488 Y6.24268
G01 X80.32521 Y6.23263
G01 X80.38246 Y6.21861
G01 X80.41403 Y6.21358
G01 X80.44601 Y6.21358
G01 X80.47759 Y6.21861
G01 X80.53484 Y6.23263
G01 X80.56516 Y6.24268
G01 X80.59351 Y6.25744
G01 X80.61919 Y6.27652
G01 X80.66351 Y6.31538
G01 X80.68051 Y6.33225
G01 X80.69549 Y6.35109
G01 X80.81533 Y6.52231
G01 X80.81505 Y6.52257
G01 X80.81533 Y6.52231
G01 X80.95772 Y6.66466
G01 X80.95742 Y6.66496
G01 X80.95772 Y6.66466
G01 X81.03814 Y6.72094
G01 X81.12257 Y6.78012
G01 X81.12239 Y6.78043
G01 X81.12257 Y6.78012
G01 X81.30507 Y6.86521
G01 X81.30496 Y6.86554
G01 X81.30507 Y6.86521
G01 X81.49953 Y6.91733
G01 X81.49943 Y6.91766
G01 X81.49953 Y6.91733
G01 X81.70001 Y6.93483
G01 X81.70001 Y6.93522
G01 X81.70001 Y6.93483
G01 X81.90062 Y6.91733
G01 X81.90065 Y6.91766
G01 X81.90062 Y6.91733
G01 X82.09508 Y6.86521
G01 X82.09518 Y6.86554
G01 X82.09508 Y6.86521
G01 X82.27748 Y6.78012
G01 X82.27768 Y6.78043
G01 X82.27748 Y6.78012
G01 X82.44243 Y6.66466
G01 X82.44263 Y6.66496
G01 X82.44243 Y6.66466
G01 X82.58474 Y6.52231
G01 X82.58502 Y6.52257
G01 X82.58474 Y6.52231
G01 X82.70466 Y6.35109
G01 X82.71957 Y6.33225
G01 X82.73664 Y6.31538
G01 X82.78096 Y6.27652
G01 X82.80656 Y6.25744
G01 X82.83491 Y6.24268
G01 X82.86521 Y6.23263
G01 X82.92246 Y6.21861
G01 X82.95406 Y6.21358
G01 X82.98601 Y6.21358
G01 X83.01759 Y6.21861
G01 X83.07486 Y6.23263
G01 X83.10516 Y6.24268
G01 X83.13351 Y6.25744
G01 X83.15914 Y6.27652
G01 X83.20346 Y6.31538
G01 X83.22051 Y6.33225
G01 X83.23549 Y6.35109
G01 X83.35533 Y6.52231
G01 X83.35505 Y6.52257
G01 X83.35533 Y6.52231
G01 X83.49772 Y6.66466
G01 X83.49744 Y6.66496
G01 X83.49772 Y6.66466
G01 X83.66257 Y6.78012
G01 X83.66239 Y6.78043
G01 X83.66257 Y6.78012
G01 X83.84509 Y6.86521
G01 X83.84491 Y6.86554
G01 X83.84509 Y6.86521
G01 X84.03948 Y6.91733
G01 X84.03945 Y6.91766
G01 X84.03948 Y6.91733
G01 X84.24001 Y6.93483
G01 X84.24001 Y6.93522
G01 X84.24001 Y6.93483
G01 X84.44057 Y6.91733
G01 X84.44065 Y6.91766
G01 X84.44057 Y6.91733
G01 X84.63503 Y6.86521
G01 X84.63521 Y6.86554
G01 X84.63503 Y6.86521
G01 X84.81751 Y6.78012
G01 X84.81771 Y6.78043
G01 X84.81751 Y6.78012
G01 X84.98238 Y6.66466
G01 X84.98266 Y6.66496
G01 X84.98238 Y6.66466
G01 X85.12474 Y6.52231
G01 X85.12505 Y6.52257
G01 X85.12474 Y6.52231
G01 X85.24491 Y6.35066
G01 X85.25990 Y6.33186
G01 X85.27694 Y6.31500
G01 X85.32121 Y6.27614
G01 X85.34687 Y6.25706
G01 X85.37521 Y6.24230
G01 X85.40552 Y6.23219
G01 X85.46279 Y6.21822
G01 X85.49436 Y6.21309
G01 X85.52634 Y6.21309
G01 X85.55792 Y6.21822
G01 X85.61519 Y6.23219
G01 X85.64549 Y6.24230
G01 X85.66904 Y6.25452
G01 X85.67303 Y6.26854
G01 X85.66904 Y6.25452
G01 X85.79330 Y6.13029
G01 X85.80917 Y6.13433
G01 X85.79330 Y6.13029
G01 X85.75502 Y6.00382
G01 X85.75022 Y5.98477
G01 X85.74730 Y5.96542
G01 X85.73099 Y5.79958
G01 X85.73003 Y5.78000
G01 X85.73099 Y5.76034
G01 X85.74730 Y5.59455
G01 X85.75022 Y5.57510
G01 X85.75502 Y5.55605
G01 X85.79337 Y5.42966
G01 X85.80917 Y5.42559
G01 X85.79337 Y5.42966
G01 X85.66902 Y5.30537
G01 X85.67298 Y5.29140
G01 X85.66902 Y5.30537
G01 X85.64549 Y5.31762
G01 X85.61519 Y5.32765
G01 X85.55792 Y5.34167
G01 X85.52634 Y5.34675
G01 X85.49436 Y5.34675
G01 X85.46279 Y5.34167
G01 X85.40552 Y5.32765
G01 X85.37521 Y5.31762
G01 X85.34687 Y5.30283
G01 X85.32121 Y5.28378
G01 X85.27694 Y5.24495
G01 X85.25990 Y5.22808
G01 X85.24491 Y5.20921
G01 X85.12474 Y5.03761
G01 X85.12505 Y5.03733
G01 X85.12474 Y5.03761
G01 X84.98238 Y4.89529
G01 X84.98266 Y4.89496
G01 X84.98238 Y4.89529
G01 X84.81116 Y4.77540
G01 X84.79241 Y4.76047
G01 X84.77554 Y4.74337
G01 X84.73663 Y4.69910
G01 X84.71758 Y4.67342
G01 X84.70280 Y4.64513
G01 X84.69277 Y4.61480
G01 X84.67875 Y4.55755
G01 X84.67364 Y4.52598
G01 X84.67364 Y4.49400
G01 X84.67875 Y4.46242
G01 X84.69277 Y4.40515
G01 X84.70280 Y4.37482
G01 X84.71758 Y4.34640
G01 X84.73671 Y4.32082
G01 X84.77554 Y4.27647
G01 X84.79241 Y4.25948
G01 X84.81116 Y4.24459
G01 X84.98238 Y4.12468
G01 X84.98255 Y4.12488
G01 X84.98238 Y4.12468
G01 X85.12474 Y3.98234
G01 X85.12505 Y3.98252
G01 X85.12474 Y3.98234
G01 X85.24461 Y3.81112
G01 X85.25959 Y3.79225
G01 X85.27659 Y3.77538
G01 X85.32091 Y3.73652
G01 X85.34659 Y3.71744
G01 X85.37491 Y3.70268
G01 X85.40521 Y3.69268
G01 X85.46249 Y3.67866
G01 X85.49406 Y3.67358
G01 X85.52604 Y3.67358
G01 X85.55761 Y3.67866
G01 X85.61489 Y3.69268
G01 X85.64519 Y3.70268
G01 X85.67354 Y3.71744
G01 X85.69914 Y3.73652
G01 X85.74346 Y3.77538
G01 X85.76051 Y3.79225
G01 X85.77544 Y3.81112
G01 X85.89535 Y3.98234
G01 X85.89508 Y3.98252
G01 X85.89535 Y3.98234
G01 X86.03767 Y4.12468
G01 X86.03747 Y4.12488
G01 X86.03767 Y4.12468
G01 X86.20937 Y4.24485
G01 X86.22812 Y4.25973
G01 X86.24499 Y4.27683
G01 X86.28390 Y4.32107
G01 X86.30295 Y4.34678
G01 X86.31773 Y4.37512
G01 X86.32776 Y4.40550
G01 X86.34176 Y4.46278
G01 X86.34686 Y4.49428
G01 X86.34686 Y4.52620
G01 X86.34176 Y4.55773
G01 X86.32776 Y4.61498
G01 X86.31773 Y4.64533
G01 X86.30546 Y4.66900
G01 X86.29147 Y4.67289
G01 X86.30546 Y4.66900
G01 X86.42972 Y4.79323
G01 X86.42571 Y4.80858
G01 X86.42972 Y4.79323
G01 X86.55614 Y4.75493
G01 X86.59459 Y4.74729
G01 X86.76040 Y4.73095
G01 X86.79962 Y4.73095
G01 X86.96546 Y4.74729
G01 X87.00391 Y4.75493
G01 X87.13033 Y4.79323
G01 X87.13434 Y4.80858
G01 X87.13033 Y4.79323
G01 X87.25466 Y4.66898
G01 X87.26858 Y4.67289
G01 X87.25466 Y4.66898
G01 X87.24239 Y4.64536
G01 X87.23231 Y4.61498
G01 X87.21829 Y4.55773
G01 X87.21321 Y4.52620
G01 X87.21321 Y4.49428
G01 X87.21829 Y4.46278
G01 X87.23231 Y4.40550
G01 X87.24239 Y4.37512
G01 X87.25712 Y4.34675
G01 X87.27625 Y4.32102
G01 X87.31514 Y4.27672
G01 X87.33200 Y4.25971
G01 X87.35075 Y4.24485
G01 X87.52240 Y4.12468
G01 X87.52261 Y4.12488
G01 X87.52240 Y4.12468
G01 X87.66474 Y3.98234
G01 X87.66495 Y3.98249
