( pcb2gcode 2.5.0 )
( Software-independent Gcode )

G94 ( Millimeters per minute feed rate. )
G21 ( Units == Millimeters. )

G90 ( Absolute coordinates. )
G00 S10000 ( RPM spindle speed. )
G64 P0.01000 ( set maximum deviation from commanded toolpath )
G01 F300.00000 ( Feedrate. )


G00 Z30.00000 (Retract to tool change height)
T1
M5      (Spindle stop.)
G04 P1.00000 (Wait for spindle to stop)
(MSG, Change tool bit to mill diameter 0.20000mm)
M6      (Tool change.)
M0      (Temporary machine stop.)
M3 ( Spindle on clockwise. )
G04 P1.00000 (Wait for spindle to get up to speed)
G04 P0 ( dwell for no time -- G64 should not smooth over this point )
G00 Z5.00000 ( retract )

G00 X99.99954 Y0.32446 ( rapid move to begin. )
G01 F150.00000
( Mill infeed pass 1/1 )
G01 Z-0.05000
G04 P0 ( dwell for no time -- G64 should not smooth over this point )
G01 F300.00000
G01 X99.99954 Y0.32446
G01 X99.99782 Y0.29837
G01 X99.99274 Y0.27272
G01 X99.97615 Y0.21069
G01 X99.96419 Y0.17795
G01 X99.94676 Y0.14775
G01 X99.92436 Y0.12106
G01 X99.87894 Y0.07564
G01 X99.85225 Y0.05324
G01 X99.82205 Y0.03581
G01 X99.78931 Y0.02385
G01 X99.72728 Y0.00726
G01 X99.70163 Y0.00218
G01 X99.67554 Y0.00046
G01 X0.32456 Y0.00046
G01 X0.29842 Y0.00218
G01 X0.27277 Y0.00726
G01 X0.21077 Y0.02385
G01 X0.17800 Y0.03581
G01 X0.14782 Y0.05324
G01 X0.12110 Y0.07564
G01 X0.07577 Y0.12106
G01 X0.05331 Y0.14775
G01 X0.03589 Y0.17795
G01 X0.02395 Y0.21069
G01 X0.00734 Y0.27272
G01 X0.00223 Y0.29837
G01 X0.00056 Y0.32446
G01 X0.00056 Y69.67548
G01 X0.00223 Y69.70154
G01 X0.00734 Y69.72722
G01 X0.02395 Y69.78919
G01 X0.03589 Y69.82193
G01 X0.05331 Y69.85218
G01 X0.07577 Y69.87883
G01 X0.12110 Y69.92427
G01 X0.14782 Y69.94670
G01 X0.17800 Y69.96412
G01 X0.21077 Y69.97601
G01 X0.27277 Y69.99262
G01 X0.29842 Y69.99770
G01 X0.32456 Y69.99948
G01 X99.67554 Y69.99948
G01 X99.70163 Y69.99770
G01 X99.72728 Y69.99262
G01 X99.78931 Y69.97601
G01 X99.82205 Y69.96412
G01 X99.85225 Y69.94670
G01 X99.87894 Y69.92427
G01 X99.92436 Y69.87883
G01 X99.94676 Y69.85218
G01 X99.96419 Y69.82193
G01 X99.97615 Y69.78919
G01 X99.99274 Y69.72722
G01 X99.99782 Y69.70154
G01 X99.99954 Y69.67548
G01 X99.99954 Y0.32446
G01 X99.89954 Y0.32446
G01 X99.89954 Y69.67548
G01 X99.89868 Y69.68848
G01 X99.89616 Y69.70131
G01 X99.87955 Y69.76334
G01 X99.87361 Y69.77972
G01 X99.86485 Y69.79483
G01 X99.85367 Y69.80814
G01 X99.80823 Y69.85356
G01 X99.79489 Y69.86478
G01 X99.77978 Y69.87349
G01 X99.76340 Y69.87941
G01 X99.70140 Y69.89602
G01 X99.68860 Y69.89862
G01 X99.67554 Y69.89948
G01 X0.32456 Y69.89948
G01 X0.31148 Y69.89862
G01 X0.29865 Y69.89602
G01 X0.23667 Y69.87941
G01 X0.22029 Y69.87349
G01 X0.20520 Y69.86478
G01 X0.19182 Y69.85356
G01 X0.14645 Y69.80814
G01 X0.13523 Y69.79483
G01 X0.12651 Y69.77972
G01 X0.12055 Y69.76334
G01 X0.10393 Y69.70131
G01 X0.10142 Y69.68848
G01 X0.10053 Y69.67548
G01 X0.10053 Y0.32446
G01 X0.10142 Y0.31140
G01 X0.10393 Y0.29860
G01 X0.12055 Y0.23660
G01 X0.12651 Y0.22022
G01 X0.13523 Y0.20511
G01 X0.14645 Y0.19177
G01 X0.19182 Y0.14633
G01 X0.20520 Y0.13515
G01 X0.22029 Y0.12639
G01 X0.23667 Y0.12045
G01 X0.29865 Y0.10384
G01 X0.31148 Y0.10132
G01 X0.32456 Y0.10046
G01 X99.67554 Y0.10046
G01 X99.68860 Y0.10132
G01 X99.70140 Y0.10384
G01 X99.76340 Y0.12045
G01 X99.77978 Y0.12639
G01 X99.79489 Y0.13515
G01 X99.80823 Y0.14633
G01 X99.85367 Y0.19177
G01 X99.86485 Y0.20511
G01 X99.87361 Y0.22022
G01 X99.87955 Y0.23660
G01 X99.89616 Y0.29860
G01 X99.89868 Y0.31140
G01 X99.89954 Y0.32446
G04 P0 ( dwell for no time -- G64 should not smooth over this point )
G00 Z5.00000 ( retract )

G00 X95.65530 Y3.24000 ( rapid move to begin. )
G01 F150.00000
( Mill infeed pass 1/1 )
G01 Z-0.05000
G04 P0 ( dwell for no time -- G64 should not smooth over this point )
G01 F300.00000
G01 X95.65530 Y3.24000
G01 X95.63625 Y3.02196
G01 X95.57966 Y2.81064
G01 X95.48718 Y2.61229
G01 X95.36168 Y2.43309
G01 X95.20689 Y2.27838
G01 X95.02770 Y2.15288
G01 X94.82942 Y2.06035
G01 X94.61804 Y2.00370
G01 X94.40001 Y1.98465
G01 X94.18205 Y2.00370
G01 X93.97070 Y2.06035
G01 X93.77238 Y2.15288
G01 X93.59315 Y2.27838
G01 X93.43842 Y2.43309
G01 X93.31353 Y2.61148
G01 X93.30606 Y2.62085
G01 X93.29757 Y2.62928
G01 X93.25320 Y2.66819
G01 X93.24043 Y2.67772
G01 X93.22625 Y2.68511
G01 X93.21109 Y2.69014
G01 X93.15381 Y2.70416
G01 X93.13804 Y2.70670
G01 X93.12204 Y2.70670
G01 X93.10626 Y2.70416
G01 X93.04899 Y2.69014
G01 X93.03385 Y2.68511
G01 X93.01967 Y2.67772
G01 X93.00687 Y2.66819
G01 X92.96255 Y2.62928
G01 X92.95401 Y2.62085
G01 X92.94655 Y2.61148
G01 X92.82163 Y2.43309
G01 X92.66692 Y2.27838
G01 X92.48765 Y2.15288
G01 X92.28937 Y2.06035
G01 X92.07799 Y2.00370
G01 X91.86004 Y1.98465
G01 X91.64208 Y2.00370
G01 X91.43070 Y2.06035
G01 X91.23240 Y2.15288
G01 X91.05318 Y2.27838
G01 X90.89844 Y2.43309
G01 X90.77355 Y2.61148
G01 X90.76606 Y2.62085
G01 X90.75752 Y2.62928
G01 X90.71320 Y2.66819
G01 X90.70040 Y2.67772
G01 X90.68623 Y2.68511
G01 X90.67106 Y2.69014
G01 X90.61381 Y2.70416
G01 X90.59801 Y2.70670
G01 X90.58204 Y2.70670
G01 X90.56624 Y2.70416
G01 X90.50901 Y2.69014
G01 X90.49382 Y2.68511
G01 X90.47965 Y2.67772
G01 X90.46685 Y2.66819
G01 X90.42252 Y2.62928
G01 X90.41399 Y2.62085
G01 X90.40655 Y2.61148
G01 X90.28166 Y2.43309
G01 X90.12689 Y2.27838
G01 X89.94765 Y2.15288
G01 X89.74940 Y2.06035
G01 X89.53802 Y2.00370
G01 X89.32001 Y1.98465
G01 X89.10205 Y2.00370
G01 X88.89073 Y2.06035
G01 X88.69238 Y2.15288
G01 X88.51318 Y2.27838
G01 X88.35842 Y2.43309
G01 X88.23353 Y2.61148
G01 X88.22608 Y2.62085
G01 X88.21755 Y2.62928
G01 X88.17323 Y2.66819
G01 X88.16043 Y2.67772
G01 X88.14625 Y2.68511
G01 X88.13106 Y2.69014
G01 X88.07384 Y2.70416
G01 X88.05804 Y2.70670
G01 X88.04206 Y2.70670
G01 X88.02626 Y2.70416
G01 X87.96899 Y2.69014
G01 X87.95385 Y2.68511
G01 X87.93967 Y2.67772
G01 X87.92687 Y2.66819
G01 X87.88255 Y2.62928
G01 X87.87401 Y2.62085
G01 X87.86652 Y2.61148
G01 X87.74163 Y2.43309
G01 X87.58689 Y2.27838
G01 X87.40767 Y2.15288
G01 X87.20937 Y2.06035
G01 X86.99802 Y2.00370
G01 X86.78001 Y1.98465
G01 X86.56210 Y2.00370
G01 X86.35070 Y2.06035
G01 X86.15238 Y2.15288
G01 X85.97315 Y2.27838
G01 X85.81847 Y2.43309
G01 X85.69353 Y2.61148
G01 X85.68608 Y2.62085
G01 X85.67755 Y2.62928
G01 X85.63323 Y2.66819
G01 X85.62040 Y2.67772
G01 X85.60625 Y2.68511
G01 X85.59106 Y2.69014
G01 X85.53381 Y2.70416
G01 X85.51801 Y2.70670
G01 X85.50204 Y2.70670
G01 X85.48624 Y2.70416
G01 X85.42899 Y2.69014
G01 X85.41385 Y2.68511
G01 X85.39965 Y2.67772
G01 X85.38687 Y2.66819
G01 X85.34255 Y2.62928
G01 X85.33401 Y2.62085
G01 X85.32657 Y2.61148
G01 X85.20163 Y2.43309
G01 X85.04689 Y2.27838
G01 X84.86765 Y2.15288
G01 X84.66942 Y2.06035
G01 X84.45799 Y2.00370
G01 X84.24001 Y1.98465
G01 X84.02210 Y2.00370
G01 X83.81075 Y2.06035
G01 X83.61238 Y2.15288
G01 X83.43321 Y2.27838
G01 X83.27844 Y2.43309
G01 X83.15353 Y2.61148
G01 X83.14606 Y2.62085
G01 X83.13752 Y2.62928
G01 X83.09320 Y2.66819
G01 X83.08045 Y2.67772
G01 X83.06623 Y2.68511
G01 X83.05106 Y2.69014
G01 X82.99386 Y2.70416
G01 X82.97801 Y2.70670
G01 X82.96209 Y2.70670
G01 X82.94624 Y2.70416
G01 X82.88904 Y2.69014
G01 X82.87382 Y2.68511
G01 X82.85965 Y2.67772
G01 X82.84687 Y2.66819
G01 X82.80255 Y2.62928
G01 X82.79401 Y2.62085
G01 X82.78655 Y2.61148
G01 X82.66163 Y2.43309
G01 X82.50689 Y2.27838
G01 X82.32770 Y2.15288
G01 X82.12940 Y2.06035
G01 X81.91799 Y2.00370
G01 X81.70001 Y1.98465
G01 X81.48208 Y2.00370
G01 X81.27075 Y2.06035
G01 X81.07238 Y2.15288
G01 X80.89318 Y2.27838
G01 X80.73844 Y2.43309
G01 X80.61353 Y2.61148
G01 X80.60606 Y2.62085
G01 X80.59752 Y2.62928
G01 X80.55320 Y2.66819
G01 X80.54045 Y2.67772
G01 X80.52623 Y2.68511
G01 X80.51111 Y2.69014
G01 X80.45384 Y2.70416
G01 X80.43806 Y2.70670
G01 X80.42206 Y2.70670
G01 X80.40629 Y2.70416
G01 X80.34901 Y2.69014
G01 X80.33382 Y2.68511
G01 X80.31970 Y2.67772
G01 X80.30685 Y2.66819
G01 X80.26252 Y2.62928
G01 X80.25399 Y2.62085
G01 X80.24652 Y2.61148
G01 X80.12163 Y2.43309
G01 X79.96694 Y2.27838
G01 X79.78767 Y2.15288
G01 X79.58940 Y2.06035
G01 X79.37799 Y2.00370
G01 X79.16006 Y1.98465
G01 X78.94205 Y2.00370
G01 X78.73073 Y2.06035
G01 X78.53243 Y2.15288
G01 X78.35315 Y2.27838
G01 X78.19842 Y2.43309
G01 X78.07358 Y2.61148
G01 X78.06606 Y2.62085
G01 X78.05752 Y2.62928
G01 X78.01320 Y2.66819
G01 X78.00042 Y2.67772
G01 X77.98623 Y2.68511
G01 X77.97109 Y2.69014
G01 X77.91384 Y2.70416
G01 X77.89804 Y2.70670
G01 X77.88206 Y2.70670
G01 X77.86626 Y2.70416
G01 X77.80899 Y2.69014
G01 X77.79382 Y2.68511
G01 X77.77967 Y2.67772
G01 X77.76685 Y2.66819
G01 X77.72252 Y2.62928
G01 X77.71399 Y2.62085
G01 X77.70652 Y2.61148
G01 X77.58168 Y2.43309
G01 X77.42692 Y2.27838
G01 X77.24767 Y2.15288
G01 X77.04937 Y2.06035
G01 X76.83804 Y2.00370
G01 X76.62004 Y1.98465
G01 X76.40205 Y2.00370
G01 X76.19070 Y2.06035
G01 X75.99240 Y2.15288
G01 X75.81315 Y2.27838
G01 X75.65842 Y2.43309
G01 X75.53355 Y2.61148
G01 X75.52611 Y2.62085
G01 X75.51757 Y2.62928
G01 X75.47325 Y2.66819
G01 X75.46040 Y2.67772
G01 X75.44628 Y2.68511
G01 X75.43109 Y2.69014
G01 X75.37381 Y2.70416
G01 X75.35801 Y2.70670
G01 X75.34204 Y2.70670
G01 X75.32624 Y2.70416
G01 X75.26899 Y2.69014
G01 X75.25387 Y2.68511
G01 X75.23965 Y2.67772
G01 X75.22690 Y2.66819
G01 X75.18257 Y2.62928
G01 X75.17404 Y2.62085
G01 X75.16652 Y2.61148
G01 X75.04166 Y2.43309
G01 X74.88692 Y2.27838
G01 X74.70765 Y2.15288
G01 X74.50937 Y2.06035
G01 X74.29802 Y2.00370
G01 X74.08001 Y1.98465
G01 X73.86208 Y2.00370
G01 X73.65070 Y2.06035
G01 X73.45238 Y2.15288
G01 X73.27315 Y2.27838
G01 X73.11844 Y2.43309
G01 X72.99325 Y2.61191
G01 X72.98578 Y2.62133
G01 X72.97722 Y2.62976
G01 X72.93292 Y2.66863
G01 X72.92009 Y2.67815
G01 X72.90592 Y2.68554
G01 X72.89076 Y2.69052
G01 X72.83351 Y2.70459
G01 X72.81773 Y2.70708
G01 X72.80178 Y2.70708
G01 X72.78593 Y2.70459
G01 X72.72868 Y2.69052
G01 X72.71354 Y2.68554
G01 X72.69934 Y2.67815
G01 X72.68654 Y2.66863
G01 X72.64382 Y2.63116
G01 X72.41141 Y2.86360
G01 X72.41354 Y2.86751
G01 X72.41771 Y2.87640
G01 X72.42101 Y2.88567
G01 X72.46940 Y3.04510
G01 X72.47181 Y3.05463
G01 X72.47326 Y3.06436
G01 X72.48956 Y3.23019
G01 X72.48956 Y3.24978
G01 X72.47326 Y3.41561
G01 X72.47181 Y3.42532
G01 X72.46940 Y3.43479
G01 X72.42101 Y3.59425
G01 X72.41354 Y3.61239
G01 X72.41141 Y3.61638
G01 X72.64382 Y3.84873
G01 X72.68654 Y3.81127
G01 X72.69934 Y3.80180
G01 X72.71354 Y3.79435
G01 X72.72868 Y3.78932
G01 X72.78593 Y3.77530
G01 X72.80178 Y3.77281
G01 X72.81773 Y3.77281
G01 X72.83351 Y3.77530
G01 X72.89076 Y3.78932
G01 X72.90592 Y3.79435
G01 X72.92009 Y3.80180
G01 X72.93292 Y3.81127
G01 X72.97722 Y3.85013
G01 X72.98578 Y3.85856
G01 X72.99325 Y3.86804
G01 X73.11844 Y4.04680
G01 X73.27315 Y4.20157
G01 X73.45156 Y4.32648
G01 X73.46094 Y4.33395
G01 X73.46937 Y4.34246
G01 X73.50826 Y4.38671
G01 X73.51778 Y4.39958
G01 X73.52517 Y4.41378
G01 X73.53020 Y4.42892
G01 X73.54425 Y4.48625
G01 X73.54676 Y4.50200
G01 X73.54676 Y4.51797
G01 X73.54425 Y4.53372
G01 X73.53020 Y4.59092
G01 X73.52517 Y4.60616
G01 X73.51778 Y4.62036
G01 X73.50826 Y4.63314
G01 X73.46937 Y4.67749
G01 X73.46094 Y4.68600
G01 X73.45156 Y4.69344
G01 X73.27315 Y4.81838
G01 X73.11844 Y4.97304
G01 X72.99325 Y5.15191
G01 X72.98578 Y5.16128
G01 X72.97722 Y5.16971
G01 X72.93292 Y5.20857
G01 X72.92009 Y5.21815
G01 X72.90592 Y5.22549
G01 X72.89076 Y5.23052
G01 X72.83351 Y5.24454
G01 X72.81773 Y5.24713
G01 X72.80178 Y5.24713
G01 X72.78593 Y5.24454
G01 X72.72868 Y5.23052
G01 X72.71354 Y5.22549
G01 X72.69934 Y5.21815
G01 X72.68654 Y5.20857
G01 X72.64382 Y5.17111
G01 X72.41141 Y5.40360
G01 X72.41354 Y5.40756
G01 X72.41771 Y5.41640
G01 X72.42101 Y5.42562
G01 X72.46940 Y5.58508
G01 X72.47181 Y5.59465
G01 X72.47326 Y5.60436
G01 X72.48956 Y5.77019
G01 X72.48956 Y5.78978
G01 X72.47326 Y5.95559
G01 X72.47181 Y5.96532
G01 X72.46940 Y5.97479
G01 X72.42101 Y6.13430
G01 X72.41771 Y6.14355
G01 X72.41354 Y6.15236
G01 X72.41141 Y6.15638
G01 X72.64382 Y6.38879
G01 X72.68654 Y6.35130
G01 X72.69934 Y6.34180
G01 X72.71354 Y6.33435
G01 X72.72868 Y6.32932
G01 X72.78593 Y6.31530
G01 X72.80178 Y6.31281
G01 X72.81773 Y6.31281
G01 X72.83351 Y6.31530
G01 X72.89076 Y6.32932
G01 X72.90592 Y6.33435
G01 X72.92009 Y6.34180
G01 X72.93292 Y6.35130
G01 X72.97722 Y6.39013
G01 X72.98578 Y6.39862
G01 X72.99325 Y6.40801
G01 X73.11844 Y6.58685
G01 X73.27315 Y6.74154
G01 X73.45238 Y6.86707
G01 X73.65070 Y6.95955
G01 X73.86208 Y7.01617
G01 X74.08001 Y7.03524
G01 X74.29802 Y7.01617
G01 X74.50937 Y6.95955
G01 X74.70765 Y6.86707
G01 X74.88692 Y6.74154
G01 X75.04166 Y6.58685
G01 X75.16652 Y6.40847
G01 X75.17404 Y6.39905
G01 X75.18257 Y6.39061
G01 X75.22690 Y6.35173
G01 X75.23965 Y6.34218
G01 X75.25387 Y6.33484
G01 X75.26899 Y6.32981
G01 X75.32624 Y6.31579
G01 X75.34204 Y6.31320
G01 X75.35801 Y6.31320
G01 X75.37381 Y6.31579
G01 X75.43109 Y6.32981
G01 X75.44628 Y6.33484
G01 X75.46040 Y6.34218
G01 X75.47325 Y6.35173
G01 X75.51757 Y6.39061
G01 X75.52611 Y6.39905
G01 X75.53355 Y6.40847
G01 X75.65842 Y6.58685
G01 X75.81315 Y6.74154
G01 X75.99240 Y6.86707
G01 X76.19070 Y6.95955
G01 X76.40205 Y7.01617
G01 X76.62004 Y7.03524
G01 X76.83804 Y7.01617
G01 X77.04937 Y6.95955
G01 X77.24767 Y6.86707
G01 X77.42692 Y6.74154
G01 X77.58168 Y6.58685
G01 X77.70652 Y6.40847
G01 X77.71399 Y6.39905
G01 X77.72252 Y6.39061
G01 X77.76685 Y6.35173
G01 X77.77967 Y6.34218
G01 X77.79382 Y6.33484
G01 X77.80899 Y6.32981
G01 X77.86626 Y6.31579
G01 X77.88206 Y6.31320
G01 X77.89804 Y6.31320
G01 X77.91384 Y6.31579
G01 X77.97109 Y6.32981
G01 X77.98623 Y6.33484
G01 X78.00042 Y6.34218
G01 X78.01320 Y6.35173
G01 X78.05752 Y6.39061
G01 X78.06606 Y6.39905
G01 X78.07358 Y6.40847
G01 X78.19842 Y6.58685
G01 X78.35315 Y6.74154
G01 X78.53243 Y6.86707
G01 X78.73073 Y6.95955
G01 X78.94205 Y7.01617
G01 X79.16006 Y7.03524
G01 X79.37799 Y7.01617
G01 X79.58940 Y6.95955
G01 X79.78767 Y6.86707
G01 X79.96694 Y6.74154
G01 X80.12163 Y6.58685
G01 X80.24652 Y6.40847
G01 X80.25399 Y6.39905
G01 X80.26252 Y6.39061
G01 X80.30685 Y6.35173
G01 X80.31970 Y6.34218
G01 X80.33382 Y6.33484
G01 X80.34901 Y6.32981
G01 X80.40629 Y6.31579
G01 X80.42206 Y6.31320
G01 X80.43806 Y6.31320
G01 X80.45384 Y6.31579
G01 X80.51111 Y6.32981
G01 X80.52623 Y6.33484
G01 X80.54045 Y6.34218
G01 X80.55320 Y6.35173
G01 X80.59752 Y6.39061
G01 X80.60606 Y6.39905
G01 X80.61353 Y6.40847
G01 X80.73844 Y6.58685
G01 X80.89318 Y6.74154
G01 X81.07238 Y6.86707
G01 X81.27075 Y6.95955
G01 X81.48208 Y7.01617
G01 X81.70001 Y7.03524
G01 X81.91799 Y7.01617
G01 X82.12940 Y6.95955
G01 X82.32770 Y6.86707
G01 X82.50689 Y6.74154
G01 X82.66163 Y6.58685
G01 X82.78655 Y6.40847
G01 X82.79401 Y6.39905
G01 X82.80255 Y6.39061
G01 X82.84687 Y6.35173
G01 X82.85965 Y6.34218
G01 X82.87382 Y6.33484
G01 X82.88904 Y6.32981
G01 X82.94624 Y6.31579
G01 X82.96209 Y6.31320
G01 X82.97801 Y6.31320
G01 X82.99386 Y6.31579
G01 X83.05106 Y6.32981
G01 X83.06623 Y6.33484
G01 X83.08045 Y6.34218
G01 X83.09320 Y6.35173
G01 X83.13752 Y6.39061
G01 X83.14606 Y6.39905
G01 X83.15353 Y6.40847
G01 X83.27844 Y6.58685
G01 X83.43321 Y6.74154
G01 X83.61238 Y6.86707
G01 X83.81075 Y6.95955
G01 X84.02210 Y7.01617
G01 X84.24001 Y7.03524
G01 X84.45799 Y7.01617
G01 X84.66942 Y6.95955
G01 X84.86765 Y6.86707
G01 X85.04689 Y6.74154
G01 X85.20163 Y6.58685
G01 X85.32688 Y6.40801
G01 X85.33432 Y6.39862
G01 X85.34285 Y6.39013
G01 X85.38718 Y6.35130
G01 X85.39995 Y6.34180
G01 X85.41415 Y6.33435
G01 X85.42934 Y6.32932
G01 X85.48654 Y6.31530
G01 X85.50234 Y6.31281
G01 X85.51832 Y6.31281
G01 X85.53412 Y6.31530
G01 X85.59137 Y6.32932
G01 X85.60656 Y6.33435
G01 X85.62070 Y6.34180
G01 X85.63353 Y6.35130
G01 X85.67628 Y6.38879
G01 X85.90869 Y6.15638
G01 X85.90653 Y6.15236
G01 X85.90234 Y6.14355
G01 X85.89901 Y6.13430
G01 X85.85065 Y5.97479
G01 X85.84829 Y5.96532
G01 X85.84682 Y5.95559
G01 X85.83053 Y5.78978
G01 X85.83005 Y5.78000
G01 X85.83053 Y5.77019
G01 X85.84682 Y5.60436
G01 X85.84829 Y5.59465
G01 X85.85065 Y5.58508
G01 X85.89901 Y5.42562
G01 X85.90653 Y5.40756
G01 X85.90869 Y5.40357
G01 X85.67628 Y5.17111
G01 X85.63353 Y5.20857
G01 X85.62070 Y5.21815
G01 X85.60656 Y5.22549
G01 X85.59137 Y5.23052
G01 X85.53412 Y5.24454
G01 X85.51832 Y5.24713
G01 X85.50234 Y5.24713
G01 X85.48654 Y5.24454
G01 X85.42934 Y5.23052
G01 X85.41415 Y5.22549
G01 X85.39995 Y5.21815
G01 X85.38718 Y5.20857
G01 X85.34285 Y5.16971
G01 X85.33432 Y5.16128
G01 X85.32688 Y5.15191
G01 X85.20163 Y4.97304
G01 X85.04689 Y4.81838
G01 X84.86851 Y4.69349
G01 X84.85911 Y4.68600
G01 X84.85068 Y4.67749
G01 X84.81182 Y4.63314
G01 X84.80232 Y4.62036
G01 X84.79495 Y4.60619
G01 X84.78987 Y4.59097
G01 X84.77585 Y4.53375
G01 X84.77331 Y4.51797
G01 X84.77331 Y4.50200
G01 X84.77585 Y4.48620
G01 X84.78987 Y4.42887
G01 X84.79495 Y4.41376
G01 X84.80232 Y4.39958
G01 X84.81184 Y4.38671
G01 X84.85075 Y4.34246
G01 X84.85919 Y4.33395
G01 X84.86851 Y4.32648
G01 X85.04689 Y4.20157
G01 X85.20163 Y4.04680
G01 X85.32657 Y3.86842
G01 X85.33401 Y3.85905
G01 X85.34255 Y3.85061
G01 X85.38687 Y3.81175
G01 X85.39965 Y3.80218
G01 X85.41385 Y3.79484
G01 X85.42899 Y3.78981
G01 X85.48624 Y3.77579
G01 X85.50204 Y3.77320
G01 X85.51801 Y3.77320
G01 X85.53381 Y3.77579
G01 X85.59106 Y3.78981
G01 X85.60625 Y3.79484
G01 X85.62040 Y3.80218
G01 X85.63323 Y3.81175
G01 X85.67755 Y3.85061
G01 X85.68608 Y3.85905
G01 X85.69353 Y3.86842
G01 X85.81847 Y4.04680
G01 X85.97315 Y4.20157
G01 X86.15200 Y4.32676
G01 X86.16142 Y4.33423
G01 X86.16985 Y4.34271
G01 X86.20869 Y4.38706
G01 X86.21821 Y4.39984
G01 X86.22566 Y4.41404
G01 X86.23063 Y4.42928
G01 X86.24468 Y4.48650
G01 X86.24722 Y4.50225
G01 X86.24722 Y4.51823
G01 X86.24468 Y4.53398
G01 X86.23063 Y4.59128
G01 X86.22566 Y4.60642
G01 X86.21829 Y4.62059
G01 X86.20869 Y4.63342
G01 X86.17122 Y4.67614
G01 X86.40363 Y4.90860
G01 X86.40765 Y4.90649
G01 X86.42571 Y4.89895
G01 X86.58517 Y4.85064
G01 X86.60440 Y4.84675
G01 X86.77021 Y4.83047
G01 X86.78982 Y4.83047
G01 X86.95565 Y4.84675
G01 X86.97488 Y4.85064
G01 X87.13434 Y4.89895
G01 X87.14356 Y4.90230
G01 X87.15248 Y4.90649
G01 X87.15641 Y4.90863
G01 X87.38887 Y4.67614
G01 X87.35138 Y4.63344
G01 X87.34186 Y4.62062
G01 X87.33447 Y4.60642
G01 X87.32941 Y4.59128
G01 X87.31544 Y4.53398
G01 X87.31288 Y4.51823
G01 X87.31288 Y4.50225
G01 X87.31544 Y4.48650
G01 X87.32941 Y4.42928
G01 X87.33447 Y4.41404
G01 X87.34186 Y4.39984
G01 X87.35143 Y4.38704
G01 X87.39030 Y4.34271
G01 X87.39873 Y4.33423
G01 X87.40810 Y4.32676
G01 X87.58689 Y4.20157
G01 X87.74163 Y4.04680
G01 X87.86652 Y3.86842
G01 X87.87401 Y3.85905
G01 X87.88255 Y3.85061
G01 X87.92687 Y3.81175
G01 X87.93967 Y3.80218
G01 X87.95385 Y3.79484
G01 X87.96899 Y3.78981
G01 X88.02626 Y3.77579
G01 X88.04206 Y3.77320
G01 X88.05804 Y3.77320
G01 X88.07384 Y3.77579
G01 X88.13106 Y3.78981
G01 X88.14625 Y3.79484
G01 X88.16043 Y3.80218
G01 X88.17323 Y3.81175
G01 X88.21755 Y3.85061
G01 X88.22608 Y3.85905
G01 X88.23353 Y3.86842
G01 X88.35842 Y4.04680
G01 X88.51318 Y4.20157
G01 X88.69159 Y4.32648
G01 X88.70096 Y4.33395
G01 X88.70940 Y4.34246
G01 X88.74823 Y4.38671
G01 X88.75783 Y4.39958
G01 X88.76520 Y4.41378
G01 X88.77020 Y4.42892
G01 X88.78422 Y4.48625
G01 X88.78676 Y4.50200
G01 X88.78676 Y4.51797
G01 X88.78422 Y4.53372
G01 X88.77020 Y4.59092
G01 X88.76520 Y4.60616
G01 X88.75783 Y4.62036
G01 X88.74823 Y4.63314
G01 X88.70940 Y4.67749
G01 X88.70096 Y4.68600
G01 X88.69159 Y4.69344
G01 X88.51318 Y4.81838
G01 X88.35842 Y4.97304
G01 X88.23325 Y5.15191
G01 X88.22578 Y5.16128
G01 X88.21724 Y5.16971
G01 X88.17292 Y5.20857
G01 X88.16012 Y5.21815
G01 X88.14595 Y5.22549
G01 X88.13076 Y5.23052
G01 X88.07353 Y5.24454
G01 X88.05771 Y5.24713
G01 X88.04176 Y5.24713
G01 X88.02593 Y5.24454
G01 X87.96871 Y5.23052
G01 X87.95354 Y5.22549
G01 X87.93934 Y5.21815
G01 X87.92654 Y5.20857
G01 X87.88382 Y5.17111
G01 X87.65141 Y5.40360
G01 X87.65352 Y5.40756
G01 X87.66101 Y5.42562
G01 X87.70937 Y5.58508
G01 X87.71176 Y5.59465
G01 X87.71323 Y5.60436
G01 X87.72956 Y5.77019
G01 X87.72956 Y5.78978
G01 X87.71323 Y5.95559
G01 X87.71176 Y5.96532
G01 X87.70937 Y5.97479
G01 X87.66101 Y6.13430
G01 X87.65773 Y6.14355
G01 X87.65352 Y6.15236
G01 X87.65141 Y6.15638
G01 X87.88382 Y6.38879
G01 X87.92654 Y6.35130
G01 X87.93934 Y6.34180
G01 X87.95354 Y6.33435
G01 X87.96871 Y6.32932
G01 X88.02593 Y6.31530
G01 X88.04176 Y6.31281
G01 X88.05771 Y6.31281
G01 X88.07353 Y6.31530
G01 X88.13076 Y6.32932
G01 X88.14595 Y6.33435
G01 X88.16012 Y6.34180
G01 X88.17292 Y6.35130
G01 X88.21724 Y6.39013
G01 X88.22578 Y6.39862
G01 X88.23325 Y6.40801
G01 X88.35842 Y6.58685
G01 X88.51318 Y6.74154
G01 X88.69238 Y6.86707
G01 X88.89073 Y6.95955
G01 X89.10205 Y7.01617
G01 X89.32001 Y7.03524
G01 X89.53802 Y7.01617
G01 X89.74940 Y6.95955
G01 X89.94765 Y6.86707
G01 X90.12689 Y6.74154
G01 X90.28166 Y6.58685
G01 X90.40655 Y6.40847
G01 X90.41399 Y6.39905
G01 X90.42252 Y6.39061
G01 X90.46685 Y6.35173
G01 X90.47965 Y6.34218
G01 X90.49382 Y6.33484
G01 X90.50901 Y6.32981
G01 X90.56624 Y6.31579
G01 X90.58204 Y6.31320
G01 X90.59801 Y6.31320
G01 X90.61381 Y6.31579
G01 X90.67106 Y6.32981
G01 X90.68623 Y6.33484
G01 X90.70040 Y6.34218
G01 X90.71320 Y6.35173
G01 X90.75752 Y6.39061
G01 X90.76606 Y6.39905
G01 X90.77355 Y6.40847
G01 X90.89844 Y6.58685
G01 X91.05318 Y6.74154
G01 X91.23240 Y6.86707
G01 X91.43070 Y6.95955
G01 X91.64208 Y7.01617
G01 X91.86004 Y7.03524
G01 X92.07799 Y7.01617
G01 X92.28937 Y6.95955
G01 X92.48765 Y6.86707
G01 X92.66692 Y6.74154
G01 X92.82163 Y6.58685
G01 X92.94655 Y6.40847
G01 X92.95401 Y6.39905
G01 X92.96255 Y6.39061
G01 X93.00687 Y6.35173
G01 X93.01967 Y6.34218
G01 X93.03385 Y6.33484
G01 X93.04899 Y6.32981
G01 X93.10626 Y6.31579
G01 X93.12204 Y6.31320
G01 X93.13804 Y6.31320
G01 X93.15381 Y6.31579
G01 X93.21109 Y6.32981
G01 X93.22625 Y6.33484
G01 X93.24043 Y6.34218
G01 X93.25320 Y6.35173
G01 X93.29757 Y6.39061
G01 X93.30606 Y6.39905
G01 X93.31353 Y6.40847
G01 X93.43842 Y6.58685
G01 X93.59315 Y6.74154
G01 X93.77238 Y6.86707
G01 X93.97070 Y6.95955
G01 X94.18205 Y7.01617
G01 X94.40001 Y7.03524
G01 X94.61804 Y7.01617
G01 X94.82942 Y6.95955
G01 X95.02770 Y6.86707
G01 X95.20689 Y6.74154
G01 X95.36168 Y6.58685
G01 X95.48718 Y6.40763
G01 X95.57966 Y6.20931
G01 X95.63625 Y5.99791
G01 X95.65530 Y5.78000
G01 X95.63625 Y5.56202
G01 X95.57966 Y5.35064
G01 X95.48718 Y5.15226
G01 X95.36168 Y4.97304
G01 X95.20689 Y4.81838
G01 X95.02851 Y4.69349
G01 X95.01916 Y4.68600
G01 X95.01073 Y4.67749
G01 X94.97187 Y4.63314
G01 X94.96229 Y4.62036
G01 X94.95495 Y4.60619
G01 X94.94987 Y4.59097
G01 X94.93590 Y4.53375
G01 X94.93333 Y4.51797
G01 X94.93333 Y4.50200
G01 X94.93590 Y4.48620
G01 X94.94987 Y4.42887
G01 X94.95495 Y4.41376
G01 X94.96229 Y4.39958
G01 X94.97189 Y4.38671
G01 X95.01075 Y4.34246
G01 X95.01919 Y4.33395
G01 X95.02851 Y4.32648
G01 X95.20689 Y4.20157
G01 X95.36168 Y4.04680
G01 X95.48718 Y3.86758
G01 X95.57966 Y3.66931
G01 X95.63625 Y3.45796
G01 X95.65530 Y3.24000
G01 X95.55530 Y3.24000
G01 X95.55497 Y3.24000
G01 X95.53745 Y3.03944
G01 X95.53775 Y3.03936
G01 X95.53745 Y3.03944
G01 X95.48530 Y2.84493
G01 X95.48563 Y2.84485
G01 X95.48530 Y2.84493
G01 X95.40019 Y2.66245
G01 X95.40057 Y2.66233
G01 X95.40019 Y2.66245
G01 X95.28479 Y2.49761
G01 X95.28507 Y2.49738
G01 X95.28479 Y2.49761
G01 X95.14243 Y2.35529
G01 X95.14268 Y2.35499
G01 X95.14243 Y2.35529
G01 X94.97751 Y2.23977
G01 X94.97771 Y2.23944
G01 X94.97751 Y2.23977
G01 X94.79508 Y2.15473
G01 X94.79516 Y2.15438
G01 X94.79508 Y2.15473
G01 X94.60062 Y2.10261
G01 X94.60065 Y2.10226
G01 X94.60062 Y2.10261
G01 X94.40001 Y2.08504
G01 X94.40001 Y2.08465
G01 X94.40001 Y2.08504
G01 X94.19950 Y2.10261
G01 X94.19948 Y2.10226
G01 X94.19950 Y2.10261
G01 X94.00504 Y2.15473
G01 X94.00494 Y2.15438
G01 X94.00504 Y2.15473
G01 X93.82257 Y2.23977
G01 X93.82239 Y2.23944
G01 X93.82257 Y2.23977
G01 X93.65767 Y2.35529
G01 X93.65742 Y2.35499
G01 X93.65767 Y2.35529
G01 X93.51530 Y2.49761
G01 X93.51505 Y2.49738
G01 X93.51530 Y2.49761
G01 X93.39547 Y2.66878
G01 X93.38051 Y2.68765
G01 X93.36349 Y2.70452
G01 X93.31916 Y2.74338
G01 X93.29351 Y2.76243
G01 X93.26516 Y2.77721
G01 X93.23486 Y2.78722
G01 X93.17761 Y2.80124
G01 X93.14601 Y2.80637
G01 X93.11406 Y2.80637
G01 X93.08249 Y2.80124
G01 X93.02521 Y2.78722
G01 X92.99491 Y2.77721
G01 X92.96656 Y2.76243
G01 X92.94091 Y2.74338
G01 X92.89659 Y2.70452
G01 X92.87957 Y2.68765
G01 X92.86463 Y2.66878
G01 X92.74474 Y2.49761
G01 X92.74502 Y2.49738
G01 X92.74474 Y2.49761
G01 X92.60240 Y2.35529
G01 X92.60263 Y2.35499
G01 X92.60240 Y2.35529
G01 X92.43745 Y2.23977
G01 X92.43768 Y2.23944
G01 X92.43745 Y2.23977
G01 X92.25503 Y2.15473
G01 X92.25518 Y2.15438
G01 X92.25503 Y2.15473
G01 X92.06057 Y2.10261
G01 X92.06067 Y2.10226
G01 X92.06057 Y2.10261
G01 X91.86004 Y2.08504
G01 X91.86004 Y2.08465
G01 X91.86004 Y2.08504
G01 X91.65948 Y2.10261
G01 X91.65943 Y2.10226
G01 X91.65948 Y2.10261
G01 X91.46507 Y2.15473
G01 X91.46491 Y2.15438
G01 X91.46507 Y2.15473
G01 X91.28257 Y2.23977
G01 X91.28242 Y2.23944
G01 X91.28257 Y2.23977
G01 X91.11767 Y2.35529
G01 X91.11742 Y2.35499
G01 X91.11767 Y2.35529
G01 X90.97533 Y2.49761
G01 X90.97508 Y2.49738
G01 X90.97533 Y2.49761
G01 X90.85544 Y2.66878
G01 X90.84053 Y2.68765
G01 X90.82346 Y2.70452
G01 X90.77914 Y2.74338
G01 X90.75354 Y2.76243
G01 X90.72516 Y2.77721
G01 X90.69486 Y2.78722
G01 X90.63759 Y2.80124
G01 X90.60601 Y2.80637
G01 X90.57403 Y2.80637
G01 X90.54246 Y2.80124
G01 X90.48524 Y2.78722
G01 X90.45488 Y2.77721
G01 X90.42654 Y2.76243
G01 X90.40091 Y2.74338
G01 X90.35661 Y2.70452
G01 X90.33957 Y2.68765
G01 X90.32461 Y2.66878
G01 X90.20477 Y2.49761
G01 X90.20505 Y2.49738
G01 X90.20477 Y2.49761
G01 X90.06238 Y2.35529
G01 X90.06266 Y2.35499
G01 X90.06238 Y2.35529
G01 X89.89748 Y2.23977
G01 X89.89771 Y2.23944
G01 X89.89748 Y2.23977
G01 X89.71503 Y2.15473
G01 X89.71516 Y2.15438
G01 X89.71503 Y2.15473
G01 X89.52060 Y2.10261
G01 X89.52065 Y2.10226
G01 X89.52060 Y2.10261
G01 X89.32001 Y2.08504
G01 X89.32001 Y2.08465
G01 X89.32001 Y2.08504
G01 X89.11950 Y2.10261
G01 X89.11945 Y2.10226
G01 X89.11950 Y2.10261
G01 X88.92504 Y2.15473
G01 X88.92494 Y2.15438
G01 X88.92504 Y2.15473
G01 X88.74259 Y2.23977
G01 X88.74239 Y2.23944
G01 X88.74259 Y2.23977
G01 X88.57770 Y2.35529
G01 X88.57744 Y2.35499
G01 X88.57770 Y2.35529
G01 X88.43530 Y2.49761
G01 X88.43505 Y2.49738
G01 X88.43530 Y2.49761
G01 X88.31547 Y2.66878
G01 X88.30051 Y2.68765
G01 X88.28349 Y2.70452
G01 X88.23916 Y2.74338
G01 X88.21354 Y2.76243
G01 X88.18519 Y2.77721
G01 X88.15484 Y2.78722
G01 X88.09761 Y2.80124
G01 X88.06604 Y2.80637
G01 X88.03406 Y2.80637
G01 X88.00249 Y2.80124
G01 X87.94521 Y2.78722
G01 X87.91491 Y2.77721
G01 X87.88656 Y2.76243
G01 X87.86093 Y2.74338
G01 X87.81661 Y2.70452
G01 X87.79954 Y2.68765
G01 X87.78463 Y2.66878
G01 X87.66474 Y2.49761
G01 X87.66500 Y2.49738
G01 X87.66474 Y2.49761
G01 X87.52240 Y2.35529
G01 X87.52266 Y2.35499
G01 X87.52240 Y2.35529
G01 X87.35745 Y2.23977
G01 X87.35766 Y2.23944
G01 X87.35745 Y2.23977
G01 X87.17503 Y2.15473
G01 X87.17516 Y2.15438
G01 X87.17503 Y2.15473
G01 X86.98057 Y2.10261
G01 X86.98067 Y2.10226
G01 X86.98057 Y2.10261
G01 X86.78001 Y2.08504
G01 X86.78001 Y2.08465
G01 X86.78001 Y2.08504
G01 X86.57948 Y2.10261
G01 X86.57948 Y2.10226
G01 X86.57948 Y2.10261
G01 X86.38509 Y2.15473
G01 X86.38491 Y2.15438
G01 X86.38509 Y2.15473
G01 X86.20259 Y2.23977
G01 X86.20242 Y2.23944
G01 X86.20259 Y2.23977
G01 X86.03767 Y2.35529
G01 X86.03747 Y2.35499
G01 X86.03767 Y2.35529
G01 X85.89535 Y2.49761
G01 X85.89508 Y2.49738
G01 X85.89535 Y2.49761
G01 X85.77544 Y2.66878
G01 X85.76051 Y2.68765
G01 X85.74346 Y2.70452
G01 X85.69914 Y2.74338
G01 X85.67354 Y2.76243
G01 X85.64519 Y2.77721
G01 X85.61489 Y2.78722
G01 X85.55761 Y2.80124
G01 X85.52604 Y2.80637
G01 X85.49406 Y2.80637
G01 X85.46249 Y2.80124
G01 X85.40521 Y2.78722
G01 X85.37491 Y2.77721
G01 X85.34659 Y2.76243
G01 X85.32091 Y2.74338
G01 X85.27659 Y2.70452
G01 X85.25959 Y2.68765
G01 X85.24461 Y2.66878
G01 X85.12474 Y2.49761
G01 X85.12505 Y2.49738
G01 X85.12474 Y2.49761
G01 X84.98238 Y2.35529
G01 X84.98266 Y2.35499
G01 X84.98238 Y2.35529
G01 X84.81751 Y2.23977
G01 X84.81771 Y2.23944
G01 X84.81751 Y2.23977
G01 X84.63503 Y2.15473
G01 X84.63521 Y2.15438
G01 X84.63503 Y2.15473
G01 X84.44057 Y2.10261
G01 X84.44065 Y2.10226
G01 X84.44057 Y2.10261
G01 X84.24001 Y2.08504
G01 X84.24001 Y2.08465
G01 X84.24001 Y2.08504
G01 X84.03948 Y2.10261
G01 X84.03945 Y2.10226
G01 X84.03948 Y2.10261
G01 X83.84509 Y2.15473
G01 X83.84491 Y2.15438
G01 X83.84509 Y2.15473
G01 X83.66257 Y2.23977
G01 X83.66239 Y2.23944
G01 X83.66257 Y2.23977
G01 X83.49772 Y2.35529
G01 X83.49744 Y2.35499
G01 X83.49772 Y2.35529
G01 X83.35533 Y2.49761
G01 X83.35505 Y2.49738
G01 X83.35533 Y2.49761
G01 X83.23549 Y2.66878
G01 X83.22051 Y2.68765
G01 X83.20346 Y2.70452
G01 X83.15914 Y2.74338
G01 X83.13351 Y2.76243
G01 X83.10516 Y2.77721
G01 X83.07486 Y2.78722
G01 X83.01759 Y2.80124
G01 X82.98601 Y2.80637
G01 X82.95406 Y2.80637
G01 X82.92246 Y2.80124
G01 X82.86521 Y2.78722
G01 X82.83491 Y2.77721
G01 X82.80656 Y2.76243
G01 X82.78096 Y2.74338
G01 X82.73664 Y2.70452
G01 X82.71957 Y2.68765
G01 X82.70466 Y2.66878
G01 X82.58474 Y2.49761
G01 X82.58502 Y2.49738
G01 X82.58474 Y2.49761
G01 X82.44243 Y2.35529
G01 X82.44263 Y2.35499
G01 X82.44243 Y2.35529
G01 X82.27748 Y2.23977
G01 X82.27768 Y2.23944
G01 X82.27748 Y2.23977
G01 X82.09508 Y2.15473
G01 X82.09518 Y2.15438
G01 X82.09508 Y2.15473
G01 X81.90062 Y2.10261
G01 X81.90065 Y2.10226
G01 X81.90062 Y2.10261
G01 X81.70001 Y2.08504
G01 X81.70001 Y2.08465
G01 X81.70001 Y2.08504
G01 X81.49953 Y2.10261
G01 X81.49943 Y2.10226
G01 X81.49953 Y2.10261
G01 X81.30507 Y2.15473
G01 X81.30496 Y2.15438
G01 X81.30507 Y2.15473
G01 X81.12257 Y2.23977
G01 X81.12239 Y2.23944
G01 X81.12257 Y2.23977
G01 X80.95772 Y2.35529
G01 X80.95742 Y2.35499
G01 X80.95772 Y2.35529
G01 X80.81533 Y2.49761
G01 X80.81505 Y2.49738
G01 X80.81533 Y2.49761
G01 X80.69549 Y2.66878
G01 X80.68051 Y2.68765
G01 X80.66351 Y2.70452
G01 X80.61919 Y2.74338
G01 X80.59351 Y2.76243
G01 X80.56516 Y2.77721
G01 X80.53484 Y2.78722
G01 X80.47759 Y2.80124
G01 X80.44601 Y2.80637
G01 X80.41403 Y2.80637
G01 X80.38246 Y2.80124
G01 X80.32521 Y2.78722
G01 X80.29488 Y2.77721
G01 X80.26654 Y2.76243
G01 X80.24093 Y2.74338
G01 X80.19661 Y2.70452
G01 X80.17954 Y2.68765
G01 X80.16466 Y2.66878
G01 X80.04474 Y2.49761
G01 X80.04500 Y2.49738
G01 X80.04474 Y2.49761
G01 X79.90243 Y2.35529
G01 X79.90263 Y2.35499
G01 X79.90243 Y2.35529
G01 X79.73748 Y2.23977
G01 X79.73766 Y2.23944
G01 X79.73748 Y2.23977
G01 X79.55506 Y2.15473
G01 X79.55516 Y2.15438
G01 X79.55506 Y2.15473
G01 X79.36060 Y2.10261
G01 X79.36070 Y2.10226
G01 X79.36060 Y2.10261
G01 X79.16006 Y2.08504
G01 X79.16006 Y2.08465
G01 X79.16006 Y2.08504
G01 X78.95950 Y2.10261
G01 X78.95943 Y2.10226
G01 X78.95950 Y2.10261
G01 X78.76504 Y2.15473
G01 X78.76494 Y2.15438
G01 X78.76504 Y2.15473
G01 X78.58257 Y2.23977
G01 X78.58244 Y2.23944
G01 X78.58257 Y2.23977
G01 X78.41770 Y2.35529
G01 X78.41742 Y2.35499
G01 X78.41770 Y2.35529
G01 X78.27530 Y2.49761
G01 X78.27510 Y2.49738
G01 X78.27530 Y2.49761
G01 X78.15547 Y2.66878
G01 X78.14056 Y2.68765
G01 X78.12349 Y2.70452
G01 X78.07917 Y2.74338
G01 X78.05356 Y2.76243
G01 X78.02516 Y2.77721
G01 X77.99484 Y2.78722
G01 X77.93759 Y2.80124
G01 X77.90601 Y2.80637
G01 X77.87403 Y2.80637
G01 X77.84246 Y2.80124
G01 X77.78526 Y2.78722
G01 X77.75488 Y2.77721
G01 X77.72654 Y2.76243
G01 X77.70093 Y2.74338
G01 X77.65659 Y2.70452
G01 X77.63954 Y2.68765
G01 X77.62463 Y2.66878
G01 X77.50479 Y2.49761
G01 X77.50500 Y2.49738
G01 X77.50479 Y2.49761
G01 X77.36240 Y2.35529
G01 X77.36268 Y2.35499
G01 X77.36240 Y2.35529
G01 X77.19745 Y2.23977
G01 X77.19766 Y2.23944
G01 X77.19745 Y2.23977
G01 X77.01506 Y2.15473
G01 X77.01516 Y2.15438
G01 X77.01506 Y2.15473
G01 X76.82057 Y2.10261
G01 X76.82067 Y2.10226
G01 X76.82057 Y2.10261
G01 X76.62004 Y2.08504
G01 X76.62004 Y2.08465
G01 X76.62004 Y2.08504
G01 X76.41948 Y2.10261
G01 X76.41948 Y2.10226
G01 X76.41948 Y2.10261
G01 X76.22504 Y2.15473
G01 X76.22491 Y2.15438
G01 X76.22504 Y2.15473
G01 X76.04262 Y2.23977
G01 X76.04242 Y2.23944
G01 X76.04262 Y2.23977
G01 X75.87767 Y2.35529
G01 X75.87747 Y2.35499
G01 X75.87767 Y2.35529
G01 X75.73530 Y2.49761
G01 X75.73508 Y2.49738
G01 X75.73530 Y2.49761
G01 X75.61544 Y2.66878
G01 X75.60053 Y2.68765
G01 X75.58346 Y2.70452
G01 X75.53914 Y2.74338
G01 X75.51356 Y2.76243
G01 X75.48522 Y2.77721
G01 X75.45484 Y2.78722
G01 X75.39764 Y2.80124
G01 X75.36606 Y2.80637
G01 X75.33409 Y2.80637
G01 X75.30251 Y2.80124
G01 X75.24524 Y2.78722
G01 X75.21493 Y2.77721
G01 X75.18659 Y2.76243
G01 X75.16091 Y2.74338
G01 X75.11659 Y2.70452
G01 X75.09954 Y2.68765
G01 X75.08461 Y2.66878
G01 X74.96477 Y2.49761
G01 X74.96500 Y2.49738
G01 X74.96477 Y2.49761
G01 X74.82238 Y2.35529
G01 X74.82268 Y2.35499
G01 X74.82238 Y2.35529
G01 X74.65745 Y2.23977
G01 X74.65766 Y2.23944
G01 X74.65745 Y2.23977
G01 X74.47503 Y2.15473
G01 X74.47516 Y2.15438
G01 X74.47503 Y2.15473
G01 X74.28060 Y2.10261
G01 X74.28067 Y2.10226
G01 X74.28060 Y2.10261
G01 X74.08001 Y2.08504
G01 X74.08001 Y2.08465
G01 X74.08001 Y2.08504
G01 X73.87948 Y2.10261
G01 X73.87943 Y2.10226
G01 X73.87948 Y2.10261
G01 X73.68507 Y2.15473
G01 X73.68491 Y2.15438
G01 X73.68507 Y2.15473
G01 X73.50257 Y2.23977
G01 X73.50242 Y2.23944
G01 X73.50257 Y2.23977
G01 X73.33767 Y2.35529
G01 X73.33742 Y2.35499
G01 X73.33767 Y2.35529
G01 X73.19530 Y2.49761
G01 X73.19508 Y2.49738
G01 X73.19530 Y2.49761
G01 X73.07516 Y2.66926
G01 X73.06023 Y2.68806
G01 X73.04316 Y2.70495
G01 X72.99886 Y2.74376
G01 X72.97323 Y2.76283
G01 X72.94486 Y2.77759
G01 X72.91456 Y2.78770
G01 X72.85731 Y2.80167
G01 X72.82571 Y2.80680
G01 X72.79376 Y2.80680
G01 X72.76216 Y2.80167
G01 X72.70491 Y2.78770
G01 X72.67460 Y2.77759
G01 X72.65103 Y2.76532
G01 X72.64710 Y2.75140
G01 X72.65103 Y2.76532
G01 X72.52672 Y2.88966
G01 X72.51088 Y2.88564
G01 X72.52672 Y2.88966
G01 X72.56510 Y3.01610
G01 X72.56985 Y3.03515
G01 X72.57272 Y3.05455
G01 X72.58906 Y3.22039
G01 X72.58906 Y3.25953
G01 X72.57272 Y3.42542
G01 X72.56985 Y3.44477
G01 X72.56510 Y3.46382
G01 X72.52672 Y3.59029
G01 X72.51088 Y3.59425
G01 X72.52672 Y3.59029
G01 X72.65101 Y3.71457
G01 X72.64704 Y3.72854
G01 X72.65101 Y3.71457
G01 X72.67460 Y3.70230
G01 X72.70491 Y3.69219
G01 X72.76216 Y3.67817
G01 X72.79376 Y3.67309
G01 X72.82571 Y3.67309
G01 X72.85731 Y3.67817
G01 X72.91456 Y3.69219
G01 X72.94486 Y3.70230
G01 X72.97323 Y3.71701
G01 X72.99886 Y3.73614
G01 X73.04316 Y3.77500
G01 X73.06023 Y3.79186
G01 X73.07516 Y3.81063
G01 X73.19530 Y3.98234
G01 X73.19508 Y3.98252
G01 X73.19530 Y3.98234
G01 X73.33767 Y4.12468
G01 X73.33747 Y4.12488
G01 X73.33767 Y4.12468
G01 X73.50894 Y4.24459
G01 X73.52771 Y4.25948
G01 X73.54458 Y4.27647
G01 X73.58344 Y4.32082
G01 X73.60252 Y4.34642
G01 X73.61732 Y4.37487
G01 X73.62733 Y4.40525
G01 X73.64133 Y4.46253
G01 X73.64641 Y4.49402
G01 X73.64641 Y4.52595
G01 X73.64133 Y4.55747
G01 X73.62733 Y4.61472
G01 X73.61732 Y4.64510
G01 X73.60252 Y4.67342
G01 X73.58344 Y4.69913
G01 X73.54458 Y4.74337
G01 X73.52771 Y4.76047
G01 X73.50894 Y4.77535
G01 X73.33767 Y4.89527
G01 X73.33747 Y4.89496
G01 X73.33767 Y4.89527
G01 X73.19530 Y5.03761
G01 X73.19508 Y5.03733
G01 X73.19530 Y5.03761
G01 X73.07516 Y5.20921
G01 X73.06023 Y5.22808
G01 X73.04316 Y5.24495
G01 X72.99886 Y5.28378
G01 X72.97323 Y5.30283
G01 X72.94486 Y5.31762
G01 X72.91456 Y5.32765
G01 X72.85731 Y5.34167
G01 X72.82571 Y5.34675
G01 X72.79376 Y5.34675
G01 X72.76216 Y5.34167
G01 X72.70491 Y5.32765
G01 X72.67460 Y5.31762
G01 X72.65103 Y5.30537
G01 X72.64710 Y5.29140
G01 X72.65103 Y5.30537
G01 X72.52672 Y5.42968
G01 X72.51088 Y5.42559
G01 X72.52672 Y5.42968
G01 X72.56510 Y5.55605
G01 X72.56985 Y5.57510
G01 X72.57272 Y5.59455
G01 X72.58906 Y5.76034
G01 X72.58906 Y5.79958
G01 X72.57272 Y5.96542
G01 X72.56985 Y5.98477
G01 X72.56510 Y6.00382
G01 X72.52672 Y6.13029
G01 X72.51088 Y6.13430
G01 X72.52672 Y6.13029
G01 X72.65101 Y6.25452
G01 X72.64704 Y6.26854
G01 X72.65101 Y6.25452
G01 X72.67460 Y6.24230
G01 X72.70491 Y6.23219
G01 X72.76216 Y6.21822
G01 X72.79376 Y6.21309
G01 X72.82571 Y6.21309
G01 X72.85731 Y6.21822
G01 X72.91456 Y6.23219
G01 X72.94486 Y6.24230
G01 X72.97323 Y6.25706
G01 X72.99886 Y6.27614
G01 X73.04316 Y6.31500
G01 X73.06023 Y6.33186
G01 X73.07516 Y6.35066
G01 X73.19530 Y6.52231
G01 X73.19508 Y6.52257
G01 X73.19530 Y6.52231
G01 X73.33767 Y6.66466
G01 X73.33742 Y6.66496
G01 X73.33767 Y6.66466
G01 X73.50257 Y6.78012
G01 X73.50242 Y6.78043
G01 X73.50257 Y6.78012
G01 X73.68507 Y6.86521
G01 X73.68491 Y6.86554
G01 X73.68507 Y6.86521
G01 X73.87948 Y6.91733
G01 X73.87943 Y6.91766
G01 X73.87948 Y6.91733
G01 X74.08001 Y6.93483
G01 X74.08001 Y6.93522
G01 X74.08001 Y6.93483
G01 X74.28060 Y6.91733
G01 X74.28067 Y6.91766
G01 X74.28060 Y6.91733
G01 X74.47503 Y6.86521
G01 X74.47516 Y6.86554
G01 X74.47503 Y6.86521
G01 X74.65745 Y6.78012
G01 X74.65766 Y6.78043
G01 X74.65745 Y6.78012
G01 X74.82238 Y6.66466
G01 X74.82268 Y6.66496
G01 X74.82238 Y6.66466
G01 X74.96477 Y6.52231
G01 X74.96500 Y6.52257
G01 X74.96477 Y6.52231
G01 X75.08461 Y6.35109
G01 X75.09954 Y6.33225
G01 X75.11659 Y6.31538
G01 X75.16091 Y6.27652
G01 X75.18659 Y6.25744
G01 X75.21493 Y6.24268
G01 X75.24524 Y6.23263
G01 X75.30251 Y6.21861
G01 X75.33409 Y6.21358
G01 X75.36606 Y6.21358
G01 X75.39764 Y6.21861
G01 X75.45484 Y6.23263
G01 X75.48522 Y6.24268
G01 X75.51356 Y6.25744
G01 X75.53914 Y6.27652
G01 X75.58346 Y6.31538
G01 X75.60053 Y6.33225
G01 X75.61544 Y6.35109
G01 X75.73530 Y6.52231
G01 X75.73508 Y6.52257
G01 X75.73530 Y6.52231
G01 X75.87767 Y6.66466
G01 X75.87747 Y6.66496
G01 X75.87767 Y6.66466
G01 X76.04262 Y6.78012
G01 X76.04242 Y6.78043
G01 X76.04262 Y6.78012
G01 X76.22504 Y6.86521
G01 X76.22491 Y6.86554
G01 X76.22504 Y6.86521
G01 X76.41948 Y6.91733
G01 X76.41948 Y6.91766
G01 X76.41948 Y6.91733
G01 X76.62004 Y6.93483
G01 X76.62004 Y6.93522
G01 X76.62004 Y6.93483
G01 X76.82057 Y6.91733
G01 X76.82067 Y6.91766
G01 X76.82057 Y6.91733
G01 X77.01506 Y6.86521
G01 X77.01516 Y6.86554
G01 X77.01506 Y6.86521
G01 X77.19745 Y6.78012
G01 X77.19766 Y6.78043
G01 X77.19745 Y6.78012
G01 X77.36240 Y6.66466
G01 X77.36268 Y6.66496
G01 X77.36240 Y6.66466
G01 X77.50479 Y6.52231
G01 X77.50500 Y6.52257
G01 X77.50479 Y6.52231
G01 X77.62463 Y6.35109
G01 X77.63954 Y6.33225
G01 X77.65659 Y6.31538
G01 X77.70093 Y6.27652
G01 X77.72654 Y6.25744
G01 X77.75488 Y6.24268
G01 X77.78526 Y6.23263
G01 X77.84246 Y6.21861
G01 X77.87403 Y6.21358
G01 X77.90601 Y6.21358
G01 X77.93759 Y6.21861
G01 X77.99484 Y6.23263
G01 X78.02516 Y6.24268
G01 X78.05356 Y6.25744
G01 X78.07917 Y6.27652
G01 X78.12349 Y6.31538
G01 X78.14056 Y6.33225
G01 X78.15547 Y6.35109
G01 X78.27530 Y6.52231
G01 X78.27510 Y6.52257
G01 X78.27530 Y6.52231
G01 X78.41770 Y6.66466
G01 X78.41742 Y6.66496
G01 X78.41770 Y6.66466
G01 X78.58257 Y6.78012
G01 X78.58244 Y6.78043
G01 X78.58257 Y6.78012
G01 X78.76504 Y6.86521
G01 X78.76494 Y6.86554
G01 X78.76504 Y6.86521
G01 X78.95950 Y6.91733
G01 X78.95943 Y6.91766
G01 X78.95950 Y6.91733
G01 X79.16006 Y6.93483
G01 X79.16006 Y6.93522
G01 X79.16006 Y6.93483
G01 X79.36060 Y6.91733
G01 X79.36070 Y6.91766
G01 X79.36060 Y6.91733
G01 X79.55506 Y6.86521
G01 X79.55516 Y6.86554
G01 X79.55506 Y6.86521
G01 X79.73748 Y6.78012
G01 X79.73766 Y6.78043
G01 X79.73748 Y6.78012
G01 X79.90243 Y6.66466
G01 X79.90263 Y6.66496
G01 X79.90243 Y6.66466
G01 X80.04474 Y6.52231
G01 X80.04500 Y6.52257
G01 X80.04474 Y6.52231
G01 X80.16466 Y6.35109
G01 X80.17954 Y6.33225
G01 X80.19661 Y6.31538
G01 X80.24093 Y6.27652
G01 X80.26654 Y6.25744
G01 X80.29488 Y6.24268
G01 X80.32521 Y6.23263
G01 X80.38246 Y6.21861
G01 X80.41403 Y6.21358
G01 X80.44601 Y6.21358
G01 X80.47759 Y6.21861
G01 X80.53484 Y6.23263
G01 X80.56516 Y6.24268
G01 X80.59351 Y6.25744
G01 X80.61919 Y6.27652
G01 X80.66351 Y6.31538
G01 X80.68051 Y6.33225
G01 X80.69549 Y6.35109
G01 X80.81533 Y6.52231
G01 X80.81505 Y6.52257
G01 X80.81533 Y6.52231
G01 X80.95772 Y6.66466
G01 X80.95742 Y6.66496
G01 X80.95772 Y6.66466
G01 X81.12257 Y6.78012
G01 X81.12239 Y6.78043
G01 X81.12257 Y6.78012
G01 X81.30507 Y6.86521
G01 X81.30496 Y6.86554
G01 X81.30507 Y6.86521
G01 X81.49953 Y6.91733
G01 X81.49943 Y6.91766
G01 X81.49953 Y6.91733
G01 X81.70001 Y6.93483
G01 X81.70001 Y6.93522
G01 X81.70001 Y6.93483
G01 X81.90062 Y6.91733
G01 X81.90065 Y6.91766
G01 X81.90062 Y6.91733
G01 X82.09508 Y6.86521
G01 X82.09518 Y6.86554
G01 X82.09508 Y6.86521
G01 X82.27748 Y6.78012
G01 X82.27768 Y6.78043
G01 X82.27748 Y6.78012
G01 X82.44243 Y6.66466
G01 X82.44263 Y6.66496
G01 X82.44243 Y6.66466
G01 X82.58474 Y6.52231
G01 X82.58502 Y6.52257
G01 X82.58474 Y6.52231
G01 X82.70466 Y6.35109
G01 X82.71957 Y6.33225
G01 X82.73664 Y6.31538
G01 X82.78096 Y6.27652
G01 X82.80656 Y6.25744
G01 X82.83491 Y6.24268
G01 X82.86521 Y6.23263
G01 X82.92246 Y6.21861
G01 X82.95406 Y6.21358
G01 X82.98601 Y6.21358
G01 X83.01759 Y6.21861
G01 X83.07486 Y6.23263
G01 X83.10516 Y6.24268
G01 X83.13351 Y6.25744
G01 X83.15914 Y6.27652
G01 X83.20346 Y6.31538
G01 X83.22051 Y6.33225
G01 X83.23549 Y6.35109
G01 X83.35533 Y6.52231
G01 X83.35505 Y6.52257
G01 X83.35533 Y6.52231
G01 X83.49772 Y6.66466
G01 X83.49744 Y6.66496
G01 X83.49772 Y6.66466
G01 X83.66257 Y6.78012
G01 X83.66239 Y6.78043
G01 X83.66257 Y6.78012
G01 X83.84509 Y6.86521
G01 X83.84491 Y6.86554
G01 X83.84509 Y6.86521
G01 X84.03948 Y6.91733
G01 X84.03945 Y6.91766
G01 X84.03948 Y6.91733
G01 X84.24001 Y6.93483
G01 X84.24001 Y6.93522
G01 X84.24001 Y6.93483
G01 X84.44057 Y6.91733
G01 X84.44065 Y6.91766
G01 X84.44057 Y6.91733
G01 X84.63503 Y6.86521
G01 X84.63521 Y6.86554
G01 X84.63503 Y6.86521
G01 X84.81751 Y6.78012
G01 X84.81771 Y6.78043
G01 X84.81751 Y6.78012
G01 X84.98238 Y6.66466
G01 X84.98266 Y6.66496
G01 X84.98238 Y6.66466
G01 X85.12474 Y6.52231
G01 X85.12505 Y6.52257
G01 X85.12474 Y6.52231
G01 X85.24491 Y6.35066
G01 X85.25990 Y6.33186
G01 X85.27694 Y6.31500
G01 X85.32121 Y6.27614
G01 X85.34687 Y6.25706
G01 X85.37521 Y6.24230
G01 X85.40552 Y6.23219
G01 X85.46279 Y6.21822
G01 X85.49436 Y6.21309
G01 X85.52634 Y6.21309
G01 X85.55792 Y6.21822
G01 X85.61519 Y6.23219
G01 X85.64549 Y6.24230
G01 X85.66904 Y6.25452
G01 X85.67303 Y6.26854
G01 X85.66904 Y6.25452
G01 X85.79330 Y6.13029
G01 X85.80917 Y6.13433
G01 X85.79330 Y6.13029
G01 X85.75502 Y6.00382
G01 X85.75022 Y5.98477
G01 X85.74730 Y5.96542
G01 X85.73099 Y5.79958
G01 X85.73003 Y5.78000
G01 X85.73099 Y5.76034
G01 X85.74730 Y5.59455
G01 X85.75022 Y5.57510
G01 X85.75502 Y5.55605
G01 X85.79337 Y5.42966
G01 X85.80917 Y5.42559
G01 X85.79337 Y5.42966
G01 X85.66902 Y5.30537
G01 X85.67298 Y5.29140
G01 X85.66902 Y5.30537
G01 X85.64549 Y5.31762
G01 X85.61519 Y5.32765
G01 X85.55792 Y5.34167
G01 X85.52634 Y5.34675
G01 X85.49436 Y5.34675
G01 X85.46279 Y5.34167
G01 X85.40552 Y5.32765
G01 X85.37521 Y5.31762
G01 X85.34687 Y5.30283
G01 X85.32121 Y5.28378
G01 X85.27694 Y5.24495
G01 X85.25990 Y5.22808
G01 X85.24491 Y5.20921
G01 X85.12474 Y5.03761
G01 X85.12505 Y5.03733
G01 X85.12474 Y5.03761
G01 X84.98238 Y4.89529
G01 X84.98266 Y4.89496
G01 X84.98238 Y4.89529
G01 X84.81116 Y4.77540
G01 X84.79241 Y4.76047
G01 X84.77554 Y4.74337
G01 X84.73663 Y4.69910
G01 X84.71758 Y4.67342
G01 X84.70280 Y4.64513
G01 X84.69277 Y4.61480
G01 X84.67875 Y4.55755
G01 X84.67364 Y4.52598
G01 X84.67364 Y4.49400
G01 X84.67875 Y4.46242
G01 X84.69277 Y4.40515
G01 X84.70280 Y4.37482
G01 X84.71758 Y4.34640
G01 X84.73671 Y4.32082
G01 X84.77554 Y4.27647
G01 X84.79241 Y4.25948
G01 X84.81116 Y4.24459
G01 X84.98238 Y4.12468
G01 X84.98255 Y4.12488
G01 X84.98238 Y4.12468
G01 X85.12474 Y3.98234
G01 X85.12505 Y3.98252
G01 X85.12474 Y3.98234
G01 X85.24461 Y3.81112
G01 X85.25959 Y3.79225
G01 X85.27659 Y3.77538
G01 X85.32091 Y3.73652
G01 X85.34659 Y3.71744
G01 X85.37491 Y3.70268
G01 X85.40521 Y3.69268
G01 X85.46249 Y3.67866
G01 X85.49406 Y3.67358
G01 X85.52604 Y3.67358
G01 X85.55761 Y3.67866
G01 X85.61489 Y3.69268
G01 X85.64519 Y3.70268
G01 X85.67354 Y3.71744
G01 X85.69914 Y3.73652
G01 X85.74346 Y3.77538
G01 X85.76051 Y3.79225
G01 X85.77544 Y3.81112
G01 X85.89535 Y3.98234
G01 X85.89508 Y3.98252
G01 X85.89535 Y3.98234
G01 X86.03767 Y4.12468
G01 X86.03747 Y4.12488
G01 X86.03767 Y4.12468
G01 X86.20937 Y4.24485
G01 X86.22812 Y4.25973
G01 X86.24499 Y4.27683
G01 X86.28390 Y4.32107
G01 X86.30295 Y4.34678
G01 X86.31773 Y4.37512
G01 X86.32776 Y4.40550
G01 X86.34176 Y4.46278
G01 X86.34686 Y4.49428
G01 X86.34686 Y4.52620
G01 X86.34176 Y4.55773
G01 X86.32776 Y4.61498
G01 X86.31773 Y4.64533
G01 X86.30546 Y4.66900
G01 X86.29147 Y4.67289
G01 X86.30546 Y4.66900
G01 X86.42972 Y4.79323
G01 X86.42571 Y4.80858
G01 X86.42972 Y4.79323
G01 X86.55614 Y4.75493
G01 X86.59459 Y4.74729
G01 X86.76040 Y4.73095
G01 X86.79962 Y4.73095
G01 X86.96546 Y4.74729
G01 X87.00391 Y4.75493
G01 X87.13033 Y4.79323
G01 X87.13434 Y4.80858
G01 X87.13033 Y4.79323
G01 X87.25466 Y4.66898
G01 X87.26858 Y4.67289
G01 X87.25466 Y4.66898
G01 X87.24239 Y4.64536
G01 X87.23231 Y4.61498
G01 X87.21829 Y4.55773
G01 X87.21321 Y4.52620
G01 X87.21321 Y4.49428
G01 X87.21829 Y4.46278
G01 X87.23231 Y4.40550
G01 X87.24239 Y4.37512
G01 X87.25712 Y4.34675
G01 X87.27625 Y4.32102
G01 X87.31514 Y4.27672
G01 X87.33200 Y4.25971
G01 X87.35075 Y4.24485
G01 X87.52240 Y4.12468
G01 X87.52261 Y4.12488
G01 X87.52240 Y4.12468
G01 X87.66474 Y3.98234
G01 X87.66495 Y3.98249
G01 X87.66474 Y3.98234
G01 X87.78463 Y3.81112
G01 X87.79954 Y3.79225
G01 X87.81661 Y3.77538
G01 X87.86093 Y3.73652
G01 X87.88656 Y3.71744
G01 X87.91491 Y3.70268
G01 X87.94521 Y3.69268
G01 X88.00249 Y3.67866
G01 X88.03406 Y3.67358
G01 X88.06604 Y3.67358
G01 X88.09761 Y3.67866
G01 X88.15484 Y3.69268
G01 X88.18519 Y3.70268
G01 X88.21354 Y3.71744
G01 X88.23916 Y3.73652
G01 X88.28349 Y3.77538
G01 X88.30051 Y3.79225
G01 X88.31547 Y3.81112
G01 X88.43530 Y3.98234
G01 X88.43510 Y3.98249
G01 X88.43530 Y3.98234
G01 X88.57770 Y4.12468
G01 X88.57744 Y4.12488
G01 X88.57770 Y4.12468
G01 X88.74892 Y4.24459
G01 X88.76769 Y4.25948
G01 X88.78458 Y4.27647
G01 X88.82344 Y4.32082
G01 X88.84252 Y4.34642
G01 X88.85732 Y4.37487
G01 X88.86733 Y4.40525
G01 X88.88135 Y4.46253
G01 X88.88641 Y4.49402
G01 X88.88641 Y4.52595
G01 X88.88135 Y4.55747
G01 X88.86733 Y4.61472
G01 X88.85727 Y4.64510
G01 X88.84252 Y4.67342
G01 X88.82344 Y4.69913
G01 X88.78458 Y4.74337
G01 X88.76769 Y4.76047
G01 X88.74892 Y4.77535
G01 X88.57770 Y4.89527
G01 X88.57749 Y4.89506
G01 X88.57770 Y4.89527
G01 X88.43530 Y5.03761
G01 X88.43505 Y5.03733
G01 X88.43530 Y5.03761
G01 X88.31516 Y5.20921
G01 X88.30023 Y5.22808
G01 X88.28316 Y5.24495
G01 X88.23883 Y5.28378
G01 X88.21323 Y5.30283
G01 X88.18489 Y5.31762
G01 X88.15453 Y5.32765
G01 X88.09731 Y5.34167
G01 X88.06573 Y5.34675
G01 X88.03373 Y5.34675
G01 X88.00218 Y5.34167
G01 X87.94493 Y5.32765
G01 X87.91458 Y5.31762
G01 X87.89103 Y5.30537
G01 X87.88707 Y5.29140
G01 X87.89103 Y5.30537
G01 X87.76672 Y5.42968
G01 X87.75085 Y5.42559
G01 X87.76672 Y5.42968
G01 X87.80508 Y5.55605
G01 X87.80983 Y5.57510
G01 X87.81272 Y5.59455
G01 X87.82906 Y5.76034
G01 X87.82906 Y5.79958
G01 X87.81272 Y5.96542
G01 X87.80983 Y5.98477
G01 X87.80508 Y6.00382
G01 X87.76672 Y6.13029
G01 X87.75085 Y6.13430
G01 X87.76672 Y6.13029
G01 X87.89103 Y6.25452
G01 X87.88707 Y6.26854
G01 X87.89103 Y6.25452
G01 X87.91458 Y6.24230
G01 X87.94493 Y6.23219
G01 X88.00218 Y6.21822
G01 X88.03373 Y6.21309
G01 X88.06573 Y6.21309
G01 X88.09731 Y6.21822
G01 X88.15453 Y6.23219
G01 X88.18489 Y6.24230
G01 X88.21323 Y6.25706
G01 X88.23883 Y6.27614
G01 X88.28316 Y6.31500
G01 X88.30023 Y6.33186
G01 X88.31516 Y6.35066
G01 X88.43530 Y6.52231
G01 X88.43505 Y6.52257
G01 X88.43530 Y6.52231
G01 X88.57770 Y6.66466
G01 X88.57744 Y6.66496
G01 X88.57770 Y6.66466
G01 X88.74259 Y6.78012
G01 X88.74239 Y6.78043
G01 X88.74259 Y6.78012
G01 X88.92504 Y6.86521
G01 X88.92494 Y6.86554
G01 X88.92504 Y6.86521
G01 X89.11950 Y6.91733
G01 X89.11945 Y6.91766
G01 X89.11950 Y6.91733
G01 X89.32001 Y6.93483
G01 X89.32001 Y6.93522
G01 X89.32001 Y6.93483
G01 X89.52060 Y6.91733
G01 X89.52065 Y6.91766
G01 X89.52060 Y6.91733
G01 X89.71503 Y6.86521
G01 X89.71516 Y6.86554
G01 X89.71503 Y6.86521
G01 X89.89748 Y6.78012
G01 X89.89771 Y6.78043
G01 X89.89748 Y6.78012
G01 X90.06238 Y6.66466
G01 X90.06266 Y6.66496
G01 X90.06238 Y6.66466
G01 X90.20477 Y6.52231
G01 X90.20505 Y6.52257
G01 X90.20477 Y6.52231
G01 X90.32461 Y6.35109
G01 X90.33957 Y6.33225
G01 X90.35661 Y6.31538
G01 X90.40091 Y6.27652
G01 X90.42654 Y6.25744
G01 X90.45488 Y6.24268
G01 X90.48524 Y6.23263
G01 X90.54246 Y6.21861
G01 X90.57403 Y6.21358
G01 X90.60601 Y6.21358
G01 X90.63759 Y6.21861
G01 X90.69486 Y6.23263
G01 X90.72516 Y6.24268
G01 X90.75354 Y6.25744
G01 X90.77914 Y6.27652
G01 X90.82346 Y6.31538
G01 X90.84053 Y6.33225
G01 X90.85544 Y6.35109
G01 X90.97533 Y6.52231
G01 X90.97508 Y6.52257
G01 X90.97533 Y6.52231
G01 X91.11767 Y6.66466
G01 X91.11742 Y6.66496
G01 X91.11767 Y6.66466
G01 X91.28257 Y6.78012
G01 X91.28242 Y6.78043
G01 X91.28257 Y6.78012
G01 X91.46507 Y6.86521
G01 X91.46491 Y6.86554
G01 X91.46507 Y6.86521
G01 X91.65948 Y6.91733
G01 X91.65943 Y6.91766
G01 X91.65948 Y6.91733
G01 X91.86004 Y6.93483
G01 X91.86004 Y6.93522
G01 X91.86004 Y6.93483
G01 X92.06057 Y6.91733
G01 X92.06067 Y6.91766
G01 X92.06057 Y6.91733
G01 X92.25503 Y6.86521
G01 X92.25518 Y6.86554
G01 X92.25503 Y6.86521
G01 X92.43745 Y6.78012
G01 X92.43768 Y6.78043
G01 X92.43745 Y6.78012
G01 X92.60240 Y6.66466
G01 X92.60263 Y6.66496
G01 X92.60240 Y6.66466
G01 X92.74474 Y6.52231
G01 X92.74502 Y6.52257
G01 X92.74474 Y6.52231
G01 X92.86463 Y6.35109
G01 X92.87957 Y6.33225
G01 X92.89659 Y6.31538
G01 X92.94091 Y6.27652
G01 X92.96656 Y6.25744
G01 X92.99491 Y6.24268
G01 X93.02521 Y6.23263
G01 X93.08249 Y6.21861
G01 X93.11406 Y6.21358
G01 X93.14601 Y6.21358
G01 X93.17761 Y6.21861
G01 X93.23486 Y6.23263
G01 X93.26516 Y6.24268
G01 X93.29351 Y6.25744
G01 X93.31916 Y6.27652
G01 X93.36349 Y6.31538
G01 X93.38051 Y6.33225
G01 X93.39547 Y6.35109
G01 X93.51530 Y6.52231
G01 X93.51505 Y6.52257
G01 X93.51530 Y6.52231
G01 X93.65767 Y6.66466
G01 X93.65742 Y6.66496
G01 X93.65767 Y6.66466
G01 X93.82257 Y6.78012
G01 X93.82239 Y6.78043
G01 X93.82257 Y6.78012
G01 X94.00504 Y6.86521
G01 X94.00494 Y6.86554
G01 X94.00504 Y6.86521
G01 X94.19950 Y6.91733
G01 X94.19948 Y6.91766
G01 X94.19950 Y6.91733
G01 X94.40001 Y6.93483
G01 X94.40001 Y6.93522
G01 X94.40001 Y6.93483
G01 X94.60062 Y6.91733
G01 X94.60065 Y6.91766
G01 X94.60062 Y6.91733
G01 X94.79508 Y6.86521
G01 X94.79516 Y6.86554
G01 X94.79508 Y6.86521
G01 X94.97751 Y6.78012
G01 X94.97771 Y6.78043
G01 X94.97751 Y6.78012
G01 X95.14243 Y6.66466
G01 X95.14268 Y6.66496
G01 X95.14243 Y6.66466
G01 X95.28479 Y6.52231
G01 X95.28507 Y6.52257
G01 X95.28479 Y6.52231
G01 X95.40019 Y6.35742
G01 X95.40057 Y6.35762
G01 X95.40019 Y6.35742
G01 X95.48530 Y6.17492
G01 X95.48563 Y6.17504
G01 X95.48530 Y6.17492
G01 X95.53745 Y5.98048
G01 X95.53775 Y5.98053
G01 X95.53745 Y5.98048
G01 X95.55497 Y5.78000
G01 X95.55530 Y5.78000
G01 X95.55497 Y5.78000
G01 X95.53745 Y5.57939
G01 X95.53775 Y5.57931
G01 X95.53745 Y5.57939
G01 X95.48530 Y5.38498
G01 X95.48563 Y5.38480
G01 X95.48530 Y5.38498
G01 X95.40019 Y5.20250
G01 X95.40057 Y5.20228
G01 X95.40019 Y5.20250
G01 X95.28479 Y5.03761
G01 X95.28507 Y5.03733
G01 X95.28479 Y5.03761
G01 X95.14243 Y4.89529
G01 X95.14266 Y4.89496
G01 X95.14243 Y4.89529
G01 X94.97121 Y4.77540
G01 X94.95236 Y4.76047
G01 X94.93549 Y4.74337
G01 X94.89668 Y4.69910
G01 X94.87761 Y4.67342
G01 X94.86285 Y4.64513
G01 X94.85279 Y4.61480
G01 X94.83877 Y4.55755
G01 X94.83369 Y4.52598
G01 X94.83369 Y4.49400
G01 X94.83877 Y4.46242
G01 X94.85279 Y4.40515
G01 X94.86285 Y4.37482
G01 X94.87763 Y4.34640
G01 X94.89668 Y4.32082
G01 X94.93552 Y4.27647
G01 X94.95238 Y4.25948
G01 X94.97121 Y4.24459
G01 X95.14243 Y4.12468
G01 X95.14266 Y4.12488
G01 X95.14243 Y4.12468
G01 X95.28479 Y3.98234
G01 X95.28507 Y3.98252
G01 X95.28479 Y3.98234
G01 X95.40019 Y3.81744
G01 X95.40057 Y3.81757
G01 X95.40019 Y3.81744
G01 X95.48530 Y3.63494
G01 X95.48563 Y3.63504
G01 X95.48530 Y3.63494
G01 X95.53745 Y3.44048
G01 X95.53775 Y3.44053
G01 X95.53745 Y3.44048
G01 X95.55497 Y3.24000
G01 X95.44911 Y3.24000
G01 X95.35002 Y3.24000
G01 X95.34954 Y3.24978
G01 X95.33321 Y3.41561
G01 X95.32942 Y3.43479
G01 X95.28101 Y3.59425
G01 X95.27354 Y3.61239
G01 X95.19495 Y3.75930
G01 X95.18993 Y3.76773
G01 X95.18411 Y3.77566
G01 X95.07839 Y3.90441
G01 X95.07176 Y3.91173
G01 X95.06450 Y3.91833
G01 X94.93570 Y4.02405
G01 X94.91939 Y4.03487
G01 X94.77248 Y4.11348
G01 X94.76356 Y4.11767
G01 X94.75432 Y4.12092
G01 X94.59493 Y4.16931
G01 X94.57570 Y4.17312
G01 X94.40982 Y4.18950
G01 X94.40001 Y4.18993
G01 X94.39026 Y4.18950
G01 X94.22440 Y4.17312
G01 X94.20517 Y4.16931
G01 X94.04576 Y4.12092
G01 X94.03651 Y4.11767
G01 X94.02760 Y4.11348
G01 X93.88068 Y4.03487
G01 X93.86440 Y4.02405
G01 X93.73557 Y3.91833
G01 X93.72831 Y3.91173
G01 X93.72168 Y3.90441
G01 X93.61596 Y3.77566
G01 X93.60507 Y3.75930
G01 X93.52653 Y3.61239
G01 X93.52236 Y3.60350
G01 X93.51901 Y3.59425
G01 X93.47068 Y3.43479
G01 X93.46684 Y3.41561
G01 X93.45048 Y3.24978
G01 X93.45003 Y3.24000
G01 X93.45048 Y3.23019
G01 X93.46684 Y3.06436
G01 X93.47068 Y3.04510
G01 X93.51901 Y2.88567
G01 X93.52236 Y2.87640
G01 X93.52653 Y2.86751
G01 X93.60507 Y2.72057
G01 X93.61596 Y2.70426
G01 X93.72168 Y2.57551
G01 X93.72831 Y2.56822
G01 X93.73557 Y2.56159
G01 X93.86440 Y2.45588
G01 X93.88068 Y2.44505
G01 X94.02760 Y2.36649
G01 X94.03651 Y2.36230
G01 X94.04576 Y2.35895
G01 X94.20517 Y2.31059
G01 X94.22440 Y2.30675
G01 X94.39026 Y2.29047
G01 X94.40001 Y2.28999
G01 X94.40982 Y2.29047
G01 X94.57570 Y2.30675
G01 X94.59493 Y2.31059
G01 X94.75432 Y2.35895
G01 X94.77248 Y2.36649
G01 X94.91939 Y2.44505
G01 X94.92780 Y2.45008
G01 X94.93570 Y2.45588
G01 X95.06450 Y2.56159
G01 X95.07176 Y2.56822
G01 X95.07839 Y2.57551
G01 X95.18411 Y2.70426
G01 X95.18993 Y2.71214
G01 X95.19495 Y2.72057
G01 X95.27354 Y2.86751
G01 X95.28101 Y2.88567
G01 X95.32942 Y3.04510
G01 X95.33176 Y3.05463
G01 X95.33321 Y3.06436
G01 X95.34954 Y3.23019
G01 X95.35002 Y3.24000
G01 X95.44911 Y3.25953
G01 X95.43272 Y3.42542
G01 X95.42983 Y3.44477
G01 X95.42513 Y3.46382
G01 X95.37674 Y3.62334
G01 X95.36176 Y3.65956
G01 X95.28314 Y3.80644
G01 X95.26138 Y3.83911
G01 X95.15566 Y3.96786
G01 X95.14725 Y3.97711
G01 X95.13717 Y3.98724
G01 X95.12792 Y3.99562
G01 X94.99912 Y4.10134
G01 X94.96653 Y4.12313
G01 X94.81962 Y4.20167
G01 X94.80184 Y4.21005
G01 X94.78335 Y4.21663
G01 X94.62389 Y4.26504
G01 X94.60486 Y4.26982
G01 X94.58543 Y4.27269
G01 X94.41962 Y4.28902
G01 X94.38045 Y4.28902
G01 X94.21459 Y4.27269
G01 X94.17619 Y4.26504
G01 X94.01673 Y4.21663
G01 X93.99818 Y4.21005
G01 X93.98045 Y4.20167
G01 X93.83354 Y4.12313
G01 X93.81673 Y4.11297
G01 X93.80095 Y4.10134
G01 X93.67215 Y3.99562
G01 X93.64439 Y3.96786
G01 X93.53867 Y3.83911
G01 X93.52696 Y3.82328
G01 X93.51690 Y3.80644
G01 X93.43837 Y3.65956
G01 X93.42993 Y3.64180
G01 X93.42336 Y3.62334
G01 X93.37497 Y3.46382
G01 X93.36732 Y3.42542
G01 X93.35099 Y3.25953
G01 X93.35000 Y3.24000
G01 X93.35099 Y3.22039
G01 X93.36732 Y3.05455
G01 X93.37497 Y3.01610
G01 X93.42336 Y2.85661
G01 X93.42993 Y2.83817
G01 X93.43837 Y2.82037
G01 X93.51690 Y2.67348
G01 X93.52501 Y2.65989
G01 X93.53059 Y2.65176
G01 X93.53867 Y2.64084
G01 X93.64439 Y2.51206
G01 X93.67215 Y2.48432
G01 X93.80095 Y2.37858
G01 X93.81182 Y2.37048
G01 X93.82000 Y2.36492
G01 X93.83354 Y2.35682
G01 X93.98045 Y2.27825
G01 X94.01673 Y2.26329
G01 X94.17619 Y2.21493
G01 X94.19521 Y2.21010
G01 X94.21459 Y2.20729
G01 X94.38045 Y2.19095
G01 X94.40001 Y2.18999
G01 X94.41962 Y2.19095
G01 X94.58543 Y2.20729
G01 X94.60486 Y2.21010
G01 X94.62389 Y2.21493
G01 X94.78335 Y2.26329
G01 X94.81962 Y2.27825
G01 X94.96653 Y2.35682
G01 X94.98035 Y2.36510
G01 X94.98787 Y2.37025
G01 X94.99912 Y2.37858
G01 X95.12792 Y2.48432
G01 X95.13737 Y2.49283
G01 X95.14710 Y2.50264
G01 X95.15566 Y2.51206
G01 X95.26138 Y2.64084
G01 X95.28314 Y2.67348
G01 X95.36176 Y2.82037
G01 X95.37674 Y2.85661
G01 X95.42513 Y3.01610
G01 X95.42983 Y3.03515
G01 X95.43272 Y3.05455
G01 X95.44911 Y3.22039
G01 X95.44911 Y3.24000
G01 X95.44911 Y3.25953
G04 P0 ( dwell for no time -- G64 should not smooth over this point )
G00 Z5.00000 ( retract )

G00 X97.60412 Y10.06145 ( rapid move to begin. )
G01 F150.00000
( Mill infeed pass 1/1 )
G01 Z-0.05000
G04 P0 ( dwell for no time -- G64 should not smooth over this point )
G01 F300.00000
G01 X97.60412 Y10.06145
G01 X97.57593 Y10.30557
G01 X97.51075 Y10.54255
G01 X97.41029 Y10.76678
G01 X97.27669 Y10.97310
G01 X97.11316 Y11.15654
G01 X96.92353 Y11.31291
G01 X96.71233 Y11.43848
G01 X96.48436 Y11.53038
G01 X96.24512 Y11.58636
G01 X96.06137 Y11.60043
G01 X95.87720 Y11.60043
G01 X95.63427 Y11.56297
G01 X95.40001 Y11.48880
G01 X95.17977 Y11.37973
G01 X94.97872 Y11.23838
G01 X94.80164 Y11.06795
G01 X94.65272 Y10.87250
G01 X94.53527 Y10.65660
G01 X94.45221 Y10.42530
G01 X94.40540 Y10.18408
G01 X94.39605 Y9.93846
G01 X94.42424 Y9.69432
G01 X94.48932 Y9.45739
G01 X94.58988 Y9.23313
G01 X94.72343 Y9.02683
G01 X94.88693 Y8.84339
G01 X95.07651 Y8.68703
G01 X95.28782 Y8.56140
G01 X95.51571 Y8.46958
G01 X95.75503 Y8.41357
G01 X95.93867 Y8.39945
G01 X96.12294 Y8.39945
G01 X96.36579 Y8.43697
G01 X96.60006 Y8.51111
G01 X96.82038 Y8.62020
G01 X97.02132 Y8.76153
G01 X97.19846 Y8.93196
G01 X97.34743 Y9.12744
G01 X97.46483 Y9.34334
G01 X97.54786 Y9.57463
G01 X97.59465 Y9.81588
G01 X97.60412 Y10.06145
G01 X97.50415 Y10.05761
G01 X97.50384 Y10.05761
G01 X97.49500 Y9.82736
G01 X97.49531 Y9.82736
G01 X97.49500 Y9.82736
G01 X97.45116 Y9.60120
G01 X97.45149 Y9.60112
G01 X97.45116 Y9.60120
G01 X97.37326 Y9.38433
G01 X97.37359 Y9.38423
G01 X97.37326 Y9.38433
G01 X97.26325 Y9.18192
G01 X97.26345 Y9.18177
G01 X97.26325 Y9.18192
G01 X97.12353 Y8.99869
G01 X97.12375 Y8.99848
G01 X97.12353 Y8.99869
G01 X96.95751 Y8.83895
G01 X96.95771 Y8.83869
G01 X96.95751 Y8.83895
G01 X96.76907 Y8.70641
G01 X96.76922 Y8.70615
G01 X96.76907 Y8.70641
G01 X96.56257 Y8.60412
G01 X96.56269 Y8.60387
G01 X96.56257 Y8.60412
G01 X96.34298 Y8.53463
G01 X96.34306 Y8.53435
G01 X96.34298 Y8.53463
G01 X96.11527 Y8.49948
G01 X96.11530 Y8.49899
G01 X96.11527 Y8.49948
G01 X95.94255 Y8.49948
G01 X95.77029 Y8.51268
G01 X95.77024 Y8.51223
G01 X95.77029 Y8.51268
G01 X95.54596 Y8.56518
G01 X95.54591 Y8.56493
G01 X95.54596 Y8.56518
G01 X95.33232 Y8.65129
G01 X95.33217 Y8.65104
G01 X95.33232 Y8.65129
G01 X95.13425 Y8.76907
G01 X95.13410 Y8.76882
G01 X95.13425 Y8.76907
G01 X94.95653 Y8.91563
G01 X94.95632 Y8.91543
G01 X94.95653 Y8.91563
G01 X94.80319 Y9.08764
G01 X94.80296 Y9.08748
G01 X94.80319 Y9.08764
G01 X94.67799 Y9.28103
G01 X94.67768 Y9.28088
G01 X94.67799 Y9.28103
G01 X94.58370 Y9.49127
G01 X94.58348 Y9.49117
G01 X94.58370 Y9.49127
G01 X94.52264 Y9.71344
G01 X94.52236 Y9.71339
G01 X94.52264 Y9.71344
G01 X94.49628 Y9.94232
G01 X94.49597 Y9.94232
G01 X94.49628 Y9.94232
G01 X94.50504 Y10.17255
G01 X94.50474 Y10.17260
G01 X94.50504 Y10.17255
G01 X94.54896 Y10.39873
G01 X94.54863 Y10.39884
G01 X94.54896 Y10.39873
G01 X94.62678 Y10.61560
G01 X94.62655 Y10.61570
G01 X94.62678 Y10.61560
G01 X94.73684 Y10.81801
G01 X94.73664 Y10.81816
G01 X94.73684 Y10.81801
G01 X94.87652 Y11.00120
G01 X94.87631 Y11.00140
G01 X94.87652 Y11.00120
G01 X95.04258 Y11.16101
G01 X95.04240 Y11.16124
G01 X95.04258 Y11.16101
G01 X95.23097 Y11.29355
G01 X95.23082 Y11.29378
G01 X95.23097 Y11.29355
G01 X95.43745 Y11.39579
G01 X95.43737 Y11.39607
G01 X95.43745 Y11.39579
G01 X95.65718 Y11.46531
G01 X95.65711 Y11.46556
G01 X95.65718 Y11.46531
G01 X95.88487 Y11.50046
G01 X95.88484 Y11.50094
G01 X95.88487 Y11.50046
G01 X96.05759 Y11.50046
G01 X96.22975 Y11.48723
G01 X96.22983 Y11.48771
G01 X96.22975 Y11.48723
G01 X96.45411 Y11.43475
G01 X96.45419 Y11.43500
G01 X96.45411 Y11.43475
G01 X96.66777 Y11.34862
G01 X96.66795 Y11.34890
G01 X96.66777 Y11.34862
G01 X96.86582 Y11.23089
G01 X96.86605 Y11.23112
G01 X96.86582 Y11.23089
G01 X97.04362 Y11.08428
G01 X97.04377 Y11.08451
G01 X97.04362 Y11.08428
G01 X97.19693 Y10.91227
G01 X97.19711 Y10.91245
G01 X97.19693 Y10.91227
G01 X97.32215 Y10.71888
G01 X97.32243 Y10.71903
G01 X97.32215 Y10.71888
G01 X97.41636 Y10.50867
G01 X97.41664 Y10.50877
G01 X97.41636 Y10.50867
G01 X97.47748 Y10.28649
G01 X97.47770 Y10.28654
G01 X97.47748 Y10.28649
G01 X97.50384 Y10.05761
G04 P0 ( dwell for no time -- G64 should not smooth over this point )
G00 Z5.00000 ( retract )

G00 X95.45005 Y5.78000 ( rapid move to begin. )
G01 F150.00000
( Mill infeed pass 1/1 )
G01 Z-0.05000
G04 P0 ( dwell for no time -- G64 should not smooth over this point )
G01 F300.00000
G01 X95.45005 Y5.78000
G01 X95.44911 Y5.79958
G01 X95.43272 Y5.96542
G01 X95.42983 Y5.98477
G01 X95.42513 Y6.00382
G01 X95.37674 Y6.16334
G01 X95.36176 Y6.19950
G01 X95.28314 Y6.34649
G01 X95.26138 Y6.37908
G01 X95.15566 Y6.50786
G01 X95.14725 Y6.51716
G01 X95.13717 Y6.52722
G01 X95.12792 Y6.53560
G01 X94.99912 Y6.64131
G01 X94.96653 Y6.66313
G01 X94.81962 Y6.74164
G01 X94.78335 Y6.75665
G01 X94.62389 Y6.80504
G01 X94.60486 Y6.80979
G01 X94.58543 Y6.81269
G01 X94.41962 Y6.82902
G01 X94.40001 Y6.82996
G01 X94.38045 Y6.82902
G01 X94.21459 Y6.81269
G01 X94.17619 Y6.80504
G01 X94.01673 Y6.75665
G01 X93.99818 Y6.75002
G01 X93.98045 Y6.74164
G01 X93.83354 Y6.66313
G01 X93.80095 Y6.64131
G01 X93.67215 Y6.53560
G01 X93.66321 Y6.52757
G01 X93.65246 Y6.51678
G01 X93.64439 Y6.50786
G01 X93.53867 Y6.37908
G01 X93.51690 Y6.34649
G01 X93.43837 Y6.19950
G01 X93.42993 Y6.18180
G01 X93.42336 Y6.16334
G01 X93.37497 Y6.00382
G01 X93.36732 Y5.96542
G01 X93.35099 Y5.79958
G01 X93.35000 Y5.78000
G01 X93.35099 Y5.76034
G01 X93.36732 Y5.59455
G01 X93.37497 Y5.55605
G01 X93.42336 Y5.39661
G01 X93.43837 Y5.36042
G01 X93.51690 Y5.21343
G01 X93.52696 Y5.19659
G01 X93.53867 Y5.18086
G01 X93.64439 Y5.05201
G01 X93.65754 Y5.03753
G01 X93.67215 Y5.02435
G01 X93.80095 Y4.91863
G01 X93.83354 Y4.89682
G01 X93.98045 Y4.81830
G01 X93.99818 Y4.80992
G01 X94.01673 Y4.80324
G01 X94.17619 Y4.75493
G01 X94.19521 Y4.75016
G01 X94.21459 Y4.74729
G01 X94.38045 Y4.73095
G01 X94.40001 Y4.72994
G01 X94.41962 Y4.73095
G01 X94.58543 Y4.74729
G01 X94.60486 Y4.75016
G01 X94.62389 Y4.75493
G01 X94.78335 Y4.80324
G01 X94.81962 Y4.81830
G01 X94.96653 Y4.89682
G01 X94.99912 Y4.91863
G01 X95.12792 Y5.02435
G01 X95.13737 Y5.03283
G01 X95.14710 Y5.04264
G01 X95.15566 Y5.05201
G01 X95.26138 Y5.18086
G01 X95.28314 Y5.21343
G01 X95.36176 Y5.36042
G01 X95.37674 Y5.39661
G01 X95.42513 Y5.55605
G01 X95.42983 Y5.57510
G01 X95.43272 Y5.59455
G01 X95.44911 Y5.76034
G01 X95.45005 Y5.78000
G01 X95.35002 Y5.78000
G01 X95.34954 Y5.77019
G01 X95.33321 Y5.60436
G01 X95.32942 Y5.58508
G01 X95.28101 Y5.42562
G01 X95.27354 Y5.40756
G01 X95.19495 Y5.26057
G01 X95.18993 Y5.25214
G01 X95.18411 Y5.24431
G01 X95.07839 Y5.11546
G01 X95.07176 Y5.10824
G01 X95.06450 Y5.10164
G01 X94.93570 Y4.99593
G01 X94.92780 Y4.99003
G01 X94.91939 Y4.98500
G01 X94.77248 Y4.90649
G01 X94.75432 Y4.89895
G01 X94.59493 Y4.85064
G01 X94.57570 Y4.84675
G01 X94.40982 Y4.83047
G01 X94.40001 Y4.82994
G01 X94.39026 Y4.83047
G01 X94.22440 Y4.84675
G01 X94.20517 Y4.85064
G01 X94.04576 Y4.89895
G01 X94.03651 Y4.90230
G01 X94.02760 Y4.90649
G01 X93.88068 Y4.98500
G01 X93.86440 Y4.99593
G01 X93.73557 Y5.10164
G01 X93.72831 Y5.10824
G01 X93.72168 Y5.11546
G01 X93.61596 Y5.24431
G01 X93.61012 Y5.25214
G01 X93.60507 Y5.26057
G01 X93.52653 Y5.40756
G01 X93.52236 Y5.41640
G01 X93.51901 Y5.42562
G01 X93.47068 Y5.58508
G01 X93.46684 Y5.60436
G01 X93.45048 Y5.77019
G01 X93.45003 Y5.78000
G01 X93.45048 Y5.78978
G01 X93.46684 Y5.95559
G01 X93.47068 Y5.97479
G01 X93.51901 Y6.13430
G01 X93.52236 Y6.14355
G01 X93.52653 Y6.15236
G01 X93.60507 Y6.29935
G01 X93.61596 Y6.31566
G01 X93.72168 Y6.44441
G01 X93.73557 Y6.45833
G01 X93.86440 Y6.56405
G01 X93.88068 Y6.57492
G01 X94.02760 Y6.65348
G01 X94.03651 Y6.65764
G01 X94.04576 Y6.66097
G01 X94.20517 Y6.70933
G01 X94.22440 Y6.71314
G01 X94.39026 Y6.72948
G01 X94.40001 Y6.72996
G01 X94.40982 Y6.72948
G01 X94.57570 Y6.71314
G01 X94.58535 Y6.71172
G01 X94.59493 Y6.70933
G01 X94.75432 Y6.66097
G01 X94.77248 Y6.65348
G01 X94.91939 Y6.57492
G01 X94.93570 Y6.56405
G01 X95.06450 Y6.45833
G01 X95.07839 Y6.44441
G01 X95.18411 Y6.31566
G01 X95.18993 Y6.30779
G01 X95.19495 Y6.29935
G01 X95.27354 Y6.15236
G01 X95.28101 Y6.13430
G01 X95.32942 Y5.97479
G01 X95.33321 Y5.95559
G01 X95.34954 Y5.78978
G01 X95.35002 Y5.78000
G04 P0 ( dwell for no time -- G64 should not smooth over this point )
G00 Z5.00000 ( retract )

G00 X92.91002 Y3.24000 ( rapid move to begin. )
G01 F150.00000
( Mill infeed pass 1/1 )
G01 Z-0.05000
G04 P0 ( dwell for no time -- G64 should not smooth over this point )
G01 F300.00000
G01 X92.91002 Y3.24000
G01 X92.90906 Y3.22039
G01 X92.89272 Y3.05455
G01 X92.88508 Y3.01610
G01 X92.83672 Y2.85661
G01 X92.83011 Y2.83817
G01 X92.82176 Y2.82037
G01 X92.74317 Y2.67348
G01 X92.73484 Y2.65956
G01 X92.72983 Y2.65222
G01 X92.72140 Y2.64084
G01 X92.61569 Y2.51206
G01 X92.58792 Y2.48432
G01 X92.45912 Y2.37858
G01 X92.44789 Y2.37025
G01 X92.44030 Y2.36510
G01 X92.42656 Y2.35682
G01 X92.27957 Y2.27825
G01 X92.24337 Y2.26329
G01 X92.08391 Y2.21493
G01 X92.06489 Y2.21010
G01 X92.04543 Y2.20729
G01 X91.87965 Y2.19095
G01 X91.86004 Y2.18999
G01 X91.84043 Y2.19095
G01 X91.67459 Y2.20729
G01 X91.65516 Y2.21010
G01 X91.63614 Y2.21493
G01 X91.47670 Y2.26329
G01 X91.44045 Y2.27825
G01 X91.29349 Y2.35682
G01 X91.27993 Y2.36494
G01 X91.27187 Y2.37048
G01 X91.26090 Y2.37858
G01 X91.13212 Y2.48432
G01 X91.10439 Y2.51206
G01 X90.99867 Y2.64084
G01 X90.99052 Y2.65184
G01 X90.98503 Y2.65986
G01 X90.97690 Y2.67348
G01 X90.89834 Y2.82037
G01 X90.88996 Y2.83817
G01 X90.88333 Y2.85661
G01 X90.83499 Y3.01610
G01 X90.82730 Y3.05455
G01 X90.81097 Y3.22039
G01 X90.81003 Y3.24000
G01 X90.81097 Y3.25953
G01 X90.82730 Y3.42542
G01 X90.83499 Y3.46382
G01 X90.88333 Y3.62334
G01 X90.88996 Y3.64180
G01 X90.89834 Y3.65956
G01 X90.97690 Y3.80644
G01 X90.98699 Y3.82328
G01 X90.99867 Y3.83911
G01 X91.10439 Y3.96786
G01 X91.11757 Y3.98244
G01 X91.13212 Y3.99562
G01 X91.26090 Y4.10134
G01 X91.29349 Y4.12313
G01 X91.44045 Y4.20167
G01 X91.47670 Y4.21663
G01 X91.63614 Y4.26504
G01 X91.65516 Y4.26982
G01 X91.67459 Y4.27269
G01 X91.84043 Y4.28902
G01 X91.86004 Y4.28993
G01 X91.87965 Y4.28902
G01 X92.04543 Y4.27269
G01 X92.06489 Y4.26982
G01 X92.08391 Y4.26504
G01 X92.24337 Y4.21663
G01 X92.27957 Y4.20167
G01 X92.42656 Y4.12313
G01 X92.45912 Y4.10134
G01 X92.58792 Y3.99562
G01 X92.61569 Y3.96786
G01 X92.72140 Y3.83911
G01 X92.73306 Y3.82328
G01 X92.74317 Y3.80644
G01 X92.82176 Y3.65956
G01 X92.83672 Y3.62334
G01 X92.88508 Y3.46382
G01 X92.89272 Y3.42542
G01 X92.90906 Y3.25953
G01 X92.91002 Y3.24000
G01 X92.81005 Y3.24000
G01 X92.80956 Y3.24978
G01 X92.79323 Y3.41561
G01 X92.78940 Y3.43479
G01 X92.74101 Y3.59425
G01 X92.73773 Y3.60350
G01 X92.73352 Y3.61239
G01 X92.65496 Y3.75930
G01 X92.64990 Y3.76773
G01 X92.64411 Y3.77566
G01 X92.53834 Y3.90441
G01 X92.52453 Y3.91833
G01 X92.39572 Y4.02405
G01 X92.38782 Y4.02984
G01 X92.37939 Y4.03487
G01 X92.23243 Y4.11348
G01 X92.21434 Y4.12092
G01 X92.05488 Y4.16931
G01 X92.04538 Y4.17167
G01 X92.03568 Y4.17312
G01 X91.86984 Y4.18950
G01 X91.85023 Y4.18950
G01 X91.68440 Y4.17312
G01 X91.67469 Y4.17167
G01 X91.66517 Y4.16931
G01 X91.50571 Y4.12092
G01 X91.48762 Y4.11348
G01 X91.34063 Y4.03487
G01 X91.32435 Y4.02405
G01 X91.19552 Y3.91833
G01 X91.18170 Y3.90441
G01 X91.07599 Y3.77566
G01 X91.06509 Y3.75930
G01 X90.98656 Y3.61239
G01 X90.98234 Y3.60350
G01 X90.97901 Y3.59425
G01 X90.93065 Y3.43479
G01 X90.92684 Y3.41561
G01 X90.91051 Y3.24978
G01 X90.91000 Y3.24000
G01 X90.91051 Y3.23019
G01 X90.92684 Y3.06436
G01 X90.93065 Y3.04510
G01 X90.97901 Y2.88567
G01 X90.98234 Y2.87640
G01 X90.98656 Y2.86751
G01 X91.06509 Y2.72057
G01 X91.07015 Y2.71214
G01 X91.07599 Y2.70426
G01 X91.18170 Y2.57551
G01 X91.19552 Y2.56159
G01 X91.32435 Y2.45588
G01 X91.33222 Y2.45008
G01 X91.34063 Y2.44505
G01 X91.48762 Y2.36649
G01 X91.50571 Y2.35895
G01 X91.66517 Y2.31059
G01 X91.67469 Y2.30820
G01 X91.68440 Y2.30675
G01 X91.85023 Y2.29047
G01 X91.86984 Y2.29047
G01 X92.03568 Y2.30675
G01 X92.04538 Y2.30820
G01 X92.05488 Y2.31059
G01 X92.21434 Y2.35895
G01 X92.23243 Y2.36649
G01 X92.37939 Y2.44505
G01 X92.38782 Y2.45008
G01 X92.39572 Y2.45588
G01 X92.52453 Y2.56159
G01 X92.53834 Y2.57551
G01 X92.64411 Y2.70426
G01 X92.64990 Y2.71214
G01 X92.65496 Y2.72057
G01 X92.73352 Y2.86751
G01 X92.73773 Y2.87640
G01 X92.74101 Y2.88567
G01 X92.78940 Y3.04510
G01 X92.79323 Y3.06436
G01 X92.80956 Y3.23019
G01 X92.81005 Y3.24000
G01 X92.91002 Y3.24000
G01 X92.91002 Y5.78000
G01 X92.90906 Y5.79958
G01 X92.89272 Y5.96542
G01 X92.88508 Y6.00382
G01 X92.83672 Y6.16334
G01 X92.82176 Y6.19950
G01 X92.74317 Y6.34649
G01 X92.73499 Y6.36011
G01 X92.72958 Y6.36801
G01 X92.72140 Y6.37908
G01 X92.61569 Y6.50786
G01 X92.60725 Y6.51716
G01 X92.59720 Y6.52722
G01 X92.58792 Y6.53560
G01 X92.45912 Y6.64131
G01 X92.44838 Y6.64931
G01 X92.43999 Y6.65505
G01 X92.42656 Y6.66313
G01 X92.27957 Y6.74164
G01 X92.24337 Y6.75665
G01 X92.08391 Y6.80504
G01 X92.06489 Y6.80979
G01 X92.04543 Y6.81269
G01 X91.87965 Y6.82902
G01 X91.86004 Y6.82996
G01 X91.84043 Y6.82902
G01 X91.67459 Y6.81269
G01 X91.63614 Y6.80504
G01 X91.47670 Y6.75665
G01 X91.45821 Y6.75002
G01 X91.44045 Y6.74164
G01 X91.29349 Y6.66313
G01 X91.26090 Y6.64131
G01 X91.13212 Y6.53560
G01 X91.12311 Y6.52747
G01 X91.11257 Y6.51693
G01 X91.10439 Y6.50786
G01 X90.99867 Y6.37908
G01 X90.97690 Y6.34649
G01 X90.89834 Y6.19950
G01 X90.88996 Y6.18180
G01 X90.88333 Y6.16334
G01 X90.83499 Y6.00382
G01 X90.82730 Y5.96542
G01 X90.81097 Y5.79958
G01 X90.81003 Y5.78000
G01 X90.81097 Y5.76034
G01 X90.82730 Y5.59455
G01 X90.83499 Y5.55605
G01 X90.88333 Y5.39661
G01 X90.89834 Y5.36042
G01 X90.97690 Y5.21343
G01 X90.98699 Y5.19659
G01 X90.99867 Y5.18086
G01 X91.10439 Y5.05201
G01 X91.13212 Y5.02435
G01 X91.26090 Y4.91863
G01 X91.29349 Y4.89682
G01 X91.44045 Y4.81830
G01 X91.47670 Y4.80324
G01 X91.63614 Y4.75493
G01 X91.65516 Y4.75016
G01 X91.67459 Y4.74729
G01 X91.84043 Y4.73095
G01 X91.86004 Y4.72994
G01 X91.87965 Y4.73095
G01 X92.04543 Y4.74729
G01 X92.06489 Y4.75016
G01 X92.08391 Y4.75493
G01 X92.24337 Y4.80324
G01 X92.27957 Y4.81830
G01 X92.42656 Y4.89682
G01 X92.44337 Y4.90690
G01 X92.45912 Y4.91863
G01 X92.58792 Y5.02435
G01 X92.61569 Y5.05201
G01 X92.72140 Y5.18086
G01 X92.73306 Y5.19659
G01 X92.74317 Y5.21343
G01 X92.82176 Y5.36042
G01 X92.83672 Y5.39661
G01 X92.88508 Y5.55605
G01 X92.89272 Y5.59455
G01 X92.90906 Y5.76034
G01 X92.91002 Y5.78000
G01 X92.81005 Y5.78000
G01 X92.80956 Y5.78978
G01 X92.79323 Y5.95559
G01 X92.78940 Y5.97479
G01 X92.74101 Y6.13430
G01 X92.73773 Y6.14355
G01 X92.73352 Y6.15236
G01 X92.65496 Y6.29935
G01 X92.64990 Y6.30779
G01 X92.64411 Y6.31566
G01 X92.53834 Y6.44441
G01 X92.52453 Y6.45833
G01 X92.39572 Y6.56405
G01 X92.38782 Y6.56989
G01 X92.37939 Y6.57492
G01 X92.23243 Y6.65348
G01 X92.21434 Y6.66097
G01 X92.05488 Y6.70933
G01 X92.03568 Y6.71314
G01 X91.86984 Y6.72948
G01 X91.86004 Y6.72996
G01 X91.85023 Y6.72948
G01 X91.68440 Y6.71314
G01 X91.66517 Y6.70933
G01 X91.50571 Y6.66097
G01 X91.49649 Y6.65764
G01 X91.48762 Y6.65348
G01 X91.34063 Y6.57492
G01 X91.32435 Y6.56405
G01 X91.19552 Y6.45833
G01 X91.18828 Y6.45170
G01 X91.18170 Y6.44441
G01 X91.07599 Y6.31566
G01 X91.06509 Y6.29935
G01 X90.98656 Y6.15236
G01 X90.98234 Y6.14355
G01 X90.97901 Y6.13430
G01 X90.93065 Y5.97479
G01 X90.92684 Y5.95559
G01 X90.91051 Y5.78978
G01 X90.91000 Y5.78000
G01 X90.91051 Y5.77019
G01 X90.92684 Y5.60436
G01 X90.93065 Y5.58508
G01 X90.97901 Y5.42562
G01 X90.98234 Y5.41640
G01 X90.98656 Y5.40756
G01 X91.06509 Y5.26057
G01 X91.07015 Y5.25214
G01 X91.07599 Y5.24431
G01 X91.18170 Y5.11546
G01 X91.19552 Y5.10164
G01 X91.32435 Y4.99593
G01 X91.34063 Y4.98500
G01 X91.48762 Y4.90649
G01 X91.50571 Y4.89895
G01 X91.66517 Y4.85064
G01 X91.67469 Y4.84820
G01 X91.68440 Y4.84675
G01 X91.85023 Y4.83047
G01 X91.86984 Y4.83047
G01 X92.03568 Y4.84675
G01 X92.04538 Y4.84820
G01 X92.05488 Y4.85064
G01 X92.21434 Y4.89895
G01 X92.23243 Y4.90649
G01 X92.37939 Y4.98500
G01 X92.38782 Y4.99003
G01 X92.39572 Y4.99593
G01 X92.52453 Y5.10164
G01 X92.53834 Y5.11546
G01 X92.64411 Y5.24431
G01 X92.64990 Y5.25214
G01 X92.65496 Y5.26057
G01 X92.73352 Y5.40756
G01 X92.73773 Y5.41640
G01 X92.74101 Y5.42562
G01 X92.78940 Y5.58508
G01 X92.79323 Y5.60436
G01 X92.80956 Y5.77019
G01 X92.81005 Y5.78000
G04 P0 ( dwell for no time -- G64 should not smooth over this point )
G00 Z5.00000 ( retract )

G00 X90.36908 Y5.76034 ( rapid move to begin. )
G01 F150.00000
( Mill infeed pass 1/1 )
G01 Z-0.05000
G04 P0 ( dwell for no time -- G64 should not smooth over this point )
G01 F300.00000
G01 X90.36908 Y5.76034
G01 X90.36908 Y5.79958
G01 X90.35275 Y5.96542
G01 X90.34985 Y5.98477
G01 X90.34510 Y6.00382
G01 X90.29669 Y6.16334
G01 X90.28171 Y6.19950
G01 X90.20314 Y6.34649
G01 X90.19496 Y6.36011
G01 X90.18961 Y6.36801
G01 X90.18138 Y6.37908
G01 X90.07566 Y6.50786
G01 X90.06728 Y6.51716
G01 X90.05717 Y6.52722
G01 X90.04795 Y6.53560
G01 X89.91915 Y6.64131
G01 X89.90835 Y6.64931
G01 X89.89997 Y6.65505
G01 X89.88653 Y6.66313
G01 X89.73959 Y6.74164
G01 X89.70335 Y6.75665
G01 X89.54389 Y6.80504
G01 X89.52486 Y6.80979
G01 X89.50546 Y6.81269
G01 X89.33962 Y6.82902
G01 X89.32001 Y6.82996
G01 X89.30040 Y6.82902
G01 X89.13462 Y6.81269
G01 X89.09614 Y6.80504
G01 X88.93667 Y6.75665
G01 X88.91818 Y6.75002
G01 X88.90048 Y6.74164
G01 X88.75349 Y6.66313
G01 X88.72093 Y6.64131
G01 X88.59212 Y6.53560
G01 X88.58308 Y6.52747
G01 X88.57254 Y6.51693
G01 X88.56436 Y6.50786
G01 X88.45870 Y6.37908
G01 X88.43688 Y6.34649
G01 X88.35837 Y6.19950
G01 X88.34993 Y6.18180
G01 X88.34336 Y6.16334
G01 X88.29497 Y6.00382
G01 X88.28732 Y5.96542
G01 X88.27099 Y5.79958
G01 X88.27099 Y5.76034
G01 X88.28732 Y5.59455
G01 X88.29022 Y5.57510
G01 X88.29497 Y5.55605
G01 X88.34336 Y5.39661
G01 X88.35837 Y5.36042
G01 X88.43688 Y5.21343
G01 X88.44506 Y5.19986
G01 X88.45049 Y5.19189
G01 X88.45870 Y5.18086
G01 X88.56436 Y5.05201
G01 X88.59212 Y5.02435
G01 X88.72093 Y4.91863
G01 X88.75349 Y4.89682
G01 X88.90048 Y4.81830
G01 X88.93667 Y4.80324
G01 X89.09614 Y4.75493
G01 X89.11516 Y4.75016
G01 X89.13462 Y4.74729
G01 X89.30040 Y4.73095
G01 X89.32001 Y4.72994
G01 X89.33962 Y4.73095
G01 X89.50546 Y4.74729
G01 X89.54389 Y4.75493
G01 X89.70335 Y4.80324
G01 X89.72184 Y4.80992
G01 X89.73959 Y4.81830
G01 X89.88653 Y4.89682
G01 X89.91915 Y4.91863
G01 X90.04795 Y5.02435
G01 X90.06248 Y5.03753
G01 X90.07566 Y5.05201
G01 X90.18138 Y5.18086
G01 X90.19309 Y5.19659
G01 X90.20314 Y5.21343
G01 X90.28171 Y5.36042
G01 X90.28521 Y5.36885
G01 X90.29669 Y5.39661
G01 X90.34510 Y5.55605
G01 X90.34985 Y5.57510
G01 X90.35275 Y5.59455
G01 X90.36908 Y5.76034
G01 X90.26954 Y5.77019
G01 X90.25321 Y5.60436
G01 X90.25178 Y5.59465
G01 X90.24940 Y5.58508
G01 X90.20104 Y5.42562
G01 X90.19349 Y5.40756
G01 X90.11498 Y5.26057
G01 X90.10993 Y5.25214
G01 X90.10406 Y5.24431
G01 X89.99834 Y5.11546
G01 X89.98450 Y5.10164
G01 X89.85570 Y4.99593
G01 X89.84780 Y4.99003
G01 X89.83942 Y4.98500
G01 X89.69243 Y4.90649
G01 X89.67432 Y4.89895
G01 X89.51488 Y4.85064
G01 X89.50535 Y4.84820
G01 X89.49565 Y4.84675
G01 X89.32982 Y4.83047
G01 X89.31021 Y4.83047
G01 X89.14442 Y4.84675
G01 X89.13467 Y4.84820
G01 X89.12519 Y4.85064
G01 X88.96571 Y4.89895
G01 X88.94760 Y4.90649
G01 X88.80066 Y4.98500
G01 X88.78438 Y4.99593
G01 X88.65552 Y5.10164
G01 X88.64168 Y5.11546
G01 X88.53596 Y5.24431
G01 X88.53012 Y5.25214
G01 X88.52509 Y5.26057
G01 X88.44653 Y5.40756
G01 X88.43904 Y5.42562
G01 X88.39068 Y5.58508
G01 X88.38829 Y5.59465
G01 X88.38682 Y5.60436
G01 X88.37048 Y5.77019
G01 X88.37048 Y5.78978
G01 X88.38682 Y5.95559
G01 X88.39068 Y5.97479
G01 X88.43904 Y6.13430
G01 X88.44236 Y6.14355
G01 X88.44653 Y6.15236
G01 X88.52509 Y6.29935
G01 X88.53596 Y6.31566
G01 X88.64168 Y6.44441
G01 X88.64826 Y6.45170
G01 X88.65552 Y6.45833
G01 X88.78438 Y6.56405
G01 X88.80066 Y6.57492
G01 X88.94760 Y6.65348
G01 X88.95649 Y6.65764
G01 X88.96571 Y6.66097
G01 X89.12519 Y6.70933
G01 X89.14442 Y6.71314
G01 X89.31021 Y6.72948
G01 X89.32001 Y6.72996
G01 X89.32982 Y6.72948
G01 X89.49565 Y6.71314
G01 X89.51488 Y6.70933
G01 X89.67432 Y6.66097
G01 X89.69243 Y6.65348
G01 X89.83942 Y6.57492
G01 X89.84780 Y6.56989
G01 X89.85570 Y6.56405
G01 X89.98450 Y6.45833
G01 X89.99834 Y6.44441
G01 X90.10406 Y6.31566
G01 X90.10993 Y6.30779
G01 X90.11498 Y6.29935
G01 X90.19349 Y6.15236
G01 X90.20104 Y6.13430
G01 X90.24940 Y5.97479
G01 X90.25178 Y5.96532
G01 X90.25321 Y5.95559
G01 X90.26954 Y5.78978
G01 X90.26954 Y5.77019
G01 X90.28521 Y5.36885
G01 X90.36657 Y3.28524
G01 X90.36908 Y3.22039
G01 X90.35275 Y3.05455
G01 X90.34985 Y3.03515
G01 X90.34510 Y3.01610
G01 X90.29669 Y2.85661
G01 X90.28171 Y2.82037
G01 X90.20314 Y2.67348
G01 X90.19486 Y2.65956
G01 X90.18981 Y2.65222
G01 X90.18138 Y2.64084
G01 X90.07566 Y2.51206
G01 X90.06713 Y2.50264
G01 X90.05737 Y2.49283
G01 X90.04795 Y2.48432
G01 X89.91915 Y2.37858
G01 X89.88653 Y2.35682
G01 X89.73959 Y2.27825
G01 X89.72184 Y2.26992
G01 X89.70335 Y2.26329
G01 X89.54389 Y2.21493
G01 X89.50546 Y2.20729
G01 X89.33962 Y2.19095
G01 X89.32001 Y2.18999
G01 X89.30040 Y2.19095
G01 X89.13462 Y2.20729
G01 X89.11516 Y2.21010
G01 X89.09614 Y2.21493
G01 X88.93667 Y2.26329
G01 X88.90048 Y2.27825
G01 X88.75349 Y2.35682
G01 X88.73995 Y2.36494
G01 X88.73190 Y2.37048
G01 X88.72093 Y2.37858
G01 X88.59212 Y2.48432
G01 X88.56436 Y2.51206
G01 X88.45870 Y2.64084
G01 X88.45049 Y2.65184
G01 X88.44506 Y2.65986
G01 X88.43688 Y2.67348
G01 X88.35837 Y2.82037
G01 X88.34336 Y2.85661
G01 X88.29497 Y3.01610
G01 X88.29022 Y3.03515
G01 X88.28732 Y3.05455
G01 X88.27099 Y3.22039
G01 X88.27099 Y3.25953
G01 X88.28732 Y3.42542
G01 X88.29497 Y3.46382
G01 X88.34336 Y3.62334
G01 X88.34993 Y3.64180
G01 X88.35837 Y3.65956
G01 X88.43688 Y3.80644
G01 X88.44490 Y3.81983
G01 X88.45075 Y3.82836
G01 X88.45870 Y3.83911
G01 X88.56436 Y3.96786
G01 X88.57254 Y3.97688
G01 X88.58308 Y3.98742
G01 X88.59212 Y3.99562
G01 X88.72093 Y4.10134
G01 X88.75349 Y4.12313
G01 X88.90048 Y4.20167
G01 X88.93667 Y4.21663
G01 X89.09614 Y4.26504
G01 X89.11516 Y4.26982
G01 X89.13462 Y4.27269
G01 X89.30040 Y4.28902
G01 X89.32001 Y4.28993
G01 X89.33962 Y4.28902
G01 X89.50546 Y4.27269
G01 X89.52486 Y4.26982
G01 X89.54389 Y4.26504
G01 X89.70335 Y4.21663
G01 X89.73959 Y4.20167
G01 X89.88653 Y4.12313
G01 X89.91915 Y4.10134
G01 X90.04795 Y3.99562
G01 X90.07566 Y3.96786
G01 X90.18138 Y3.83911
G01 X90.19309 Y3.82328
G01 X90.20314 Y3.80644
G01 X90.28171 Y3.65956
G01 X90.29669 Y3.62334
G01 X90.34510 Y3.46382
G01 X90.34985 Y3.44477
G01 X90.35275 Y3.42542
G01 X90.36657 Y3.28524
G01 X90.36908 Y3.25953
G01 X90.36908 Y3.22039
G01 X90.26954 Y3.23019
G01 X90.25321 Y3.06436
G01 X90.25178 Y3.05463
G01 X90.24940 Y3.04510
G01 X90.20104 Y2.88567
G01 X90.19349 Y2.86751
G01 X90.11498 Y2.72057
G01 X90.10993 Y2.71214
G01 X90.10406 Y2.70426
G01 X89.99834 Y2.57551
G01 X89.98450 Y2.56159
G01 X89.85570 Y2.45588
G01 X89.84780 Y2.45008
G01 X89.83942 Y2.44505
G01 X89.69243 Y2.36649
G01 X89.67432 Y2.35895
G01 X89.51488 Y2.31059
G01 X89.50535 Y2.30820
G01 X89.49565 Y2.30675
G01 X89.32982 Y2.29047
G01 X89.31021 Y2.29047
G01 X89.14442 Y2.30675
G01 X89.13467 Y2.30820
G01 X89.12519 Y2.31059
G01 X88.96571 Y2.35895
G01 X88.94760 Y2.36649
G01 X88.80066 Y2.44505
G01 X88.79222 Y2.45008
G01 X88.78438 Y2.45588
G01 X88.65552 Y2.56159
G01 X88.64168 Y2.57551
G01 X88.53596 Y2.70426
G01 X88.53012 Y2.71214
G01 X88.52509 Y2.72057
G01 X88.44653 Y2.86751
G01 X88.43904 Y2.88567
G01 X88.39068 Y3.04510
G01 X88.38829 Y3.05463
G01 X88.38682 Y3.06436
G01 X88.37048 Y3.23019
G01 X88.37048 Y3.24978
G01 X88.38682 Y3.41561
G01 X88.39068 Y3.43479
G01 X88.43904 Y3.59425
G01 X88.44236 Y3.60350
G01 X88.44653 Y3.61239
G01 X88.52509 Y3.75930
G01 X88.53596 Y3.77566
G01 X88.64168 Y3.90441
G01 X88.65552 Y3.91833
G01 X88.78438 Y4.02405
G01 X88.80066 Y4.03487
G01 X88.94760 Y4.11348
G01 X88.96571 Y4.12092
G01 X89.12519 Y4.16931
G01 X89.13467 Y4.17167
G01 X89.14442 Y4.17312
G01 X89.31021 Y4.18950
G01 X89.32982 Y4.18950
G01 X89.49565 Y4.17312
G01 X89.50535 Y4.17167
G01 X89.51488 Y4.16931
G01 X89.67432 Y4.12092
G01 X89.69243 Y4.11348
G01 X89.83942 Y4.03487
G01 X89.84780 Y4.02984
G01 X89.85570 Y4.02405
G01 X89.98450 Y3.91833
G01 X89.99834 Y3.90441
G01 X90.10406 Y3.77566
G01 X90.10993 Y3.76773
G01 X90.11498 Y3.75930
G01 X90.19349 Y3.61239
G01 X90.20104 Y3.59425
G01 X90.24940 Y3.43479
G01 X90.25178 Y3.42532
G01 X90.25321 Y3.41561
G01 X90.26954 Y3.24978
G01 X90.26954 Y3.23019
G04 P0 ( dwell for no time -- G64 should not smooth over this point )
G00 Z5.00000 ( retract )

G00 X87.82906 Y3.22039 ( rapid move to begin. )
G01 F150.00000
( Mill infeed pass 1/1 )
G01 Z-0.05000
G04 P0 ( dwell for no time -- G64 should not smooth over this point )
G01 F300.00000
G01 X87.82906 Y3.22039
G01 X87.81272 Y3.05455
G01 X87.80983 Y3.03515
G01 X87.80508 Y3.01610
G01 X87.75669 Y2.85661
G01 X87.74173 Y2.82037
G01 X87.66317 Y2.67348
G01 X87.65484 Y2.65956
G01 X87.64983 Y2.65222
G01 X87.64140 Y2.64084
G01 X87.53569 Y2.51206
G01 X87.52710 Y2.50264
G01 X87.51740 Y2.49283
G01 X87.50795 Y2.48432
G01 X87.37912 Y2.37858
G01 X87.34656 Y2.35682
G01 X87.19957 Y2.27825
G01 X87.18189 Y2.26992
G01 X87.16335 Y2.26329
G01 X87.00391 Y2.21493
G01 X86.96546 Y2.20729
G01 X86.79962 Y2.19095
G01 X86.76040 Y2.19095
G01 X86.59459 Y2.20729
G01 X86.55614 Y2.21493
G01 X86.39667 Y2.26329
G01 X86.37823 Y2.26992
G01 X86.36048 Y2.27825
G01 X86.21349 Y2.35682
G01 X86.18093 Y2.37858
G01 X86.05210 Y2.48432
G01 X86.04295 Y2.49268
G01 X86.03274 Y2.50287
G01 X86.02441 Y2.51206
G01 X85.91870 Y2.64084
G01 X85.89693 Y2.67348
G01 X85.81837 Y2.82037
G01 X85.80338 Y2.85661
G01 X85.75502 Y3.01610
G01 X85.75022 Y3.03515
G01 X85.74730 Y3.05455
G01 X85.73099 Y3.22039
G01 X85.73003 Y3.24000
G01 X85.73099 Y3.25953
G01 X85.74730 Y3.42542
G01 X85.75022 Y3.44477
G01 X85.75502 Y3.46382
G01 X85.80338 Y3.62334
G01 X85.81837 Y3.65956
G01 X85.89693 Y3.80644
G01 X85.91870 Y3.83911
G01 X86.02441 Y3.96786
G01 X86.03254 Y3.97688
G01 X86.04308 Y3.98742
G01 X86.05210 Y3.99562
G01 X86.18093 Y4.10134
G01 X86.21349 Y4.12313
G01 X86.36048 Y4.20167
G01 X86.37823 Y4.21005
G01 X86.39667 Y4.21663
G01 X86.55614 Y4.26504
G01 X86.59459 Y4.27269
G01 X86.76040 Y4.28902
G01 X86.79962 Y4.28902
G01 X86.96546 Y4.27269
G01 X87.00391 Y4.26504
G01 X87.16335 Y4.21663
G01 X87.18189 Y4.21005
G01 X87.19957 Y4.20167
G01 X87.34656 Y4.12313
G01 X87.37912 Y4.10134
G01 X87.50795 Y3.99562
G01 X87.51720 Y3.98724
G01 X87.52725 Y3.97711
G01 X87.53569 Y3.96786
G01 X87.64140 Y3.83911
G01 X87.64961 Y3.82803
G01 X87.65499 Y3.82013
G01 X87.66317 Y3.80644
G01 X87.74173 Y3.65956
G01 X87.75669 Y3.62334
G01 X87.80508 Y3.46382
G01 X87.80983 Y3.44477
G01 X87.81272 Y3.42542
G01 X87.82906 Y3.25953
G01 X87.82906 Y3.22039
G01 X87.72956 Y3.23019
G01 X87.71323 Y3.06436
G01 X87.71176 Y3.05463
G01 X87.70937 Y3.04510
G01 X87.66101 Y2.88567
G01 X87.65352 Y2.86751
G01 X87.57496 Y2.72057
G01 X87.56993 Y2.71214
G01 X87.56408 Y2.70426
G01 X87.45837 Y2.57551
G01 X87.44450 Y2.56159
G01 X87.31572 Y2.45588
G01 X87.29939 Y2.44505
G01 X87.15248 Y2.36649
G01 X87.14356 Y2.36230
G01 X87.13434 Y2.35895
G01 X86.97488 Y2.31059
G01 X86.95565 Y2.30675
G01 X86.78982 Y2.29047
G01 X86.77021 Y2.29047
G01 X86.60440 Y2.30675
G01 X86.58517 Y2.31059
G01 X86.42571 Y2.35895
G01 X86.41649 Y2.36230
G01 X86.40765 Y2.36649
G01 X86.26066 Y2.44505
G01 X86.24438 Y2.45588
G01 X86.11552 Y2.56159
G01 X86.10826 Y2.56822
G01 X86.10168 Y2.57551
G01 X85.99596 Y2.70426
G01 X85.98509 Y2.72057
G01 X85.90653 Y2.86751
G01 X85.89901 Y2.88567
G01 X85.85065 Y3.04510
G01 X85.84682 Y3.06436
G01 X85.83053 Y3.23019
G01 X85.83005 Y3.24000
G01 X85.83053 Y3.24978
G01 X85.84682 Y3.41561
G01 X85.84829 Y3.42532
G01 X85.85065 Y3.43479
G01 X85.89901 Y3.59425
G01 X85.90234 Y3.60350
G01 X85.90653 Y3.61239
G01 X85.98509 Y3.75930
G01 X85.99596 Y3.77566
G01 X86.10168 Y3.90441
G01 X86.10826 Y3.91173
G01 X86.11552 Y3.91833
G01 X86.24438 Y4.02405
G01 X86.26066 Y4.03487
G01 X86.40765 Y4.11348
G01 X86.41649 Y4.11767
G01 X86.42571 Y4.12092
G01 X86.58517 Y4.16931
G01 X86.60440 Y4.17312
G01 X86.77021 Y4.18950
G01 X86.78982 Y4.18950
G01 X86.95565 Y4.17312
G01 X86.97488 Y4.16931
G01 X87.13434 Y4.12092
G01 X87.14356 Y4.11767
G01 X87.15248 Y4.11348
G01 X87.29939 Y4.03487
G01 X87.31572 Y4.02405
G01 X87.44450 Y3.91833
G01 X87.45179 Y3.91173
G01 X87.45837 Y3.90441
G01 X87.56408 Y3.77566
G01 X87.56993 Y3.76773
G01 X87.57496 Y3.75930
G01 X87.65352 Y3.61239
G01 X87.66101 Y3.59425
G01 X87.70937 Y3.43479
G01 X87.71176 Y3.42532
G01 X87.71323 Y3.41561
G01 X87.72956 Y3.24978
G01 X87.72956 Y3.23019
G04 P0 ( dwell for no time -- G64 should not smooth over this point )
G00 Z5.00000 ( retract )

G00 X87.38306 Y6.87796 ( rapid move to begin. )
G01 F150.00000
( Mill infeed pass 1/1 )
G01 Z-0.05000
G04 P0 ( dwell for no time -- G64 should not smooth over this point )
G01 F300.00000
G01 X87.38306 Y6.87796
G01 X87.15641 Y6.65132
G01 X87.15248 Y6.65348
G01 X87.14356 Y6.65764
G01 X87.13434 Y6.66097
G01 X86.97488 Y6.70933
G01 X86.96536 Y6.71172
G01 X86.95565 Y6.71314
G01 X86.78982 Y6.72948
G01 X86.77021 Y6.72948
G01 X86.60440 Y6.71314
G01 X86.58517 Y6.70933
G01 X86.42571 Y6.66097
G01 X86.41649 Y6.65764
G01 X86.40765 Y6.65348
G01 X86.40363 Y6.65132
G01 X86.17702 Y6.87796
G01 X86.35088 Y6.95909
G01 X86.56221 Y7.01568
G01 X86.78004 Y7.03471
G01 X86.99792 Y7.01568
G01 X87.20925 Y6.95909
G01 X87.38306 Y6.87796
G01 X87.30361 Y6.87098
G01 X87.21140 Y6.84769
G01 X87.13033 Y6.76669
G01 X87.13442 Y6.75140
G01 X87.13033 Y6.76669
G01 X87.00391 Y6.80504
G01 X86.96546 Y6.81269
G01 X86.79962 Y6.82902
G01 X86.78001 Y6.82996
G01 X86.76040 Y6.82902
G01 X86.59459 Y6.81269
G01 X86.55614 Y6.80504
G01 X86.42972 Y6.76669
G01 X86.42571 Y6.75140
G01 X86.42972 Y6.76669
G01 X86.34872 Y6.84769
G01 X86.25644 Y6.87098
G01 X86.34872 Y6.84769
G01 X86.38519 Y6.86476
G01 X86.57958 Y6.91683
G01 X86.57948 Y6.91733
G01 X86.57958 Y6.91683
G01 X86.78004 Y6.93435
G01 X86.78004 Y6.93473
G01 X86.78004 Y6.93435
G01 X86.98049 Y6.91683
G01 X86.98059 Y6.91733
G01 X86.98049 Y6.91683
G01 X87.17485 Y6.86476
G01 X87.21140 Y6.84769
G04 P0 ( dwell for no time -- G64 should not smooth over this point )
G00 Z5.00000 ( retract )

G00 X85.29002 Y5.78000 ( rapid move to begin. )
G01 F150.00000
( Mill infeed pass 1/1 )
G01 Z-0.05000
G04 P0 ( dwell for no time -- G64 should not smooth over this point )
G01 F300.00000
G01 X85.29002 Y5.78000
G01 X85.28911 Y5.79958
G01 X85.27272 Y5.96542
G01 X85.26988 Y5.98477
G01 X85.26508 Y6.00382
G01 X85.21674 Y6.16334
G01 X85.20173 Y6.19950
G01 X85.12319 Y6.34649
G01 X85.10140 Y6.37908
G01 X84.99569 Y6.50786
G01 X84.98725 Y6.51716
G01 X84.97717 Y6.52722
G01 X84.96795 Y6.53560
G01 X84.83917 Y6.64131
G01 X84.80653 Y6.66313
G01 X84.65962 Y6.74164
G01 X84.62335 Y6.75665
G01 X84.46389 Y6.80504
G01 X84.42543 Y6.81269
G01 X84.25962 Y6.82902
G01 X84.24001 Y6.82996
G01 X84.22040 Y6.82902
G01 X84.05464 Y6.81269
G01 X84.01614 Y6.80504
G01 X83.85667 Y6.75665
G01 X83.83821 Y6.75002
G01 X83.82048 Y6.74164
G01 X83.67349 Y6.66313
G01 X83.64090 Y6.64131
G01 X83.51215 Y6.53560
G01 X83.50313 Y6.52747
G01 X83.49254 Y6.51693
G01 X83.48439 Y6.50786
G01 X83.37867 Y6.37908
G01 X83.35690 Y6.34649
G01 X83.27837 Y6.19950
G01 X83.26336 Y6.16334
G01 X83.21499 Y6.00382
G01 X83.21019 Y5.98477
G01 X83.20735 Y5.96542
G01 X83.19099 Y5.79958
G01 X83.19000 Y5.78000
G01 X83.19099 Y5.76034
G01 X83.20735 Y5.59455
G01 X83.21019 Y5.57510
G01 X83.21499 Y5.55605
G01 X83.26336 Y5.39661
G01 X83.27837 Y5.36042
G01 X83.35690 Y5.21343
G01 X83.37867 Y5.18086
G01 X83.48439 Y5.05201
G01 X83.49754 Y5.03753
G01 X83.51215 Y5.02435
G01 X83.64090 Y4.91863
G01 X83.67349 Y4.89682
G01 X83.82048 Y4.81830
G01 X83.83821 Y4.80992
G01 X83.85667 Y4.80324
G01 X84.01614 Y4.75493
G01 X84.05464 Y4.74729
G01 X84.22040 Y4.73095
G01 X84.25962 Y4.73095
G01 X84.42543 Y4.74729
G01 X84.46389 Y4.75493
G01 X84.62335 Y4.80324
G01 X84.64186 Y4.80992
G01 X84.65962 Y4.81830
G01 X84.80653 Y4.89682
G01 X84.83917 Y4.91863
G01 X84.96795 Y5.02435
G01 X84.97737 Y5.03283
G01 X84.98710 Y5.04264
G01 X84.99569 Y5.05201
G01 X85.10140 Y5.18086
G01 X85.12319 Y5.21343
G01 X85.20173 Y5.36042
G01 X85.21674 Y5.39661
G01 X85.26508 Y5.55605
G01 X85.26988 Y5.57510
G01 X85.27272 Y5.59455
G01 X85.28911 Y5.76034
G01 X85.29002 Y5.78000
G01 X85.19007 Y5.78000
G01 X85.18956 Y5.77019
G01 X85.17321 Y5.60436
G01 X85.17176 Y5.59465
G01 X85.16937 Y5.58508
G01 X85.12104 Y5.42562
G01 X85.11349 Y5.40756
G01 X85.03495 Y5.26057
G01 X85.02993 Y5.25214
G01 X85.02406 Y5.24431
G01 X84.91834 Y5.11546
G01 X84.91177 Y5.10824
G01 X84.90450 Y5.10164
G01 X84.77572 Y4.99593
G01 X84.75939 Y4.98500
G01 X84.61245 Y4.90649
G01 X84.60356 Y4.90230
G01 X84.59432 Y4.89895
G01 X84.43488 Y4.85064
G01 X84.41565 Y4.84675
G01 X84.24982 Y4.83047
G01 X84.23021 Y4.83047
G01 X84.06445 Y4.84675
G01 X84.04517 Y4.85064
G01 X83.88571 Y4.89895
G01 X83.87646 Y4.90230
G01 X83.86765 Y4.90649
G01 X83.72063 Y4.98500
G01 X83.70435 Y4.99593
G01 X83.57552 Y5.10164
G01 X83.56826 Y5.10824
G01 X83.56168 Y5.11546
G01 X83.45596 Y5.24431
G01 X83.45017 Y5.25214
G01 X83.44507 Y5.26057
G01 X83.36653 Y5.40756
G01 X83.35906 Y5.42562
G01 X83.31065 Y5.58508
G01 X83.30826 Y5.59465
G01 X83.30682 Y5.60436
G01 X83.29051 Y5.77019
G01 X83.29003 Y5.78000
G01 X83.29051 Y5.78978
G01 X83.30682 Y5.95559
G01 X83.30826 Y5.96532
G01 X83.31065 Y5.97479
G01 X83.35906 Y6.13430
G01 X83.36239 Y6.14355
G01 X83.36653 Y6.15236
G01 X83.44507 Y6.29935
G01 X83.45596 Y6.31566
G01 X83.56168 Y6.44441
G01 X83.56826 Y6.45170
G01 X83.57552 Y6.45833
G01 X83.70435 Y6.56405
G01 X83.72063 Y6.57492
G01 X83.86765 Y6.65348
G01 X83.87646 Y6.65764
G01 X83.88571 Y6.66097
G01 X84.04517 Y6.70933
G01 X84.06445 Y6.71314
G01 X84.23021 Y6.72948
G01 X84.24982 Y6.72948
G01 X84.41565 Y6.71314
G01 X84.42535 Y6.71172
G01 X84.43488 Y6.70933
G01 X84.59432 Y6.66097
G01 X84.60356 Y6.65764
G01 X84.61245 Y6.65348
G01 X84.75939 Y6.57492
G01 X84.77572 Y6.56405
G01 X84.90450 Y6.45833
G01 X84.91177 Y6.45170
G01 X84.91834 Y6.44441
G01 X85.02406 Y6.31566
G01 X85.02993 Y6.30779
G01 X85.03495 Y6.29935
G01 X85.11349 Y6.15236
G01 X85.12104 Y6.13430
G01 X85.16937 Y5.97479
G01 X85.17176 Y5.96532
G01 X85.17321 Y5.95559
G01 X85.18956 Y5.78978
G01 X85.19007 Y5.78000
G04 P0 ( dwell for no time -- G64 should not smooth over this point )
G00 Z5.00000 ( retract )

G00 X85.29002 Y3.24000 ( rapid move to begin. )
G01 F150.00000
( Mill infeed pass 1/1 )
G01 Z-0.05000
G04 P0 ( dwell for no time -- G64 should not smooth over this point )
G01 F300.00000
G01 X85.29002 Y3.24000
G01 X85.28911 Y3.25953
G01 X85.27272 Y3.42542
G01 X85.26988 Y3.44477
G01 X85.26508 Y3.46382
G01 X85.21674 Y3.62334
G01 X85.20173 Y3.65956
G01 X85.12319 Y3.80644
G01 X85.10140 Y3.83911
G01 X84.99569 Y3.96786
G01 X84.98725 Y3.97711
G01 X84.97717 Y3.98724
G01 X84.96795 Y3.99562
G01 X84.83917 Y4.10134
G01 X84.80653 Y4.12313
G01 X84.65962 Y4.20167
G01 X84.64186 Y4.21005
G01 X84.62335 Y4.21663
G01 X84.46389 Y4.26504
G01 X84.42543 Y4.27269
G01 X84.25962 Y4.28902
G01 X84.22040 Y4.28902
G01 X84.05464 Y4.27269
G01 X84.01614 Y4.26504
G01 X83.85667 Y4.21663
G01 X83.83821 Y4.21005
G01 X83.82048 Y4.20167
G01 X83.67349 Y4.12313
G01 X83.64090 Y4.10134
G01 X83.51215 Y3.99562
G01 X83.49754 Y3.98244
G01 X83.48439 Y3.96786
G01 X83.37867 Y3.83911
G01 X83.35690 Y3.80644
G01 X83.27837 Y3.65956
G01 X83.26336 Y3.62334
G01 X83.21499 Y3.46382
G01 X83.21019 Y3.44477
G01 X83.20735 Y3.42542
G01 X83.19099 Y3.25953
G01 X83.19000 Y3.24000
G01 X83.19099 Y3.22039
G01 X83.20735 Y3.05455
G01 X83.21019 Y3.03515
G01 X83.21499 Y3.01610
G01 X83.26336 Y2.85661
G01 X83.27837 Y2.82037
G01 X83.35690 Y2.67348
G01 X83.37867 Y2.64084
G01 X83.48439 Y2.51206
G01 X83.49272 Y2.50287
G01 X83.50293 Y2.49268
G01 X83.51215 Y2.48432
G01 X83.64090 Y2.37858
G01 X83.67349 Y2.35682
G01 X83.82048 Y2.27825
G01 X83.83821 Y2.26992
G01 X83.85667 Y2.26329
G01 X84.01614 Y2.21493
G01 X84.05464 Y2.20729
G01 X84.22040 Y2.19095
G01 X84.25962 Y2.19095
G01 X84.42543 Y2.20729
G01 X84.46389 Y2.21493
G01 X84.62335 Y2.26329
G01 X84.64186 Y2.26992
G01 X84.65962 Y2.27825
G01 X84.80653 Y2.35682
G01 X84.83917 Y2.37858
G01 X84.96795 Y2.48432
G01 X84.97737 Y2.49283
G01 X84.98710 Y2.50264
G01 X84.99569 Y2.51206
G01 X85.10140 Y2.64084
G01 X85.12319 Y2.67348
G01 X85.20173 Y2.82037
G01 X85.21674 Y2.85661
G01 X85.26508 Y3.01610
G01 X85.26988 Y3.03515
G01 X85.27272 Y3.05455
G01 X85.28911 Y3.22039
G01 X85.29002 Y3.24000
G01 X85.19007 Y3.24000
G01 X85.18956 Y3.23019
G01 X85.17321 Y3.06436
G01 X85.16937 Y3.04510
G01 X85.12104 Y2.88567
G01 X85.11349 Y2.86751
G01 X85.03495 Y2.72057
G01 X85.02406 Y2.70426
G01 X84.91834 Y2.57551
G01 X84.91177 Y2.56822
G01 X84.90450 Y2.56159
G01 X84.77572 Y2.45588
G01 X84.75939 Y2.44505
G01 X84.61245 Y2.36649
G01 X84.60356 Y2.36230
G01 X84.59432 Y2.35895
G01 X84.43488 Y2.31059
G01 X84.41565 Y2.30675
G01 X84.24982 Y2.29047
G01 X84.23021 Y2.29047
G01 X84.06445 Y2.30675
G01 X84.04517 Y2.31059
G01 X83.88571 Y2.35895
G01 X83.87646 Y2.36230
G01 X83.86765 Y2.36649
G01 X83.72063 Y2.44505
G01 X83.70435 Y2.45588
G01 X83.57552 Y2.56159
G01 X83.56826 Y2.56822
G01 X83.56168 Y2.57551
G01 X83.45596 Y2.70426
G01 X83.44507 Y2.72057
G01 X83.36653 Y2.86751
G01 X83.35906 Y2.88567
G01 X83.31065 Y3.04510
G01 X83.30682 Y3.06436
G01 X83.29051 Y3.23019
G01 X83.29003 Y3.24000
G01 X83.29051 Y3.24978
G01 X83.30682 Y3.41561
G01 X83.30826 Y3.42532
G01 X83.31065 Y3.43479
G01 X83.35906 Y3.59425
G01 X83.36239 Y3.60350
G01 X83.36653 Y3.61239
G01 X83.44507 Y3.75930
G01 X83.45596 Y3.77566
G01 X83.56168 Y3.90441
G01 X83.56826 Y3.91173
G01 X83.57552 Y3.91833
G01 X83.70435 Y4.02405
G01 X83.72063 Y4.03487
G01 X83.86765 Y4.11348
G01 X83.87646 Y4.11767
G01 X83.88571 Y4.12092
G01 X84.04517 Y4.16931
G01 X84.06445 Y4.17312
G01 X84.23021 Y4.18950
G01 X84.24982 Y4.18950
G01 X84.41565 Y4.17312
G01 X84.43488 Y4.16931
G01 X84.59432 Y4.12092
G01 X84.60356 Y4.11767
G01 X84.61245 Y4.11348
G01 X84.75939 Y4.03487
G01 X84.77572 Y4.02405
G01 X84.90450 Y3.91833
G01 X84.91177 Y3.91173
G01 X84.91834 Y3.90441
G01 X85.02406 Y3.77566
G01 X85.02993 Y3.76773
G01 X85.03495 Y3.75930
G01 X85.11349 Y3.61239
G01 X85.12104 Y3.59425
G01 X85.16937 Y3.43479
G01 X85.17176 Y3.42532
G01 X85.17321 Y3.41561
G01 X85.18956 Y3.24978
G01 X85.19007 Y3.24000
G04 P0 ( dwell for no time -- G64 should not smooth over this point )
G00 Z5.00000 ( retract )

G00 X82.75007 Y3.24000 ( rapid move to begin. )
G01 F150.00000
( Mill infeed pass 1/1 )
G01 Z-0.05000
G04 P0 ( dwell for no time -- G64 should not smooth over this point )
G01 F300.00000
G01 X82.75007 Y3.24000
G01 X82.74908 Y3.22039
G01 X82.73272 Y3.05455
G01 X82.72988 Y3.03515
G01 X82.72508 Y3.01610
G01 X82.67672 Y2.85661
G01 X82.66171 Y2.82037
G01 X82.58317 Y2.67348
G01 X82.56140 Y2.64084
G01 X82.45569 Y2.51206
G01 X82.44715 Y2.50264
G01 X82.43737 Y2.49283
G01 X82.42792 Y2.48432
G01 X82.29917 Y2.37858
G01 X82.26653 Y2.35682
G01 X82.11959 Y2.27825
G01 X82.10186 Y2.26992
G01 X82.08335 Y2.26329
G01 X81.92389 Y2.21493
G01 X81.88543 Y2.20729
G01 X81.71962 Y2.19095
G01 X81.68045 Y2.19095
G01 X81.51464 Y2.20729
G01 X81.47619 Y2.21493
G01 X81.31673 Y2.26329
G01 X81.29821 Y2.26992
G01 X81.28045 Y2.27825
G01 X81.13354 Y2.35682
G01 X81.10090 Y2.37858
G01 X80.97212 Y2.48432
G01 X80.96290 Y2.49268
G01 X80.95272 Y2.50287
G01 X80.94436 Y2.51206
G01 X80.83867 Y2.64084
G01 X80.81688 Y2.67348
G01 X80.73834 Y2.82037
G01 X80.72333 Y2.85661
G01 X80.67499 Y3.01610
G01 X80.67019 Y3.03515
G01 X80.66735 Y3.05455
G01 X80.65097 Y3.22039
G01 X80.65000 Y3.24000
G01 X80.65097 Y3.25953
G01 X80.66735 Y3.42542
G01 X80.67019 Y3.44477
G01 X80.67499 Y3.46382
G01 X80.72333 Y3.62334
G01 X80.73834 Y3.65956
G01 X80.81688 Y3.80644
G01 X80.83867 Y3.83911
G01 X80.94436 Y3.96786
G01 X80.95754 Y3.98244
G01 X80.97212 Y3.99562
G01 X81.10090 Y4.10134
G01 X81.13354 Y4.12313
G01 X81.28045 Y4.20167
G01 X81.29821 Y4.21005
G01 X81.31673 Y4.21663
G01 X81.47619 Y4.26504
G01 X81.51464 Y4.27269
G01 X81.68045 Y4.28902
G01 X81.71962 Y4.28902
G01 X81.88543 Y4.27269
G01 X81.92389 Y4.26504
G01 X82.08335 Y4.21663
G01 X82.10186 Y4.21005
G01 X82.11959 Y4.20167
G01 X82.26653 Y4.12313
G01 X82.29917 Y4.10134
G01 X82.42792 Y3.99562
G01 X82.44253 Y3.98244
G01 X82.45569 Y3.96786
G01 X82.56140 Y3.83911
G01 X82.58317 Y3.80644
G01 X82.66171 Y3.65956
G01 X82.67672 Y3.62334
G01 X82.72508 Y3.46382
G01 X82.72988 Y3.44477
G01 X82.73272 Y3.42542
G01 X82.74908 Y3.25953
G01 X82.75007 Y3.24000
G01 X82.65005 Y3.24000
G01 X82.64956 Y3.24978
G01 X82.63321 Y3.41561
G01 X82.63181 Y3.42532
G01 X82.62937 Y3.43479
G01 X82.58101 Y3.59425
G01 X82.57354 Y3.61239
G01 X82.49501 Y3.75930
G01 X82.48990 Y3.76773
G01 X82.48411 Y3.77566
G01 X82.37839 Y3.90441
G01 X82.37176 Y3.91173
G01 X82.36450 Y3.91833
G01 X82.23572 Y4.02405
G01 X82.21944 Y4.03487
G01 X82.07243 Y4.11348
G01 X82.06361 Y4.11767
G01 X82.05432 Y4.12092
G01 X81.89493 Y4.16931
G01 X81.87570 Y4.17312
G01 X81.70982 Y4.18950
G01 X81.69026 Y4.18950
G01 X81.52445 Y4.17312
G01 X81.50522 Y4.16931
G01 X81.34576 Y4.12092
G01 X81.33646 Y4.11767
G01 X81.32762 Y4.11348
G01 X81.18063 Y4.03487
G01 X81.16435 Y4.02405
G01 X81.03557 Y3.91833
G01 X81.02831 Y3.91173
G01 X81.02168 Y3.90441
G01 X80.91596 Y3.77566
G01 X80.90507 Y3.75930
G01 X80.82653 Y3.61239
G01 X80.82239 Y3.60350
G01 X80.81904 Y3.59425
G01 X80.77070 Y3.43479
G01 X80.76826 Y3.42532
G01 X80.76687 Y3.41561
G01 X80.75051 Y3.24978
G01 X80.75000 Y3.24000
G01 X80.75051 Y3.23019
G01 X80.76687 Y3.06436
G01 X80.77070 Y3.04510
G01 X80.81904 Y2.88567
G01 X80.82653 Y2.86751
G01 X80.90507 Y2.72057
G01 X80.91596 Y2.70426
G01 X81.02168 Y2.57551
G01 X81.02831 Y2.56822
G01 X81.03557 Y2.56159
G01 X81.16435 Y2.45588
G01 X81.18063 Y2.44505
G01 X81.32762 Y2.36649
G01 X81.33646 Y2.36230
G01 X81.34576 Y2.35895
G01 X81.50522 Y2.31059
G01 X81.52445 Y2.30675
G01 X81.69026 Y2.29047
G01 X81.70982 Y2.29047
G01 X81.87570 Y2.30675
G01 X81.89493 Y2.31059
G01 X82.05432 Y2.35895
G01 X82.06361 Y2.36230
G01 X82.07243 Y2.36649
G01 X82.21944 Y2.44505
G01 X82.23572 Y2.45588
G01 X82.36450 Y2.56159
G01 X82.37176 Y2.56822
G01 X82.37839 Y2.57551
G01 X82.48411 Y2.70426
G01 X82.49501 Y2.72057
G01 X82.57354 Y2.86751
G01 X82.58101 Y2.88567
G01 X82.62937 Y3.04510
G01 X82.63321 Y3.06436
G01 X82.64956 Y3.23019
G01 X82.65005 Y3.24000
G01 X82.75007 Y3.24000
G01 X82.75007 Y5.78000
G01 X82.74908 Y5.79958
G01 X82.73272 Y5.96542
G01 X82.72988 Y5.98477
G01 X82.72508 Y6.00382
G01 X82.67672 Y6.16334
G01 X82.66171 Y6.19950
G01 X82.58317 Y6.34649
G01 X82.56140 Y6.37908
G01 X82.45569 Y6.50786
G01 X82.44725 Y6.51716
G01 X82.43717 Y6.52722
G01 X82.42792 Y6.53560
G01 X82.29917 Y6.64131
G01 X82.26653 Y6.66313
G01 X82.11959 Y6.74164
G01 X82.08335 Y6.75665
G01 X81.92389 Y6.80504
G01 X81.88543 Y6.81269
G01 X81.71962 Y6.82902
G01 X81.70001 Y6.82996
G01 X81.68045 Y6.82902
G01 X81.51464 Y6.81269
G01 X81.47619 Y6.80504
G01 X81.31673 Y6.75665
G01 X81.29821 Y6.75002
G01 X81.28045 Y6.74164
G01 X81.13354 Y6.66313
G01 X81.10090 Y6.64131
G01 X80.97212 Y6.53560
G01 X80.96311 Y6.52747
G01 X80.95254 Y6.51693
G01 X80.94436 Y6.50786
G01 X80.83867 Y6.37908
G01 X80.81688 Y6.34649
G01 X80.73834 Y6.19950
G01 X80.72333 Y6.16334
G01 X80.67499 Y6.00382
G01 X80.67019 Y5.98477
G01 X80.66735 Y5.96542
G01 X80.65097 Y5.79958
G01 X80.65000 Y5.78000
G01 X80.65097 Y5.76034
G01 X80.66735 Y5.59455
G01 X80.67019 Y5.57510
G01 X80.67499 Y5.55605
G01 X80.72333 Y5.39661
G01 X80.73834 Y5.36042
G01 X80.81688 Y5.21343
G01 X80.83867 Y5.18086
G01 X80.94436 Y5.05201
G01 X80.95754 Y5.03753
G01 X80.97212 Y5.02435
G01 X81.10090 Y4.91863
G01 X81.13354 Y4.89682
G01 X81.28045 Y4.81830
G01 X81.29821 Y4.80992
G01 X81.31673 Y4.80324
G01 X81.47619 Y4.75493
G01 X81.51464 Y4.74729
G01 X81.68045 Y4.73095
G01 X81.71962 Y4.73095
G01 X81.88543 Y4.74729
G01 X81.92389 Y4.75493
G01 X82.08335 Y4.80324
G01 X82.10186 Y4.80992
G01 X82.11959 Y4.81830
G01 X82.26653 Y4.89682
G01 X82.29917 Y4.91863
G01 X82.42792 Y5.02435
G01 X82.44253 Y5.03753
G01 X82.45569 Y5.05201
G01 X82.56140 Y5.18086
G01 X82.58317 Y5.21343
G01 X82.66171 Y5.36042
G01 X82.67672 Y5.39661
G01 X82.72508 Y5.55605
G01 X82.72988 Y5.57510
G01 X82.73272 Y5.59455
G01 X82.74908 Y5.76034
G01 X82.75007 Y5.78000
G01 X82.65005 Y5.78000
G01 X82.64956 Y5.78978
G01 X82.63321 Y5.95559
G01 X82.63181 Y5.96532
G01 X82.62937 Y5.97479
G01 X82.58101 Y6.13430
G01 X82.57354 Y6.15236
G01 X82.49501 Y6.29935
G01 X82.48990 Y6.30779
G01 X82.48411 Y6.31566
G01 X82.37839 Y6.44441
G01 X82.37176 Y6.45170
G01 X82.36450 Y6.45833
G01 X82.23572 Y6.56405
G01 X82.21944 Y6.57492
G01 X82.07243 Y6.65348
G01 X82.06361 Y6.65764
G01 X82.05432 Y6.66097
G01 X81.89493 Y6.70933
G01 X81.88536 Y6.71172
G01 X81.87570 Y6.71314
G01 X81.70982 Y6.72948
G01 X81.69026 Y6.72948
G01 X81.52445 Y6.71314
G01 X81.50522 Y6.70933
G01 X81.34576 Y6.66097
G01 X81.33646 Y6.65764
G01 X81.32762 Y6.65348
G01 X81.18063 Y6.57492
G01 X81.16435 Y6.56405
G01 X81.03557 Y6.45833
G01 X81.02831 Y6.45170
G01 X81.02168 Y6.44441
G01 X80.91596 Y6.31566
G01 X80.90507 Y6.29935
G01 X80.82653 Y6.15236
G01 X80.82239 Y6.14355
G01 X80.81904 Y6.13430
G01 X80.77070 Y5.97479
