( pcb2gcode 2.5.0 )
( Software-independent Gcode )

( This file uses 4 drill bit sizes. )
( Bit sizes: [0.4mm] [0.762mm] [1mm] [1.1mm] )

G94       (Millimeters per minute feed rate.)
G21       (Units == Millimeters.)
G91.1     (Incremental arc distance mode.)
G90       (Absolute coordinates.)
G00 S10000     (RPM spindle speed.)

G00 Z10.00000 (Retract)
T1
M5      (Spindle stop.)
G04 P1.00000
(MSG, Change tool bit to drill size 0.4mm)
M6      (Tool change.)
M0      (Temporary machine stop.)
M3      (Spindle on clockwise.)
G0 Z5.00000
G04 P1.00000

G81 R5.00000 Z-2.50000 F1000.00000 X25.90800 Y25.14600
X8.12800 Y38.98900
X5.96900 Y36.44900
X9.27100 Y33.90900
X18.16100 Y40.25900
X20.70100 Y45.59300
X32.25800 Y31.36900
X41.27500 Y37.84600
X47.49800 Y43.05300
X51.30800 Y32.63900
X60.32500 Y30.22600
X61.46800 Y35.43300
X82.70200 Y13.66500
X85.64900 Y13.56400
X88.18900 Y13.56400
X78.84200 Y59.58800
X88.34100 Y59.99500
X91.18600 Y60.24900
G80

G00 Z10.00000 (Retract)
T2
M5      (Spindle stop.)
G04 P1.00000
(MSG, Change tool bit to drill size 0.762mm)
M6      (Tool change.)
M0      (Temporary machine stop.)
M3      (Spindle on clockwise.)
G0 Z5.00000
G04 P1.00000

G81 R5.00000 Z-2.50000 F1000.00000 X3.86500 Y31.38500
X3.86500 Y33.92500
X3.86500 Y36.46500
X3.86500 Y39.00500
G80

G00 Z10.00000 (Retract)
T3
M5      (Spindle stop.)
G04 P1.00000
(MSG, Change tool bit to drill size 1mm)
M6      (Tool change.)
M0      (Temporary machine stop.)
M3      (Spindle on clockwise.)
G0 Z5.00000
G04 P1.00000

G81 R5.00000 Z-2.50000 F1000.00000 X5.60000 Y3.24000
X5.60000 Y5.78000
X8.14000 Y5.78000
X10.68000 Y5.78000
X8.14000 Y3.24000
X10.68000 Y3.24000
X13.22000 Y5.78000
X13.22000 Y3.24000
X15.76000 Y3.24000
X15.76000 Y5.78000
X18.30000 Y5.78000
X18.30000 Y3.24000
X20.84000 Y3.24000
X23.38000 Y3.24000
X20.84000 Y5.78000
X23.38000 Y5.78000
X25.92000 Y5.78000
X25.92000 Y3.24000
X28.46000 Y5.78000
X31.00000 Y5.78000
X28.46000 Y3.24000
X31.00000 Y3.24000
X33.54000 Y5.78000
X33.54000 Y3.24000
X36.08000 Y3.24000
X38.62000 Y3.24000
X36.08000 Y5.78000
X38.62000 Y5.78000
X41.16000 Y5.78000
X41.16000 Y3.24000
X43.70000 Y5.78000
X46.24000 Y5.78000
X43.70000 Y3.24000
X46.24000 Y3.24000
X48.78000 Y5.78000
X48.78000 Y3.24000
X51.32000 Y5.78000
X53.86000 Y5.78000
X51.32000 Y3.24000
X53.86000 Y3.24000
X56.40000 Y5.78000
X56.40000 Y3.24000
X58.94000 Y5.78000
X58.94000 Y3.24000
X61.48000 Y5.78000
X64.02000 Y5.78000
X61.48000 Y3.24000
X64.02000 Y3.24000
X66.56000 Y5.78000
X69.10000 Y5.78000
X66.56000 Y3.24000
X69.10000 Y3.24000
X71.64000 Y5.78000
X71.64000 Y3.24000
X74.18000 Y5.78000
X74.18000 Y3.24000
X76.72000 Y5.78000
X76.72000 Y3.24000
X79.26000 Y5.78000
X81.80000 Y5.78000
X79.26000 Y3.24000
X81.80000 Y3.24000
X84.34000 Y5.78000
X84.34000 Y3.24000
X86.88000 Y3.24000
X89.42000 Y5.78000
X91.96000 Y5.78000
X94.50000 Y3.24000
X94.50000 Y5.78000
X91.96000 Y3.24000
X89.42000 Y3.24000
X86.88000 Y5.78000
X67.06500 Y25.05100
X67.06500 Y27.59100
X67.06500 Y30.13100
X67.06500 Y32.67100
X67.06500 Y35.21100
X67.06500 Y37.75100
X67.06500 Y40.29100
X67.06500 Y42.83100
X67.06500 Y45.37100
X84.34000 Y64.20000
X86.88000 Y66.74000
X89.42000 Y64.20000
X91.96000 Y66.74000
X94.50000 Y64.20000
X94.50000 Y66.74000
X91.96000 Y64.20000
X89.42000 Y66.74000
X86.88000 Y64.20000
X84.34000 Y66.74000
X81.80000 Y64.20000
X81.80000 Y66.74000
X79.26000 Y64.20000
X79.26000 Y66.74000
X76.72000 Y64.20000
X76.72000 Y66.74000
X74.18000 Y64.20000
X74.18000 Y66.74000
X71.64000 Y64.20000
X71.64000 Y66.74000
X69.10000 Y64.20000
X69.10000 Y66.74000
X66.56000 Y64.20000
X66.56000 Y66.74000
X64.02000 Y64.20000
X64.02000 Y66.74000
X61.48000 Y64.20000
X61.48000 Y66.74000
X58.94000 Y64.20000
X58.94000 Y66.74000
X56.40000 Y64.20000
X56.40000 Y66.74000
X53.86000 Y64.20000
X53.86000 Y66.74000
X51.32000 Y64.20000
X51.32000 Y66.74000
X48.78000 Y64.20000
X48.78000 Y66.74000
X46.24000 Y66.74000
X46.24000 Y64.20000
X43.70000 Y66.74000
X43.70000 Y64.20000
X41.16000 Y66.74000
X41.16000 Y64.20000
X38.62000 Y66.74000
X38.62000 Y64.20000
X36.08000 Y66.74000
X36.08000 Y64.20000
X33.54000 Y66.74000
X33.54000 Y64.20000
X31.00000 Y66.74000
X31.00000 Y64.20000
X28.46000 Y66.74000
X28.46000 Y64.20000
X25.92000 Y66.74000
X25.92000 Y64.20000
X23.38000 Y66.74000
X23.38000 Y64.20000
X20.84000 Y66.74000
X20.84000 Y64.20000
X18.30000 Y66.74000
X18.30000 Y64.20000
X15.76000 Y66.74000
X15.76000 Y64.20000
X13.22000 Y66.74000
X13.22000 Y64.20000
X10.68000 Y66.74000
X10.68000 Y64.20000
X8.14000 Y66.74000
X8.14000 Y64.20000
X5.60000 Y66.74000
X5.60000 Y64.20000
G80

G00 Z10.00000 (Retract)
T4
M5      (Spindle stop.)
G04 P1.00000
(MSG, Change tool bit to drill size 1.1mm)
M6      (Tool change.)
M0      (Temporary machine stop.)
M3      (Spindle on clockwise.)
G0 Z5.00000
G04 P1.00000

G81 R5.00000 Z-2.50000 F1000.00000 X72.39200 Y47.98500
X72.39200 Y43.48500
X78.89200 Y47.98500
X81.89200 Y51.93900
X81.89200 Y56.43900
X88.39200 Y56.43900
X88.39200 Y51.93900
X91.18700 Y48.07200
X91.18700 Y43.57200
X88.28900 Y39.74000
X88.28900 Y35.24000
X78.89200 Y43.48500
X81.78900 Y39.74000
X81.78900 Y35.24000
X75.38700 Y24.36300
X75.38700 Y19.86300
X81.88700 Y24.36300
X81.88700 Y19.86300
X88.19000 Y24.29700
X88.19000 Y19.79700
X94.69000 Y19.79700
X94.69000 Y24.29700
X97.68700 Y43.57200
X97.68700 Y48.07200
G80

G00 Z10.000 ( All done -- retract )

M5      (Spindle off.)
G04 P1.000000
M9      (Coolant off.)
M2      (Program end.)

