( pcb2gcode 2.5.0 )
( Software-independent Gcode )

G94 ( Millimeters per minute feed rate. )
G21 ( Units == Millimeters. )

G90 ( Absolute coordinates. )
G00 S10000 ( RPM spindle speed. )
G64 P0.01000 ( set maximum deviation from commanded toolpath )
G01 F300.00000 ( Feedrate. )


G00 Z10.00000 (Retract to tool change height)
T1
M5      (Spindle stop.)
G04 P1.00000 (Wait for spindle to stop)
(MSG, Change tool bit to mill diameter 0.20000mm)
M6      (Tool change.)
M0      (Temporary machine stop.)
M3 ( Spindle on clockwise. )
G04 P1.00000 (Wait for spindle to get up to speed)
G04 P0 ( dwell for no time -- G64 should not smooth over this point )
G00 Z5.00000 ( retract )

G00 X0.00000 Y0.05621 ( rapid move to begin. )
G01 F150.00000
( Mill infeed pass 1/1 )
G01 Z-0.05000
G04 P0 ( dwell for no time -- G64 should not smooth over this point )
G01 F300.00000
G01 X0.00000 Y0.05621
G01 X0.00000 Y69.94365
G01 X0.00490 Y69.94959
G01 X0.05032 Y69.99496
G01 X0.05629 Y69.99996
G01 X99.94367 Y69.99996
G01 X99.94958 Y69.99496
G01 X99.99500 Y69.94959
G01 X99.99993 Y69.94365
G01 X99.99993 Y0.05621
G01 X99.99500 Y0.05032
G01 X99.94958 Y0.00490
G01 X99.94369 Y0.00000
G01 X0.05621 Y0.00000
G01 X0.05032 Y0.00490
G01 X0.00490 Y0.05032
G01 X0.00000 Y0.05621
G01 X0.00046 Y0.32446
G01 X0.00046 Y69.67548
G01 X0.00218 Y69.70154
G01 X0.00726 Y69.72722
G01 X0.02385 Y69.78919
G01 X0.03581 Y69.82193
G01 X0.05324 Y69.85218
G01 X0.07564 Y69.87883
G01 X0.12106 Y69.92427
G01 X0.14775 Y69.94670
G01 X0.17795 Y69.96412
G01 X0.21069 Y69.97601
G01 X0.27272 Y69.99262
G01 X0.29837 Y69.99770
G01 X0.32446 Y69.99948
G01 X99.67544 Y69.99948
G01 X99.70158 Y69.99770
G01 X99.72723 Y69.99262
G01 X99.78923 Y69.97601
G01 X99.82200 Y69.96412
G01 X99.85218 Y69.94670
G01 X99.87890 Y69.92427
G01 X99.92423 Y69.87883
G01 X99.94669 Y69.85218
G01 X99.96411 Y69.82193
G01 X99.97605 Y69.78919
G01 X99.99266 Y69.72722
G01 X99.99777 Y69.70154
G01 X99.99944 Y69.67548
G01 X99.99944 Y0.32446
G01 X99.99777 Y0.29837
G01 X99.99266 Y0.27272
G01 X99.97605 Y0.21069
G01 X99.96411 Y0.17795
G01 X99.94669 Y0.14775
G01 X99.92423 Y0.12106
G01 X99.87890 Y0.07564
G01 X99.85218 Y0.05324
G01 X99.82200 Y0.03581
G01 X99.78923 Y0.02385
G01 X99.72723 Y0.00726
G01 X99.70158 Y0.00218
G01 X99.67544 Y0.00046
G01 X0.32446 Y0.00046
G01 X0.29837 Y0.00218
G01 X0.27272 Y0.00726
G01 X0.21069 Y0.02385
G01 X0.17795 Y0.03581
G01 X0.14775 Y0.05324
G01 X0.12106 Y0.07564
G01 X0.07564 Y0.12106
G01 X0.05324 Y0.14775
G01 X0.03581 Y0.17795
G01 X0.02385 Y0.21069
G01 X0.00726 Y0.27272
G01 X0.00218 Y0.29837
G01 X0.00046 Y0.32446
G01 X0.10046 Y0.32446
G01 X0.10132 Y0.31140
G01 X0.10384 Y0.29860
G01 X0.12045 Y0.23660
G01 X0.12639 Y0.22022
G01 X0.13515 Y0.20511
G01 X0.14633 Y0.19177
G01 X0.19177 Y0.14633
G01 X0.20511 Y0.13515
G01 X0.22022 Y0.12639
G01 X0.23660 Y0.12045
G01 X0.29860 Y0.10384
G01 X0.31140 Y0.10132
G01 X0.32446 Y0.10046
G01 X99.67544 Y0.10046
G01 X99.68852 Y0.10132
G01 X99.70135 Y0.10384
G01 X99.76333 Y0.12045
G01 X99.77971 Y0.12639
G01 X99.79480 Y0.13515
G01 X99.80818 Y0.14633
G01 X99.85355 Y0.19177
G01 X99.86477 Y0.20511
G01 X99.87349 Y0.22022
G01 X99.87945 Y0.23660
G01 X99.89607 Y0.29860
G01 X99.89858 Y0.31140
G01 X99.89947 Y0.32446
G01 X99.89947 Y69.67548
G01 X99.89858 Y69.68848
G01 X99.89607 Y69.70131
G01 X99.87945 Y69.76334
G01 X99.87349 Y69.77972
G01 X99.86477 Y69.79483
G01 X99.85355 Y69.80814
G01 X99.80818 Y69.85356
G01 X99.79480 Y69.86478
G01 X99.77971 Y69.87349
G01 X99.76333 Y69.87941
G01 X99.70135 Y69.89602
G01 X99.68852 Y69.89862
G01 X99.67544 Y69.89948
G01 X0.32446 Y69.89948
G01 X0.31140 Y69.89862
G01 X0.29860 Y69.89602
G01 X0.23660 Y69.87941
G01 X0.22022 Y69.87349
G01 X0.20511 Y69.86478
G01 X0.19177 Y69.85356
G01 X0.14633 Y69.80814
G01 X0.13515 Y69.79483
G01 X0.12639 Y69.77972
G01 X0.12045 Y69.76334
G01 X0.10384 Y69.70131
G01 X0.10132 Y69.68848
G01 X0.10046 Y69.67548
G01 X0.10046 Y0.32446
G04 P0 ( dwell for no time -- G64 should not smooth over this point )
G00 Z5.00000 ( retract )

G00 X2.39588 Y10.06145 ( rapid move to begin. )
G01 F150.00000
( Mill infeed pass 1/1 )
G01 Z-0.05000
G04 P0 ( dwell for no time -- G64 should not smooth over this point )
G01 F300.00000
G01 X2.39588 Y10.06145
G01 X2.40535 Y9.81588
G01 X2.45214 Y9.57463
G01 X2.53517 Y9.34334
G01 X2.65257 Y9.12744
G01 X2.80154 Y8.93196
G01 X2.97868 Y8.76153
G01 X3.17962 Y8.62020
G01 X3.39994 Y8.51111
G01 X3.63421 Y8.43697
G01 X3.87706 Y8.39945
G01 X4.06133 Y8.39945
G01 X4.24497 Y8.41357
G01 X4.48429 Y8.46958
G01 X4.71218 Y8.56140
G01 X4.92349 Y8.68703
G01 X5.11307 Y8.84339
G01 X5.27657 Y9.02683
G01 X5.41012 Y9.23313
G01 X5.51068 Y9.45739
G01 X5.57576 Y9.69432
G01 X5.60395 Y9.93846
G01 X5.59460 Y10.18408
G01 X5.54779 Y10.42530
G01 X5.46473 Y10.65660
G01 X5.34728 Y10.87250
G01 X5.19836 Y11.06795
G01 X5.02128 Y11.23838
G01 X4.82023 Y11.37973
G01 X4.59999 Y11.48880
G01 X4.36573 Y11.56297
G01 X4.12280 Y11.60043
G01 X3.93863 Y11.60043
G01 X3.75488 Y11.58636
G01 X3.51564 Y11.53038
G01 X3.28767 Y11.43848
G01 X3.07647 Y11.31291
G01 X2.88684 Y11.15654
G01 X2.72331 Y10.97310
G01 X2.58971 Y10.76678
G01 X2.48925 Y10.54255
G01 X2.42407 Y10.30557
G01 X2.39588 Y10.06145
G01 X2.49585 Y10.05761
G01 X2.49616 Y10.05756
G01 X2.50500 Y9.82736
G01 X2.50469 Y9.82736
G01 X2.50500 Y9.82736
G01 X2.54884 Y9.60120
G01 X2.54851 Y9.60112
G01 X2.54884 Y9.60120
G01 X2.62674 Y9.38433
G01 X2.62641 Y9.38423
G01 X2.62674 Y9.38433
G01 X2.73675 Y9.18192
G01 X2.73655 Y9.18177
G01 X2.73675 Y9.18192
G01 X2.87647 Y8.99869
G01 X2.87625 Y8.99848
G01 X2.87647 Y8.99869
G01 X3.04249 Y8.83895
G01 X3.04229 Y8.83869
G01 X3.04249 Y8.83895
G01 X3.23093 Y8.70641
G01 X3.23078 Y8.70615
G01 X3.23093 Y8.70641
G01 X3.43743 Y8.60412
G01 X3.43731 Y8.60387
G01 X3.43743 Y8.60412
G01 X3.65702 Y8.53463
G01 X3.65694 Y8.53435
G01 X3.65702 Y8.53463
G01 X3.88473 Y8.49948
G01 X3.88470 Y8.49899
G01 X3.88473 Y8.49948
G01 X4.05745 Y8.49948
G01 X4.22971 Y8.51268
G01 X4.22976 Y8.51223
G01 X4.22971 Y8.51268
G01 X4.45404 Y8.56518
G01 X4.45409 Y8.56493
G01 X4.45404 Y8.56518
G01 X4.66768 Y8.65129
G01 X4.66783 Y8.65104
G01 X4.66768 Y8.65129
G01 X4.86575 Y8.76907
G01 X4.86590 Y8.76882
G01 X4.86575 Y8.76907
G01 X5.04347 Y8.91563
G01 X5.04368 Y8.91543
G01 X5.04347 Y8.91563
G01 X5.19681 Y9.08764
G01 X5.19704 Y9.08748
G01 X5.19681 Y9.08764
G01 X5.32201 Y9.28103
G01 X5.32232 Y9.28088
G01 X5.32201 Y9.28103
G01 X5.41630 Y9.49127
G01 X5.41652 Y9.49117
G01 X5.41630 Y9.49127
G01 X5.47736 Y9.71344
G01 X5.47764 Y9.71339
G01 X5.47736 Y9.71344
G01 X5.50372 Y9.94232
G01 X5.50403 Y9.94232
G01 X5.50372 Y9.94232
G01 X5.49496 Y10.17255
G01 X5.49526 Y10.17260
G01 X5.49496 Y10.17255
G01 X5.45104 Y10.39873
G01 X5.45137 Y10.39884
G01 X5.45104 Y10.39873
G01 X5.37322 Y10.61560
G01 X5.37345 Y10.61570
G01 X5.37322 Y10.61560
G01 X5.26316 Y10.81801
G01 X5.26336 Y10.81816
G01 X5.26316 Y10.81801
G01 X5.12348 Y11.00120
G01 X5.12369 Y11.00140
G01 X5.12348 Y11.00120
G01 X4.95742 Y11.16101
G01 X4.95760 Y11.16124
G01 X4.95742 Y11.16101
G01 X4.76903 Y11.29355
G01 X4.76918 Y11.29378
G01 X4.76903 Y11.29355
G01 X4.56255 Y11.39579
G01 X4.56263 Y11.39607
G01 X4.56255 Y11.39579
G01 X4.34282 Y11.46531
G01 X4.34289 Y11.46556
G01 X4.34282 Y11.46531
G01 X4.11513 Y11.50046
G01 X4.11516 Y11.50094
G01 X4.11513 Y11.50046
G01 X3.94241 Y11.50046
G01 X3.77025 Y11.48723
G01 X3.77017 Y11.48771
G01 X3.77025 Y11.48723
G01 X3.54589 Y11.43475
G01 X3.54581 Y11.43500
G01 X3.54589 Y11.43475
G01 X3.33223 Y11.34862
G01 X3.33205 Y11.34890
G01 X3.33223 Y11.34862
G01 X3.13418 Y11.23089
G01 X3.13395 Y11.23112
G01 X3.13418 Y11.23089
G01 X2.95638 Y11.08428
G01 X2.95623 Y11.08451
G01 X2.95638 Y11.08428
G01 X2.80307 Y10.91227
G01 X2.80289 Y10.91245
G01 X2.80307 Y10.91227
G01 X2.67785 Y10.71888
G01 X2.67757 Y10.71903
G01 X2.67785 Y10.71888
G01 X2.58364 Y10.50867
G01 X2.58336 Y10.50877
G01 X2.58364 Y10.50867
G01 X2.52252 Y10.28649
G01 X2.52230 Y10.28654
G01 X2.52252 Y10.28649
G01 X2.49616 Y10.05756
G01 X2.59606 Y10.05378
G01 X2.59639 Y10.05378
G01 X2.62105 Y10.26737
G01 X2.62075 Y10.26742
G01 X2.62105 Y10.26737
G01 X2.67797 Y10.47473
G01 X2.67774 Y10.47483
G01 X2.67797 Y10.47473
G01 X2.76596 Y10.67097
G01 X2.76568 Y10.67112
G01 X2.76596 Y10.67097
G01 X2.88287 Y10.85146
G01 X2.88262 Y10.85167
G01 X2.88287 Y10.85146
G01 X3.02598 Y11.01199
G01 X3.02572 Y11.01225
G01 X3.02598 Y11.01199
G01 X3.19184 Y11.14885
G01 X3.19166 Y11.14910
G01 X3.19184 Y11.14885
G01 X3.37673 Y11.25873
G01 X3.37655 Y11.25898
G01 X3.37673 Y11.25873
G01 X3.57617 Y11.33914
G01 X3.57602 Y11.33940
G01 X3.57617 Y11.33914
G01 X3.78557 Y11.38809
G01 X3.78549 Y11.38857
G01 X3.78557 Y11.38809
G01 X3.94630 Y11.40043
G01 X4.10746 Y11.40043
G01 X4.10748 Y11.40092
G01 X4.10746 Y11.40043
G01 X4.32001 Y11.36764
G01 X4.32008 Y11.36792
G01 X4.32001 Y11.36764
G01 X4.52506 Y11.30272
G01 X4.52516 Y11.30300
G01 X4.52506 Y11.30272
G01 X4.71772 Y11.20734
G01 X4.71787 Y11.20760
G01 X4.71772 Y11.20734
G01 X4.89367 Y11.08362
G01 X4.89384 Y11.08387
G01 X4.89367 Y11.08362
G01 X5.04855 Y10.93447
G01 X5.04883 Y10.93467
G01 X5.04855 Y10.93447
G01 X5.17893 Y10.76345
G01 X5.17921 Y10.76363
G01 X5.17893 Y10.76345
G01 X5.28168 Y10.57458
G01 X5.28193 Y10.57471
G01 X5.28168 Y10.57458
G01 X5.35432 Y10.37217
G01 X5.35465 Y10.37227
G01 X5.35432 Y10.37217
G01 X5.39529 Y10.16107
G01 X5.39562 Y10.16107
G01 X5.39529 Y10.16107
G01 X5.40355 Y9.94616
G01 X5.40380 Y9.94616
G01 X5.40355 Y9.94616
G01 X5.37888 Y9.73252
G01 X5.37914 Y9.73247
G01 X5.37888 Y9.73252
G01 X5.32186 Y9.52515
G01 X5.32214 Y9.52510
G01 X5.32186 Y9.52515
G01 X5.23390 Y9.32894
G01 X5.23420 Y9.32878
G01 X5.23390 Y9.32894
G01 X5.11701 Y9.14845
G01 X5.11729 Y9.14829
G01 X5.11701 Y9.14845
G01 X4.97398 Y8.98789
G01 X4.97418 Y8.98766
G01 X4.97398 Y8.98789
G01 X4.80802 Y8.85106
G01 X4.80819 Y8.85086
G01 X4.80802 Y8.85106
G01 X4.62323 Y8.74116
G01 X4.42377 Y8.66079
G01 X4.42382 Y8.66051
G01 X4.42377 Y8.66079
G01 X4.21439 Y8.61177
G01 X4.21439 Y8.61134
G01 X4.21439 Y8.61177
G01 X4.05366 Y8.59945
G01 X3.89242 Y8.59945
G01 X3.89240 Y8.59897
G01 X3.89242 Y8.59945
G01 X3.67993 Y8.63232
G01 X3.67985 Y8.63201
G01 X3.67993 Y8.63232
G01 X3.47492 Y8.69719
G01 X3.47480 Y8.69688
G01 X3.47492 Y8.69719
G01 X3.28219 Y8.79259
G01 X3.28198 Y8.79236
G01 X3.28219 Y8.79259
G01 X3.10629 Y8.91631
G01 X3.10609 Y8.91611
G01 X3.10629 Y8.91631
G01 X2.95135 Y9.06541
G01 X2.95107 Y9.06523
G01 X2.95135 Y9.06541
G01 X2.82095 Y9.23646
G01 X2.82070 Y9.23630
G01 X2.82095 Y9.23646
G01 X2.71826 Y9.42538
G01 X2.71798 Y9.42528
G01 X2.71826 Y9.42538
G01 X2.64551 Y9.62774
G01 X2.64528 Y9.62769
G01 X2.64551 Y9.62774
G01 X2.60457 Y9.83887
G01 X2.60429 Y9.83887
G01 X2.60457 Y9.83887
G01 X2.59639 Y10.05378
G04 P0 ( dwell for no time -- G64 should not smooth over this point )
G00 Z5.00000 ( retract )

G00 X7.41383 Y8.12079 ( rapid move to begin. )
G01 F150.00000
( Mill infeed pass 1/1 )
G01 Z-0.05000
G04 P0 ( dwell for no time -- G64 should not smooth over this point )
G01 F300.00000
G01 X7.41383 Y8.12079
G01 X7.43285 Y8.14400
G01 X7.45467 Y8.17659
G01 X7.47311 Y8.21116
G01 X7.48812 Y8.24741
G01 X7.49950 Y8.28492
G01 X7.50715 Y8.32335
G01 X7.51098 Y8.36239
G01 X7.51200 Y8.38200
G01 X7.51200 Y11.93797
G01 X7.51098 Y11.95756
G01 X7.50715 Y11.99657
G01 X7.50430 Y12.01600
G01 X7.49950 Y12.03503
G01 X7.48812 Y12.07254
G01 X7.48154 Y12.09101
G01 X7.47311 Y12.10876
G01 X7.45467 Y12.14333
G01 X7.43285 Y12.17595
G01 X7.40801 Y12.20625
G01 X7.39480 Y12.22080
G01 X6.36895 Y13.24666
G01 X6.36133 Y13.24351
G01 X6.36895 Y13.24666
G01 X6.36895 Y35.58964
G01 X6.35531 Y35.59759
G01 X6.36895 Y35.58964
G01 X6.47995 Y35.64900
G01 X6.51251 Y35.67079
G01 X6.62617 Y35.76406
G01 X6.64073 Y35.77722
G01 X6.65391 Y35.79175
G01 X6.74718 Y35.90541
G01 X6.75889 Y35.92119
G01 X6.76895 Y35.93798
G01 X6.83829 Y36.06770
G01 X6.85325 Y36.10389
G01 X6.89595 Y36.24456
G01 X6.90359 Y36.28304
G01 X6.91802 Y36.42939
G01 X6.91802 Y36.46853
G01 X6.90359 Y36.61491
G01 X6.89595 Y36.65337
G01 X6.85325 Y36.79406
G01 X6.83829 Y36.83025
G01 X6.76895 Y36.95995
G01 X6.76130 Y36.97270
G01 X6.76105 Y36.97318
G01 X6.75698 Y36.97895
G01 X6.75493 Y36.98204
G01 X6.74718 Y36.99251
G01 X6.65391 Y37.10620
G01 X6.64573 Y37.11517
G01 X6.64042 Y37.12045
G01 X6.63509 Y37.12581
G01 X6.62617 Y37.13389
G01 X6.51251 Y37.22718
G01 X6.50230 Y37.23475
G01 X6.50207 Y37.23493
G01 X6.49318 Y37.24105
G01 X6.49290 Y37.24118
G01 X6.47995 Y37.24897
G01 X6.35025 Y37.31829
G01 X6.31406 Y37.33325
G01 X6.17337 Y37.37595
G01 X6.13486 Y37.38362
G01 X5.98858 Y37.39802
G01 X5.94934 Y37.39802
G01 X5.80306 Y37.38362
G01 X5.78361 Y37.38070
G01 X5.76456 Y37.37595
G01 X5.62386 Y37.33325
G01 X5.60540 Y37.32667
G01 X5.58764 Y37.31829
G01 X5.45798 Y37.24897
G01 X5.42544 Y37.22718
G01 X5.31177 Y37.13389
G01 X5.30286 Y37.12586
G01 X5.30248 Y37.12550
G01 X5.29242 Y37.11550
G01 X5.29184 Y37.11484
G01 X5.28401 Y37.10620
G01 X5.19074 Y36.99251
G01 X5.17903 Y36.97676
G01 X5.16895 Y36.95995
G01 X5.09969 Y36.83025
G01 X5.08470 Y36.79406
G01 X5.04200 Y36.65337
G01 X5.03431 Y36.61491
G01 X5.01995 Y36.46853
G01 X5.01995 Y36.42939
G01 X5.03431 Y36.28304
G01 X5.04200 Y36.24456
G01 X5.08470 Y36.10389
G01 X5.09969 Y36.06770
G01 X5.16895 Y35.93798
G01 X5.17903 Y35.92119
G01 X5.19074 Y35.90541
G01 X5.28401 Y35.79175
G01 X5.29720 Y35.77722
G01 X5.31177 Y35.76406
G01 X5.42544 Y35.67079
G01 X5.44114 Y35.65909
G01 X5.45798 Y35.64900
G01 X5.56895 Y35.58972
G01 X5.58297 Y35.59807
G01 X5.56895 Y35.58972
G01 X5.56895 Y13.08100
G01 X5.56992 Y13.06139
G01 X5.57373 Y13.02238
G01 X5.58137 Y12.98392
G01 X5.59275 Y12.94638
G01 X5.59940 Y12.92791
G01 X5.60781 Y12.91016
G01 X5.62628 Y12.87556
G01 X5.64807 Y12.84300
G01 X5.67291 Y12.81270
G01 X5.68612 Y12.79809
G01 X6.71198 Y11.77227
G01 X6.71957 Y11.77539
G01 X6.71198 Y11.77227
G01 X6.71198 Y8.54763
G01 X6.71957 Y8.54453
G01 X6.71198 Y8.54763
G01 X5.31708 Y7.15279
G01 X5.30395 Y7.13821
G01 X5.27903 Y7.10791
G01 X5.25724 Y7.07532
G01 X5.23878 Y7.04075
G01 X5.22381 Y7.00451
G01 X5.21244 Y6.96699
G01 X5.20479 Y6.92856
G01 X5.20088 Y6.88952
G01 X5.19991 Y6.86996
G01 X5.19991 Y6.74977
G01 X5.21211 Y6.74202
G01 X5.19991 Y6.74977
G01 X5.18038 Y6.74164
G01 X5.03347 Y6.66313
G01 X5.00088 Y6.64131
G01 X4.87208 Y6.53560
G01 X4.86283 Y6.52722
G01 X4.85275 Y6.51716
G01 X4.84434 Y6.50786
G01 X4.73862 Y6.37908
G01 X4.71686 Y6.34649
G01 X4.63824 Y6.19950
G01 X4.62326 Y6.16334
G01 X4.57487 Y6.00382
G01 X4.57017 Y5.98477
G01 X4.56728 Y5.96542
G01 X4.55089 Y5.79958
G01 X4.54995 Y5.78000
G01 X4.55089 Y5.76034
G01 X4.56728 Y5.59455
G01 X4.57017 Y5.57510
G01 X4.57487 Y5.55605
G01 X4.62326 Y5.39661
G01 X4.63824 Y5.36042
G01 X4.71686 Y5.21343
G01 X4.73862 Y5.18086
G01 X4.84434 Y5.05201
G01 X4.85290 Y5.04264
G01 X4.86263 Y5.03283
G01 X4.87208 Y5.02435
G01 X5.00088 Y4.91863
G01 X5.03347 Y4.89682
G01 X5.18038 Y4.81830
G01 X5.21665 Y4.80324
G01 X5.37611 Y4.75493
G01 X5.39514 Y4.75016
G01 X5.41457 Y4.74729
G01 X5.58038 Y4.73095
G01 X5.59999 Y4.72994
G01 X5.61955 Y4.73095
G01 X5.78541 Y4.74729
G01 X5.80479 Y4.75016
G01 X5.82381 Y4.75493
G01 X5.98327 Y4.80324
G01 X6.00182 Y4.80992
G01 X6.01955 Y4.81830
G01 X6.16646 Y4.89682
G01 X6.19905 Y4.91863
G01 X6.32785 Y5.02435
G01 X6.34246 Y5.03753
G01 X6.35561 Y5.05201
G01 X6.39572 Y5.10095
G01 X6.42630 Y5.18635
G01 X6.43809 Y5.22514
G01 X6.47921 Y5.38935
G01 X6.48495 Y5.41802
G01 X6.49094 Y5.45861
G01 X6.48495 Y5.41802
G01 X6.47921 Y5.38935
G01 X6.43809 Y5.22514
G01 X6.42630 Y5.18635
G01 X6.39572 Y5.10095
G01 X6.36748 Y5.02204
G01 X6.34507 Y4.96799
G01 X6.29950 Y4.87162
G01 X6.26250 Y4.84129
G01 X6.21360 Y4.80865
G01 X6.06669 Y4.73011
G01 X6.04007 Y4.71752
G01 X6.01236 Y4.70761
G01 X5.85285 Y4.65922
G01 X5.82435 Y4.65209
G01 X5.79516 Y4.64777
G01 X5.62935 Y4.63144
G01 X5.57058 Y4.63144
G01 X5.40476 Y4.64777
G01 X5.37558 Y4.65209
G01 X5.34708 Y4.65922
G01 X5.32727 Y4.66524
G01 X5.31256 Y4.68079
G01 X5.30967 Y4.68358
G01 X5.22539 Y4.75930
G01 X5.22204 Y4.76207
G01 X5.18871 Y4.78709
G01 X5.17799 Y4.79542
G01 X5.14246 Y4.82361
G01 X5.14002 Y4.82544
G01 X5.08899 Y4.86126
G01 X5.08643 Y4.86291
G01 X5.03646 Y4.89356
G01 X4.99788 Y4.92001
G01 X4.92465 Y4.97561
G01 X4.87421 Y5.02125
G01 X4.84119 Y5.05422
G01 X4.79552 Y5.10466
G01 X4.74000 Y5.17792
G01 X4.71353 Y5.21652
G01 X4.69054 Y5.25399
G01 X4.63873 Y5.35770
G01 X4.61983 Y5.40055
G01 X4.61269 Y5.41914
G01 X4.57431 Y5.55376
G01 X4.56420 Y5.59671
G01 X4.54914 Y5.75932
G01 X4.54774 Y5.77997
G01 X4.54914 Y5.80060
G01 X4.56423 Y5.96328
G01 X4.57431 Y6.00619
G01 X4.61269 Y6.14075
G01 X4.61983 Y6.15935
G01 X4.63873 Y6.20225
G01 X4.69054 Y6.30593
G01 X4.71353 Y6.34337
G01 X4.73997 Y6.38198
G01 X4.79552 Y6.45528
G01 X4.84119 Y6.50565
G01 X4.87423 Y6.53870
G01 X4.92465 Y6.58434
G01 X4.99814 Y6.64009
G01 X5.02925 Y6.66181
G01 X5.03621 Y6.66623
G01 X5.03796 Y6.66745
G01 X5.07413 Y6.69285
G01 X5.07583 Y6.69412
G01 X5.11734 Y6.72605
G01 X5.11904 Y6.72747
G01 X5.15666 Y6.75914
G01 X5.16237 Y6.76478
G01 X5.16733 Y6.76161
G01 X5.16237 Y6.76478
G01 X5.16705 Y6.77131
G01 X5.17070 Y6.77847
G01 X5.17312 Y6.78612
G01 X5.18798 Y6.85074
G01 X5.18861 Y6.85373
G01 X5.18985 Y6.86112
G01 X5.19443 Y6.88505
G01 X5.19826 Y6.90242
G01 X5.19847 Y6.90344
G01 X5.20250 Y6.92409
G01 X5.20271 Y6.92513
G01 X5.20812 Y6.95597
G01 X5.21114 Y6.97167
G01 X5.21457 Y6.98337
G01 X5.22133 Y7.00156
G01 X5.22597 Y7.01337
G01 X5.22862 Y7.01990
G01 X5.23413 Y7.03306
G01 X5.23916 Y7.04451
G01 X5.24716 Y7.06222
G01 X5.25290 Y7.07271
G01 X5.27088 Y7.09836
G01 X5.28391 Y7.11553
G01 X5.29996 Y7.13674
G01 X5.31612 Y7.15269
G01 X5.32320 Y7.15950
G01 X5.32369 Y7.15996
G01 X5.33413 Y7.17019
G01 X5.33453 Y7.17057
G01 X6.58744 Y8.42348
G01 X6.58914 Y8.42526
G01 X6.62234 Y8.46188
G01 X6.62391 Y8.46374
G01 X6.62412 Y8.46353
G01 X6.62391 Y8.46374
G01 X6.65475 Y8.50130
G01 X6.65627 Y8.50326
G01 X6.68706 Y8.54484
G01 X6.69138 Y8.55175
G01 X6.69447 Y8.55929
G01 X6.69785 Y8.55797
G01 X6.69447 Y8.55929
G01 X6.69633 Y8.56724
G01 X6.70397 Y8.61840
G01 X6.70428 Y8.62084
G01 X6.70903 Y8.66922
G01 X6.70923 Y8.67169
G01 X6.71167 Y8.72101
G01 X6.71172 Y8.72350
G01 X6.71172 Y11.59642
G01 X6.71167 Y11.59891
G01 X6.70923 Y11.64821
G01 X6.70903 Y11.65070
G01 X6.70428 Y11.69909
G01 X6.70397 Y11.70155
G01 X6.69638 Y11.75268
G01 X6.69453 Y11.76063
G01 X6.69828 Y11.76216
G01 X6.69453 Y11.76063
G01 X6.69138 Y11.76812
G01 X6.68706 Y11.77506
G01 X6.65627 Y11.81664
G01 X6.65475 Y11.81859
G01 X6.62391 Y11.85616
G01 X6.62229 Y11.85802
G01 X6.58914 Y11.89464
G01 X6.58744 Y11.89645
G01 X5.70352 Y12.78034
G01 X5.70319 Y12.78072
G01 X5.69265 Y12.79101
G01 X5.69214 Y12.79144
G01 X5.68508 Y12.79820
G01 X5.66892 Y12.81417
G01 X5.65297 Y12.83536
G01 X5.63984 Y12.85253
G01 X5.62191 Y12.87831
G01 X5.61624 Y12.88862
G01 X5.60812 Y12.90638
G01 X5.60311 Y12.91775
G01 X5.59758 Y12.93099
G01 X5.59493 Y12.93746
G01 X5.59039 Y12.94933
G01 X5.58350 Y12.96756
G01 X5.58023 Y12.97894
G01 X5.57479 Y13.00963
G01 X5.57185 Y13.03147
G01 X5.56811 Y13.05748
G01 X5.56829 Y13.08024
G01 X5.56852 Y13.08956
G01 X5.56854 Y13.09014
G01 X5.56865 Y13.10533
G01 X5.56867 Y13.10592
G01 X5.56867 Y30.84812
G01 X5.56857 Y30.85148
G01 X5.56390 Y30.91970
G01 X5.56362 Y30.92305
G01 X5.55452 Y30.98935
G01 X5.55310 Y30.99620
G01 X5.55376 Y30.99633
G01 X5.55310 Y30.99620
G01 X5.51010 Y31.14812
G01 X5.50794 Y31.15429
G01 X5.47952 Y31.22051
G01 X5.47614 Y31.22704
G01 X5.46895 Y31.23870
G01 X5.46895 Y35.52977
G01 X5.48198 Y35.53719
G01 X5.46895 Y35.52977
G01 X5.41083 Y35.56079
G01 X5.38559 Y35.57593
G01 X5.36199 Y35.59348
G01 X5.24835 Y35.68672
G01 X5.20675 Y35.72833
G01 X5.11343 Y35.84199
G01 X5.09595 Y35.86564
G01 X5.08076 Y35.89089
G01 X5.01150 Y36.02053
G01 X4.98899 Y36.07488
G01 X4.97078 Y36.13493
G01 X4.97078 Y36.20747
G01 X4.97088 Y36.22187
G01 X4.97202 Y36.27090
G01 X4.97202 Y36.27145
G01 X4.97218 Y36.28522
G01 X4.97218 Y36.28578
G01 X4.97218 Y36.41943
G01 X4.97235 Y36.43480
G01 X4.97352 Y36.47671
G01 X4.97355 Y36.47740
G01 X4.97370 Y36.49355
G01 X4.97370 Y36.49424
G01 X4.97370 Y36.62540
G01 X4.97401 Y36.64323
G01 X4.97528 Y36.68730
G01 X4.97528 Y36.68799
G01 X4.97563 Y36.70793
G01 X4.97563 Y36.70864
G01 X4.97563 Y36.77905
G01 X4.98899 Y36.82304
G01 X4.99892 Y36.85080
G01 X4.99969 Y36.85253
G01 X5.00403 Y36.85560
G01 X5.04543 Y36.88420
G01 X5.04876 Y36.88674
G01 X5.13403 Y36.95695
G01 X5.13730 Y36.95995
G01 X5.15478 Y36.97717
G01 X5.17500 Y36.99609
G01 X5.19354 Y37.01255
G01 X5.19552 Y37.01438
G01 X5.23555 Y37.05395
G01 X5.23740 Y37.05593
G01 X5.28094 Y37.10394
G01 X5.29184 Y37.11484
G01 X5.30286 Y37.12586
G01 X5.31401 Y37.13696
G01 X5.35785 Y37.17681
G01 X5.42252 Y37.22581
G01 X5.46110 Y37.25222
G01 X5.49295 Y37.27176
G01 X5.58498 Y37.31781
G01 X5.62778 Y37.33660
G01 X5.64241 Y37.34222
G01 X5.76235 Y37.37643
G01 X5.80314 Y37.38611
G01 X5.94835 Y37.39962
G01 X5.96897 Y37.40099
G01 X5.98957 Y37.39959
G01 X6.13476 Y37.38611
G01 X6.17555 Y37.37643
G01 X6.29549 Y37.34222
G01 X6.31012 Y37.33660
G01 X6.35290 Y37.31776
G01 X6.44500 Y37.27176
G01 X6.47682 Y37.25222
G01 X6.49290 Y37.24118
G01 X6.50230 Y37.23475
G01 X6.51540 Y37.22581
G01 X6.58002 Y37.17681
G01 X6.62391 Y37.13696
G01 X6.63509 Y37.12581
G01 X6.64042 Y37.12045
G01 X6.64573 Y37.11517
G01 X6.65701 Y37.10394
G01 X6.69679 Y37.06005
G01 X6.74581 Y36.99540
G01 X6.75493 Y36.98204
G01 X6.75698 Y36.97895
G01 X6.76130 Y36.97270
G01 X6.77220 Y36.95680
G01 X6.79176 Y36.92500
G01 X6.79371 Y36.92202
G01 X6.83623 Y36.86274
G01 X6.83834 Y36.85992
G01 X6.86138 Y36.83211
G01 X6.88104 Y36.80686
G01 X6.89399 Y36.78911
G01 X6.89790 Y36.78443
G01 X6.99059 Y36.68585
G01 X6.99165 Y36.68238
G01 X7.00314 Y36.62472
G01 X7.01751 Y36.47834
G01 X7.01893 Y36.44900
G01 X7.01751 Y36.41959
G01 X7.00314 Y36.27323
G01 X6.99165 Y36.21557
G01 X6.94896 Y36.07488
G01 X6.92645 Y36.02053
G01 X6.85716 Y35.89089
G01 X6.84202 Y35.86564
G01 X6.82450 Y35.84199
G01 X6.73120 Y35.72833
G01 X6.71144 Y35.70653
G01 X6.68962 Y35.68672
G01 X6.57596 Y35.59348
G01 X6.52706 Y35.56079
G01 X6.46897 Y35.52972
G01 X6.45587 Y35.53714
G01 X6.46897 Y35.52972
G01 X6.46897 Y13.28804
G01 X6.46140 Y13.28499
G01 X6.46897 Y13.28804
G01 X7.46552 Y12.29152
G01 X7.48528 Y12.26970
G01 X7.51020 Y12.23940
G01 X7.53201 Y12.20668
G01 X7.53455 Y12.19835
G01 X7.54377 Y12.16152
G01 X7.55609 Y12.09954
G01 X7.56158 Y12.06276
G01 X7.56737 Y12.00389
G01 X7.56923 Y11.96652
G01 X7.56996 Y11.93734
G01 X7.56996 Y8.38258
G01 X7.56923 Y8.35345
G01 X7.56912 Y8.35134
G01 X7.56181 Y8.33590
G01 X7.53499 Y8.28556
G01 X7.51548 Y8.25299
G01 X7.48718 Y8.21063
G01 X7.46503 Y8.18076
G01 X7.43473 Y8.14385
G01 X7.41383 Y8.12079
G01 X7.40961 Y8.11614
G01 X7.39369 Y8.09937
G01 X6.53707 Y7.24276
G01 X6.53623 Y7.24187
G01 X6.51942 Y7.22427
G01 X6.51858 Y7.22335
G01 X6.51403 Y7.21830
G01 X6.51363 Y7.21789
G01 X6.03113 Y6.73547
G01 X5.96621 Y6.72640
G01 X6.03113 Y6.73547
G01 X6.16646 Y6.66313
G01 X6.19905 Y6.64131
G01 X6.32785 Y6.53560
G01 X6.34246 Y6.52242
G01 X6.35561 Y6.50786
G01 X6.39572 Y6.45902
G01 X6.42630 Y6.37360
G01 X6.43809 Y6.33481
G01 X6.47921 Y6.17057
G01 X6.48495 Y6.14182
G01 X6.49089 Y6.10151
G01 X6.48099 Y6.13430
G01 X6.47763 Y6.14355
G01 X6.47347 Y6.15236
G01 X6.39493 Y6.29935
G01 X6.38404 Y6.31566
G01 X6.27832 Y6.44441
G01 X6.26443 Y6.45833
G01 X6.13560 Y6.56405
G01 X6.11932 Y6.57492
G01 X5.97240 Y6.65348
G01 X5.96349 Y6.65764
G01 X5.95424 Y6.66097
G01 X5.89994 Y6.67746
G01 X5.89994 Y6.74566
G01 X7.32412 Y8.16983
G01 X7.33072 Y8.17710
G01 X7.35559 Y8.20740
G01 X7.36648 Y8.22371
G01 X7.38495 Y8.25828
G01 X7.39247 Y8.27639
G01 X7.40385 Y8.31390
G01 X7.40766 Y8.33316
G01 X7.41149 Y8.37220
G01 X7.41197 Y8.38200
G01 X7.41197 Y11.93797
G01 X7.41149 Y11.94775
G01 X7.40766 Y11.98677
G01 X7.40385 Y12.00600
G01 X7.39247 Y12.04351
G01 X7.38911 Y12.05273
G01 X7.38495 Y12.06165
G01 X7.36648 Y12.09622
G01 X7.35559 Y12.11250
G01 X7.33072 Y12.14280
G01 X7.32412 Y12.15006
G01 X6.26897 Y13.20526
G01 X6.26897 Y35.65545
G01 X6.28498 Y35.66038
G01 X6.29422 Y35.66368
G01 X6.30311 Y35.66787
G01 X6.43278 Y35.73719
G01 X6.44911 Y35.74809
G01 X6.56273 Y35.84130
G01 X6.57001 Y35.84791
G01 X6.57659 Y35.85522
G01 X6.66986 Y35.96884
G01 X6.67573 Y35.97671
G01 X6.68078 Y35.98515
G01 X6.75008 Y36.11484
G01 X6.75757 Y36.13295
G01 X6.80024 Y36.27364
G01 X6.80263 Y36.28316
G01 X6.80410 Y36.29284
G01 X6.81848 Y36.43920
G01 X6.81848 Y36.45873
G01 X6.80410 Y36.60511
G01 X6.80263 Y36.61479
G01 X6.80024 Y36.62431
G01 X6.75757 Y36.76498
G01 X6.75008 Y36.78314
G01 X6.68078 Y36.91278
G01 X6.67573 Y36.92121
G01 X6.66986 Y36.92911
G01 X6.57659 Y37.04270
G01 X6.56273 Y37.05662
G01 X6.44911 Y37.14986
G01 X6.44121 Y37.15568
G01 X6.43278 Y37.16076
G01 X6.30311 Y37.23008
G01 X6.28498 Y37.23759
G01 X6.14434 Y37.28027
G01 X6.13476 Y37.28265
G01 X6.12506 Y37.28410
G01 X5.97878 Y37.29850
G01 X5.95914 Y37.29850
G01 X5.81287 Y37.28410
G01 X5.80316 Y37.28265
G01 X5.79359 Y37.28027
G01 X5.65295 Y37.23759
G01 X5.64370 Y37.23424
G01 X5.63484 Y37.23008
G01 X5.50512 Y37.16076
G01 X5.48886 Y37.14986
G01 X5.37522 Y37.05662
G01 X5.36788 Y37.05004
G01 X5.36133 Y37.04270
G01 X5.26809 Y36.92911
G01 X5.26219 Y36.92121
G01 X5.25714 Y36.91278
G01 X5.18787 Y36.78314
G01 X5.18033 Y36.76498
G01 X5.13771 Y36.62431
G01 X5.13527 Y36.61479
G01 X5.13382 Y36.60511
G01 X5.11947 Y36.45873
G01 X5.11947 Y36.43920
G01 X5.13382 Y36.29284
G01 X5.13527 Y36.28316
G01 X5.13771 Y36.27364
G01 X5.18033 Y36.13295
G01 X5.18787 Y36.11484
G01 X5.25714 Y35.98515
G01 X5.26219 Y35.97671
G01 X5.26809 Y35.96884
G01 X5.36133 Y35.85522
G01 X5.37522 Y35.84130
G01 X5.48886 Y35.74809
G01 X5.49671 Y35.74224
G01 X5.50512 Y35.73719
G01 X5.63484 Y35.66787
G01 X5.65295 Y35.66038
G01 X5.66890 Y35.65553
G01 X5.66890 Y13.08100
G01 X5.66938 Y13.07120
G01 X5.67329 Y13.03216
G01 X5.67710 Y13.01295
G01 X5.68843 Y12.97541
G01 X5.69181 Y12.96619
G01 X5.69600 Y12.95728
G01 X5.71447 Y12.92273
G01 X5.72531 Y12.90638
G01 X5.75023 Y12.87607
G01 X5.75678 Y12.86881
G01 X6.81195 Y11.81369
G01 X6.81195 Y8.50626
G01 X5.38785 Y7.08208
G01 X5.38119 Y7.07481
G01 X5.35638 Y7.04451
G01 X5.34548 Y7.02818
G01 X5.32696 Y6.99361
G01 X5.31950 Y6.97553
G01 X5.30812 Y6.93796
G01 X5.30426 Y6.91876
G01 X5.30045 Y6.87972
G01 X5.29996 Y6.86996
G01 X5.29996 Y6.67746
G01 X5.24568 Y6.66097
G01 X5.22752 Y6.65348
G01 X5.08061 Y6.57492
G01 X5.06430 Y6.56405
G01 X4.93550 Y6.45833
G01 X4.92161 Y6.44441
G01 X4.81589 Y6.31566
G01 X4.81007 Y6.30779
G01 X4.80504 Y6.29935
G01 X4.72646 Y6.15236
G01 X4.71899 Y6.13430
G01 X4.67058 Y5.97479
G01 X4.66679 Y5.95559
G01 X4.65046 Y5.78978
G01 X4.64998 Y5.78000
G01 X4.54995 Y5.78000
G01 X4.54774 Y5.77997
G01 X4.54995 Y5.78000
G01 X4.64998 Y5.78000
G01 X4.65046 Y5.77019
G01 X4.66679 Y5.60436
G01 X4.67058 Y5.58508
G01 X4.71899 Y5.42562
G01 X4.72646 Y5.40756
G01 X4.80504 Y5.26057
G01 X4.81007 Y5.25214
G01 X4.81589 Y5.24431
G01 X4.92161 Y5.11546
G01 X4.92823 Y5.10824
G01 X4.93550 Y5.10164
G01 X5.06430 Y4.99593
G01 X5.07220 Y4.99003
G01 X5.08061 Y4.98500
G01 X5.22752 Y4.90649
G01 X5.24568 Y4.89895
G01 X5.40507 Y4.85064
G01 X5.42430 Y4.84675
G01 X5.59018 Y4.83047
G01 X5.59999 Y4.82994
G01 X5.60974 Y4.83047
G01 X5.77560 Y4.84675
G01 X5.79483 Y4.85064
G01 X5.95424 Y4.89895
G01 X5.96349 Y4.90230
G01 X5.97240 Y4.90649
G01 X6.11932 Y4.98500
G01 X6.13560 Y4.99593
G01 X6.26443 Y5.10164
G01 X6.27169 Y5.10824
G01 X6.27832 Y5.11546
G01 X6.38404 Y5.24431
G01 X6.38988 Y5.25214
G01 X6.39493 Y5.26057
G01 X6.47347 Y5.40756
G01 X6.47763 Y5.41640
G01 X6.48099 Y5.42562
G01 X6.49094 Y5.45861
G01 X6.52932 Y5.58508
G01 X6.53316 Y5.60436
G01 X6.54952 Y5.77019
G01 X6.54997 Y5.78000
G01 X6.54952 Y5.78978
G01 X6.53316 Y5.95559
G01 X6.52932 Y5.97479
G01 X6.49089 Y6.10151
G01 X6.48495 Y6.14182
G01 X6.47921 Y6.17057
G01 X6.43809 Y6.33481
G01 X6.42630 Y6.37360
G01 X6.39572 Y6.45902
G01 X6.36753 Y6.53791
G01 X6.34500 Y6.59199
G01 X6.29950 Y6.68830
G01 X6.26250 Y6.71860
G01 X6.21360 Y6.75129
G01 X6.19722 Y6.76008
G01 X6.14190 Y6.75528
G01 X6.19722 Y6.76008
G01 X6.29747 Y6.86039
G01 X6.31769 Y6.90908
G01 X6.31812 Y6.91017
G01 X6.33186 Y6.94111
G01 X6.33240 Y6.94223
G01 X6.35020 Y6.97984
G01 X6.35124 Y6.98200
G01 X6.37929 Y7.03450
G01 X6.38051 Y7.03666
G01 X6.38018 Y7.03687
G01 X6.38051 Y7.03666
G01 X6.40126 Y7.07133
G01 X6.40258 Y7.07339
G01 X6.43219 Y7.11777
G01 X6.43362 Y7.11982
G01 X6.45724 Y7.15165
G01 X6.45876 Y7.15358
G01 X6.49059 Y7.19239
G01 X6.49033 Y7.19264
G01 X6.49059 Y7.19239
G01 X6.49221 Y7.19427
G01 X6.51363 Y7.21789
G01 X6.51858 Y7.22335
G01 X6.51942 Y7.22427
G01 X6.53623 Y7.24187
G01 X6.53707 Y7.24276
G01 X7.39369 Y8.09937
G01 X7.40961 Y8.11614
G01 X7.41383 Y8.12079
G01 X7.48777 Y8.05348
G01 X7.50969 Y8.07761
G01 X7.51126 Y8.07946
G01 X7.54314 Y8.11830
G01 X7.54466 Y8.12025
G01 X7.56823 Y8.15208
G01 X7.56966 Y8.15409
G01 X7.59932 Y8.19851
G01 X7.59968 Y8.19823
G01 X7.59932 Y8.19851
G01 X7.60059 Y8.20057
G01 X7.62140 Y8.23524
G01 X7.62262 Y8.23740
G01 X7.65061 Y8.28987
G01 X7.65170 Y8.29203
G01 X7.66376 Y8.31756
G01 X7.66709 Y8.32678
G01 X7.66851 Y8.33646
G01 X7.67121 Y8.33585
G01 X7.66851 Y8.33646
G01 X7.66915 Y8.34911
G01 X7.66920 Y8.35038
G01 X7.66994 Y8.38073
G01 X7.66999 Y8.38195
G01 X7.66999 Y11.93797
G01 X7.66994 Y11.93917
G01 X7.66920 Y11.96957
G01 X7.66915 Y11.97084
G01 X7.66719 Y12.01001
G01 X7.66704 Y12.01247
G01 X7.66097 Y12.07381
G01 X7.66067 Y12.07625
G01 X7.65487 Y12.11544
G01 X7.65444 Y12.11788
G01 X7.64159 Y12.18227
G01 X7.64106 Y12.18463
G01 X7.63125 Y12.22385
G01 X7.63057 Y12.22626
G01 X7.62798 Y12.23482
G01 X7.62798 Y12.61984
G01 X7.63511 Y12.62273
G01 X7.62798 Y12.61984
G01 X7.39343 Y12.85438
G01 X7.37740 Y12.87173
G01 X7.35701 Y12.89558
G01 X7.32935 Y12.93363
G01 X7.31296 Y12.96040
G01 X7.29160 Y13.00239
G01 X7.27959 Y13.03137
G01 X7.26501 Y13.07612
G01 X7.25772 Y13.10663
G01 X7.25035 Y13.15311
G01 X7.24786 Y13.18445
G01 X7.24692 Y13.20800
G01 X7.24692 Y36.60064
G01 X7.24786 Y36.62416
G01 X7.25035 Y36.65543
G01 X7.25325 Y36.67379
G01 X7.25399 Y36.67455
G01 X7.25482 Y36.67536
G01 X7.28134 Y36.70127
G01 X7.28223 Y36.70211
G01 X7.31965 Y36.74052
G01 X7.32003 Y36.74092
G01 X7.34263 Y36.76465
G01 X7.37456 Y36.79576
G01 X7.39790 Y36.81791
G01 X7.39897 Y36.81893
G01 X7.42752 Y36.84765
G01 X7.42772 Y36.84786
G01 X7.44944 Y36.87000
G01 X7.46303 Y36.88331
G01 X7.46973 Y36.88969
G01 X7.47022 Y36.89017
G01 X7.48116 Y36.90087
G01 X7.48154 Y36.90127
G01 X7.60344 Y37.02317
G01 X7.60517 Y37.02495
G01 X7.63831 Y37.06155
G01 X7.63994 Y37.06340
G01 X7.67077 Y37.10097
G01 X7.67230 Y37.10295
G01 X7.70308 Y37.14445
G01 X7.70735 Y37.15136
G01 X7.71050 Y37.15890
G01 X7.71426 Y37.15741
G01 X7.71050 Y37.15890
G01 X7.71235 Y37.16685
G01 X7.71995 Y37.21806
G01 X7.72025 Y37.22053
G01 X7.72505 Y37.26886
G01 X7.72521 Y37.27135
G01 X7.72765 Y37.32070
G01 X7.72770 Y37.32309
G01 X7.72770 Y37.88829
G01 X7.72795 Y37.88834
G01 X7.72770 Y37.88829
G01 X7.72759 Y37.89129
G01 X7.72396 Y37.95169
G01 X7.72373 Y37.95464
G01 X7.71657 Y38.01361
G01 X7.71604 Y38.01722
G01 X7.70113 Y38.09375
G01 X7.69887 Y38.10163
G01 X7.69539 Y38.10909
G01 X7.70113 Y38.11219
G01 X7.69539 Y38.10909
G01 X7.69069 Y38.11588
G01 X7.68500 Y38.12179
G01 X7.64469 Y38.15715
G01 X7.64278 Y38.15867
G01 X7.62104 Y38.17595
G01 X7.59831 Y38.19512
G01 X7.58457 Y38.20747
G01 X7.58299 Y38.20879
G01 X7.55114 Y38.23510
G01 X7.54952 Y38.23635
G01 X7.51690 Y38.26109
G01 X7.47301 Y38.30094
G01 X7.46120 Y38.31273
G01 X7.45150 Y38.32238
G01 X7.44306 Y38.33178
G01 X7.34979 Y38.44544
G01 X7.34146 Y38.45667
G01 X7.33621 Y38.46429
G01 X7.32798 Y38.47800
G01 X7.25868 Y38.60764
G01 X7.24370 Y38.64392
G01 X7.20098 Y38.78461
G01 X7.19623 Y38.80366
G01 X7.19333 Y38.82306
G01 X7.17893 Y38.96937
G01 X7.17893 Y39.00856
G01 X7.19333 Y39.15486
G01 X7.19623 Y39.17427
G01 X7.20098 Y39.19332
G01 X7.24370 Y39.33406
G01 X7.25868 Y39.37028
G01 X7.32798 Y39.49992
G01 X7.33593 Y39.51321
G01 X7.33608 Y39.51348
G01 X7.33877 Y39.51740
G01 X7.35112 Y39.53543
G01 X7.40011 Y39.60000
G01 X7.43991 Y39.64394
G01 X7.45134 Y39.65534
G01 X7.46145 Y39.66548
G01 X7.47301 Y39.67701
G01 X7.51690 Y39.71681
G01 X7.58152 Y39.76578
G01 X7.62008 Y39.79222
G01 X7.65195 Y39.81178
G01 X7.74403 Y39.85778
G01 X7.78683 Y39.87663
G01 X7.80141 Y39.88219
G01 X7.92132 Y39.91646
G01 X7.96214 Y39.92606
G01 X8.10732 Y39.93957
G01 X8.12795 Y39.94102
G01 X8.14860 Y39.93957
G01 X8.29379 Y39.92606
G01 X8.33458 Y39.91646
G01 X8.45452 Y39.88219
G01 X8.46912 Y39.87663
G01 X8.51190 Y39.85778
G01 X8.60397 Y39.81178
G01 X8.63585 Y39.79222
G01 X8.65198 Y39.78112
G01 X8.66135 Y39.77470
G01 X8.67443 Y39.76578
G01 X8.73905 Y39.71681
G01 X8.78294 Y39.67701
G01 X8.79384 Y39.66604
G01 X8.80491 Y39.65499
G01 X8.81291 Y39.64620
G01 X8.90615 Y39.53253
G01 X8.91367 Y39.52235
G01 X8.91395 Y39.52207
G01 X8.92005 Y39.51315
G01 X8.93122 Y39.49682
G01 X8.95078 Y39.46495
G01 X8.99678 Y39.37287
G01 X9.01560 Y39.33010
G01 X9.02119 Y39.31549
G01 X9.05548 Y39.19560
G01 X9.06508 Y39.15481
G01 X9.07857 Y39.00960
G01 X9.07999 Y38.98897
G01 X9.07862 Y38.96832
G01 X9.06508 Y38.82311
G01 X9.05548 Y38.78232
G01 X9.02119 Y38.66241
G01 X9.01560 Y38.64783
G01 X8.99678 Y38.60503
G01 X8.95078 Y38.51295
G01 X8.93122 Y38.48110
G01 X8.91990 Y38.46457
G01 X8.91416 Y38.45621
G01 X8.90478 Y38.44249
G01 X8.85581 Y38.37790
G01 X8.81598 Y38.33396
G01 X8.80471 Y38.32271
G01 X8.79417 Y38.31217
G01 X8.78294 Y38.30094
G01 X8.73897 Y38.26109
G01 X8.70641 Y38.23635
G01 X8.70478 Y38.23510
G01 X8.67291 Y38.20879
G01 X8.67138 Y38.20747
G01 X8.65762 Y38.19512
G01 X8.63486 Y38.17595
G01 X8.61314 Y38.15867
G01 X8.61124 Y38.15715
G01 X8.57093 Y38.12179
G01 X8.56524 Y38.11588
G01 X8.56054 Y38.10909
G01 X8.55706 Y38.10163
G01 X8.55127 Y38.10472
G01 X8.55706 Y38.10163
G01 X8.55480 Y38.09375
G01 X8.53989 Y38.01722
G01 X8.53935 Y38.01361
G01 X8.53219 Y37.95464
G01 X8.53194 Y37.95169
G01 X8.52808 Y37.89136
G01 X8.52823 Y37.88829
G01 X8.52823 Y37.00650
G01 X8.52823 Y37.00597
G01 X8.52841 Y36.99081
G01 X8.52841 Y36.99020
G01 X8.52866 Y36.98072
G01 X8.52881 Y36.96180
G01 X8.52881 Y36.95789
G01 X8.52538 Y36.93190
G01 X8.52327 Y36.91738
G01 X8.52043 Y36.90003
G01 X8.51665 Y36.87907
G01 X8.51355 Y36.86741
G01 X8.51164 Y36.86233
G01 X8.50374 Y36.84285
G01 X8.49630 Y36.82517
G01 X8.49600 Y36.82441
G01 X8.49178 Y36.81400
G01 X8.48109 Y36.78926
G01 X8.47532 Y36.77938
G01 X8.46290 Y36.76147
G01 X8.45693 Y36.75304
G01 X8.44829 Y36.74125
G01 X8.44088 Y36.73145
G01 X8.42823 Y36.71499
G01 X8.42548 Y36.71219
G01 X8.41187 Y36.69889
G01 X8.40567 Y36.69299
G01 X8.40524 Y36.69251
G01 X8.39386 Y36.68146
G01 X8.39343 Y36.68100
G01 X8.27138 Y36.55896
G01 X8.26955 Y36.55731
G01 X8.23666 Y36.52070
G01 X8.23504 Y36.51888
G01 X8.20425 Y36.48128
G01 X8.20273 Y36.47938
G01 X8.17184 Y36.43775
G01 X8.16752 Y36.43076
G01 X8.16379 Y36.43234
G01 X8.16752 Y36.43076
G01 X8.16440 Y36.42322
G01 X8.16257 Y36.41527
G01 X8.15492 Y36.36419
G01 X8.15462 Y36.36173
G01 X8.14987 Y36.31334
G01 X8.14972 Y36.31085
G01 X8.14728 Y36.26150
G01 X8.14702 Y36.25911
G01 X8.14718 Y35.09714
G01 X8.14718 Y35.09363
G01 X8.15203 Y35.02495
G01 X8.15238 Y35.02157
G01 X8.16155 Y34.95474
G01 X8.16303 Y34.94781
G01 X8.16242 Y34.94773
G01 X8.16303 Y34.94781
G01 X8.20684 Y34.79437
G01 X8.20905 Y34.78820
G01 X8.23798 Y34.72137
G01 X8.23999 Y34.71725
G01 X8.24692 Y34.70458
G01 X8.24692 Y34.41870
G01 X8.23382 Y34.36617
G01 X8.23328 Y34.36379
G01 X8.22043 Y34.29940
G01 X8.22000 Y34.29693
G01 X8.19818 Y34.14994
G01 X8.19767 Y34.14756
G01 X8.19208 Y34.08909
G01 X8.19191 Y34.08660
G01 X8.18469 Y33.93963
G01 X8.18464 Y33.93714
G01 X8.18449 Y33.88081
G01 X8.18469 Y33.87834
G01 X8.19191 Y33.73133
G01 X8.19208 Y33.72886
G01 X8.19788 Y33.67039
G01 X8.19803 Y33.66798
G01 X8.22000 Y33.52094
G01 X8.22043 Y33.51853
G01 X8.23328 Y33.45411
G01 X8.23382 Y33.45177
G01 X8.24692 Y33.39925
G01 X8.24692 Y13.41511
G01 X8.23981 Y13.41219
G01 X8.24692 Y13.41511
G01 X8.48149 Y13.18054
G01 X8.49752 Y13.16319
G01 X8.51792 Y13.13937
G01 X8.54558 Y13.10129
G01 X8.56196 Y13.07455
G01 X8.58332 Y13.03259
G01 X8.59533 Y13.00356
G01 X8.60991 Y12.95883
G01 X8.61720 Y12.92832
G01 X8.62457 Y12.88176
G01 X8.62706 Y12.85047
G01 X8.62800 Y12.82700
G01 X8.62800 Y8.12800
G01 X8.62706 Y8.10443
G01 X8.62457 Y8.07314
G01 X8.61720 Y8.02665
G01 X8.60991 Y7.99615
G01 X8.59533 Y7.95134
G01 X8.58332 Y7.92236
G01 X8.56196 Y7.88043
G01 X8.54558 Y7.85365
G01 X8.51792 Y7.81561
G01 X8.49752 Y7.79173
G01 X8.48154 Y7.77443
G01 X7.62119 Y6.91413
G01 X7.62028 Y6.91345
G01 X7.48490 Y6.81309
G01 X7.48302 Y6.81157
G01 X7.43410 Y6.77146
G01 X7.43222 Y6.76984
G01 X7.37060 Y6.71398
G01 X7.36854 Y6.71556
G01 X7.37060 Y6.71398
G01 X7.36402 Y6.70672
G01 X7.35896 Y6.69828
G01 X7.31944 Y6.61479
G01 X7.31848 Y6.61259
G01 X7.29699 Y6.56085
G01 X7.29610 Y6.55851
G01 X7.29582 Y6.55861
G01 X7.29610 Y6.55851
G01 X7.28993 Y6.54129
G01 X7.23649 Y6.39183
G01 X7.23570 Y6.38957
G01 X7.22452 Y6.35272
G01 X7.22384 Y6.35030
G01 X7.18995 Y6.21495
G01 X7.18995 Y5.34500
G01 X7.22384 Y5.20962
G01 X7.22452 Y5.20715
G01 X7.23570 Y5.17032
G01 X7.23649 Y5.16806
G01 X7.28993 Y5.01813
G01 X7.29592 Y5.00131
G01 X7.29699 Y4.99905
G01 X7.31848 Y4.94741
G01 X7.31944 Y4.94523
G01 X7.38995 Y4.79613
G01 X7.38995 Y4.52999
G01 X7.38848 Y4.50058
G01 X7.38462 Y4.46156
G01 X7.37319 Y4.40388
G01 X7.36181 Y4.36636
G01 X7.33930 Y4.31198
G01 X7.32081 Y4.27739
G01 X7.28812 Y4.22852
G01 X7.26326 Y4.19819
G01 X7.24350 Y4.17637
G01 X6.68330 Y3.61620
G01 X6.66834 Y3.62016
G01 X6.68330 Y3.61620
G01 X6.72071 Y3.49286
G01 X6.73222 Y3.43522
G01 X6.74855 Y3.26934
G01 X6.74997 Y3.24000
G01 X6.74855 Y3.21059
G01 X6.73222 Y3.04475
G01 X6.72071 Y2.98701
G01 X6.71472 Y2.96728
G01 X6.69917 Y2.95260
G01 X6.69633 Y2.94965
G01 X6.62064 Y2.86540
G01 X6.61774 Y2.86217
G01 X6.59282 Y2.82872
G01 X6.58449 Y2.81800
G01 X6.55630 Y2.78247
G01 X6.55447 Y2.78006
G01 X6.51868 Y2.72895
G01 X6.51703 Y2.72649
G01 X6.48632 Y2.67647
G01 X6.47499 Y2.65989
G01 X6.46935 Y2.65173
G01 X6.46133 Y2.64084
G01 X6.35561 Y2.51206
G01 X6.32785 Y2.48432
G01 X6.19905 Y2.37858
G01 X6.18851 Y2.37076
G01 X6.18818 Y2.37048
G01 X6.17997 Y2.36489
G01 X6.16344 Y2.35356
G01 X6.12595 Y2.33058
G01 X6.02224 Y2.27874
G01 X5.97936 Y2.25981
G01 X5.96069 Y2.25273
G01 X5.82612 Y2.21432
G01 X5.78328 Y2.20424
G01 X5.62064 Y2.18910
G01 X5.59996 Y2.18775
G01 X5.57926 Y2.18910
G01 X5.41668 Y2.20424
G01 X5.37378 Y2.21430
G01 X5.23918 Y2.25275
G01 X5.22054 Y2.25981
G01 X5.17771 Y2.27874
G01 X5.07395 Y2.33058
G01 X5.03646 Y2.35356
G01 X5.01965 Y2.36510
G01 X5.01680 Y2.36700
G01 X4.99788 Y2.38001
G01 X4.92465 Y2.43561
G01 X4.87421 Y2.48120
G01 X4.84119 Y2.51427
G01 X4.79552 Y2.56466
G01 X4.74000 Y2.63792
G01 X4.71353 Y2.67647
G01 X4.69054 Y2.71399
G01 X4.63873 Y2.81770
G01 X4.61983 Y2.86050
G01 X4.61269 Y2.87914
G01 X4.57431 Y3.01374
G01 X4.56420 Y3.05671
G01 X4.54914 Y3.21927
G01 X4.54774 Y3.23997
G01 X4.54914 Y3.26065
G01 X4.56423 Y3.42328
G01 X4.57431 Y3.46619
G01 X4.61269 Y3.60070
G01 X4.61983 Y3.61940
G01 X4.63873 Y3.66225
G01 X4.69054 Y3.76596
G01 X4.71353 Y3.80342
G01 X4.73997 Y3.84200
G01 X4.79552 Y3.91528
G01 X4.84119 Y3.96563
G01 X4.87423 Y3.99870
G01 X4.92465 Y4.04437
G01 X4.99788 Y4.09997
G01 X5.03646 Y4.12628
G01 X5.08645 Y4.15707
G01 X5.08902 Y4.15872
G01 X5.13997 Y4.19445
G01 X5.14236 Y4.19618
G01 X5.17799 Y4.22443
G01 X5.18866 Y4.23273
G01 X5.22204 Y4.25788
G01 X5.22539 Y4.26065
G01 X5.30972 Y4.33636
G01 X5.31259 Y4.33918
G01 X5.32729 Y4.35468
G01 X5.34708 Y4.36075
G01 X5.37558 Y4.36789
G01 X5.40476 Y4.37220
G01 X5.57058 Y4.38851
G01 X5.62935 Y4.38851
G01 X5.79516 Y4.37220
G01 X5.82435 Y4.36789
G01 X5.85285 Y4.36075
G01 X5.97616 Y4.32333
G01 X5.98023 Y4.30751
G01 X5.97616 Y4.32333
G01 X6.38993 Y4.73702
G01 X6.39752 Y4.73393
G01 X6.38993 Y4.73702
G01 X6.38993 Y4.82897
G01 X6.43598 Y4.92636
G01 X6.43694 Y4.92849
G01 X6.46034 Y4.98483
G01 X6.46123 Y4.98711
G01 X6.48990 Y5.06730
G01 X6.52084 Y5.15379
G01 X6.52163 Y5.15607
G01 X6.53412 Y5.19717
G01 X6.53481 Y5.19963
G01 X6.57654 Y5.36623
G01 X6.57708 Y5.36854
G01 X6.58327 Y5.39968
G01 X6.58371 Y5.40217
G01 X6.58993 Y5.44424
G01 X6.58371 Y5.40217
G01 X6.58327 Y5.39968
G01 X6.57708 Y5.36854
G01 X6.57654 Y5.36623
G01 X6.53481 Y5.19963
G01 X6.53412 Y5.19717
G01 X6.52163 Y5.15607
G01 X6.52084 Y5.15379
G01 X6.48990 Y5.06730
G01 X6.48990 Y4.69565
G01 X6.49755 Y4.69245
G01 X6.48990 Y4.69565
G01 X6.00352 Y4.20924
G01 X6.00756 Y4.19351
G01 X6.00352 Y4.20924
G01 X6.00182 Y4.21005
G01 X5.98327 Y4.21663
G01 X5.82381 Y4.26504
G01 X5.78541 Y4.27269
G01 X5.61955 Y4.28902
G01 X5.58038 Y4.28902
G01 X5.41457 Y4.27269
G01 X5.39514 Y4.26982
G01 X5.37611 Y4.26504
G01 X5.21665 Y4.21663
G01 X5.19816 Y4.21005
G01 X5.18038 Y4.20167
G01 X5.03347 Y4.12313
G01 X5.00088 Y4.10134
G01 X4.87208 Y3.99562
G01 X4.86283 Y3.98724
G01 X4.85275 Y3.97711
G01 X4.84434 Y3.96786
G01 X4.73862 Y3.83911
G01 X4.71686 Y3.80644
G01 X4.63824 Y3.65956
G01 X4.62326 Y3.62334
G01 X4.57487 Y3.46382
G01 X4.57017 Y3.44477
G01 X4.56728 Y3.42542
G01 X4.55089 Y3.25953
G01 X4.55089 Y3.22039
G01 X4.56728 Y3.05455
G01 X4.57017 Y3.03515
G01 X4.57487 Y3.01610
G01 X4.62326 Y2.85661
G01 X4.63824 Y2.82037
G01 X4.71686 Y2.67348
G01 X4.73862 Y2.64084
G01 X4.84434 Y2.51206
G01 X4.85290 Y2.50264
G01 X4.86263 Y2.49283
G01 X4.87208 Y2.48432
G01 X5.00088 Y2.37858
G01 X5.01213 Y2.37025
G01 X5.01680 Y2.36700
G01 X5.01965 Y2.36510
G01 X5.03347 Y2.35682
G01 X5.18038 Y2.27825
G01 X5.21665 Y2.26329
G01 X5.37611 Y2.21493
G01 X5.39514 Y2.21010
G01 X5.41457 Y2.20729
G01 X5.58038 Y2.19095
G01 X5.59999 Y2.18999
G01 X5.61955 Y2.19095
G01 X5.78541 Y2.20729
G01 X5.80479 Y2.21010
G01 X5.82381 Y2.21493
G01 X5.98327 Y2.26329
G01 X6.01955 Y2.27825
G01 X6.16646 Y2.35682
G01 X6.17997 Y2.36489
G01 X6.18818 Y2.37048
G01 X6.18851 Y2.37076
G01 X6.20202 Y2.38001
G01 X6.27522 Y2.43558
G01 X6.32567 Y2.48122
G01 X6.35869 Y2.51430
G01 X6.40433 Y2.56466
G01 X6.45996 Y2.63794
G01 X6.46935 Y2.65173
G01 X6.47499 Y2.65989
G01 X6.48310 Y2.67348
G01 X6.56163 Y2.82037
G01 X6.57007 Y2.83817
G01 X6.57664 Y2.85661
G01 X6.62503 Y3.01610
G01 X6.63268 Y3.05455
G01 X6.64901 Y3.22039
G01 X6.65000 Y3.24000
G01 X6.64901 Y3.25953
G01 X6.63268 Y3.42542
G01 X6.62503 Y3.46382
G01 X6.57664 Y3.62334
G01 X6.56854 Y3.64284
G01 X6.55277 Y3.64691
G01 X6.56854 Y3.64284
G01 X7.17278 Y4.24708
G01 X7.18594 Y4.26164
G01 X7.21083 Y4.29194
G01 X7.23260 Y4.32453
G01 X7.25109 Y4.35912
G01 X7.26610 Y4.39539
G01 X7.27748 Y4.43291
G01 X7.28513 Y4.47137
G01 X7.28899 Y4.51038
G01 X7.28993 Y4.52999
G01 X7.28993 Y5.01813
G01 X7.28993 Y5.01866
G01 X7.23649 Y5.16806
G01 X7.23570 Y5.17032
G01 X7.22452 Y5.20715
G01 X7.22384 Y5.20962
G01 X7.18995 Y5.34500
G01 X7.18995 Y4.52999
G01 X7.18947 Y4.52018
G01 X7.18558 Y4.48109
G01 X7.18177 Y4.46189
G01 X7.17039 Y4.42440
G01 X7.16288 Y4.40624
G01 X7.14441 Y4.37167
G01 X7.13351 Y4.35539
G01 X7.10865 Y4.32509
G01 X7.10204 Y4.31785
G01 X6.44670 Y3.66245
G01 X6.47347 Y3.61239
G01 X6.47763 Y3.60350
G01 X6.48099 Y3.59425
G01 X6.52932 Y3.43479
G01 X6.53316 Y3.41561
G01 X6.54952 Y3.24978
G01 X6.54997 Y3.24000
G01 X6.54952 Y3.23019
G01 X6.53316 Y3.06436
G01 X6.52932 Y3.04510
G01 X6.48099 Y2.88567
G01 X6.47763 Y2.87640
G01 X6.47347 Y2.86751
G01 X6.39493 Y2.72057
G01 X6.38404 Y2.70426
G01 X6.27832 Y2.57551
G01 X6.27169 Y2.56822
G01 X6.26443 Y2.56159
G01 X6.13560 Y2.45588
G01 X6.11932 Y2.44505
G01 X5.97240 Y2.36649
G01 X5.96349 Y2.36230
G01 X5.95424 Y2.35895
G01 X5.79483 Y2.31059
G01 X5.77560 Y2.30675
G01 X5.60974 Y2.29047
G01 X5.59999 Y2.28999
G01 X5.59018 Y2.29047
G01 X5.42430 Y2.30675
G01 X5.40507 Y2.31059
G01 X5.24568 Y2.35895
G01 X5.22752 Y2.36649
G01 X5.08061 Y2.44505
G01 X5.07220 Y2.45008
G01 X5.06430 Y2.45588
G01 X4.93550 Y2.56159
G01 X4.92823 Y2.56822
G01 X4.92161 Y2.57551
G01 X4.81589 Y2.70426
G01 X4.81007 Y2.71214
G01 X4.80504 Y2.72057
G01 X4.72646 Y2.86751
G01 X4.71899 Y2.88567
G01 X4.67058 Y3.04510
G01 X4.66824 Y3.05463
G01 X4.66679 Y3.06436
G01 X4.65046 Y3.23019
G01 X4.64998 Y3.24000
G01 X4.55089 Y3.25953
G01 X4.54914 Y3.26065
G01 X4.55089 Y3.25953
G01 X4.64998 Y3.24000
G01 X4.65046 Y3.24978
G01 X4.66679 Y3.41561
G01 X4.67058 Y3.43479
G01 X4.71899 Y3.59425
G01 X4.72646 Y3.61239
G01 X4.80504 Y3.75930
G01 X4.81007 Y3.76773
G01 X4.81589 Y3.77566
G01 X4.92161 Y3.90441
G01 X4.92823 Y3.91173
G01 X4.93550 Y3.91833
G01 X5.06430 Y4.02405
G01 X5.08061 Y4.03487
G01 X5.22752 Y4.11348
G01 X5.23644 Y4.11767
G01 X5.24568 Y4.12092
G01 X5.40507 Y4.16931
G01 X5.42430 Y4.17312
G01 X5.59018 Y4.18950
G01 X5.59999 Y4.18993
G01 X5.60974 Y4.18950
G01 X5.77560 Y4.17312
G01 X5.79483 Y4.16931
G01 X5.95424 Y4.12092
G01 X5.96349 Y4.11767
G01 X5.97240 Y4.11348
G01 X6.02244 Y4.08673
G01 X6.58993 Y4.65425
G01 X6.58993 Y5.44424
G01 X6.58993 Y6.11566
G01 X6.58993 Y6.88993
G01 X6.59041 Y6.89973
G01 X6.59425 Y6.93875
G01 X6.59808 Y6.95797
G01 X6.60944 Y6.99549
G01 X6.61279 Y7.00471
G01 X6.61695 Y7.01363
G01 X6.63545 Y7.04820
G01 X6.64632 Y7.06448
G01 X6.67118 Y7.09478
G01 X6.67776 Y7.10204
G01 X7.82798 Y8.25226
G01 X7.82798 Y12.70269
G01 X7.53481 Y12.99581
G01 X7.52950 Y13.00160
G01 X7.50910 Y13.02542
G01 X7.49988 Y13.03818
G01 X7.48348 Y13.06492
G01 X7.47636 Y13.07887
G01 X7.46435 Y13.10790
G01 X7.45950 Y13.12281
G01 X7.45218 Y13.15336
G01 X7.44972 Y13.16886
G01 X7.44728 Y13.20015
G01 X7.44692 Y13.20800
G01 X7.44692 Y36.60064
G01 X7.44728 Y36.60846
G01 X7.44972 Y36.63973
G01 X7.45218 Y36.65527
G01 X7.45950 Y36.68578
G01 X7.46435 Y36.70066
G01 X7.47636 Y36.72967
G01 X7.48348 Y36.74367
G01 X7.49988 Y36.77039
G01 X7.50910 Y36.78314
G01 X7.52950 Y36.80701
G01 X7.53481 Y36.81275
G01 X7.82798 Y37.10584
G01 X7.82798 Y38.19548
G01 X7.81195 Y38.20036
G01 X7.79384 Y38.20782
G01 X7.66415 Y38.27719
G01 X7.65576 Y38.28222
G01 X7.64786 Y38.28809
G01 X7.53422 Y38.38136
G01 X7.52033 Y38.39520
G01 X7.42709 Y38.50886
G01 X7.42124 Y38.51674
G01 X7.41619 Y38.52517
G01 X7.34685 Y38.65481
G01 X7.33936 Y38.67292
G01 X7.29671 Y38.81359
G01 X7.29430 Y38.82311
G01 X7.29287 Y38.83287
G01 X7.27845 Y38.97917
G01 X7.27845 Y38.99875
G01 X7.29287 Y39.14506
G01 X7.29430 Y39.15481
G01 X7.29671 Y39.16434
G01 X7.33936 Y39.30500
G01 X7.34685 Y39.32311
G01 X7.41619 Y39.45280
G01 X7.42124 Y39.46119
G01 X7.42709 Y39.46906
G01 X7.52033 Y39.58272
G01 X7.52691 Y39.58999
G01 X7.53422 Y39.59659
G01 X7.64786 Y39.68989
G01 X7.66415 Y39.70078
G01 X7.79384 Y39.77010
G01 X7.80268 Y39.77429
G01 X7.81195 Y39.77757
G01 X7.95261 Y39.82027
G01 X7.97184 Y39.82410
G01 X8.11820 Y39.83850
G01 X8.13775 Y39.83850
G01 X8.28408 Y39.82410
G01 X8.30331 Y39.82027
G01 X8.44403 Y39.77757
G01 X8.45325 Y39.77429
G01 X8.46211 Y39.77010
G01 X8.59180 Y39.70078
G01 X8.60019 Y39.69570
G01 X8.60809 Y39.68989
G01 X8.72175 Y39.59659
G01 X8.73562 Y39.58272
G01 X8.82889 Y39.46906
G01 X8.83473 Y39.46119
G01 X8.83978 Y39.45280
G01 X8.90910 Y39.32311
G01 X8.91657 Y39.30500
G01 X8.95927 Y39.16434
G01 X8.96163 Y39.15481
G01 X8.96310 Y39.14506
G01 X8.97750 Y38.99875
G01 X8.97750 Y38.97917
G01 X8.96310 Y38.83287
G01 X8.96163 Y38.82311
G01 X8.95927 Y38.81359
G01 X8.91657 Y38.67292
G01 X8.90910 Y38.65481
G01 X8.83978 Y38.52517
G01 X8.83473 Y38.51674
G01 X8.82889 Y38.50886
G01 X8.73562 Y38.39520
G01 X8.72901 Y38.38793
G01 X8.72175 Y38.38136
G01 X8.60809 Y38.28809
G01 X8.59180 Y38.27719
G01 X8.46211 Y38.20782
G01 X8.44403 Y38.20036
G01 X8.42800 Y38.19548
G01 X8.42800 Y36.98161
G01 X8.42764 Y36.97374
G01 X8.42521 Y36.94247
G01 X8.42274 Y36.92690
G01 X8.41540 Y36.89640
G01 X8.41057 Y36.88151
G01 X8.39856 Y36.85253
G01 X8.39142 Y36.83853
G01 X8.37504 Y36.81179
G01 X8.36582 Y36.79906
G01 X8.34542 Y36.77519
G01 X8.34012 Y36.76945
G01 X8.04695 Y36.47636
G01 X8.04695 Y13.33226
G01 X8.34012 Y13.03912
G01 X8.34542 Y13.03335
G01 X8.36582 Y13.00950
G01 X8.37504 Y12.99677
G01 X8.39142 Y12.97000
G01 X8.39856 Y12.95606
G01 X8.41057 Y12.92705
G01 X8.41540 Y12.91214
G01 X8.42274 Y12.88156
G01 X8.42521 Y12.86607
G01 X8.42764 Y12.83477
G01 X8.42800 Y12.82700
G01 X8.42800 Y8.12800
G01 X8.42764 Y8.12015
G01 X8.42521 Y8.08883
G01 X8.42274 Y8.07334
G01 X8.41540 Y8.04283
G01 X8.41057 Y8.02792
G01 X8.39856 Y7.99889
G01 X8.39142 Y7.98492
G01 X8.37504 Y7.95815
G01 X8.36582 Y7.94545
G01 X8.34542 Y7.92162
G01 X8.34012 Y7.91583
G01 X7.18995 Y6.76567
G01 X7.18995 Y6.21495
G01 X7.22384 Y6.35030
G01 X7.22452 Y6.35272
G01 X7.23570 Y6.38957
G01 X7.23649 Y6.39183
G01 X7.28993 Y6.54129
G01 X7.28993 Y6.72424
G01 X7.28233 Y6.72737
G01 X7.28993 Y6.72424
G01 X8.41083 Y7.84515
G01 X8.42147 Y7.85665
G01 X8.44187 Y7.88053
G01 X8.46031 Y7.90593
G01 X8.47669 Y7.93270
G01 X8.49094 Y7.96066
G01 X8.50295 Y7.98965
G01 X8.51268 Y8.01949
G01 X8.51997 Y8.05000
G01 X8.52487 Y8.08098
G01 X8.52734 Y8.11228
G01 X8.52797 Y8.12800
G01 X8.52797 Y12.82700
G01 X8.52734 Y12.84262
G01 X8.52487 Y12.87391
G01 X8.51997 Y12.90498
G01 X8.51268 Y12.93548
G01 X8.50295 Y12.96530
G01 X8.49094 Y12.99434
G01 X8.47669 Y13.02228
G01 X8.46031 Y13.04905
G01 X8.44187 Y13.07445
G01 X8.42147 Y13.09827
G01 X8.41083 Y13.10983
G01 X8.14697 Y13.37366
G01 X8.13968 Y13.37071
G01 X8.14697 Y13.37366
G01 X8.14697 Y36.43493
G01 X8.13948 Y36.43798
G01 X8.14697 Y36.43493
G01 X8.41078 Y36.69868
G01 X8.42147 Y36.71026
G01 X8.44187 Y36.73414
G01 X8.46031 Y36.75949
G01 X8.47669 Y36.78629
G01 X8.49094 Y36.81420
G01 X8.50295 Y36.84326
G01 X8.51263 Y36.87310
G01 X8.51997 Y36.90361
G01 X8.52487 Y36.93460
G01 X8.52734 Y36.96592
G01 X8.52797 Y36.98161
G01 X8.52797 Y38.12967
G01 X8.51454 Y38.13757
G01 X8.52797 Y38.12967
G01 X8.63892 Y38.18898
G01 X8.67153 Y38.21077
G01 X8.78520 Y38.30406
G01 X8.79417 Y38.31217
G01 X8.79447 Y38.31245
G01 X8.80448 Y38.32245
G01 X8.80471 Y38.32271
G01 X8.81291 Y38.33178
G01 X8.90615 Y38.44544
G01 X8.91416 Y38.45621
G01 X8.91990 Y38.46457
G01 X8.92797 Y38.47800
G01 X8.99726 Y38.60764
G01 X9.01228 Y38.64392
G01 X9.05497 Y38.78461
G01 X9.05970 Y38.80366
G01 X9.06262 Y38.82306
G01 X9.07699 Y38.96937
G01 X9.07699 Y39.00856
G01 X9.06262 Y39.15486
G01 X9.05497 Y39.19332
G01 X9.01228 Y39.33406
G01 X8.99726 Y39.37028
G01 X8.92797 Y39.49992
G01 X8.92005 Y39.51315
G01 X8.91367 Y39.52235
G01 X8.90478 Y39.53543
G01 X8.85581 Y39.60000
G01 X8.81598 Y39.64394
G01 X8.80491 Y39.65499
G01 X8.80476 Y39.65519
G01 X8.79422 Y39.66576
G01 X8.79384 Y39.66604
G01 X8.78520 Y39.67391
G01 X8.67153 Y39.76715
G01 X8.66135 Y39.77470
G01 X8.66104 Y39.77498
G01 X8.65198 Y39.78112
G01 X8.63892 Y39.78895
G01 X8.50928 Y39.85826
G01 X8.47306 Y39.87328
G01 X8.33237 Y39.91597
G01 X8.31329 Y39.92072
G01 X8.29389 Y39.92359
G01 X8.14753 Y39.93799
G01 X8.10839 Y39.93799
G01 X7.96204 Y39.92359
G01 X7.94266 Y39.92072
G01 X7.92358 Y39.91597
G01 X7.78292 Y39.87328
G01 X7.76442 Y39.86662
G01 X7.74667 Y39.85826
G01 X7.61703 Y39.78895
G01 X7.58441 Y39.76715
G01 X7.47078 Y39.67391
G01 X7.46145 Y39.66548
G01 X7.45134 Y39.65534
G01 X7.44306 Y39.64620
G01 X7.34979 Y39.53253
G01 X7.34167 Y39.52159
G01 X7.33877 Y39.51740
G01 X7.33608 Y39.51348
G01 X7.33593 Y39.51321
G01 X7.32470 Y39.49682
G01 X7.30514 Y39.46495
G01 X7.25914 Y39.37287
G01 X7.24032 Y39.33010
G01 X7.23471 Y39.31549
G01 X7.20044 Y39.19560
G01 X7.19084 Y39.15481
G01 X7.17735 Y39.00960
G01 X7.17593 Y38.98897
G01 X7.17735 Y38.96832
G01 X7.19084 Y38.82311
G01 X7.20044 Y38.78232
G01 X7.23471 Y38.66248
G01 X7.24032 Y38.64783
G01 X7.25914 Y38.60503
G01 X7.30514 Y38.51295
G01 X7.32470 Y38.48110
G01 X7.35112 Y38.44249
G01 X7.40011 Y38.37790
G01 X7.43991 Y38.33396
G01 X7.45150 Y38.32238
G01 X7.46120 Y38.31273
G01 X7.47078 Y38.30406
G01 X7.58441 Y38.21077
G01 X7.60016 Y38.19906
G01 X7.61703 Y38.18898
G01 X7.72795 Y38.12967
G01 X7.74202 Y38.13802
G01 X7.72795 Y38.12967
G01 X7.72795 Y37.88834
G01 X7.72795 Y37.14725
G01 X7.73524 Y37.14430
G01 X7.72795 Y37.14725
G01 X7.46415 Y36.88344
G01 X7.45345 Y36.87194
G01 X7.43306 Y36.84808
G01 X7.41462 Y36.82271
G01 X7.39823 Y36.79591
G01 X7.38398 Y36.76792
G01 X7.37197 Y36.73894
G01 X7.36229 Y36.70910
G01 X7.35495 Y36.67859
G01 X7.35005 Y36.64760
G01 X7.34758 Y36.61628
G01 X7.34695 Y36.60064
G01 X7.34695 Y13.20800
G01 X7.34758 Y13.19230
G01 X7.35005 Y13.16096
G01 X7.35495 Y13.12997
G01 X7.36227 Y13.09947
G01 X7.37197 Y13.06965
G01 X7.38398 Y13.04061
G01 X7.39823 Y13.01267
G01 X7.41462 Y12.98590
G01 X7.43306 Y12.96050
G01 X7.45345 Y12.93668
G01 X7.46409 Y12.92509
G01 X7.72795 Y12.66127
G01 X7.73524 Y12.66421
G01 X7.72795 Y12.66127
G01 X7.72795 Y8.29368
G01 X7.73560 Y8.29051
G01 X7.72795 Y8.29368
G01 X7.48777 Y8.05348
G01 X7.48327 Y8.04852
G01 X7.48248 Y8.04763
G01 X7.46567 Y8.02998
G01 X7.46483 Y8.02912
G01 X6.60822 Y7.17250
G01 X6.59224 Y7.15569
G01 X6.58802 Y7.15107
G01 X6.56905 Y7.12793
G01 X6.54723 Y7.09531
G01 X6.52879 Y7.06074
G01 X6.52036 Y7.04299
G01 X6.51378 Y7.02452
G01 X6.50240 Y6.98701
G01 X6.49760 Y6.96798
G01 X6.49475 Y6.94855
G01 X6.49089 Y6.90954
G01 X6.48990 Y6.88993
G01 X6.48990 Y6.49260
G01 X6.52084 Y6.40611
G01 X6.52163 Y6.40385
G01 X6.53412 Y6.36270
G01 X6.53481 Y6.36031
G01 X6.57654 Y6.19371
G01 X6.57708 Y6.19130
G01 X6.58327 Y6.16016
G01 X6.58371 Y6.15777
G01 X6.58993 Y6.11566
G01 X6.58371 Y6.15777
G01 X6.58327 Y6.16016
G01 X6.57708 Y6.19130
G01 X6.57654 Y6.19371
G01 X6.53481 Y6.36031
G01 X6.53412 Y6.36270
G01 X6.52163 Y6.40385
G01 X6.52084 Y6.40611
G01 X6.46123 Y6.57276
G01 X6.46034 Y6.57512
G01 X6.43694 Y6.63146
G01 X6.43598 Y6.63367
G01 X6.38993 Y6.73095
G01 X6.38993 Y6.82216
G01 X6.40984 Y6.87024
G01 X6.42302 Y6.90001
G01 X6.44004 Y6.93600
G01 X6.46692 Y6.98632
G01 X6.48642 Y7.01888
G01 X6.51472 Y7.06125
G01 X6.53682 Y7.09110
G01 X6.56712 Y7.12803
G01 X6.58802 Y7.15107
G04 P0 ( dwell for no time -- G64 should not smooth over this point )
G00 Z5.00000 ( retract )

G00 X7.28693 Y5.36928 ( rapid move to begin. )
G01 F150.00000
( Mill infeed pass 1/1 )
G01 Z-0.05000
G04 P0 ( dwell for no time -- G64 should not smooth over this point )
G01 F300.00000
G01 X7.28693 Y5.36928
G01 X7.32053 Y5.23512
G01 X7.33102 Y5.20060
G01 X7.38408 Y5.05234
G01 X7.38431 Y5.05201
G01 X7.41208 Y5.02435
G01 X7.54088 Y4.91863
G01 X7.55663 Y4.90690
G01 X7.57344 Y4.89682
G01 X7.72043 Y4.81830
G01 X7.75663 Y4.80324
G01 X7.91609 Y4.75493
G01 X7.93511 Y4.75016
G01 X7.95457 Y4.74729
G01 X8.12035 Y4.73095
G01 X8.13996 Y4.72994
G01 X8.15957 Y4.73095
G01 X8.32541 Y4.74729
G01 X8.34484 Y4.75016
G01 X8.36386 Y4.75493
G01 X8.52330 Y4.80324
G01 X8.55955 Y4.81830
G01 X8.70651 Y4.89682
G01 X8.73910 Y4.91863
G01 X8.86788 Y5.02435
G01 X8.89561 Y5.05201
G01 X8.94888 Y5.20060
G01 X8.95937 Y5.23514
G01 X8.99290 Y5.36908
G01 X8.93491 Y5.26057
G01 X8.92985 Y5.25214
G01 X8.92401 Y5.24431
G01 X8.81830 Y5.11546
G01 X8.80448 Y5.10164
G01 X8.67565 Y4.99593
G01 X8.65937 Y4.98500
G01 X8.51238 Y4.90649
G01 X8.49429 Y4.89895
G01 X8.33483 Y4.85064
G01 X8.32531 Y4.84820
G01 X8.31560 Y4.84675
G01 X8.14977 Y4.83047
G01 X8.13016 Y4.83047
G01 X7.96432 Y4.84675
G01 X7.95462 Y4.84820
G01 X7.94512 Y4.85064
G01 X7.78566 Y4.89895
G01 X7.76757 Y4.90649
G01 X7.62061 Y4.98500
G01 X7.61218 Y4.99003
G01 X7.60428 Y4.99593
G01 X7.47547 Y5.10164
G01 X7.46166 Y5.11546
G01 X7.35589 Y5.24431
G01 X7.35010 Y5.25214
G01 X7.34504 Y5.26057
G01 X7.28693 Y5.36928
G01 X7.26648 Y5.40756
G01 X7.26227 Y5.41640
G01 X7.25899 Y5.42562
G01 X7.21060 Y5.58508
G01 X7.20677 Y5.60436
G01 X7.19044 Y5.77019
G01 X7.19021 Y5.77578
G01 X7.19021 Y5.78419
G01 X7.19044 Y5.78978
G01 X7.20677 Y5.95559
G01 X7.21060 Y5.97479
G01 X7.25899 Y6.13430
G01 X7.26227 Y6.14355
G01 X7.26648 Y6.15236
G01 X7.28693 Y6.19061
G01 X7.32053 Y6.32483
G01 X7.33102 Y6.35932
G01 X7.38980 Y6.52363
G01 X7.41035 Y6.57311
G01 X7.44512 Y6.64657
G01 X7.49846 Y6.69491
G01 X7.54550 Y6.73349
G01 X7.67817 Y6.83186
G01 X7.72759 Y6.85236
G01 X7.88706 Y6.90075
G01 X7.91561 Y6.90786
G01 X7.94476 Y6.91218
G01 X8.11055 Y6.92851
G01 X8.13996 Y6.92998
G01 X8.16940 Y6.92851
G01 X8.33521 Y6.91218
G01 X8.39285 Y6.90075
G01 X8.55233 Y6.85236
G01 X8.58004 Y6.84246
G01 X8.60666 Y6.82986
G01 X8.75363 Y6.75129
G01 X8.79980 Y6.72046
G01 X8.86953 Y6.57306
G01 X8.89008 Y6.52358
G01 X8.94888 Y6.35927
G01 X8.95937 Y6.32480
G01 X8.99290 Y6.19087
G01 X9.01344 Y6.15236
G01 X8.99290 Y6.19087
G01 X8.95937 Y6.32480
G01 X8.94888 Y6.35927
G01 X8.89561 Y6.50786
G01 X8.88243 Y6.52242
G01 X8.86788 Y6.53560
G01 X8.73910 Y6.64131
G01 X8.70651 Y6.66313
G01 X8.55955 Y6.74164
G01 X8.54179 Y6.75002
G01 X8.52330 Y6.75665
G01 X8.36386 Y6.80504
G01 X8.32541 Y6.81269
G01 X8.15957 Y6.82902
G01 X8.13996 Y6.82996
G01 X8.12035 Y6.82902
G01 X7.95457 Y6.81269
G01 X7.93511 Y6.80979
G01 X7.91609 Y6.80504
G01 X7.75663 Y6.75665
G01 X7.72043 Y6.74164
G01 X7.57344 Y6.66313
G01 X7.55663 Y6.65300
G01 X7.54088 Y6.64131
G01 X7.41208 Y6.53560
G01 X7.39752 Y6.52242
G01 X7.38431 Y6.50786
G01 X7.38408 Y6.50761
G01 X7.33102 Y6.35932
G01 X7.32053 Y6.32483
G01 X7.28693 Y6.19061
G01 X7.34504 Y6.29935
G01 X7.35010 Y6.30779
G01 X7.35589 Y6.31566
G01 X7.46166 Y6.44441
G01 X7.47547 Y6.45833
G01 X7.60428 Y6.56405
G01 X7.61218 Y6.56989
G01 X7.62061 Y6.57492
G01 X7.76757 Y6.65348
G01 X7.78566 Y6.66097
G01 X7.94512 Y6.70933
G01 X7.96432 Y6.71314
G01 X8.13016 Y6.72948
G01 X8.13996 Y6.72996
G01 X8.14977 Y6.72948
G01 X8.31560 Y6.71314
G01 X8.33483 Y6.70933
G01 X8.49429 Y6.66097
G01 X8.50351 Y6.65764
G01 X8.51238 Y6.65348
G01 X8.65937 Y6.57492
G01 X8.67565 Y6.56405
G01 X8.80448 Y6.45833
G01 X8.81172 Y6.45170
G01 X8.81830 Y6.44441
G01 X8.92401 Y6.31566
G01 X8.93491 Y6.29935
G01 X9.01344 Y6.15236
G01 X9.01766 Y6.14355
G01 X9.02099 Y6.13430
G01 X9.06935 Y5.97479
G01 X9.07316 Y5.95559
G01 X9.08949 Y5.78978
G01 X9.08969 Y5.78543
G01 X9.08969 Y5.77449
G01 X9.08949 Y5.77019
G01 X9.07316 Y5.60436
G01 X9.06935 Y5.58508
G01 X9.02099 Y5.42562
G01 X9.01766 Y5.41640
G01 X9.01344 Y5.40756
G01 X8.99290 Y5.36908
G01 X8.95937 Y5.23514
G01 X8.94888 Y5.20060
G01 X8.89008 Y5.03634
G01 X8.86953 Y4.98693
G01 X8.79986 Y4.83954
G01 X8.75363 Y4.80865
G01 X8.60666 Y4.73011
G01 X8.58004 Y4.71752
G01 X8.55233 Y4.70761
G01 X8.39285 Y4.65922
G01 X8.36435 Y4.65209
G01 X8.33521 Y4.64777
G01 X8.16940 Y4.63144
G01 X8.11055 Y4.63144
G01 X7.94476 Y4.64777
G01 X7.91561 Y4.65209
G01 X7.88706 Y4.65922
G01 X7.72759 Y4.70761
G01 X7.67326 Y4.73011
G01 X7.52632 Y4.80865
G01 X7.50108 Y4.82374
G01 X7.48012 Y4.83926
G01 X7.41035 Y4.98688
G01 X7.38985 Y5.03631
G01 X7.38408 Y5.05234
G04 P0 ( dwell for no time -- G64 should not smooth over this point )
G00 Z5.00000 ( retract )

G00 X9.63092 Y3.22039 ( rapid move to begin. )
G01 F150.00000
( Mill infeed pass 1/1 )
G01 Z-0.05000
G04 P0 ( dwell for no time -- G64 should not smooth over this point )
G01 F300.00000
G01 X9.63092 Y3.22039
G01 X9.64725 Y3.05455
G01 X9.65015 Y3.03515
G01 X9.65490 Y3.01610
G01 X9.70331 Y2.85661
G01 X9.71829 Y2.82037
G01 X9.79686 Y2.67348
G01 X9.80483 Y2.65999
G01 X9.80514 Y2.65956
G01 X9.81019 Y2.65222
G01 X9.81862 Y2.64084
G01 X9.92434 Y2.51206
G01 X9.93287 Y2.50264
G01 X9.93772 Y2.49773
G01 X9.94263 Y2.49283
G01 X9.95205 Y2.48432
G01 X10.08085 Y2.37858
G01 X10.11347 Y2.35682
G01 X10.26041 Y2.27825
G01 X10.27816 Y2.26992
G01 X10.29665 Y2.26329
G01 X10.45611 Y2.21493
G01 X10.49454 Y2.20729
G01 X10.66038 Y2.19095
G01 X10.67999 Y2.18999
G01 X10.69960 Y2.19095
G01 X10.86538 Y2.20729
G01 X10.88484 Y2.21010
G01 X10.90386 Y2.21493
G01 X11.06333 Y2.26329
G01 X11.09952 Y2.27825
G01 X11.24651 Y2.35682
G01 X11.26005 Y2.36494
G01 X11.26810 Y2.37048
G01 X11.27907 Y2.37858
G01 X11.40788 Y2.48432
G01 X11.43564 Y2.51206
G01 X11.54130 Y2.64084
G01 X11.54900 Y2.65120
G01 X11.54951 Y2.65184
G01 X11.55494 Y2.65986
G01 X11.56312 Y2.67348
G01 X11.64163 Y2.82037
G01 X11.65664 Y2.85661
G01 X11.70503 Y3.01610
G01 X11.70978 Y3.03515
G01 X11.71268 Y3.05455
G01 X11.72901 Y3.22039
G01 X11.72901 Y3.25953
G01 X11.71268 Y3.42542
G01 X11.70503 Y3.46382
G01 X11.65664 Y3.62334
G01 X11.65007 Y3.64180
G01 X11.64163 Y3.65956
G01 X11.56665 Y3.79979
G01 X11.56312 Y3.80644
G01 X11.55509 Y3.81983
G01 X11.54925 Y3.82836
G01 X11.54130 Y3.83911
G01 X11.43564 Y3.96786
G01 X11.42769 Y3.97662
G01 X11.42746 Y3.97688
G01 X11.41692 Y3.98742
G01 X11.41661 Y3.98765
G01 X11.40788 Y3.99562
G01 X11.27907 Y4.10134
G01 X11.24651 Y4.12313
G01 X11.09952 Y4.20167
G01 X11.06333 Y4.21663
G01 X11.04466 Y4.22229
G01 X10.90386 Y4.26504
G01 X10.88484 Y4.26982
G01 X10.86538 Y4.27269
G01 X10.69960 Y4.28902
G01 X10.67999 Y4.28993
G01 X10.66038 Y4.28902
G01 X10.49454 Y4.27269
G01 X10.47514 Y4.26982
G01 X10.45611 Y4.26504
G01 X10.29665 Y4.21663
G01 X10.26041 Y4.20167
G01 X10.11347 Y4.12313
G01 X10.08085 Y4.10134
G01 X9.95205 Y3.99562
G01 X9.92434 Y3.96786
G01 X9.81862 Y3.83911
G01 X9.80691 Y3.82328
G01 X9.79686 Y3.80644
G01 X9.74603 Y3.71142
G01 X9.71829 Y3.65956
G01 X9.70331 Y3.62334
G01 X9.65490 Y3.46382
G01 X9.65015 Y3.44477
G01 X9.64725 Y3.42542
G01 X9.63092 Y3.25953
G01 X9.63092 Y3.22039
G01 X9.53143 Y3.21059
G01 X9.63092 Y3.22039
G01 X9.73046 Y3.23019
G01 X9.73046 Y3.24978
G01 X9.73140 Y3.25935
G01 X9.74679 Y3.41561
G01 X9.74822 Y3.42532
G01 X9.75060 Y3.43479
G01 X9.79896 Y3.59425
G01 X9.80651 Y3.61239
G01 X9.88502 Y3.75930
G01 X9.89007 Y3.76773
G01 X9.89594 Y3.77566
G01 X10.00166 Y3.90441
G01 X10.01550 Y3.91833
G01 X10.14430 Y4.02405
G01 X10.15220 Y4.02984
G01 X10.16058 Y4.03487
G01 X10.30757 Y4.11348
G01 X10.32568 Y4.12092
G01 X10.48512 Y4.16931
G01 X10.49465 Y4.17167
G01 X10.50435 Y4.17312
G01 X10.67018 Y4.18950
G01 X10.68979 Y4.18950
G01 X10.85558 Y4.17312
G01 X10.86533 Y4.17167
G01 X10.87481 Y4.16931
G01 X11.03429 Y4.12092
G01 X11.05240 Y4.11348
G01 X11.19934 Y4.03487
G01 X11.21562 Y4.02405
G01 X11.34448 Y3.91833
G01 X11.35832 Y3.90441
G01 X11.46404 Y3.77566
G01 X11.47491 Y3.75930
G01 X11.55347 Y3.61239
G01 X11.55763 Y3.60350
G01 X11.56096 Y3.59425
G01 X11.60932 Y3.43479
G01 X11.61318 Y3.41561
G01 X11.62952 Y3.24978
G01 X11.62952 Y3.23019
G01 X11.61318 Y3.06436
G01 X11.61171 Y3.05463
G01 X11.60932 Y3.04510
G01 X11.56096 Y2.88567
G01 X11.55347 Y2.86751
G01 X11.47491 Y2.72057
G01 X11.46988 Y2.71214
G01 X11.46404 Y2.70426
G01 X11.35832 Y2.57551
G01 X11.34448 Y2.56159
G01 X11.21562 Y2.45588
G01 X11.20778 Y2.45008
G01 X11.19934 Y2.44505
G01 X11.05240 Y2.36649
G01 X11.03429 Y2.35895
G01 X10.87481 Y2.31059
G01 X10.86533 Y2.30820
G01 X10.85558 Y2.30675
G01 X10.68979 Y2.29047
G01 X10.67018 Y2.29047
G01 X10.50435 Y2.30675
G01 X10.49465 Y2.30820
G01 X10.48512 Y2.31059
G01 X10.32568 Y2.35895
G01 X10.30757 Y2.36649
G01 X10.16058 Y2.44505
G01 X10.15220 Y2.45008
G01 X10.14430 Y2.45588
G01 X10.01550 Y2.56159
G01 X10.00166 Y2.57551
G01 X9.89594 Y2.70426
G01 X9.89007 Y2.71214
G01 X9.88502 Y2.72057
G01 X9.80651 Y2.86751
G01 X9.79896 Y2.88567
G01 X9.75060 Y3.04510
G01 X9.74822 Y3.05463
G01 X9.74679 Y3.06436
G01 X9.73046 Y3.23019
G01 X9.73140 Y3.25935
G01 X9.74603 Y3.71142
G01 X9.75266 Y3.91638
G01 X9.84702 Y4.03128
G01 X9.88860 Y4.07289
G01 X10.01740 Y4.17858
G01 X10.06630 Y4.21132
G01 X10.21329 Y4.28983
G01 X10.23991 Y4.30246
G01 X10.26762 Y4.31236
G01 X10.42708 Y4.36075
G01 X10.45561 Y4.36789
G01 X10.48474 Y4.37220
G01 X10.65058 Y4.38851
G01 X10.70940 Y4.38851
G01 X10.85726 Y4.37396
G01 X10.87519 Y4.37220
G01 X10.90432 Y4.36789
G01 X10.93290 Y4.36075
G01 X10.95261 Y4.35470
G01 X10.96719 Y4.33929
G01 X10.97011 Y4.33647
G01 X11.05446 Y4.26065
G01 X11.05774 Y4.25778
G01 X11.09119 Y4.23273
G01 X11.10196 Y4.22443
G01 X11.13752 Y4.19618
G01 X11.13988 Y4.19445
G01 X11.19091 Y4.15872
G01 X11.19342 Y4.15707
G01 X11.24344 Y4.12628
G01 X11.28202 Y4.09997
G01 X11.35527 Y4.04437
G01 X11.40564 Y3.99870
G01 X11.41661 Y3.98765
G01 X11.42769 Y3.97662
G01 X11.43869 Y3.96563
G01 X11.48438 Y3.91531
G01 X11.53998 Y3.84200
G01 X11.54925 Y3.82836
G01 X11.55509 Y3.81983
G01 X11.56632 Y3.80342
G01 X11.57039 Y3.79677
G01 X11.59700 Y3.75343
G01 X11.59868 Y3.75094
G01 X11.63447 Y3.69981
G01 X11.63627 Y3.69748
G01 X11.66447 Y3.66189
G01 X11.67282 Y3.65117
G01 X11.69787 Y3.61785
G01 X11.70061 Y3.61450
G01 X11.77633 Y3.53019
G01 X11.77917 Y3.52730
G01 X11.79472 Y3.51257
G01 X11.80074 Y3.49286
G01 X11.81222 Y3.43522
G01 X11.82855 Y3.26934
G01 X11.82855 Y3.21059
G01 X11.81222 Y3.04475
G01 X11.80790 Y3.01559
G01 X11.80074 Y2.98701
G01 X11.79472 Y2.96728
G01 X11.77917 Y2.95260
G01 X11.77633 Y2.94965
G01 X11.70061 Y2.86540
G01 X11.69777 Y2.86217
G01 X11.67282 Y2.82872
G01 X11.66447 Y2.81800
G01 X11.63627 Y2.78247
G01 X11.63447 Y2.78006
G01 X11.59868 Y2.72895
G01 X11.59700 Y2.72646
G01 X11.56632 Y2.67647
G01 X11.55494 Y2.65986
G01 X11.54900 Y2.65120
G01 X11.53993 Y2.63792
G01 X11.48433 Y2.56466
G01 X11.43869 Y2.51427
G01 X11.40569 Y2.48120
G01 X11.35527 Y2.43561
G01 X11.28202 Y2.38001
G01 X11.26810 Y2.37048
G01 X11.26005 Y2.36494
G01 X11.24344 Y2.35356
G01 X11.20592 Y2.33058
G01 X11.10221 Y2.27874
G01 X11.05936 Y2.25981
G01 X11.04072 Y2.25273
G01 X10.90618 Y2.21432
G01 X10.86328 Y2.20421
G01 X10.70064 Y2.18910
G01 X10.67994 Y2.18775
G01 X10.65929 Y2.18910
G01 X10.49665 Y2.20424
G01 X10.45375 Y2.21430
G01 X10.31916 Y2.25275
G01 X10.30056 Y2.25981
G01 X10.25771 Y2.27874
G01 X10.15401 Y2.33058
G01 X10.11649 Y2.35356
G01 X10.07791 Y2.38001
G01 X10.00465 Y2.43561
G01 X9.95426 Y2.48120
G01 X9.94263 Y2.49283
G01 X9.93772 Y2.49773
G01 X9.92124 Y2.51427
G01 X9.87560 Y2.56466
G01 X9.82000 Y2.63792
G01 X9.81019 Y2.65222
G01 X9.80514 Y2.65956
G01 X9.80483 Y2.65999
G01 X9.79360 Y2.67647
G01 X9.76292 Y2.72646
G01 X9.76125 Y2.72895
G01 X9.72546 Y2.78006
G01 X9.72365 Y2.78247
G01 X9.69546 Y2.81800
G01 X9.68713 Y2.82872
G01 X9.66206 Y2.86205
G01 X9.65932 Y2.86537
G01 X9.58355 Y2.94965
G01 X9.58075 Y2.95252
G01 X9.56521 Y2.96723
G01 X9.55924 Y2.98701
G01 X9.55208 Y3.01559
G01 X9.54776 Y3.04475
G01 X9.53143 Y3.21059
G01 X9.53143 Y3.26934
G01 X9.54776 Y3.43522
G01 X9.55208 Y3.46433
G01 X9.55924 Y3.49286
G01 X9.60758 Y3.65234
G01 X9.63008 Y3.70670
G01 X9.70864 Y3.85359
G01 X9.72376 Y3.87886
G01 X9.74131 Y3.90253
G01 X9.75266 Y3.91638
G01 X9.76038 Y4.15475
G01 X9.75949 Y4.15371
G01 X9.74352 Y4.13636
G01 X9.22330 Y3.61620
G01 X9.20841 Y3.62016
G01 X9.22330 Y3.61620
G01 X9.26071 Y3.49286
G01 X9.27219 Y3.43522
G01 X9.28853 Y3.26934
G01 X9.29000 Y3.24000
G01 X9.28853 Y3.21059
G01 X9.27219 Y3.04475
G01 X9.26071 Y2.98701
G01 X9.25474 Y2.96728
G01 X9.23915 Y2.95260
G01 X9.23635 Y2.94965
G01 X9.16064 Y2.86540
G01 X9.15789 Y2.86210
G01 X9.13280 Y2.82872
G01 X9.12447 Y2.81800
G01 X9.09617 Y2.78252
G01 X9.09450 Y2.78006
G01 X9.05866 Y2.72895
G01 X9.05703 Y2.72646
G01 X9.02635 Y2.67647
G01 X9.01497 Y2.65986
G01 X9.01471 Y2.65951
G01 X9.00948 Y2.65184
G01 X8.99996 Y2.63792
G01 X8.94436 Y2.56466
G01 X8.89871 Y2.51427
G01 X8.86567 Y2.48120
G01 X8.81530 Y2.43561
G01 X8.74199 Y2.38001
G01 X8.72861 Y2.37084
G01 X8.71969 Y2.36477
G01 X8.70341 Y2.35356
G01 X8.66595 Y2.33058
G01 X8.56224 Y2.27874
G01 X8.51934 Y2.25981
G01 X8.50075 Y2.25273
G01 X8.36615 Y2.21432
G01 X8.32325 Y2.20424
G01 X8.16061 Y2.18910
G01 X8.13996 Y2.18775
G01 X8.11929 Y2.18910
G01 X7.95668 Y2.20424
G01 X7.91378 Y2.21430
G01 X7.77918 Y2.25275
G01 X7.76059 Y2.25981
G01 X7.71769 Y2.27874
G01 X7.61398 Y2.33058
G01 X7.57649 Y2.35356
G01 X7.55843 Y2.36591
G01 X7.55211 Y2.37025
G01 X7.55178 Y2.37048
G01 X7.53793 Y2.38001
G01 X7.46463 Y2.43561
G01 X7.41423 Y2.48120
G01 X7.38124 Y2.51427
G01 X7.33557 Y2.56466
G01 X7.27997 Y2.63792
G01 X7.27032 Y2.65196
G01 X7.27017 Y2.65222
G01 X7.26511 Y2.65958
G01 X7.25361 Y2.67647
G01 X7.22290 Y2.72646
G01 X7.22125 Y2.72895
G01 X7.18543 Y2.78006
G01 X7.18363 Y2.78247
G01 X7.15543 Y2.81800
G01 X7.14710 Y2.82872
G01 X7.12208 Y2.86205
G01 X7.11934 Y2.86537
G01 X7.04355 Y2.94965
G01 X7.04075 Y2.95252
G01 X7.02521 Y2.96723
G01 X7.01921 Y2.98701
G01 X7.00773 Y3.04475
G01 X6.99143 Y3.21059
G01 X6.98995 Y3.24000
G01 X7.08998 Y3.24000
G01 X7.18995 Y3.24000
G01 X7.08998 Y3.24000
G01 X6.98995 Y3.24000
G01 X6.99143 Y3.26934
G01 X7.00773 Y3.43522
G01 X7.01921 Y3.49286
G01 X7.06758 Y3.65234
G01 X7.07751 Y3.68008
G01 X7.09008 Y3.70670
G01 X7.16867 Y3.85359
G01 X7.18378 Y3.87886
G01 X7.20133 Y3.90253
G01 X7.30705 Y4.03128
G01 X7.34863 Y4.07289
G01 X7.47743 Y4.17858
G01 X7.52632 Y4.21132
G01 X7.67326 Y4.28983
G01 X7.69991 Y4.30246
G01 X7.72759 Y4.31236
G01 X7.88706 Y4.36075
G01 X7.91561 Y4.36789
G01 X7.94476 Y4.37220
G01 X8.11055 Y4.38851
G01 X8.16940 Y4.38851
G01 X8.33521 Y4.37220
G01 X8.36435 Y4.36789
G01 X8.39285 Y4.36075
G01 X8.51621 Y4.32333
G01 X8.52023 Y4.30751
G01 X8.51621 Y4.32333
G01 X8.88992 Y4.69707
G01 X8.89754 Y4.69387
G01 X8.88992 Y4.69707
G01 X8.88992 Y4.79613
G01 X8.96043 Y4.94525
G01 X8.96142 Y4.94746
G01 X8.98286 Y4.99908
G01 X8.98378 Y5.00141
G01 X8.98992 Y5.01861
G01 X9.04342 Y5.16809
G01 X9.04420 Y5.17035
G01 X9.05538 Y5.20718
G01 X9.05607 Y5.20964
G01 X9.08995 Y5.34495
G01 X9.05607 Y5.20964
G01 X9.05538 Y5.20718
G01 X9.04420 Y5.17035
G01 X9.04342 Y5.16809
G01 X8.98992 Y5.01861
G01 X8.98992 Y4.65567
G01 X8.99757 Y4.65247
G01 X8.98992 Y4.65567
G01 X8.54283 Y4.20858
G01 X8.54690 Y4.19273
G01 X8.54283 Y4.20858
G01 X8.52330 Y4.21663
G01 X8.36386 Y4.26504
G01 X8.34484 Y4.26982
G01 X8.32541 Y4.27269
G01 X8.15957 Y4.28902
G01 X8.13996 Y4.28993
G01 X8.12035 Y4.28902
G01 X7.95457 Y4.27269
G01 X7.93511 Y4.26982
G01 X7.91609 Y4.26504
G01 X7.75663 Y4.21663
G01 X7.72043 Y4.20167
G01 X7.57344 Y4.12313
G01 X7.54088 Y4.10134
G01 X7.41208 Y3.99562
G01 X7.38431 Y3.96786
G01 X7.27860 Y3.83911
G01 X7.26694 Y3.82328
G01 X7.25683 Y3.80644
G01 X7.17824 Y3.65956
G01 X7.16328 Y3.62334
G01 X7.11492 Y3.46382
G01 X7.10728 Y3.42542
G01 X7.09094 Y3.25953
G01 X7.08998 Y3.24000
G01 X7.09094 Y3.22039
G01 X7.10728 Y3.05455
G01 X7.11492 Y3.01610
G01 X7.16328 Y2.85661
G01 X7.16989 Y2.83817
G01 X7.17824 Y2.82037
G01 X7.25683 Y2.67348
G01 X7.26511 Y2.65958
G01 X7.27017 Y2.65222
G01 X7.27032 Y2.65196
G01 X7.27860 Y2.64084
G01 X7.38431 Y2.51206
G01 X7.41208 Y2.48432
G01 X7.54088 Y2.37858
G01 X7.55178 Y2.37048
G01 X7.55211 Y2.37025
G01 X7.55843 Y2.36591
G01 X7.55970 Y2.36510
G01 X7.57344 Y2.35682
G01 X7.72043 Y2.27825
G01 X7.75663 Y2.26329
G01 X7.91609 Y2.21493
G01 X7.93511 Y2.21010
G01 X7.95457 Y2.20729
G01 X8.12035 Y2.19095
G01 X8.13996 Y2.18999
G01 X8.15957 Y2.19095
G01 X8.32541 Y2.20729
G01 X8.34484 Y2.21010
G01 X8.36386 Y2.21493
G01 X8.52330 Y2.26329
G01 X8.55955 Y2.27825
G01 X8.70651 Y2.35682
G01 X8.71969 Y2.36477
G01 X8.72007 Y2.36494
G01 X8.72813 Y2.37048
G01 X8.72861 Y2.37084
G01 X8.73910 Y2.37858
G01 X8.86788 Y2.48432
G01 X8.89561 Y2.51206
G01 X9.00133 Y2.64084
G01 X9.00948 Y2.65184
G01 X9.01471 Y2.65951
G01 X9.01497 Y2.65986
G01 X9.02310 Y2.67348
G01 X9.10166 Y2.82037
G01 X9.11004 Y2.83817
G01 X9.11667 Y2.85661
G01 X9.16501 Y3.01610
G01 X9.17270 Y3.05455
G01 X9.18903 Y3.22039
G01 X9.18997 Y3.24000
G01 X9.18903 Y3.25953
G01 X9.17270 Y3.42542
G01 X9.16501 Y3.46382
G01 X9.11667 Y3.62334
G01 X9.10857 Y3.64284
G01 X9.09218 Y3.64688
G01 X9.10857 Y3.64284
G01 X9.67280 Y4.20713
G01 X9.68345 Y4.21864
G01 X9.70384 Y4.24251
G01 X9.72228 Y4.26791
G01 X9.73869 Y4.29468
G01 X9.75291 Y4.32257
G01 X9.76493 Y4.35163
G01 X9.76696 Y4.35790
G01 X9.77463 Y4.38147
G01 X9.78195 Y4.41195
G01 X9.78685 Y4.44294
G01 X9.78931 Y4.47429
G01 X9.78995 Y4.48998
G01 X9.78995 Y5.06738
G01 X9.75901 Y5.15376
G01 X9.75827 Y5.15605
G01 X9.74575 Y5.19714
G01 X9.74512 Y5.19961
G01 X9.70338 Y5.36621
G01 X9.70285 Y5.36854
G01 X9.69663 Y5.39963
G01 X9.69620 Y5.40212
G01 X9.68992 Y5.44431
G01 X9.68992 Y4.48998
G01 X9.68962 Y4.48213
G01 X9.68715 Y4.45079
G01 X9.68472 Y4.43530
G01 X9.67740 Y4.40477
G01 X9.67255 Y4.38991
G01 X9.66053 Y4.36090
G01 X9.65342 Y4.34693
G01 X9.63701 Y4.32013
G01 X9.62779 Y4.30746
G01 X9.60740 Y4.28356
G01 X9.60209 Y4.27784
G01 X8.98672 Y3.66245
G01 X9.01344 Y3.61239
G01 X9.01766 Y3.60350
G01 X9.02099 Y3.59425
G01 X9.06935 Y3.43479
G01 X9.07316 Y3.41561
G01 X9.08949 Y3.24978
G01 X9.09000 Y3.24000
G01 X9.08949 Y3.23019
G01 X9.07316 Y3.06436
G01 X9.06935 Y3.04510
G01 X9.02099 Y2.88567
G01 X9.01766 Y2.87640
G01 X9.01344 Y2.86751
G01 X8.93491 Y2.72057
G01 X8.92985 Y2.71214
G01 X8.92401 Y2.70426
G01 X8.81830 Y2.57551
G01 X8.80448 Y2.56159
G01 X8.67565 Y2.45588
G01 X8.66778 Y2.45008
G01 X8.65937 Y2.44505
G01 X8.51238 Y2.36649
G01 X8.49429 Y2.35895
G01 X8.33483 Y2.31059
G01 X8.32531 Y2.30820
G01 X8.31560 Y2.30675
G01 X8.14977 Y2.29047
G01 X8.13016 Y2.29047
G01 X7.96432 Y2.30675
G01 X7.95462 Y2.30820
G01 X7.94512 Y2.31059
G01 X7.78566 Y2.35895
G01 X7.76757 Y2.36649
G01 X7.62061 Y2.44505
G01 X7.61218 Y2.45008
G01 X7.60428 Y2.45588
G01 X7.47547 Y2.56159
G01 X7.46166 Y2.57551
G01 X7.35589 Y2.70426
G01 X7.35010 Y2.71214
G01 X7.34504 Y2.72057
G01 X7.26648 Y2.86751
G01 X7.26227 Y2.87640
G01 X7.25899 Y2.88567
G01 X7.21060 Y3.04510
G01 X7.20677 Y3.06436
G01 X7.19044 Y3.23019
G01 X7.18995 Y3.24000
G01 X7.19044 Y3.24978
G01 X7.20677 Y3.41561
G01 X7.21060 Y3.43479
G01 X7.25899 Y3.59425
G01 X7.26227 Y3.60350
G01 X7.26648 Y3.61239
G01 X7.34504 Y3.75930
G01 X7.35010 Y3.76773
G01 X7.35589 Y3.77566
G01 X7.46166 Y3.90441
G01 X7.47547 Y3.91833
G01 X7.60428 Y4.02405
G01 X7.61218 Y4.02984
G01 X7.62061 Y4.03487
G01 X7.76757 Y4.11348
G01 X7.78566 Y4.12092
G01 X7.94512 Y4.16931
G01 X7.95462 Y4.17167
G01 X7.96432 Y4.17312
G01 X8.13016 Y4.18950
G01 X8.14977 Y4.18950
G01 X8.31560 Y4.17312
G01 X8.32531 Y4.17167
G01 X8.33483 Y4.16931
G01 X8.49429 Y4.12092
G01 X8.51238 Y4.11348
G01 X8.56244 Y4.08673
G01 X9.08995 Y4.61419
G01 X9.08995 Y5.34495
G01 X9.08995 Y6.21500
G01 X9.08995 Y33.07944
G01 X8.95495 Y33.12038
G01 X8.93681 Y33.12785
G01 X8.80717 Y33.19714
G01 X8.79874 Y33.20222
G01 X8.79084 Y33.20806
G01 X8.67722 Y33.30136
G01 X8.66336 Y33.31520
G01 X8.57009 Y33.42886
G01 X8.56424 Y33.43676
G01 X8.55917 Y33.44517
G01 X8.48987 Y33.57484
G01 X8.48238 Y33.59292
G01 X8.43971 Y33.73361
G01 X8.43730 Y33.74314
G01 X8.43585 Y33.75287
G01 X8.42147 Y33.89917
G01 X8.42147 Y33.91878
G01 X8.43585 Y34.06508
G01 X8.43730 Y34.07481
G01 X8.43971 Y34.08434
G01 X8.48238 Y34.22503
G01 X8.48987 Y34.24311
G01 X8.55917 Y34.37275
G01 X8.56424 Y34.38119
G01 X8.57009 Y34.38909
G01 X8.66336 Y34.50275
G01 X8.66988 Y34.51001
G01 X8.67722 Y34.51659
G01 X8.79084 Y34.60989
G01 X8.80717 Y34.62078
G01 X8.93681 Y34.69010
G01 X8.94568 Y34.69429
G01 X8.95495 Y34.69759
G01 X9.09564 Y34.74021
G01 X9.11484 Y34.74408
G01 X9.26117 Y34.75845
G01 X9.28078 Y34.75845
G01 X9.42708 Y34.74408
G01 X9.44631 Y34.74021
G01 X9.58700 Y34.69759
G01 X9.59625 Y34.69429
G01 X9.60514 Y34.69010
G01 X9.73478 Y34.62078
G01 X9.74321 Y34.61573
G01 X9.75111 Y34.60989
G01 X9.86472 Y34.51659
G01 X9.87859 Y34.50275
G01 X9.97186 Y34.38909
G01 X9.97773 Y34.38119
G01 X9.98278 Y34.37275
G01 X10.05208 Y34.24311
G01 X10.05957 Y34.22503
G01 X10.10224 Y34.08434
G01 X10.10463 Y34.07481
G01 X10.10610 Y34.06508
G01 X10.12048 Y33.91878
G01 X10.12048 Y33.89917
G01 X10.10610 Y33.75287
G01 X10.10463 Y33.74314
G01 X10.10224 Y33.73361
G01 X10.05957 Y33.59292
G01 X10.05208 Y33.57484
G01 X9.98278 Y33.44517
G01 X9.97773 Y33.43676
G01 X9.97186 Y33.42886
G01 X9.87859 Y33.31520
G01 X9.87201 Y33.30793
G01 X9.86472 Y33.30136
G01 X9.75111 Y33.20806
G01 X9.73478 Y33.19714
G01 X9.68992 Y33.17321
G01 X9.68992 Y6.11561
G01 X9.69620 Y6.15782
G01 X9.69663 Y6.16021
G01 X9.70285 Y6.19130
G01 X9.70338 Y6.19374
G01 X9.74512 Y6.36031
G01 X9.74575 Y6.36275
G01 X9.75827 Y6.40385
G01 X9.75901 Y6.40616
G01 X9.78995 Y6.49254
G01 X9.78995 Y33.11434
G01 X9.78042 Y33.11878
G01 X9.78995 Y33.11434
G01 X9.81451 Y33.13079
G01 X9.92817 Y33.22404
G01 X9.93734 Y33.23239
G01 X9.94242 Y33.23745
G01 X9.94748 Y33.24248
G01 X9.95591 Y33.25178
G01 X10.04918 Y33.36544
G01 X10.05718 Y33.37621
G01 X10.06290 Y33.38459
G01 X10.07095 Y33.39803
G01 X10.14029 Y33.52767
G01 X10.15528 Y33.56392
G01 X10.19795 Y33.70461
G01 X10.20559 Y33.74306
G01 X10.22002 Y33.88937
G01 X10.22002 Y33.92858
G01 X10.20559 Y34.07489
G01 X10.19795 Y34.11334
G01 X10.15528 Y34.25403
G01 X10.14029 Y34.29028
G01 X10.07095 Y34.41992
G01 X10.06305 Y34.43315
G01 X10.06094 Y34.43618
G01 X10.05698 Y34.44207
G01 X10.05667 Y34.44240
G01 X10.04918 Y34.45248
G01 X9.95591 Y34.56615
G01 X9.94796 Y34.57494
G01 X9.94773 Y34.57522
G01 X9.93719 Y34.58576
G01 X9.93689 Y34.58599
G01 X9.92817 Y34.59391
G01 X9.81451 Y34.68715
G01 X9.80498 Y34.69424
G01 X9.80407 Y34.69498
G01 X9.79498 Y34.70107
G01 X9.78195 Y34.70897
G01 X9.65225 Y34.77826
G01 X9.61606 Y34.79328
G01 X9.47534 Y34.83592
G01 X9.45632 Y34.84072
G01 X9.43689 Y34.84362
G01 X9.29058 Y34.85799
G01 X9.25137 Y34.85799
G01 X9.10504 Y34.84362
G01 X9.08563 Y34.84072
G01 X9.06661 Y34.83592
G01 X8.92592 Y34.79328
G01 X8.90745 Y34.78665
G01 X8.88970 Y34.77826
G01 X8.76000 Y34.70897
G01 X8.72744 Y34.68715
G01 X8.61378 Y34.59391
G01 X8.59922 Y34.58070
G01 X8.58606 Y34.56615
G01 X8.49277 Y34.45248
G01 X8.48109 Y34.43679
G01 X8.47100 Y34.41992
G01 X8.40166 Y34.29028
G01 X8.38670 Y34.25403
G01 X8.34400 Y34.11334
G01 X8.33636 Y34.07489
G01 X8.32193 Y33.92858
G01 X8.32193 Y33.88937
G01 X8.33636 Y33.74306
G01 X8.34400 Y33.70461
G01 X8.38670 Y33.56392
G01 X8.40166 Y33.52767
G01 X8.47100 Y33.39803
G01 X8.48109 Y33.38116
G01 X8.49277 Y33.36544
G01 X8.58606 Y33.25178
G01 X8.59922 Y33.23725
G01 X8.61378 Y33.22404
G01 X8.72744 Y33.13079
G01 X8.74319 Y33.11906
G01 X8.76000 Y33.10898
G01 X8.88970 Y33.03968
G01 X8.92592 Y33.02467
G01 X8.98992 Y33.00527
G01 X9.00854 Y33.01855
G01 X8.98992 Y33.00527
G01 X8.98992 Y6.54129
G01 X9.04342 Y6.39183
G01 X9.04420 Y6.38952
G01 X9.05538 Y6.35272
G01 X9.05607 Y6.35030
G01 X9.08995 Y6.21500
G01 X9.05607 Y6.35030
G01 X9.05538 Y6.35272
G01 X9.04420 Y6.38952
G01 X9.04342 Y6.39183
G01 X8.98992 Y6.54129
G01 X8.98383 Y6.55846
G01 X8.98286 Y6.56079
G01 X8.96142 Y6.61253
G01 X8.96043 Y6.61474
G01 X8.88992 Y6.76377
G01 X8.88992 Y32.93184
G01 X8.90461 Y32.94080
G01 X8.88992 Y32.93184
G01 X8.84253 Y32.95150
G01 X8.71289 Y33.02081
G01 X8.68761 Y33.03590
G01 X8.66399 Y33.05345
G01 X8.55033 Y33.14675
G01 X8.50875 Y33.18830
G01 X8.41548 Y33.30197
G01 X8.39793 Y33.32564
G01 X8.38279 Y33.35086
G01 X8.34395 Y33.42358
G01 X8.33110 Y33.47486
G01 X8.31875 Y33.53684
G01 X8.29727 Y33.68144
G01 X8.29173 Y33.73745
G01 X8.28467 Y33.88203
G01 X8.28467 Y33.93592
G01 X8.29173 Y34.08050
G01 X8.29727 Y34.13646
G01 X8.31875 Y34.28108
G01 X8.33110 Y34.34306
G01 X8.34395 Y34.39442
G01 X8.38279 Y34.46709
G01 X8.39793 Y34.49234
G01 X8.41548 Y34.51598
G01 X8.48408 Y34.59955
G01 X8.49777 Y34.60440
G01 X8.52914 Y34.61464
G01 X8.56343 Y34.62498
G01 X8.56839 Y34.62675
G01 X8.68708 Y34.67682
G01 X8.69218 Y34.67933
G01 X8.71273 Y34.69091
G01 X8.72254 Y34.69627
G01 X8.75584 Y34.71225
G01 X8.75622 Y34.71245
G01 X8.76348 Y34.71603
G01 X8.76381 Y34.71621
G01 X8.88700 Y34.77781
G01 X8.92980 Y34.79663
G01 X8.94441 Y34.80219
G01 X9.06435 Y34.83648
G01 X9.10514 Y34.84608
G01 X9.25032 Y34.85959
G01 X9.27097 Y34.86102
G01 X9.29162 Y34.85959
G01 X9.43681 Y34.84608
G01 X9.47760 Y34.83648
G01 X9.59754 Y34.80219
G01 X9.61210 Y34.79663
G01 X9.65490 Y34.77778
G01 X9.74700 Y34.73178
G01 X9.77885 Y34.71220
G01 X9.79498 Y34.70107
G01 X9.80498 Y34.69424
G01 X9.81740 Y34.68578
G01 X9.88202 Y34.63679
G01 X9.92591 Y34.59701
G01 X9.93689 Y34.58599
G01 X9.94796 Y34.57494
G01 X9.95901 Y34.56389
G01 X9.99881 Y34.52002
G01 X10.04781 Y34.45543
G01 X10.05667 Y34.44240
G01 X10.06094 Y34.43618
G01 X10.06305 Y34.43315
G01 X10.07422 Y34.41685
G01 X10.09376 Y34.38497
G01 X10.13978 Y34.29290
G01 X10.15863 Y34.25012
G01 X10.16422 Y34.23552
G01 X10.19848 Y34.11560
G01 X10.20808 Y34.07481
G01 X10.22157 Y33.92960
G01 X10.22299 Y33.90897
G01 X10.22162 Y33.88835
G01 X10.20808 Y33.74314
G01 X10.19848 Y33.70235
G01 X10.16422 Y33.58238
G01 X10.15863 Y33.56783
G01 X10.13978 Y33.52498
G01 X10.09376 Y33.43293
G01 X10.07422 Y33.40110
G01 X10.06290 Y33.38459
G01 X10.05718 Y33.37621
G01 X10.04781 Y33.36252
G01 X9.99881 Y33.29785
G01 X9.95901 Y33.25398
G01 X9.94748 Y33.24248
G01 X9.94242 Y33.23745
G01 X9.93734 Y33.23239
G01 X9.92591 Y33.22094
G01 X9.91527 Y33.21126
G01 X9.91349 Y33.20956
G01 X9.87806 Y33.17413
G01 X9.87638 Y33.17232
G01 X9.84354 Y33.13613
G01 X9.84255 Y33.13496
G01 X9.82137 Y33.11014
G01 X9.81621 Y33.10283
G01 X9.81172 Y33.10494
G01 X9.81621 Y33.10283
G01 X9.81240 Y33.09473
G01 X9.81014 Y33.08601
G01 X9.79808 Y33.01467
G01 X9.79764 Y33.01124
G01 X9.79284 Y32.96290
G01 X9.79269 Y32.96044
G01 X9.79028 Y32.91106
G01 X9.79000 Y32.90865
G01 X9.79013 Y7.18172
G01 X9.79028 Y7.17888
G01 X9.79360 Y7.12125
G01 X9.79386 Y7.11840
G01 X9.80034 Y7.06206
G01 X9.80135 Y7.05630
G01 X9.80107 Y7.05625
G01 X9.80135 Y7.05630
G01 X9.83079 Y6.93179
G01 X9.83231 Y6.92645
G01 X9.83201 Y6.92635
G01 X9.83231 Y6.92645
G01 X9.85251 Y6.87017
G01 X9.85436 Y6.86565
G01 X9.88997 Y6.79039
G01 X9.88997 Y6.73095
G01 X9.84392 Y6.63367
G01 X9.84298 Y6.63151
G01 X9.81956 Y6.57512
G01 X9.81867 Y6.57281
G01 X9.78995 Y6.49254
G01 X9.75901 Y6.40616
G01 X9.75827 Y6.40385
G01 X9.74575 Y6.36275
G01 X9.74512 Y6.36031
G01 X9.70338 Y6.19374
G01 X9.70285 Y6.19130
G01 X9.69663 Y6.16021
G01 X9.69620 Y6.15782
G01 X9.68992 Y6.11561
G01 X9.68992 Y5.44431
G01 X9.69620 Y5.40212
G01 X9.69663 Y5.39963
G01 X9.70285 Y5.36854
G01 X9.70338 Y5.36621
G01 X9.74512 Y5.19961
G01 X9.74575 Y5.19714
G01 X9.75827 Y5.15605
G01 X9.75901 Y5.15376
G01 X9.78995 Y5.06738
G01 X9.81867 Y4.98709
G01 X9.81956 Y4.98480
G01 X9.84293 Y4.92849
G01 X9.84392 Y4.92630
G01 X9.88997 Y4.82900
G01 X9.88997 Y4.48998
G01 X9.88903 Y4.46644
G01 X9.88654 Y4.43509
G01 X9.87918 Y4.38859
G01 X9.87186 Y4.35813
G01 X9.85731 Y4.31330
G01 X9.84529 Y4.28432
G01 X9.82396 Y4.24241
G01 X9.80755 Y4.21566
G01 X9.77989 Y4.17756
G01 X9.76038 Y4.15475
G01 X9.76696 Y4.35790
G01 X9.78995 Y5.06738
G01 X9.85357 Y5.18632
G01 X9.88408 Y5.10111
G01 X9.92434 Y5.05201
G01 X9.93752 Y5.03753
G01 X9.95205 Y5.02435
G01 X10.08085 Y4.91863
G01 X10.11347 Y4.89682
G01 X10.26041 Y4.81830
G01 X10.27816 Y4.80992
G01 X10.29665 Y4.80324
G01 X10.34496 Y4.78859
G01 X10.45611 Y4.75493
G01 X10.49454 Y4.74729
G01 X10.66038 Y4.73095
G01 X10.67999 Y4.72994
G01 X10.69960 Y4.73095
G01 X10.86538 Y4.74729
G01 X10.88484 Y4.75016
G01 X10.90386 Y4.75493
G01 X11.06333 Y4.80324
G01 X11.09952 Y4.81830
G01 X11.24651 Y4.89682
G01 X11.27907 Y4.91863
G01 X11.40788 Y5.02435
G01 X11.43564 Y5.05201
G01 X11.54130 Y5.18086
G01 X11.54935 Y5.19171
G01 X11.55116 Y5.19430
G01 X11.55494 Y5.19986
G01 X11.56312 Y5.21343
G01 X11.64163 Y5.36042
G01 X11.65664 Y5.39661
G01 X11.70503 Y5.55605
G01 X11.70978 Y5.57510
G01 X11.71268 Y5.59455
G01 X11.72901 Y5.76034
G01 X11.72901 Y5.79958
G01 X11.71268 Y5.96542
G01 X11.70503 Y6.00382
G01 X11.65664 Y6.16334
G01 X11.65007 Y6.18180
G01 X11.64163 Y6.19950
G01 X11.56312 Y6.34649
G01 X11.54130 Y6.37908
G01 X11.43564 Y6.50786
G01 X11.42789 Y6.51637
G01 X11.42746 Y6.51693
G01 X11.41692 Y6.52747
G01 X11.41641 Y6.52790
G01 X11.40788 Y6.53560
G01 X11.27907 Y6.64131
G01 X11.24651 Y6.66313
G01 X11.09952 Y6.74164
G01 X11.08182 Y6.75002
G01 X11.06333 Y6.75665
G01 X10.90386 Y6.80504
G01 X10.86538 Y6.81269
G01 X10.69960 Y6.82902
G01 X10.67999 Y6.82996
G01 X10.66038 Y6.82902
G01 X10.49454 Y6.81269
G01 X10.47514 Y6.80979
G01 X10.45611 Y6.80504
G01 X10.29665 Y6.75665
G01 X10.26041 Y6.74164
G01 X10.11347 Y6.66313
G01 X10.09660 Y6.65300
G01 X10.08085 Y6.64131
G01 X9.95205 Y6.53560
G01 X9.93752 Y6.52242
G01 X9.92434 Y6.50786
G01 X9.88408 Y6.45886
G01 X9.85357 Y6.37360
G01 X9.84181 Y6.33484
G01 X9.80067 Y6.17057
G01 X9.79495 Y6.14185
G01 X9.78886 Y6.10088
G01 X9.79495 Y6.14185
G01 X9.80067 Y6.17057
G01 X9.84181 Y6.33484
G01 X9.85357 Y6.37360
G01 X9.88408 Y6.45886
G01 X9.91238 Y6.53791
G01 X9.93483 Y6.59204
G01 X9.98035 Y6.68820
G01 X10.01392 Y6.71576
G01 X10.05947 Y6.71914
G01 X10.06010 Y6.71919
G01 X10.06556 Y6.71967
G01 X10.20618 Y6.73979
G01 X10.21202 Y6.74101
G01 X10.24280 Y6.74929
G01 X10.26620 Y6.75493
G01 X10.29129 Y6.76041
G01 X10.29287 Y6.76077
G01 X10.32436 Y6.76867
G01 X10.32591 Y6.76910
G01 X10.45375 Y6.80563
G01 X10.49665 Y6.81563
G01 X10.65929 Y6.83077
G01 X10.67994 Y6.83219
G01 X10.70064 Y6.83077
G01 X10.86328 Y6.81563
G01 X10.90618 Y6.80563
G01 X11.04072 Y6.76720
G01 X11.05936 Y6.76008
G01 X11.10221 Y6.74121
G01 X11.20597 Y6.68937
G01 X11.24377 Y6.66613
G01 X11.27001 Y6.64878
G01 X11.28133 Y6.64047
G01 X11.35527 Y6.58434
G01 X11.40564 Y6.53870
G01 X11.41641 Y6.52790
G01 X11.42789 Y6.51637
G01 X11.43869 Y6.50565
G01 X11.48438 Y6.45528
G01 X11.53998 Y6.38198
G01 X11.56637 Y6.34337
G01 X11.59731 Y6.29303
G01 X11.59896 Y6.29046
G01 X11.63477 Y6.23941
G01 X11.63648 Y6.23689
G01 X11.66439 Y6.20187
G01 X11.67305 Y6.19072
G01 X11.69772 Y6.15787
G01 X11.70051 Y6.15445
G01 X11.77661 Y6.06974
G01 X11.77945 Y6.06682
G01 X11.79487 Y6.05218
G01 X11.80074 Y6.03291
G01 X11.81222 Y5.97522
G01 X11.82855 Y5.80939
G01 X11.82855 Y5.75053
G01 X11.81222 Y5.58475
G01 X11.80790 Y5.55564
G01 X11.80074 Y5.52701
G01 X11.79487 Y5.50771
G01 X11.77945 Y5.49313
G01 X11.77661 Y5.49021
G01 X11.70051 Y5.40545
G01 X11.69761 Y5.40217
G01 X11.67305 Y5.36918
G01 X11.66439 Y5.35798
G01 X11.63658 Y5.32293
G01 X11.63477 Y5.32049
G01 X11.59896 Y5.26943
G01 X11.59731 Y5.26687
G01 X11.56637 Y5.21652
G01 X11.55494 Y5.19986
G01 X11.55116 Y5.19430
G01 X11.54935 Y5.19171
G01 X11.53993 Y5.17792
G01 X11.48433 Y5.10466
G01 X11.43869 Y5.05422
G01 X11.40569 Y5.02125
G01 X11.35527 Y4.97558
G01 X11.28202 Y4.92001
G01 X11.24344 Y4.89356
G01 X11.19342 Y4.86288
G01 X11.19091 Y4.86123
G01 X11.13988 Y4.82549
G01 X11.13752 Y4.82366
G01 X11.10196 Y4.79542
G01 X11.09119 Y4.78719
G01 X11.05784 Y4.76207
G01 X11.05446 Y4.75930
G01 X10.97011 Y4.68343
G01 X10.96724 Y4.68061
G01 X10.95266 Y4.66524
G01 X10.93290 Y4.65922
G01 X10.90432 Y4.65209
G01 X10.87519 Y4.64777
G01 X10.70940 Y4.63144
G01 X10.65058 Y4.63144
G01 X10.52370 Y4.64391
G01 X10.48474 Y4.64777
G01 X10.45561 Y4.65209
G01 X10.42708 Y4.65922
G01 X10.26762 Y4.70761
G01 X10.23991 Y4.71752
G01 X10.21329 Y4.73011
G01 X10.06630 Y4.80865
G01 X10.01740 Y4.84129
G01 X9.98035 Y4.87177
G01 X9.93483 Y4.96799
G01 X9.91238 Y5.02201
G01 X9.85357 Y5.18632
G01 X9.84181 Y5.22511
G01 X9.80067 Y5.38932
G01 X9.79495 Y5.41800
G01 X9.78886 Y5.45907
G01 X9.79896 Y5.42562
G01 X9.80651 Y5.40756
G01 X9.88502 Y5.26057
G01 X9.89007 Y5.25214
G01 X9.89594 Y5.24431
G01 X10.00166 Y5.11546
G01 X10.01550 Y5.10164
G01 X10.14430 Y4.99593
G01 X10.15220 Y4.99003
G01 X10.16058 Y4.98500
G01 X10.30757 Y4.90649
G01 X10.32568 Y4.89895
G01 X10.48512 Y4.85064
G01 X10.49465 Y4.84820
G01 X10.50435 Y4.84675
G01 X10.67018 Y4.83047
G01 X10.68979 Y4.83047
G01 X10.85558 Y4.84675
G01 X10.86533 Y4.84820
G01 X10.87481 Y4.85064
G01 X11.03429 Y4.89895
G01 X11.05240 Y4.90649
G01 X11.19934 Y4.98500
G01 X11.21562 Y4.99593
G01 X11.34448 Y5.10164
G01 X11.35832 Y5.11546
G01 X11.46404 Y5.24431
G01 X11.46988 Y5.25214
G01 X11.47491 Y5.26057
G01 X11.55347 Y5.40756
G01 X11.56096 Y5.42562
G01 X11.60932 Y5.58508
G01 X11.61171 Y5.59465
G01 X11.61318 Y5.60436
G01 X11.62952 Y5.77019
G01 X11.62952 Y5.78978
G01 X11.61318 Y5.95559
G01 X11.60932 Y5.97479
G01 X11.56096 Y6.13430
G01 X11.55763 Y6.14355
G01 X11.55347 Y6.15236
G01 X11.47491 Y6.29935
G01 X11.46404 Y6.31566
G01 X11.35832 Y6.44441
G01 X11.35174 Y6.45170
G01 X11.34448 Y6.45833
G01 X11.21562 Y6.56405
G01 X11.19934 Y6.57492
G01 X11.05240 Y6.65348
G01 X11.04351 Y6.65764
G01 X11.03429 Y6.66097
G01 X10.87481 Y6.70933
G01 X10.85558 Y6.71314
G01 X10.68979 Y6.72948
G01 X10.67999 Y6.72996
G01 X10.67018 Y6.72948
G01 X10.50435 Y6.71314
G01 X10.48512 Y6.70933
G01 X10.32568 Y6.66097
G01 X10.30757 Y6.65348
G01 X10.16058 Y6.57492
G01 X10.15220 Y6.56989
G01 X10.14430 Y6.56405
G01 X10.01550 Y6.45833
G01 X10.00166 Y6.44441
G01 X9.89594 Y6.31566
G01 X9.89007 Y6.30779
G01 X9.88502 Y6.29935
G01 X9.80651 Y6.15236
G01 X9.79896 Y6.13430
G01 X9.78886 Y6.10088
G01 X9.75060 Y5.97479
G01 X9.74822 Y5.96532
G01 X9.74679 Y5.95559
G01 X9.73046 Y5.78978
G01 X9.73046 Y5.77019
G01 X9.74679 Y5.60436
G01 X9.74822 Y5.59465
G01 X9.75060 Y5.58508
G01 X9.78886 Y5.45907
G01 X9.79495 Y5.41800
G01 X9.80067 Y5.38932
G01 X9.84181 Y5.22511
G01 X9.85357 Y5.18632
G01 X9.78995 Y5.06738
G01 X9.85357 Y5.18632
G01 X10.34496 Y4.78859
G01 X10.52370 Y4.64391
G01 X10.85726 Y4.37396
G01 X11.04466 Y4.22229
G01 X11.56665 Y3.79979
G01 X11.57039 Y3.79677
G01 X12.08250 Y3.38226
G01 X12.07140 Y3.26934
G01 X12.07140 Y3.21059
G01 X12.07140 Y3.26934
G01 X12.08250 Y3.38226
G01 X12.08773 Y3.43522
G01 X12.09205 Y3.46433
G01 X12.09921 Y3.49286
G01 X12.10523 Y3.51267
G01 X12.12078 Y3.52732
G01 X12.12357 Y3.53019
G01 X12.19934 Y3.61452
G01 X12.20208 Y3.61790
G01 X12.22713 Y3.65117
G01 X12.23546 Y3.66189
G01 X12.26365 Y3.69748
G01 X12.26543 Y3.69981
G01 X12.30127 Y3.75094
G01 X12.30290 Y3.75343
G01 X12.33358 Y3.80342
G01 X12.34496 Y3.82011
G01 X12.35039 Y3.82803
G01 X12.35065 Y3.82836
G01 X12.35997 Y3.84200
G01 X12.41557 Y3.91531
G01 X12.46121 Y3.96563
G01 X12.48280 Y3.98724
G01 X12.49426 Y3.99870
G01 X12.54463 Y4.04437
G01 X12.61793 Y4.09997
G01 X12.65652 Y4.12628
G01 X12.70691 Y4.15729
G01 X12.70945 Y4.15895
G01 X12.76035 Y4.19466
G01 X12.76279 Y4.19646
G01 X12.79799 Y4.22435
G01 X12.80909 Y4.23291
G01 X12.84204 Y4.25770
G01 X12.84547 Y4.26047
G01 X12.93030 Y4.33677
G01 X12.93325 Y4.33959
G01 X12.94765 Y4.35480
G01 X12.96708 Y4.36075
G01 X13.02474 Y4.37220
G01 X13.19058 Y4.38851
G01 X13.21999 Y4.38993
G01 X13.24940 Y4.38851
G01 X13.41521 Y4.37220
G01 X13.47290 Y4.36075
G01 X13.49223 Y4.35483
G01 X13.50663 Y4.33959
G01 X13.50957 Y4.33677
G01 X13.59449 Y4.26047
G01 X13.59784 Y4.25770
G01 X13.63078 Y4.23296
G01 X13.64193 Y4.22435
G01 X13.67706 Y4.19654
G01 X13.67942 Y4.19471
G01 X13.73043 Y4.15895
G01 X13.73297 Y4.15729
G01 X13.78339 Y4.12628
G01 X13.82202 Y4.09997
G01 X13.89527 Y4.04437
G01 X13.94567 Y3.99870
G01 X13.95692 Y3.98742
G01 X13.96746 Y3.97688
G01 X13.97871 Y3.96563
G01 X14.02433 Y3.91531
G01 X14.07993 Y3.84200
G01 X14.10632 Y3.80342
G01 X14.13701 Y3.75343
G01 X14.13868 Y3.75094
G01 X14.17447 Y3.69981
G01 X14.17630 Y3.69748
G01 X14.20447 Y3.66189
G01 X14.21280 Y3.65117
G01 X14.23789 Y3.61785
G01 X14.24064 Y3.61450
G01 X14.31635 Y3.53019
G01 X14.31912 Y3.52730
G01 X14.33472 Y3.51257
G01 X14.34069 Y3.49286
G01 X14.34785 Y3.46433
G01 X14.35217 Y3.43522
G01 X14.36855 Y3.26934
G01 X14.37000 Y3.24000
G01 X14.36855 Y3.21059
G01 X14.35217 Y3.04475
G01 X14.34785 Y3.01559
G01 X14.34069 Y2.98701
G01 X14.33472 Y2.96728
G01 X14.31912 Y2.95260
G01 X14.31635 Y2.94965
G01 X14.24064 Y2.86540
G01 X14.23772 Y2.86217
G01 X14.21280 Y2.82872
G01 X14.20447 Y2.81800
G01 X14.17630 Y2.78247
G01 X14.17447 Y2.78006
G01 X14.13868 Y2.72895
G01 X14.13701 Y2.72646
G01 X14.10632 Y2.67647
G01 X14.07993 Y2.63792
G01 X14.02433 Y2.56466
G01 X13.97871 Y2.51427
G01 X13.94567 Y2.48120
G01 X13.89527 Y2.43561
G01 X13.82202 Y2.38001
G01 X13.78339 Y2.35356
G01 X13.74592 Y2.33058
G01 X13.64224 Y2.27874
G01 X13.59931 Y2.25981
G01 X13.58075 Y2.25273
G01 X13.44613 Y2.21432
G01 X13.40328 Y2.20421
G01 X13.24059 Y2.18910
G01 X13.21996 Y2.18775
G01 X13.19929 Y2.18910
G01 X13.03668 Y2.20424
G01 X12.99375 Y2.21430
G01 X12.85918 Y2.25275
G01 X12.84056 Y2.25981
G01 X12.79771 Y2.27874
G01 X12.69398 Y2.33058
G01 X12.65652 Y2.35356
G01 X12.61793 Y2.38001
G01 X12.54463 Y2.43561
G01 X12.49426 Y2.48120
G01 X12.48286 Y2.49258
G01 X12.48260 Y2.49283
G01 X12.47932 Y2.49608
G01 X12.46121 Y2.51427
G01 X12.41557 Y2.56466
G01 X12.35997 Y2.63792
G01 X12.35017 Y2.65222
G01 X12.34849 Y2.65463
G01 X12.33358 Y2.67647
G01 X12.30290 Y2.72646
G01 X12.30127 Y2.72895
G01 X12.26543 Y2.78006
G01 X12.26365 Y2.78247
G01 X12.23546 Y2.81800
G01 X12.22713 Y2.82872
G01 X12.20208 Y2.86205
G01 X12.19934 Y2.86537
G01 X12.12357 Y2.94965
G01 X12.12078 Y2.95252
G01 X12.10523 Y2.96723
G01 X12.09921 Y2.98701
G01 X12.09205 Y3.01559
G01 X12.08773 Y3.04475
G01 X12.07140 Y3.21059
G01 X12.17094 Y3.22039
G01 X12.27044 Y3.23019
G01 X12.27044 Y3.24978
G01 X12.28677 Y3.41561
G01 X12.28824 Y3.42532
G01 X12.29063 Y3.43479
G01 X12.33899 Y3.59425
G01 X12.34648 Y3.61239
G01 X12.42505 Y3.75930
G01 X12.43007 Y3.76773
G01 X12.43592 Y3.77566
G01 X12.54163 Y3.90441
G01 X12.54821 Y3.91173
G01 X12.55550 Y3.91833
G01 X12.68428 Y4.02405
G01 X12.70061 Y4.03487
G01 X12.84752 Y4.11348
G01 X12.85644 Y4.11767
G01 X12.86566 Y4.12092
G01 X13.02512 Y4.16931
G01 X13.04435 Y4.17312
G01 X13.21018 Y4.18950
G01 X13.22979 Y4.18950
G01 X13.39560 Y4.17312
G01 X13.41483 Y4.16931
G01 X13.57429 Y4.12092
G01 X13.58351 Y4.11767
G01 X13.59235 Y4.11348
G01 X13.73934 Y4.03487
G01 X13.75562 Y4.02405
G01 X13.88448 Y3.91833
G01 X13.89174 Y3.91173
G01 X13.89832 Y3.90441
G01 X14.00404 Y3.77566
G01 X14.01491 Y3.75930
G01 X14.09347 Y3.61239
G01 X14.09766 Y3.60350
G01 X14.10099 Y3.59425
G01 X14.14935 Y3.43479
G01 X14.15171 Y3.42532
G01 X14.15318 Y3.41561
G01 X14.16947 Y3.24978
G01 X14.16995 Y3.24000
G01 X14.16947 Y3.23019
G01 X14.15318 Y3.06436
G01 X14.14935 Y3.04510
G01 X14.10099 Y2.88567
G01 X14.09347 Y2.86751
G01 X14.01491 Y2.72057
G01 X14.00404 Y2.70426
G01 X13.89832 Y2.57551
G01 X13.89174 Y2.56822
G01 X13.88448 Y2.56159
G01 X13.75562 Y2.45588
G01 X13.73934 Y2.44505
G01 X13.59235 Y2.36649
G01 X13.58351 Y2.36230
G01 X13.57429 Y2.35895
G01 X13.41483 Y2.31059
G01 X13.39560 Y2.30675
G01 X13.22979 Y2.29047
G01 X13.21018 Y2.29047
G01 X13.04435 Y2.30675
G01 X13.02512 Y2.31059
G01 X12.86566 Y2.35895
G01 X12.85644 Y2.36230
G01 X12.84752 Y2.36649
G01 X12.70061 Y2.44505
G01 X12.68428 Y2.45588
G01 X12.55550 Y2.56159
G01 X12.54163 Y2.57551
G01 X12.43592 Y2.70426
G01 X12.43007 Y2.71214
G01 X12.42505 Y2.72057
G01 X12.34648 Y2.86751
G01 X12.33899 Y2.88567
G01 X12.29063 Y3.04510
G01 X12.28824 Y3.05463
G01 X12.28677 Y3.06436
G01 X12.27044 Y3.23019
G01 X12.17559 Y3.30693
G01 X12.18728 Y3.42542
G01 X12.19017 Y3.44477
G01 X12.19492 Y3.46382
G01 X12.24331 Y3.62334
G01 X12.25827 Y3.65956
G01 X12.33683 Y3.80644
G01 X12.34496 Y3.82011
G01 X12.35039 Y3.82803
G01 X12.35065 Y3.82836
G01 X12.35860 Y3.83911
G01 X12.46431 Y3.96786
G01 X12.47275 Y3.97711
G01 X12.48280 Y3.98724
G01 X12.49205 Y3.99562
G01 X12.62088 Y4.10134
G01 X12.65344 Y4.12313
G01 X12.80043 Y4.20167
G01 X12.81811 Y4.21005
G01 X12.83665 Y4.21663
G01 X12.99609 Y4.26504
G01 X13.03454 Y4.27269
G01 X13.20038 Y4.28902
G01 X13.23960 Y4.28902
G01 X13.40541 Y4.27269
G01 X13.44386 Y4.26504
G01 X13.60333 Y4.21663
G01 X13.62177 Y4.21005
G01 X13.63952 Y4.20167
G01 X13.78651 Y4.12313
G01 X13.81907 Y4.10134
G01 X13.94790 Y3.99562
G01 X13.95692 Y3.98742
G01 X13.96746 Y3.97688
G01 X13.97559 Y3.96786
G01 X14.08130 Y3.83911
G01 X14.10307 Y3.80644
G01 X14.18163 Y3.65956
G01 X14.19662 Y3.62334
G01 X14.24498 Y3.46382
G01 X14.24978 Y3.44477
G01 X14.25270 Y3.42542
G01 X14.26901 Y3.25953
G01 X14.26997 Y3.24000
G01 X14.26901 Y3.22039
G01 X14.25270 Y3.05455
G01 X14.24978 Y3.03515
G01 X14.24498 Y3.01610
G01 X14.19662 Y2.85661
G01 X14.18163 Y2.82037
G01 X14.10307 Y2.67348
G01 X14.08130 Y2.64084
G01 X13.97559 Y2.51206
G01 X13.96726 Y2.50287
G01 X13.95705 Y2.49268
G01 X13.94790 Y2.48432
G01 X13.81907 Y2.37858
G01 X13.78651 Y2.35682
G01 X13.63952 Y2.27825
G01 X13.62177 Y2.26992
G01 X13.60333 Y2.26329
G01 X13.44386 Y2.21493
G01 X13.40541 Y2.20729
G01 X13.23960 Y2.19095
G01 X13.20038 Y2.19095
G01 X13.03454 Y2.20729
G01 X12.99609 Y2.21493
G01 X12.83665 Y2.26329
G01 X12.81811 Y2.26992
G01 X12.80043 Y2.27825
G01 X12.65344 Y2.35682
G01 X12.62088 Y2.37858
G01 X12.49205 Y2.48432
G01 X12.48286 Y2.49258
G01 X12.48260 Y2.49283
G01 X12.47932 Y2.49608
G01 X12.47290 Y2.50264
G01 X12.46431 Y2.51206
G01 X12.35860 Y2.64084
G01 X12.35017 Y2.65222
G01 X12.34849 Y2.65463
G01 X12.34516 Y2.65956
G01 X12.33683 Y2.67348
G01 X12.25827 Y2.82037
G01 X12.24331 Y2.85661
G01 X12.19492 Y3.01610
G01 X12.19017 Y3.03515
G01 X12.18728 Y3.05455
G01 X12.17094 Y3.22039
G01 X12.17094 Y3.25953
G01 X12.17559 Y3.30693
G01 X12.08250 Y3.38226
G04 P0 ( dwell for no time -- G64 should not smooth over this point )
G00 Z5.00000 ( retract )

G00 X12.61694 Y6.87796 ( rapid move to begin. )
G01 F150.00000
( Mill infeed pass 1/1 )
G01 Z-0.05000
G04 P0 ( dwell for no time -- G64 should not smooth over this point )
G01 F300.00000
G01 X12.61694 Y6.87796
G01 X12.84359 Y6.65132
G01 X12.84752 Y6.65348
G01 X12.85644 Y6.65764
G01 X12.86566 Y6.66097
G01 X13.02512 Y6.70933
G01 X13.03465 Y6.71172
G01 X13.04435 Y6.71314
G01 X13.21018 Y6.72948
G01 X13.22979 Y6.72948
G01 X13.39560 Y6.71314
G01 X13.41483 Y6.70933
G01 X13.57429 Y6.66097
G01 X13.58351 Y6.65764
G01 X13.59235 Y6.65348
G01 X13.59637 Y6.65132
G01 X13.82298 Y6.87796
G01 X13.64912 Y6.95909
G01 X13.43779 Y7.01568
G01 X13.21996 Y7.03471
G01 X13.00208 Y7.01568
G01 X12.79075 Y6.95909
G01 X12.61694 Y6.87796
G01 X12.69639 Y6.87098
G01 X12.78860 Y6.84769
G01 X12.86967 Y6.76669
G01 X12.86558 Y6.75140
G01 X12.86967 Y6.76669
G01 X12.99609 Y6.80504
G01 X13.03454 Y6.81269
G01 X13.20038 Y6.82902
G01 X13.21999 Y6.82996
G01 X13.23960 Y6.82902
G01 X13.40541 Y6.81269
G01 X13.44386 Y6.80504
G01 X13.57028 Y6.76669
G01 X13.57429 Y6.75140
G01 X13.57028 Y6.76669
G01 X13.65128 Y6.84769
G01 X13.74356 Y6.87098
G01 X13.65128 Y6.84769
G01 X13.61481 Y6.86476
G01 X13.42042 Y6.91683
G01 X13.42052 Y6.91733
G01 X13.42042 Y6.91683
G01 X13.21996 Y6.93435
G01 X13.21996 Y6.93473
G01 X13.21996 Y6.93435
G01 X13.01951 Y6.91683
G01 X13.01940 Y6.91733
G01 X13.01951 Y6.91683
G01 X12.82515 Y6.86476
G01 X12.78860 Y6.84769
G04 P0 ( dwell for no time -- G64 should not smooth over this point )
G00 Z5.00000 ( retract )

G00 X14.60998 Y5.78000 ( rapid move to begin. )
G01 F150.00000
( Mill infeed pass 1/1 )
G01 Z-0.05000
G04 P0 ( dwell for no time -- G64 should not smooth over this point )
G01 F300.00000
G01 X14.60998 Y5.78000
G01 X14.61143 Y5.80939
G01 X14.62773 Y5.97522
G01 X14.63205 Y6.00428
G01 X14.63921 Y6.03291
G01 X14.64508 Y6.05224
G01 X14.66047 Y6.06682
G01 X14.66332 Y6.06974
G01 X14.73942 Y6.15447
G01 X14.74224 Y6.15790
G01 X14.76687 Y6.19072
G01 X14.77551 Y6.20187
G01 X14.80337 Y6.23697
G01 X14.80513 Y6.23941
G01 X14.84099 Y6.29046
G01 X14.84259 Y6.29303
G01 X14.87358 Y6.34337
G01 X14.89997 Y6.38198
G01 X14.95557 Y6.45528
G01 X15.00124 Y6.50565
G01 X15.01275 Y6.51716
G01 X15.03429 Y6.53870
G01 X15.08463 Y6.58434
G01 X15.15788 Y6.63994
G01 X15.19652 Y6.66633
G01 X15.23398 Y6.68937
G01 X15.33771 Y6.74121
G01 X15.38059 Y6.76008
G01 X15.39918 Y6.76720
G01 X15.53378 Y6.80563
G01 X15.57663 Y6.81563
G01 X15.73931 Y6.83077
G01 X15.75999 Y6.83219
G01 X15.78059 Y6.83077
G01 X15.94328 Y6.81563
G01 X15.98615 Y6.80563
G01 X16.12069 Y6.76720
G01 X16.13934 Y6.76008
G01 X16.18219 Y6.74121
G01 X16.28595 Y6.68937
G01 X16.32339 Y6.66633
G01 X16.36202 Y6.63994
G01 X16.43530 Y6.58434
G01 X16.48567 Y6.53870
G01 X16.49687 Y6.52747
G01 X16.50766 Y6.51662
G01 X16.51871 Y6.50565
G01 X16.56436 Y6.45528
G01 X16.61996 Y6.38198
G01 X16.64632 Y6.34337
G01 X16.67703 Y6.29343
G01 X16.67868 Y6.29097
G01 X16.71439 Y6.23989
G01 X16.71612 Y6.23748
G01 X16.74447 Y6.20189
G01 X16.75272 Y6.19117
G01 X16.77784 Y6.15785
G01 X16.78059 Y6.15445
G01 X16.85635 Y6.07022
G01 X16.85912 Y6.06735
G01 X16.87472 Y6.05259
G01 X16.88071 Y6.03291
G01 X16.88788 Y6.00428
G01 X16.89219 Y5.97522
G01 X16.90855 Y5.80939
G01 X16.91000 Y5.78000
G01 X16.90855 Y5.75053
G01 X16.89219 Y5.58475
G01 X16.88788 Y5.55564
G01 X16.88071 Y5.52701
G01 X16.83235 Y5.36763
G01 X16.80987 Y5.31330
G01 X16.73126 Y5.16628
G01 X16.69860 Y5.11741
G01 X16.59288 Y4.98859
G01 X16.57317 Y4.96677
G01 X16.55130 Y4.94698
G01 X16.42255 Y4.84129
G01 X16.37360 Y4.80865
G01 X16.22669 Y4.73011
G01 X16.20002 Y4.71752
G01 X16.17236 Y4.70761
G01 X16.01290 Y4.65922
G01 X15.95516 Y4.64777
G01 X15.78940 Y4.63144
G01 X15.75999 Y4.62999
G01 X15.73058 Y4.63144
G01 X15.56476 Y4.64777
G01 X15.50708 Y4.65922
G01 X15.48727 Y4.66524
G01 X15.47256 Y4.68079
G01 X15.46964 Y4.68358
G01 X15.38539 Y4.75930
G01 X15.38206 Y4.76207
G01 X15.34871 Y4.78709
G01 X15.33799 Y4.79542
G01 X15.30243 Y4.82361
G01 X15.30007 Y4.82544
G01 X15.24899 Y4.86126
G01 X15.24643 Y4.86291
G01 X15.19652 Y4.89356
G01 X15.15788 Y4.92001
G01 X15.08463 Y4.97561
G01 X15.03421 Y5.02125
G01 X15.02263 Y5.03283
G01 X15.03205 Y5.02435
G01 X15.16083 Y4.91863
G01 X15.19347 Y4.89682
G01 X15.34038 Y4.81830
G01 X15.35814 Y4.80992
G01 X15.37665 Y4.80324
G01 X15.53611 Y4.75493
G01 X15.57457 Y4.74729
G01 X15.74038 Y4.73095
G01 X15.77960 Y4.73095
G01 X15.94536 Y4.74729
G01 X15.98386 Y4.75493
G01 X16.14333 Y4.80324
G01 X16.16179 Y4.80992
G01 X16.17952 Y4.81830
G01 X16.32651 Y4.89682
G01 X16.35910 Y4.91863
G01 X16.48785 Y5.02435
G01 X16.50246 Y5.03753
G01 X16.51561 Y5.05201
G01 X16.62133 Y5.18086
G01 X16.64310 Y5.21343
G01 X16.72163 Y5.36042
G01 X16.73664 Y5.39661
G01 X16.78501 Y5.55605
G01 X16.78981 Y5.57510
G01 X16.79265 Y5.59455
G01 X16.80901 Y5.76034
G01 X16.81000 Y5.78000
G01 X16.80901 Y5.79958
G01 X16.79265 Y5.96542
G01 X16.78981 Y5.98477
G01 X16.78501 Y6.00382
G01 X16.73664 Y6.16334
G01 X16.72163 Y6.19950
G01 X16.64310 Y6.34649
G01 X16.62133 Y6.37908
G01 X16.51561 Y6.50786
G01 X16.50766 Y6.51662
G01 X16.50746 Y6.51693
G01 X16.49687 Y6.52747
G01 X16.48785 Y6.53560
G01 X16.35910 Y6.64131
G01 X16.32651 Y6.66313
G01 X16.17952 Y6.74164
G01 X16.16179 Y6.75002
G01 X16.14333 Y6.75665
G01 X15.98386 Y6.80504
G01 X15.94536 Y6.81269
G01 X15.77960 Y6.82902
G01 X15.75999 Y6.82996
G01 X15.74038 Y6.82902
G01 X15.57457 Y6.81269
G01 X15.53611 Y6.80504
G01 X15.37665 Y6.75665
G01 X15.34038 Y6.74164
G01 X15.19347 Y6.66313
G01 X15.16083 Y6.64131
G01 X15.03205 Y6.53560
G01 X15.02283 Y6.52722
G01 X15.01275 Y6.51716
G01 X15.00431 Y6.50786
G01 X14.89860 Y6.37908
G01 X14.87681 Y6.34649
G01 X14.79827 Y6.19950
G01 X14.78326 Y6.16334
