( pcb2gcode 2.5.0 )
( Software-independent Gcode )

G94 ( Millimeters per minute feed rate. )
G21 ( Units == Millimeters. )

G90 ( Absolute coordinates. )
G00 S10000 ( RPM spindle speed. )
G64 P0.01000 ( set maximum deviation from commanded toolpath )
G01 F300.00000 ( Feedrate. )


G00 Z30.00000 (Retract to tool change height)
T1
M5      (Spindle stop.)
G04 P1.00000 (Wait for spindle to stop)
(MSG, Change tool bit to mill diameter 0.20000mm)
M6      (Tool change.)
M0      (Temporary machine stop.)
M3 ( Spindle on clockwise. )
G04 P1.00000 (Wait for spindle to get up to speed)
G04 P0 ( dwell for no time -- G64 should not smooth over this point )
G00 Z5.00000 ( retract )

G00 X0.00046 Y0.32446 ( rapid move to begin. )
G01 F150.00000
( Mill infeed pass 1/1 )
G01 Z-0.05000
G04 P0 ( dwell for no time -- G64 should not smooth over this point )
G01 F300.00000
G01 X0.00046 Y0.32446
G01 X0.00218 Y0.29837
G01 X0.00726 Y0.27272
G01 X0.02385 Y0.21069
G01 X0.03581 Y0.17795
G01 X0.05324 Y0.14775
G01 X0.07564 Y0.12106
G01 X0.12106 Y0.07564
G01 X0.14775 Y0.05324
G01 X0.17795 Y0.03581
G01 X0.21069 Y0.02385
G01 X0.27272 Y0.00726
G01 X0.29837 Y0.00218
G01 X0.32446 Y0.00046
G01 X99.67544 Y0.00046
G01 X99.70158 Y0.00218
G01 X99.72723 Y0.00726
G01 X99.78923 Y0.02385
G01 X99.82200 Y0.03581
G01 X99.85218 Y0.05324
G01 X99.87890 Y0.07564
G01 X99.92423 Y0.12106
G01 X99.94669 Y0.14775
G01 X99.96411 Y0.17795
G01 X99.97605 Y0.21069
G01 X99.99266 Y0.27272
G01 X99.99777 Y0.29837
G01 X99.99944 Y0.32446
G01 X99.99944 Y69.67548
G01 X99.99777 Y69.70154
G01 X99.99266 Y69.72722
G01 X99.97605 Y69.78919
G01 X99.96411 Y69.82193
G01 X99.94669 Y69.85218
G01 X99.92423 Y69.87883
G01 X99.87890 Y69.92427
G01 X99.85218 Y69.94670
G01 X99.82200 Y69.96412
G01 X99.78923 Y69.97601
G01 X99.72723 Y69.99262
G01 X99.70158 Y69.99770
G01 X99.67544 Y69.99948
G01 X0.32446 Y69.99948
G01 X0.29837 Y69.99770
G01 X0.27272 Y69.99262
G01 X0.21069 Y69.97601
G01 X0.17795 Y69.96412
G01 X0.14775 Y69.94670
G01 X0.12106 Y69.92427
G01 X0.07564 Y69.87883
G01 X0.05324 Y69.85218
G01 X0.03581 Y69.82193
G01 X0.02385 Y69.78919
G01 X0.00726 Y69.72722
G01 X0.00218 Y69.70154
G01 X0.00046 Y69.67548
G01 X0.00046 Y0.32446
G01 X0.10046 Y0.32446
G01 X0.10046 Y69.67548
G01 X0.10132 Y69.68848
G01 X0.10384 Y69.70131
G01 X0.12045 Y69.76334
G01 X0.12639 Y69.77972
G01 X0.13515 Y69.79483
G01 X0.14633 Y69.80814
G01 X0.19177 Y69.85356
G01 X0.20511 Y69.86478
G01 X0.22022 Y69.87349
G01 X0.23660 Y69.87941
G01 X0.29860 Y69.89602
G01 X0.31140 Y69.89862
G01 X0.32446 Y69.89948
G01 X99.67544 Y69.89948
G01 X99.68852 Y69.89862
G01 X99.70135 Y69.89602
G01 X99.76333 Y69.87941
G01 X99.77971 Y69.87349
G01 X99.79480 Y69.86478
G01 X99.80818 Y69.85356
G01 X99.85355 Y69.80814
G01 X99.86477 Y69.79483
G01 X99.87349 Y69.77972
G01 X99.87945 Y69.76334
G01 X99.89607 Y69.70131
G01 X99.89858 Y69.68848
G01 X99.89947 Y69.67548
G01 X99.89947 Y0.32446
G01 X99.89858 Y0.31140
G01 X99.89607 Y0.29860
G01 X99.87945 Y0.23660
G01 X99.87349 Y0.22022
G01 X99.86477 Y0.20511
G01 X99.85355 Y0.19177
G01 X99.80818 Y0.14633
G01 X99.79480 Y0.13515
G01 X99.77971 Y0.12639
G01 X99.76333 Y0.12045
G01 X99.70135 Y0.10384
G01 X99.68852 Y0.10132
G01 X99.67544 Y0.10046
G01 X0.32446 Y0.10046
G01 X0.31140 Y0.10132
G01 X0.29860 Y0.10384
G01 X0.23660 Y0.12045
G01 X0.22022 Y0.12639
G01 X0.20511 Y0.13515
G01 X0.19177 Y0.14633
G01 X0.14633 Y0.19177
G01 X0.13515 Y0.20511
G01 X0.12639 Y0.22022
G01 X0.12045 Y0.23660
G01 X0.10384 Y0.29860
G01 X0.10132 Y0.31140
G01 X0.10046 Y0.32446
G04 P0 ( dwell for no time -- G64 should not smooth over this point )
G00 Z5.00000 ( retract )

G00 X2.49616 Y10.05761 ( rapid move to begin. )
G01 F150.00000
( Mill infeed pass 1/1 )
G01 Z-0.05000
G04 P0 ( dwell for no time -- G64 should not smooth over this point )
G01 F300.00000
G01 X2.49616 Y10.05761
G01 X2.52252 Y10.28649
G01 X2.52230 Y10.28654
G01 X2.52252 Y10.28649
G01 X2.58364 Y10.50867
G01 X2.58336 Y10.50877
G01 X2.58364 Y10.50867
G01 X2.67785 Y10.71888
G01 X2.67757 Y10.71903
G01 X2.67785 Y10.71888
G01 X2.80307 Y10.91227
G01 X2.80289 Y10.91245
G01 X2.80307 Y10.91227
G01 X2.95638 Y11.08428
G01 X2.95623 Y11.08451
G01 X2.95638 Y11.08428
G01 X3.13418 Y11.23089
G01 X3.13395 Y11.23112
G01 X3.13418 Y11.23089
G01 X3.33223 Y11.34862
G01 X3.33205 Y11.34890
G01 X3.33223 Y11.34862
G01 X3.54589 Y11.43475
G01 X3.54581 Y11.43500
G01 X3.54589 Y11.43475
G01 X3.77025 Y11.48723
G01 X3.77017 Y11.48771
G01 X3.77025 Y11.48723
G01 X3.94241 Y11.50046
G01 X4.11513 Y11.50046
G01 X4.11516 Y11.50094
G01 X4.11513 Y11.50046
G01 X4.34282 Y11.46531
G01 X4.34289 Y11.46556
G01 X4.34282 Y11.46531
G01 X4.56255 Y11.39579
G01 X4.56263 Y11.39607
G01 X4.56255 Y11.39579
G01 X4.76903 Y11.29355
G01 X4.76918 Y11.29378
G01 X4.76903 Y11.29355
G01 X4.95742 Y11.16101
G01 X4.95760 Y11.16124
G01 X4.95742 Y11.16101
G01 X5.12348 Y11.00120
G01 X5.12369 Y11.00140
G01 X5.12348 Y11.00120
G01 X5.26316 Y10.81801
G01 X5.26336 Y10.81816
G01 X5.26316 Y10.81801
G01 X5.37322 Y10.61560
G01 X5.37345 Y10.61570
G01 X5.37322 Y10.61560
G01 X5.45104 Y10.39873
G01 X5.45137 Y10.39884
G01 X5.45104 Y10.39873
G01 X5.49496 Y10.17255
G01 X5.49526 Y10.17260
G01 X5.49496 Y10.17255
G01 X5.50372 Y9.94232
G01 X5.50403 Y9.94232
G01 X5.50372 Y9.94232
G01 X5.47736 Y9.71344
G01 X5.47764 Y9.71339
G01 X5.47736 Y9.71344
G01 X5.41630 Y9.49127
G01 X5.41652 Y9.49117
G01 X5.41630 Y9.49127
G01 X5.32201 Y9.28103
G01 X5.32232 Y9.28088
G01 X5.32201 Y9.28103
G01 X5.19681 Y9.08764
G01 X5.19704 Y9.08748
G01 X5.19681 Y9.08764
G01 X5.04347 Y8.91563
G01 X5.04368 Y8.91543
G01 X5.04347 Y8.91563
G01 X4.86575 Y8.76907
G01 X4.86590 Y8.76882
G01 X4.86575 Y8.76907
G01 X4.66768 Y8.65129
G01 X4.66783 Y8.65104
G01 X4.66768 Y8.65129
G01 X4.45404 Y8.56518
G01 X4.45409 Y8.56493
G01 X4.45404 Y8.56518
G01 X4.22971 Y8.51268
G01 X4.22976 Y8.51223
G01 X4.22971 Y8.51268
G01 X4.05745 Y8.49948
G01 X3.88473 Y8.49948
G01 X3.88470 Y8.49899
G01 X3.88473 Y8.49948
G01 X3.65702 Y8.53463
G01 X3.65694 Y8.53435
G01 X3.65702 Y8.53463
G01 X3.43743 Y8.60412
G01 X3.43731 Y8.60387
G01 X3.43743 Y8.60412
G01 X3.23093 Y8.70641
G01 X3.23078 Y8.70615
G01 X3.23093 Y8.70641
G01 X3.04249 Y8.83895
G01 X3.04229 Y8.83869
G01 X3.04249 Y8.83895
G01 X2.87647 Y8.99869
G01 X2.87625 Y8.99848
G01 X2.87647 Y8.99869
G01 X2.73675 Y9.18192
G01 X2.73655 Y9.18177
G01 X2.73675 Y9.18192
G01 X2.62674 Y9.38433
G01 X2.62641 Y9.38423
G01 X2.62674 Y9.38433
G01 X2.54884 Y9.60120
G01 X2.54851 Y9.60112
G01 X2.54884 Y9.60120
G01 X2.50500 Y9.82736
G01 X2.50469 Y9.82736
G01 X2.50500 Y9.82736
G01 X2.49616 Y10.05761
G01 X2.49585 Y10.05761
G01 X2.39588 Y10.06145
G01 X2.40535 Y9.81588
G01 X2.45214 Y9.57463
G01 X2.53517 Y9.34334
G01 X2.65257 Y9.12744
G01 X2.80154 Y8.93196
G01 X2.97868 Y8.76153
G01 X3.17962 Y8.62020
G01 X3.39994 Y8.51111
G01 X3.63421 Y8.43697
G01 X3.87706 Y8.39945
G01 X4.06133 Y8.39945
G01 X4.24497 Y8.41357
G01 X4.48429 Y8.46958
G01 X4.71218 Y8.56140
G01 X4.92349 Y8.68703
G01 X5.11307 Y8.84339
G01 X5.27657 Y9.02683
G01 X5.41012 Y9.23313
G01 X5.51068 Y9.45739
G01 X5.57576 Y9.69432
G01 X5.60395 Y9.93846
G01 X5.59460 Y10.18408
G01 X5.54779 Y10.42530
G01 X5.46473 Y10.65660
G01 X5.34728 Y10.87250
G01 X5.19836 Y11.06795
G01 X5.02128 Y11.23838
G01 X4.82023 Y11.37973
G01 X4.59999 Y11.48880
G01 X4.36573 Y11.56297
G01 X4.12280 Y11.60043
G01 X3.93863 Y11.60043
G01 X3.75488 Y11.58636
G01 X3.51564 Y11.53038
G01 X3.28767 Y11.43848
G01 X3.07647 Y11.31291
G01 X2.88684 Y11.15654
G01 X2.72331 Y10.97310
G01 X2.58971 Y10.76678
G01 X2.48925 Y10.54255
G01 X2.42407 Y10.30557
G01 X2.39588 Y10.06145
G04 P0 ( dwell for no time -- G64 should not smooth over this point )
G00 Z5.00000 ( retract )

G00 X2.90396 Y31.36539 ( rapid move to begin. )
G01 F150.00000
( Mill infeed pass 1/1 )
G01 Z-0.05000
G04 P0 ( dwell for no time -- G64 should not smooth over this point )
G01 F300.00000
G01 X2.90396 Y31.36539
G01 X2.90396 Y31.37837
G01 X2.90396 Y31.40459
G01 X2.91856 Y31.55323
G01 X2.92143 Y31.57263
G01 X2.92623 Y31.59168
G01 X2.96962 Y31.73463
G01 X2.98455 Y31.77088
G01 X3.05498 Y31.90260
G01 X3.06309 Y31.91609
G01 X3.06870 Y31.92427
G01 X3.07680 Y31.93522
G01 X3.17157 Y32.05069
G01 X3.17995 Y32.05993
G01 X3.19004 Y32.07001
G01 X3.19928 Y32.07837
G01 X3.31478 Y32.17311
G01 X3.34734 Y32.19493
G01 X3.47911 Y32.26534
G01 X3.49679 Y32.27375
G01 X3.51528 Y32.28035
G01 X3.65821 Y32.32374
G01 X3.67726 Y32.32846
G01 X3.69672 Y32.33136
G01 X3.84533 Y32.34601
G01 X3.88455 Y32.34601
G01 X4.03324 Y32.33136
G01 X4.05267 Y32.32846
G01 X4.07170 Y32.32374
G01 X4.21460 Y32.28035
G01 X4.23314 Y32.27375
G01 X4.25087 Y32.26534
G01 X4.38262 Y32.19493
G01 X4.41521 Y32.17311
G01 X4.53067 Y32.07837
G01 X4.54518 Y32.06521
G01 X4.55841 Y32.05069
G01 X4.65313 Y31.93522
G01 X4.67490 Y31.90260
G01 X4.74533 Y31.77088
G01 X4.75371 Y31.75312
G01 X4.76032 Y31.73463
G01 X4.80372 Y31.59168
G01 X4.81140 Y31.55323
G01 X4.82603 Y31.40459
G01 X4.82603 Y31.36539
G01 X4.81140 Y31.21668
G01 X4.80850 Y31.19727
G01 X4.80372 Y31.17827
G01 X4.76032 Y31.03529
G01 X4.74533 Y30.99907
G01 X4.67490 Y30.86738
G01 X4.66689 Y30.85394
G01 X4.66115 Y30.84551
G01 X4.65313 Y30.83476
G01 X4.55841 Y30.71929
G01 X4.55000 Y30.71005
G01 X4.53989 Y30.69991
G01 X4.53067 Y30.69153
G01 X4.41521 Y30.59679
G01 X4.38262 Y30.57500
G01 X4.25087 Y30.50459
G01 X4.23314 Y30.49621
G01 X4.21460 Y30.48958
G01 X4.07170 Y30.44624
G01 X4.05267 Y30.44144
G01 X4.03324 Y30.43857
G01 X3.88455 Y30.42394
G01 X3.84533 Y30.42394
G01 X3.69672 Y30.43857
G01 X3.67726 Y30.44144
G01 X3.65821 Y30.44624
G01 X3.51528 Y30.48958
G01 X3.49679 Y30.49621
G01 X3.47911 Y30.50459
G01 X3.34734 Y30.57500
G01 X3.31478 Y30.59679
G01 X3.19928 Y30.69153
G01 X3.18981 Y30.70017
G01 X3.18016 Y30.70977
G01 X3.17157 Y30.71929
G01 X3.07680 Y30.83476
G01 X3.06847 Y30.84594
G01 X3.06319 Y30.85366
G01 X3.05498 Y30.86738
G01 X2.98455 Y30.99907
G01 X2.96962 Y31.03529
G01 X2.92623 Y31.17827
G01 X2.92143 Y31.19727
G01 X2.91856 Y31.21668
G01 X2.90396 Y31.36539
G01 X3.00347 Y31.37520
G01 X3.00347 Y31.39478
G01 X3.01805 Y31.54342
G01 X3.01950 Y31.55315
G01 X3.02189 Y31.56268
G01 X3.06525 Y31.70563
G01 X3.07279 Y31.72374
G01 X3.14317 Y31.85544
G01 X3.14825 Y31.86387
G01 X3.15404 Y31.87174
G01 X3.24881 Y31.98719
G01 X3.25547 Y31.99453
G01 X3.26273 Y32.00110
G01 X3.37820 Y32.09585
G01 X3.39451 Y32.10677
G01 X3.52623 Y32.17715
G01 X3.53507 Y32.18134
G01 X3.54429 Y32.18464
G01 X3.68724 Y32.22803
G01 X3.69682 Y32.23042
G01 X3.70652 Y32.23186
G01 X3.85514 Y32.24647
G01 X3.87474 Y32.24647
G01 X4.02339 Y32.23186
G01 X4.03316 Y32.23042
G01 X4.04261 Y32.22803
G01 X4.18556 Y32.18464
G01 X4.19481 Y32.18134
G01 X4.20373 Y32.17715
G01 X4.33548 Y32.10677
G01 X4.35178 Y32.09585
G01 X4.46725 Y32.00110
G01 X4.47451 Y31.99453
G01 X4.48104 Y31.98719
G01 X4.57586 Y31.87174
G01 X4.58168 Y31.86387
G01 X4.58671 Y31.85544
G01 X4.65712 Y31.72374
G01 X4.66468 Y31.70563
G01 X4.70799 Y31.56268
G01 X4.71043 Y31.55315
G01 X4.71185 Y31.54342
G01 X4.72646 Y31.39478
G01 X4.72646 Y31.37520
G01 X4.71185 Y31.22648
G01 X4.71043 Y31.21683
G01 X4.70799 Y31.20730
G01 X4.66468 Y31.06435
G01 X4.65712 Y31.04624
G01 X4.58671 Y30.91449
G01 X4.58168 Y30.90606
G01 X4.57586 Y30.89816
G01 X4.48104 Y30.78272
G01 X4.47451 Y30.77545
G01 X4.46725 Y30.76887
G01 X4.35178 Y30.67411
G01 X4.33548 Y30.66321
G01 X4.20373 Y30.59280
G01 X4.19481 Y30.58856
G01 X4.18556 Y30.58528
G01 X4.04261 Y30.54187
G01 X4.03316 Y30.53954
G01 X4.02339 Y30.53812
G01 X3.87474 Y30.52343
G01 X3.85514 Y30.52343
G01 X3.70652 Y30.53812
G01 X3.69682 Y30.53954
G01 X3.68724 Y30.54187
G01 X3.54429 Y30.58528
G01 X3.53507 Y30.58856
G01 X3.52623 Y30.59280
G01 X3.39451 Y30.66321
G01 X3.37820 Y30.67411
G01 X3.26273 Y30.76887
G01 X3.25547 Y30.77545
G01 X3.24881 Y30.78272
G01 X3.15404 Y30.89816
G01 X3.14825 Y30.90606
G01 X3.14317 Y30.91449
G01 X3.07279 Y31.04624
G01 X3.06525 Y31.06435
G01 X3.02189 Y31.20730
G01 X3.01950 Y31.21683
G01 X3.01805 Y31.22648
G01 X3.00347 Y31.37520
G01 X2.90396 Y31.37837
G01 X2.79865 Y31.38175
G01 X2.69799 Y31.38498
G01 X2.71577 Y31.58757
G01 X2.76840 Y31.78406
G01 X2.85438 Y31.96847
G01 X2.97104 Y32.13506
G01 X3.11488 Y32.27890
G01 X3.28153 Y32.39557
G01 X3.40238 Y32.45193
G01 X3.41480 Y32.45879
G01 X3.42605 Y32.46737
G01 X3.47825 Y32.51314
G01 X3.49118 Y32.52688
G01 X3.50139 Y32.54278
G01 X3.50830 Y32.56039
G01 X3.52776 Y32.62696
G01 X3.53131 Y32.64553
G01 X3.53131 Y32.66440
G01 X3.52776 Y32.68292
G01 X3.50830 Y32.74954
G01 X3.50139 Y32.76709
G01 X3.49118 Y32.78299
G01 X3.47828 Y32.79678
G01 X3.42608 Y32.84256
G01 X3.41480 Y32.85106
G01 X3.40236 Y32.85800
G01 X3.28150 Y32.91436
G01 X3.11488 Y33.03105
G01 X2.97104 Y33.17486
G01 X2.85438 Y33.34151
G01 X2.76840 Y33.52582
G01 X2.71577 Y33.72228
G01 X2.69799 Y33.92495
G01 X2.71577 Y34.12759
G01 X2.76840 Y34.32409
G01 X2.85438 Y34.50844
G01 X2.97104 Y34.67504
G01 X3.11488 Y34.81885
G01 X3.28153 Y34.93554
G01 X3.40238 Y34.99198
G01 X3.41480 Y34.99881
G01 X3.42605 Y35.00740
G01 X3.47825 Y35.05312
G01 X3.49118 Y35.06688
G01 X3.50139 Y35.08281
G01 X3.50830 Y35.10036
G01 X3.52776 Y35.16699
G01 X3.53131 Y35.18550
G01 X3.53131 Y35.20435
G01 X3.52776 Y35.22292
G01 X3.50830 Y35.28952
G01 X3.50139 Y35.30712
G01 X3.49118 Y35.32302
G01 X3.47828 Y35.33673
G01 X3.42608 Y35.38253
G01 X3.41480 Y35.39112
G01 X3.40236 Y35.39795
G01 X3.28150 Y35.45436
G01 X3.11488 Y35.57105
G01 X2.97104 Y35.71489
G01 X2.85438 Y35.88149
G01 X2.76840 Y36.06584
G01 X2.71577 Y36.26234
G01 X2.69799 Y36.46498
G01 X2.71577 Y36.66757
G01 X2.76840 Y36.86404
G01 X2.85438 Y37.04847
G01 X2.97104 Y37.21506
G01 X3.11488 Y37.35888
G01 X3.28153 Y37.47557
G01 X3.40238 Y37.53198
G01 X3.41480 Y37.53884
G01 X3.42605 Y37.54735
G01 X3.47825 Y37.59314
G01 X3.49118 Y37.60686
G01 X3.50139 Y37.62276
G01 X3.50830 Y37.64039
G01 X3.52776 Y37.70701
G01 X3.53131 Y37.72553
G01 X3.53131 Y37.74437
G01 X3.52776 Y37.76289
G01 X3.50830 Y37.82954
G01 X3.50139 Y37.84709
G01 X3.49118 Y37.86304
G01 X3.47828 Y37.87676
G01 X3.42608 Y37.92256
G01 X3.41480 Y37.93112
G01 X3.40236 Y37.93800
G01 X3.28150 Y37.99434
G01 X3.11488 Y38.11102
G01 X2.97104 Y38.25486
G01 X2.85438 Y38.42151
G01 X2.76840 Y38.60579
G01 X2.71577 Y38.80234
G01 X2.69799 Y39.00493
G01 X2.71577 Y39.20759
G01 X2.76840 Y39.40406
G01 X2.85438 Y39.58841
G01 X2.97104 Y39.75506
G01 X3.11488 Y39.89890
G01 X3.28150 Y40.01554
G01 X3.46580 Y40.10149
G01 X3.66235 Y40.15415
G01 X3.86491 Y40.17190
G01 X4.06761 Y40.15415
G01 X4.26405 Y40.10149
G01 X4.44843 Y40.01554
G01 X4.61503 Y39.89890
G01 X4.75884 Y39.75506
G01 X4.87558 Y39.58841
G01 X4.96153 Y39.40406
G01 X5.01416 Y39.20759
G01 X5.03189 Y39.00493
G01 X5.01416 Y38.80234
G01 X4.96153 Y38.60579
G01 X4.87558 Y38.42151
G01 X4.75884 Y38.25486
G01 X4.61503 Y38.11102
G01 X4.44843 Y37.99434
G01 X4.32747 Y37.93800
G01 X4.31513 Y37.93112
G01 X4.30383 Y37.92250
G01 X4.25166 Y37.87676
G01 X4.23865 Y37.86299
G01 X4.22852 Y37.84709
G01 X4.22156 Y37.82954
G01 X4.20220 Y37.76289
G01 X4.19865 Y37.74437
G01 X4.19865 Y37.72553
G01 X4.20220 Y37.70701
G01 X4.22156 Y37.64039
G01 X4.22852 Y37.62276
G01 X4.23868 Y37.60686
G01 X4.25168 Y37.59314
G01 X4.30385 Y37.54735
G01 X4.31513 Y37.53884
G01 X4.32745 Y37.53193
G01 X4.44843 Y37.47557
G01 X4.61503 Y37.35888
G01 X4.77271 Y37.20122
G01 X4.78610 Y37.19002
G01 X4.79110 Y37.18707
G01 X4.80352 Y37.17577
G01 X4.81493 Y37.16673
G01 X4.82750 Y37.15946
G01 X4.84101 Y37.15410
G01 X4.89214 Y37.13800
G01 X4.90634 Y37.13465
G01 X4.92077 Y37.13333
G01 X4.93532 Y37.13422
G01 X4.98848 Y37.14123
G01 X5.00271 Y37.14417
G01 X5.01640 Y37.14910
G01 X5.02920 Y37.15603
G01 X5.07441 Y37.18481
G01 X5.08333 Y37.19119
G01 X5.09138 Y37.19848
G01 X5.22663 Y37.33366
G01 X5.39151 Y37.44910
G01 X5.57398 Y37.53419
G01 X5.76844 Y37.58628
G01 X5.96897 Y37.60384
G01 X6.16946 Y37.58628
G01 X6.36394 Y37.53419
G01 X6.54644 Y37.44910
G01 X6.71129 Y37.33366
G01 X6.85368 Y37.19132
G01 X6.96018 Y37.03919
G01 X6.96900 Y37.02830
G01 X6.97931 Y37.01872
G01 X7.03280 Y36.97557
G01 X7.04835 Y36.96523
G01 X7.06559 Y36.95797
G01 X7.08388 Y36.95405
G01 X7.15211 Y36.94603
G01 X7.17083 Y36.94557
G01 X7.18927 Y36.94857
G01 X7.20682 Y36.95502
G01 X7.26890 Y36.98456
G01 X7.28106 Y36.99142
G01 X7.29219 Y37.00000
G01 X7.33008 Y37.03358
G01 X7.33224 Y37.03556
G01 X7.33773 Y37.04064
G01 X7.33994 Y37.04285
G01 X7.46183 Y37.16475
G01 X7.46846 Y37.17201
G01 X7.47431 Y37.17994
G01 X7.50115 Y37.22012
G01 X7.51042 Y37.23742
G01 X7.51611 Y37.25619
G01 X7.52554 Y37.30363
G01 X7.52701 Y37.31331
G01 X7.52749 Y37.32317
G01 X7.52749 Y37.88834
G01 X7.52676 Y37.90028
G01 X7.52460 Y37.91207
G01 X7.51058 Y37.96939
G01 X7.50557 Y37.98453
G01 X7.49818 Y37.99873
G01 X7.48861 Y38.01156
G01 X7.44977 Y38.05583
G01 X7.44134 Y38.06434
G01 X7.43194 Y38.07181
G01 X7.38563 Y38.10424
G01 X7.24324 Y38.24663
G01 X7.12777 Y38.41151
G01 X7.04271 Y38.59393
G01 X6.99059 Y38.78844
G01 X6.97309 Y38.98897
G01 X6.99059 Y39.18948
G01 X7.04271 Y39.38397
G01 X7.12777 Y39.56642
G01 X7.24324 Y39.73129
G01 X7.38563 Y39.87368
G01 X7.55045 Y39.98913
G01 X7.73295 Y40.07422
G01 X7.92742 Y40.12631
G01 X8.12795 Y40.14386
G01 X8.32851 Y40.12631
G01 X8.52297 Y40.07422
G01 X8.70542 Y39.98913
G01 X8.87031 Y39.87368
G01 X9.01266 Y39.73129
G01 X9.12812 Y39.56642
G01 X9.21321 Y39.38397
G01 X9.26534 Y39.18948
G01 X9.28284 Y38.98897
G01 X9.26534 Y38.78844
G01 X9.21321 Y38.59393
G01 X9.12812 Y38.41151
G01 X9.01266 Y38.24663
G01 X8.87031 Y38.10424
G01 X8.82399 Y38.07181
G01 X8.81461 Y38.06434
G01 X8.80618 Y38.05583
G01 X8.76729 Y38.01156
G01 X8.75774 Y37.99873
G01 X8.75038 Y37.98453
G01 X8.74535 Y37.96939
G01 X8.73130 Y37.91207
G01 X8.72919 Y37.90028
G01 X8.72846 Y37.88834
G01 X8.72846 Y37.00656
G01 X8.72851 Y37.00348
G01 X8.72871 Y36.99594
G01 X8.72886 Y36.99299
G01 X8.73176 Y36.94509
G01 X8.72312 Y36.89789
G01 X8.72259 Y36.89477
G01 X8.72145 Y36.88735
G01 X8.72106 Y36.88448
G01 X8.71527 Y36.83643
G01 X8.71317 Y36.83010
G01 X8.70715 Y36.80844
G01 X8.70567 Y36.80206
G01 X8.68581 Y36.75791
G01 X8.68454 Y36.75504
G01 X8.68169 Y36.74811
G01 X8.68060 Y36.74544
G01 X8.66341 Y36.70005
G01 X8.65993 Y36.69444
G01 X8.64888 Y36.67491
G01 X8.64591 Y36.66907
G01 X8.61604 Y36.63089
G01 X8.61413 Y36.62840
G01 X8.60971 Y36.62238
G01 X8.60803 Y36.62004
G01 X8.58073 Y36.58050
G01 X8.54479 Y36.54862
G01 X8.54283 Y36.54684
G01 X8.53742 Y36.54176
G01 X8.53498 Y36.53942
G01 X8.41304 Y36.41748
G01 X8.40059 Y36.40231
G01 X8.37377 Y36.36213
G01 X8.36450 Y36.34486
G01 X8.35881 Y36.32609
G01 X8.34939 Y36.27857
G01 X8.34791 Y36.26891
G01 X8.34743 Y36.25911
G01 X8.34743 Y35.09714
G01 X8.34837 Y35.08350
G01 X8.35116 Y35.07011
G01 X8.36915 Y35.00582
G01 X8.37562 Y34.98888
G01 X8.38505 Y34.97339
G01 X8.39711 Y34.95982
G01 X8.44583 Y34.91415
G01 X8.46016 Y34.90298
G01 X8.47628 Y34.89462
G01 X8.49361 Y34.88926
G01 X8.55896 Y34.87555
G01 X8.57700 Y34.87344
G01 X8.59516 Y34.87461
G01 X8.61276 Y34.87905
G01 X8.65609 Y34.89427
G01 X8.65919 Y34.89482
G01 X8.67590 Y34.90092
G01 X8.68345 Y34.90455
G01 X8.68556 Y34.90544
G01 X8.68606 Y34.90565
G01 X8.68845 Y34.90669
G01 X8.68914 Y34.90709
G01 X8.87595 Y34.99421
G01 X9.07042 Y35.04634
G01 X9.27097 Y35.06386
G01 X9.47151 Y35.04634
G01 X9.66594 Y34.99421
G01 X9.84844 Y34.90915
G01 X10.01329 Y34.79368
G01 X10.15568 Y34.65131
G01 X10.27115 Y34.48642
G01 X10.35621 Y34.30392
G01 X10.40834 Y34.10951
G01 X10.42586 Y33.90897
G01 X10.40834 Y33.70844
G01 X10.35621 Y33.51395
G01 X10.27115 Y33.33151
G01 X10.15568 Y33.16663
G01 X10.05609 Y33.06702
G01 X10.04943 Y33.05975
G01 X10.04364 Y33.05180
G01 X10.01677 Y33.01162
G01 X10.00750 Y32.99435
G01 X10.00181 Y32.97558
G01 X9.99239 Y32.92813
G01 X9.99094 Y32.91845
G01 X9.99043 Y32.90865
G01 X9.99043 Y7.18177
G01 X9.99112 Y7.17029
G01 X9.99305 Y7.15902
G01 X10.00587 Y7.10420
G01 X10.01044 Y7.08962
G01 X10.01720 Y7.07596
G01 X10.02594 Y7.06349
G01 X10.06168 Y7.01995
G01 X10.07222 Y7.00893
G01 X10.08433 Y6.99960
G01 X10.09772 Y6.99229
G01 X10.14900 Y6.96905
G01 X10.16333 Y6.96382
G01 X10.17829 Y6.96087
G01 X10.19353 Y6.96018
G01 X10.24981 Y6.96204
G01 X10.26124 Y6.96303
G01 X10.27247 Y6.96539
G01 X10.46198 Y7.01617
G01 X10.67999 Y7.03524
G01 X10.89795 Y7.01617
G01 X11.10927 Y6.95955
G01 X11.30762 Y6.86707
G01 X11.48682 Y6.74154
G01 X11.64158 Y6.58685
G01 X11.76675 Y6.40801
G01 X11.77422 Y6.39862
G01 X11.78276 Y6.39013
G01 X11.82708 Y6.35130
G01 X11.83988 Y6.34180
G01 X11.85405 Y6.33435
G01 X11.86924 Y6.32932
G01 X11.92647 Y6.31530
G01 X11.94229 Y6.31281
G01 X11.95824 Y6.31281
G01 X11.97407 Y6.31530
G01 X12.03129 Y6.32932
G01 X12.04646 Y6.33435
G01 X12.06066 Y6.34180
G01 X12.07346 Y6.35130
G01 X12.11618 Y6.38879
G01 X12.34859 Y6.15638
G01 X12.34648 Y6.15236
G01 X12.34227 Y6.14355
G01 X12.33899 Y6.13430
G01 X12.29063 Y5.97479
G01 X12.28824 Y5.96532
G01 X12.28677 Y5.95559
G01 X12.27044 Y5.78978
G01 X12.27044 Y5.77019
G01 X12.28677 Y5.60436
G01 X12.28824 Y5.59465
G01 X12.29063 Y5.58508
G01 X12.33899 Y5.42562
G01 X12.34648 Y5.40756
G01 X12.34859 Y5.40360
G01 X12.11618 Y5.17111
G01 X12.07346 Y5.20857
G01 X12.06066 Y5.21815
G01 X12.04646 Y5.22549
G01 X12.03129 Y5.23052
G01 X11.97407 Y5.24454
G01 X11.95824 Y5.24713
G01 X11.94229 Y5.24713
G01 X11.92647 Y5.24454
G01 X11.86924 Y5.23052
G01 X11.85405 Y5.22549
G01 X11.83988 Y5.21815
G01 X11.82708 Y5.20857
G01 X11.78276 Y5.16971
G01 X11.77422 Y5.16128
G01 X11.76675 Y5.15191
G01 X11.64158 Y4.97304
G01 X11.48682 Y4.81838
G01 X11.30841 Y4.69344
G01 X11.29904 Y4.68600
G01 X11.29060 Y4.67749
G01 X11.25177 Y4.63314
G01 X11.24217 Y4.62036
G01 X11.23480 Y4.60616
G01 X11.22980 Y4.59092
G01 X11.21578 Y4.53372
G01 X11.21324 Y4.51797
G01 X11.21324 Y4.50200
G01 X11.21578 Y4.48625
G01 X11.22980 Y4.42892
G01 X11.23480 Y4.41378
G01 X11.24217 Y4.39958
G01 X11.25177 Y4.38671
G01 X11.29060 Y4.34246
G01 X11.29904 Y4.33395
G01 X11.30841 Y4.32648
G01 X11.48682 Y4.20157
G01 X11.64158 Y4.04680
G01 X11.76647 Y3.86842
G01 X11.77392 Y3.85905
G01 X11.78245 Y3.85061
G01 X11.82677 Y3.81175
G01 X11.83957 Y3.80218
G01 X11.85375 Y3.79484
G01 X11.86894 Y3.78981
G01 X11.92616 Y3.77579
G01 X11.94196 Y3.77320
G01 X11.95794 Y3.77320
G01 X11.97374 Y3.77579
G01 X12.03101 Y3.78981
G01 X12.04615 Y3.79484
G01 X12.06033 Y3.80218
G01 X12.07313 Y3.81175
G01 X12.11745 Y3.85061
G01 X12.12599 Y3.85905
G01 X12.13348 Y3.86842
G01 X12.25837 Y4.04680
G01 X12.41311 Y4.20157
G01 X12.59190 Y4.32676
G01 X12.60127 Y4.33423
G01 X12.60970 Y4.34271
G01 X12.64856 Y4.38704
G01 X12.65814 Y4.39984
G01 X12.66553 Y4.41404
G01 X12.67059 Y4.42928
G01 X12.68456 Y4.48650
G01 X12.68712 Y4.50225
G01 X12.68712 Y4.51823
G01 X12.68456 Y4.53398
G01 X12.67059 Y4.59128
G01 X12.66553 Y4.60642
G01 X12.65814 Y4.62062
G01 X12.64862 Y4.63344
G01 X12.61113 Y4.67614
G01 X12.84359 Y4.90863
G01 X12.84752 Y4.90649
G01 X12.85644 Y4.90230
G01 X12.86566 Y4.89895
G01 X13.02512 Y4.85064
G01 X13.04435 Y4.84675
G01 X13.21018 Y4.83047
G01 X13.22979 Y4.83047
G01 X13.39560 Y4.84675
G01 X13.41483 Y4.85064
G01 X13.57429 Y4.89895
G01 X13.59235 Y4.90649
G01 X13.59637 Y4.90860
G01 X13.82878 Y4.67614
G01 X13.79131 Y4.63342
G01 X13.78171 Y4.62059
G01 X13.77434 Y4.60642
G01 X13.76937 Y4.59128
G01 X13.75532 Y4.53398
G01 X13.75278 Y4.51823
G01 X13.75278 Y4.50225
G01 X13.75532 Y4.48650
G01 X13.76937 Y4.42928
G01 X13.77434 Y4.41404
G01 X13.78179 Y4.39984
G01 X13.79131 Y4.38706
G01 X13.83015 Y4.34271
G01 X13.83858 Y4.33423
G01 X13.84800 Y4.32676
G01 X14.02685 Y4.20157
G01 X14.18153 Y4.04680
G01 X14.30647 Y3.86842
G01 X14.31392 Y3.85905
G01 X14.32245 Y3.85061
G01 X14.36677 Y3.81175
G01 X14.37960 Y3.80218
G01 X14.39375 Y3.79484
G01 X14.40894 Y3.78981
G01 X14.46619 Y3.77579
G01 X14.48199 Y3.77320
G01 X14.49796 Y3.77320
G01 X14.51376 Y3.77579
G01 X14.57101 Y3.78981
G01 X14.58615 Y3.79484
G01 X14.60035 Y3.80218
G01 X14.61313 Y3.81175
G01 X14.65745 Y3.85061
G01 X14.66599 Y3.85905
G01 X14.67343 Y3.86842
G01 X14.79837 Y4.04680
G01 X14.95311 Y4.20157
G01 X15.13149 Y4.32648
G01 X15.14081 Y4.33395
G01 X15.14925 Y4.34246
G01 X15.18816 Y4.38671
G01 X15.19768 Y4.39958
G01 X15.20505 Y4.41376
G01 X15.21013 Y4.42887
G01 X15.22415 Y4.48620
G01 X15.22669 Y4.50200
G01 X15.22669 Y4.51797
G01 X15.22415 Y4.53375
G01 X15.21013 Y4.59097
G01 X15.20505 Y4.60619
G01 X15.19768 Y4.62036
G01 X15.18818 Y4.63314
G01 X15.14932 Y4.67749
G01 X15.14089 Y4.68600
G01 X15.13149 Y4.69349
G01 X14.95311 Y4.81838
G01 X14.79837 Y4.97304
G01 X14.67312 Y5.15191
G01 X14.66568 Y5.16128
G01 X14.65715 Y5.16971
G01 X14.61282 Y5.20857
G01 X14.60005 Y5.21815
G01 X14.58585 Y5.22549
G01 X14.57066 Y5.23052
G01 X14.51346 Y5.24454
G01 X14.49766 Y5.24713
G01 X14.48168 Y5.24713
G01 X14.46588 Y5.24454
G01 X14.40863 Y5.23052
G01 X14.39344 Y5.22549
G01 X14.37930 Y5.21815
G01 X14.36647 Y5.20857
G01 X14.32372 Y5.17111
G01 X14.09131 Y5.40357
G01 X14.09347 Y5.40756
G01 X14.10099 Y5.42562
G01 X14.14935 Y5.58508
G01 X14.15171 Y5.59465
G01 X14.15318 Y5.60436
G01 X14.16947 Y5.77019
G01 X14.16995 Y5.78000
G01 X14.16947 Y5.78978
G01 X14.15318 Y5.95559
G01 X14.15171 Y5.96532
G01 X14.14935 Y5.97479
G01 X14.10099 Y6.13430
G01 X14.09766 Y6.14355
G01 X14.09347 Y6.15236
G01 X14.09131 Y6.15638
G01 X14.32372 Y6.38879
G01 X14.36647 Y6.35130
G01 X14.37930 Y6.34180
G01 X14.39344 Y6.33435
G01 X14.40863 Y6.32932
G01 X14.46588 Y6.31530
G01 X14.48168 Y6.31281
G01 X14.49766 Y6.31281
G01 X14.51346 Y6.31530
G01 X14.57066 Y6.32932
G01 X14.58585 Y6.33435
G01 X14.60005 Y6.34180
G01 X14.61282 Y6.35130
G01 X14.65715 Y6.39013
G01 X14.66568 Y6.39862
G01 X14.67312 Y6.40801
G01 X14.79837 Y6.58685
G01 X14.95311 Y6.74154
G01 X15.13235 Y6.86707
G01 X15.33058 Y6.95955
G01 X15.54201 Y7.01617
G01 X15.75999 Y7.03524
G01 X15.97790 Y7.01617
G01 X16.18925 Y6.95955
G01 X16.38762 Y6.86707
G01 X16.56679 Y6.74154
G01 X16.72156 Y6.58685
G01 X16.84647 Y6.40847
G01 X16.85394 Y6.39905
G01 X16.86248 Y6.39061
G01 X16.90680 Y6.35173
G01 X16.91955 Y6.34218
G01 X16.93377 Y6.33484
G01 X16.94894 Y6.32981
G01 X17.00614 Y6.31579
G01 X17.02199 Y6.31320
G01 X17.03791 Y6.31320
G01 X17.05376 Y6.31579
G01 X17.11096 Y6.32981
G01 X17.12618 Y6.33484
G01 X17.14035 Y6.34218
G01 X17.15313 Y6.35173
G01 X17.19745 Y6.39061
G01 X17.20599 Y6.39905
G01 X17.21345 Y6.40847
G01 X17.33837 Y6.58685
G01 X17.49311 Y6.74154
G01 X17.67230 Y6.86707
G01 X17.87060 Y6.95955
G01 X18.08201 Y7.01617
G01 X18.29999 Y7.03524
G01 X18.51792 Y7.01617
G01 X18.64060 Y6.98332
G01 X18.72925 Y6.95955
G01 X18.92762 Y6.86707
G01 X19.10682 Y6.74154
G01 X19.26156 Y6.58685
G01 X19.38647 Y6.40847
G01 X19.39394 Y6.39905
G01 X19.40248 Y6.39061
G01 X19.44680 Y6.35173
G01 X19.45955 Y6.34218
G01 X19.47377 Y6.33484
G01 X19.48889 Y6.32981
G01 X19.54616 Y6.31579
G01 X19.56194 Y6.31320
G01 X19.57794 Y6.31320
G01 X19.59371 Y6.31579
G01 X19.65099 Y6.32981
G01 X19.66618 Y6.33484
G01 X19.68030 Y6.34218
G01 X19.69315 Y6.35173
G01 X19.73748 Y6.39061
G01 X19.74601 Y6.39905
G01 X19.75348 Y6.40847
G01 X19.87837 Y6.58685
G01 X20.03306 Y6.74154
G01 X20.21233 Y6.86707
G01 X20.41060 Y6.95955
G01 X20.62201 Y7.01617
G01 X20.83994 Y7.03524
G01 X21.05795 Y7.01617
G01 X21.26927 Y6.95955
G01 X21.46757 Y6.86707
G01 X21.64685 Y6.74154
G01 X21.80158 Y6.58685
G01 X21.92642 Y6.40847
G01 X21.93394 Y6.39905
G01 X21.94248 Y6.39061
G01 X21.98680 Y6.35173
G01 X21.99958 Y6.34218
G01 X22.01377 Y6.33484
G01 X22.02891 Y6.32981
G01 X22.08616 Y6.31579
G01 X22.10196 Y6.31320
G01 X22.11794 Y6.31320
G01 X22.13374 Y6.31579
G01 X22.19101 Y6.32981
G01 X22.20618 Y6.33484
G01 X22.22033 Y6.34218
G01 X22.23315 Y6.35173
G01 X22.27748 Y6.39061
G01 X22.28601 Y6.39905
G01 X22.29348 Y6.40847
G01 X22.41832 Y6.58685
G01 X22.57308 Y6.74154
G01 X22.75233 Y6.86707
G01 X22.95063 Y6.95955
G01 X23.16196 Y7.01617
G01 X23.37996 Y7.03524
G01 X23.59795 Y7.01617
G01 X23.80930 Y6.95955
G01 X24.00760 Y6.86707
G01 X24.18685 Y6.74154
G01 X24.34158 Y6.58685
G01 X24.46645 Y6.40847
G01 X24.47389 Y6.39905
G01 X24.48242 Y6.39061
G01 X24.52675 Y6.35173
G01 X24.53960 Y6.34218
G01 X24.55372 Y6.33484
G01 X24.56891 Y6.32981
G01 X24.62619 Y6.31579
G01 X24.64199 Y6.31320
G01 X24.65796 Y6.31320
G01 X24.67376 Y6.31579
G01 X24.73101 Y6.32981
G01 X24.74613 Y6.33484
G01 X24.76035 Y6.34218
G01 X24.77310 Y6.35173
G01 X24.81743 Y6.39061
G01 X24.82596 Y6.39905
G01 X24.83348 Y6.40847
G01 X24.95834 Y6.58685
G01 X25.11308 Y6.74154
G01 X25.22390 Y6.81921
G01 X25.23333 Y6.82666
G01 X25.24176 Y6.83514
G01 X25.28059 Y6.87946
G01 X25.29020 Y6.89232
G01 X25.29756 Y6.90649
G01 X25.30257 Y6.92165
G01 X25.31659 Y6.97895
G01 X25.31875 Y6.99074
G01 X25.31943 Y7.00270
G01 X25.31943 Y24.03691
G01 X25.31875 Y24.04887
G01 X25.31659 Y24.06063
G01 X25.30257 Y24.11791
G01 X25.29756 Y24.13312
G01 X25.29020 Y24.14732
G01 X25.28059 Y24.16015
G01 X25.24176 Y24.20447
G01 X25.23333 Y24.21293
G01 X25.22390 Y24.22040
G01 X25.16563 Y24.26127
G01 X25.02327 Y24.40358
G01 X24.90775 Y24.56851
G01 X24.82271 Y24.75093
G01 X24.77061 Y24.94539
G01 X24.75309 Y25.14595
G01 X24.77061 Y25.34648
G01 X24.82271 Y25.54094
G01 X24.90775 Y25.72344
G01 X25.02327 Y25.88831
G01 X25.16563 Y26.03063
G01 X25.33051 Y26.14615
G01 X25.51298 Y26.23116
G01 X25.70739 Y26.28334
G01 X25.90797 Y26.30081
G01 X26.10851 Y26.28334
G01 X26.30294 Y26.23116
G01 X26.48544 Y26.14615
G01 X26.65031 Y26.03063
G01 X26.79266 Y25.88831
G01 X26.90815 Y25.72344
G01 X26.99319 Y25.54094
G01 X27.04534 Y25.34648
G01 X27.06284 Y25.14595
G01 X27.04534 Y24.94539
G01 X26.99319 Y24.75093
G01 X26.90815 Y24.56851
G01 X26.79266 Y24.40358
G01 X26.65031 Y24.26127
G01 X26.61597 Y24.23724
G01 X26.60658 Y24.22972
G01 X26.59814 Y24.22119
G01 X26.55928 Y24.17686
G01 X26.54973 Y24.16409
G01 X26.54234 Y24.14989
G01 X26.53734 Y24.13467
G01 X26.52334 Y24.07742
G01 X26.52116 Y24.06564
G01 X26.52047 Y24.05375
G01 X26.52047 Y7.00270
G01 X26.52116 Y6.99074
G01 X26.52334 Y6.97895
G01 X26.53734 Y6.92165
G01 X26.54234 Y6.90649
G01 X26.54973 Y6.89232
G01 X26.55928 Y6.87951
G01 X26.59814 Y6.83519
G01 X26.60658 Y6.82666
G01 X26.61597 Y6.81921
G01 X26.72685 Y6.74154
G01 X26.88156 Y6.58685
G01 X27.00675 Y6.40801
G01 X27.01422 Y6.39862
G01 X27.02278 Y6.39013
G01 X27.06708 Y6.35130
G01 X27.07991 Y6.34180
G01 X27.09408 Y6.33435
G01 X27.10924 Y6.32932
G01 X27.16649 Y6.31530
G01 X27.18227 Y6.31281
G01 X27.19822 Y6.31281
G01 X27.21407 Y6.31530
G01 X27.27132 Y6.32932
G01 X27.28646 Y6.33435
G01 X27.30066 Y6.34180
G01 X27.31346 Y6.35130
G01 X27.35618 Y6.38879
G01 X27.58859 Y6.15638
G01 X27.58646 Y6.15236
G01 X27.58229 Y6.14355
G01 X27.57899 Y6.13430
G01 X27.53060 Y5.97479
G01 X27.52819 Y5.96532
G01 X27.52674 Y5.95559
G01 X27.51044 Y5.78978
G01 X27.51044 Y5.77019
G01 X27.52674 Y5.60436
G01 X27.52819 Y5.59465
G01 X27.53060 Y5.58508
G01 X27.57899 Y5.42562
G01 X27.58229 Y5.41640
G01 X27.58646 Y5.40756
G01 X27.58859 Y5.40360
G01 X27.35618 Y5.17111
G01 X27.31346 Y5.20857
G01 X27.30066 Y5.21815
G01 X27.28646 Y5.22549
G01 X27.27132 Y5.23052
G01 X27.21407 Y5.24454
G01 X27.19822 Y5.24713
G01 X27.18227 Y5.24713
G01 X27.16649 Y5.24454
G01 X27.10924 Y5.23052
G01 X27.09408 Y5.22549
G01 X27.07991 Y5.21815
G01 X27.06708 Y5.20857
G01 X27.02278 Y5.16971
G01 X27.01422 Y5.16128
G01 X27.00675 Y5.15191
G01 X26.88156 Y4.97304
G01 X26.72685 Y4.81838
G01 X26.54844 Y4.69344
G01 X26.53906 Y4.68600
G01 X26.53063 Y4.67749
G01 X26.49174 Y4.63314
G01 X26.48222 Y4.62036
G01 X26.47483 Y4.60616
G01 X26.46980 Y4.59092
G01 X26.45575 Y4.53372
G01 X26.45324 Y4.51797
G01 X26.45324 Y4.50200
G01 X26.45575 Y4.48625
G01 X26.46980 Y4.42892
G01 X26.47483 Y4.41378
G01 X26.48222 Y4.39958
G01 X26.49174 Y4.38671
G01 X26.53063 Y4.34246
G01 X26.53906 Y4.33395
G01 X26.54844 Y4.32648
G01 X26.72685 Y4.20157
G01 X26.88156 Y4.04680
G01 X27.00675 Y3.86804
G01 X27.01422 Y3.85856
G01 X27.02278 Y3.85013
G01 X27.06708 Y3.81127
G01 X27.07991 Y3.80180
G01 X27.09408 Y3.79435
G01 X27.10924 Y3.78932
G01 X27.16649 Y3.77530
G01 X27.18227 Y3.77281
G01 X27.19822 Y3.77281
G01 X27.21407 Y3.77530
G01 X27.27132 Y3.78932
G01 X27.28646 Y3.79435
G01 X27.30066 Y3.80180
G01 X27.31346 Y3.81127
G01 X27.35618 Y3.84873
G01 X27.58859 Y3.61638
G01 X27.58646 Y3.61239
G01 X27.57899 Y3.59425
G01 X27.53060 Y3.43479
G01 X27.52819 Y3.42532
G01 X27.52674 Y3.41561
G01 X27.51044 Y3.24978
G01 X27.51044 Y3.23019
G01 X27.52674 Y3.06436
G01 X27.52819 Y3.05463
G01 X27.53060 Y3.04510
G01 X27.57899 Y2.88567
G01 X27.58229 Y2.87640
G01 X27.58646 Y2.86751
G01 X27.58859 Y2.86360
G01 X27.35618 Y2.63116
G01 X27.31346 Y2.66863
G01 X27.30066 Y2.67815
G01 X27.28646 Y2.68554
G01 X27.27132 Y2.69052
G01 X27.21407 Y2.70459
G01 X27.19822 Y2.70708
G01 X27.18227 Y2.70708
G01 X27.16649 Y2.70459
G01 X27.10924 Y2.69052
G01 X27.09408 Y2.68554
G01 X27.07991 Y2.67815
G01 X27.06708 Y2.66863
G01 X27.02278 Y2.62976
G01 X27.01422 Y2.62133
G01 X27.00675 Y2.61191
G01 X26.88156 Y2.43309
G01 X26.72685 Y2.27838
G01 X26.54762 Y2.15288
G01 X26.34930 Y2.06035
G01 X26.13792 Y2.00370
G01 X25.91999 Y1.98465
G01 X25.70198 Y2.00370
G01 X25.49063 Y2.06035
G01 X25.29235 Y2.15288
G01 X25.11308 Y2.27838
G01 X24.95834 Y2.43309
G01 X24.83348 Y2.61148
G01 X24.82596 Y2.62085
G01 X24.81743 Y2.62928
G01 X24.77310 Y2.66819
G01 X24.76035 Y2.67772
G01 X24.74613 Y2.68511
G01 X24.73101 Y2.69014
G01 X24.67376 Y2.70416
G01 X24.65796 Y2.70670
G01 X24.64199 Y2.70670
G01 X24.62619 Y2.70416
G01 X24.56891 Y2.69014
G01 X24.55372 Y2.68511
G01 X24.53960 Y2.67772
G01 X24.52675 Y2.66819
G01 X24.48242 Y2.62928
G01 X24.47389 Y2.62085
G01 X24.46645 Y2.61148
G01 X24.34158 Y2.43309
G01 X24.18685 Y2.27838
G01 X24.00760 Y2.15288
G01 X23.80930 Y2.06035
G01 X23.59795 Y2.00370
G01 X23.37996 Y1.98465
G01 X23.16196 Y2.00370
G01 X22.95063 Y2.06035
G01 X22.75233 Y2.15288
G01 X22.57308 Y2.27838
G01 X22.41832 Y2.43309
G01 X22.29348 Y2.61148
G01 X22.28601 Y2.62085
G01 X22.27748 Y2.62928
G01 X22.23315 Y2.66819
G01 X22.22033 Y2.67772
G01 X22.20618 Y2.68511
G01 X22.19101 Y2.69014
G01 X22.13374 Y2.70416
G01 X22.11794 Y2.70670
G01 X22.10196 Y2.70670
G01 X22.08616 Y2.70416
G01 X22.02891 Y2.69014
G01 X22.01377 Y2.68511
G01 X21.99958 Y2.67772
G01 X21.98680 Y2.66819
G01 X21.94248 Y2.62928
G01 X21.93394 Y2.62085
G01 X21.92642 Y2.61148
G01 X21.80158 Y2.43309
G01 X21.64685 Y2.27838
G01 X21.46757 Y2.15288
G01 X21.26927 Y2.06035
G01 X21.05795 Y2.00370
G01 X20.83994 Y1.98465
G01 X20.62201 Y2.00370
G01 X20.41060 Y2.06035
G01 X20.21233 Y2.15288
G01 X20.03306 Y2.27838
G01 X19.87837 Y2.43309
G01 X19.75348 Y2.61148
G01 X19.74601 Y2.62085
G01 X19.73748 Y2.62928
G01 X19.69315 Y2.66819
G01 X19.68030 Y2.67772
G01 X19.66618 Y2.68511
G01 X19.65099 Y2.69014
G01 X19.59371 Y2.70416
G01 X19.57794 Y2.70670
G01 X19.56194 Y2.70670
G01 X19.54616 Y2.70416
G01 X19.48889 Y2.69014
G01 X19.47377 Y2.68511
G01 X19.45955 Y2.67772
G01 X19.44680 Y2.66819
G01 X19.40248 Y2.62928
G01 X19.39394 Y2.62085
G01 X19.38647 Y2.61148
G01 X19.26156 Y2.43309
G01 X19.10682 Y2.27838
G01 X18.92762 Y2.15288
G01 X18.72925 Y2.06035
G01 X18.51792 Y2.00370
G01 X18.29999 Y1.98465
G01 X18.08201 Y2.00370
G01 X17.87060 Y2.06035
G01 X17.67230 Y2.15288
G01 X17.49311 Y2.27838
G01 X17.33837 Y2.43309
G01 X17.21345 Y2.61148
G01 X17.20599 Y2.62085
G01 X17.19745 Y2.62928
G01 X17.15313 Y2.66819
G01 X17.14035 Y2.67772
G01 X17.12618 Y2.68511
G01 X17.11096 Y2.69014
G01 X17.05376 Y2.70416
G01 X17.03791 Y2.70670
G01 X17.02199 Y2.70670
G01 X17.00614 Y2.70416
G01 X16.94894 Y2.69014
G01 X16.93377 Y2.68511
G01 X16.91955 Y2.67772
G01 X16.90680 Y2.66819
G01 X16.86248 Y2.62928
G01 X16.85394 Y2.62085
G01 X16.84647 Y2.61148
G01 X16.72156 Y2.43309
G01 X16.56679 Y2.27838
G01 X16.38762 Y2.15288
G01 X16.18925 Y2.06035
G01 X15.97790 Y2.00370
G01 X15.75999 Y1.98465
G01 X15.54201 Y2.00370
G01 X15.33058 Y2.06035
G01 X15.13235 Y2.15288
G01 X14.95311 Y2.27838
G01 X14.79837 Y2.43309
G01 X14.67343 Y2.61148
G01 X14.66599 Y2.62085
G01 X14.65745 Y2.62928
G01 X14.61313 Y2.66819
G01 X14.60035 Y2.67772
G01 X14.58615 Y2.68511
G01 X14.57101 Y2.69014
G01 X14.51376 Y2.70416
G01 X14.49796 Y2.70670
G01 X14.48199 Y2.70670
G01 X14.46619 Y2.70416
G01 X14.40894 Y2.69014
G01 X14.39375 Y2.68511
G01 X14.37960 Y2.67772
G01 X14.36677 Y2.66819
G01 X14.32245 Y2.62928
G01 X14.31392 Y2.62085
G01 X14.30647 Y2.61148
G01 X14.18153 Y2.43309
G01 X14.02685 Y2.27838
G01 X13.84762 Y2.15288
G01 X13.64930 Y2.06035
G01 X13.43790 Y2.00370
G01 X13.21999 Y1.98465
G01 X13.00198 Y2.00370
G01 X12.79063 Y2.06035
G01 X12.59233 Y2.15288
G01 X12.41311 Y2.27838
G01 X12.25837 Y2.43309
G01 X12.13348 Y2.61148
G01 X12.12599 Y2.62085
G01 X12.11745 Y2.62928
G01 X12.07313 Y2.66819
G01 X12.06033 Y2.67772
G01 X12.04615 Y2.68511
G01 X12.03101 Y2.69014
G01 X11.97374 Y2.70416
G01 X11.95794 Y2.70670
G01 X11.94196 Y2.70670
G01 X11.92616 Y2.70416
G01 X11.86894 Y2.69014
G01 X11.85375 Y2.68511
G01 X11.83957 Y2.67772
G01 X11.82677 Y2.66819
G01 X11.78245 Y2.62928
G01 X11.77392 Y2.62085
G01 X11.76647 Y2.61148
G01 X11.64158 Y2.43309
G01 X11.48682 Y2.27838
G01 X11.30762 Y2.15288
G01 X11.10927 Y2.06035
G01 X10.89795 Y2.00370
G01 X10.67999 Y1.98465
G01 X10.46198 Y2.00370
G01 X10.25060 Y2.06035
G01 X10.05235 Y2.15288
G01 X9.87311 Y2.27838
G01 X9.71834 Y2.43309
G01 X9.59345 Y2.61148
G01 X9.58601 Y2.62085
G01 X9.57748 Y2.62928
G01 X9.53315 Y2.66819
G01 X9.52035 Y2.67772
G01 X9.50618 Y2.68511
G01 X9.49099 Y2.69014
G01 X9.43376 Y2.70416
G01 X9.41796 Y2.70670
G01 X9.40199 Y2.70670
G01 X9.38619 Y2.70416
G01 X9.32894 Y2.69014
G01 X9.31377 Y2.68511
G01 X9.29960 Y2.67772
G01 X9.28680 Y2.66819
G01 X9.24248 Y2.62928
G01 X9.23394 Y2.62085
G01 X9.22645 Y2.61148
G01 X9.10156 Y2.43309
G01 X8.94682 Y2.27838
G01 X8.76760 Y2.15288
G01 X8.56930 Y2.06035
G01 X8.35792 Y2.00370
G01 X8.13996 Y1.98465
G01 X7.92201 Y2.00370
G01 X7.71063 Y2.06035
G01 X7.51235 Y2.15288
G01 X7.33308 Y2.27838
G01 X7.17837 Y2.43309
G01 X7.05345 Y2.61148
G01 X7.04599 Y2.62085
G01 X7.03745 Y2.62928
G01 X6.99313 Y2.66819
G01 X6.98033 Y2.67772
G01 X6.96615 Y2.68511
G01 X6.95101 Y2.69014
G01 X6.89374 Y2.70416
G01 X6.87796 Y2.70670
G01 X6.86196 Y2.70670
G01 X6.84619 Y2.70416
G01 X6.78891 Y2.69014
G01 X6.77375 Y2.68511
G01 X6.75957 Y2.67772
G01 X6.74680 Y2.66819
G01 X6.70242 Y2.62928
G01 X6.69394 Y2.62085
G01 X6.68647 Y2.61148
G01 X6.56158 Y2.43309
G01 X6.40685 Y2.27838
G01 X6.22762 Y2.15288
G01 X6.02930 Y2.06035
G01 X5.81795 Y2.00370
G01 X5.59999 Y1.98465
G01 X5.38196 Y2.00370
G01 X5.17058 Y2.06035
G01 X4.97230 Y2.15288
G01 X4.79311 Y2.27838
G01 X4.63832 Y2.43309
G01 X4.51282 Y2.61229
G01 X4.42034 Y2.81064
G01 X4.36375 Y3.02196
G01 X4.34470 Y3.24000
G01 X4.36375 Y3.45796
G01 X4.42034 Y3.66931
G01 X4.51282 Y3.86758
G01 X4.63832 Y4.04680
G01 X4.79311 Y4.20157
G01 X4.97149 Y4.32648
G01 X4.98081 Y4.33395
G01 X4.98925 Y4.34246
G01 X5.02811 Y4.38671
G01 X5.03771 Y4.39958
G01 X5.04505 Y4.41376
G01 X5.05013 Y4.42887
G01 X5.06410 Y4.48620
G01 X5.06667 Y4.50200
G01 X5.06667 Y4.51797
G01 X5.06410 Y4.53375
G01 X5.05013 Y4.59097
G01 X5.04505 Y4.60619
G01 X5.03771 Y4.62036
G01 X5.02813 Y4.63314
G01 X4.98927 Y4.67749
G01 X4.98084 Y4.68600
G01 X4.97149 Y4.69349
G01 X4.79311 Y4.81838
G01 X4.63832 Y4.97304
G01 X4.51282 Y5.15226
G01 X4.42034 Y5.35064
G01 X4.36375 Y5.56202
G01 X4.34470 Y5.78000
G01 X4.36375 Y5.99791
G01 X4.42034 Y6.20931
G01 X4.51282 Y6.40763
G01 X4.63832 Y6.58685
G01 X4.79311 Y6.74154
G01 X4.91495 Y6.82691
G01 X4.92315 Y6.83334
G01 X4.93067 Y6.84060
G01 X4.96588 Y6.87840
G01 X4.97474 Y6.88924
G01 X4.98193 Y6.90121
G01 X4.98732 Y6.91408
G01 X5.00408 Y6.96293
G01 X5.00697 Y6.97304
G01 X5.00883 Y6.98332
G01 X5.01264 Y7.01525
G01 X5.01470 Y7.02147
G01 X5.02077 Y7.04304
G01 X5.02224 Y7.04952
G01 X5.04208 Y7.09366
G01 X5.04335 Y7.09651
G01 X5.04622 Y7.10341
G01 X5.04731 Y7.10621
G01 X5.06451 Y7.15147
G01 X5.06806 Y7.15719
G01 X5.07906 Y7.17672
G01 X5.08201 Y7.18254
G01 X5.11185 Y7.22069
G01 X5.11373 Y7.22310
G01 X5.11813 Y7.22917
G01 X5.11990 Y7.23158
G01 X5.14713 Y7.27111
G01 X5.18307 Y7.30293
G01 X5.18546 Y7.30509
G01 X5.19085 Y7.31022
G01 X5.19290 Y7.31223
G01 X6.44583 Y8.56508
G01 X6.45244 Y8.57235
G01 X6.45828 Y8.58025
G01 X6.48515 Y8.62051
G01 X6.49442 Y8.63775
G01 X6.50011 Y8.65650
G01 X6.50956 Y8.70394
G01 X6.51099 Y8.71365
G01 X6.51147 Y8.72350
G01 X6.51147 Y11.59647
G01 X6.51099 Y11.60628
G01 X6.50956 Y11.61598
G01 X6.50011 Y11.66340
G01 X6.49442 Y11.68217
G01 X6.48515 Y11.69944
G01 X6.45828 Y11.73965
G01 X6.45244 Y11.74755
G01 X6.44583 Y11.75484
G01 X5.56196 Y12.63871
G01 X5.55991 Y12.64074
G01 X5.55447 Y12.64587
G01 X5.55214 Y12.64803
G01 X5.51619 Y12.67986
G01 X5.48891 Y12.71935
G01 X5.48703 Y12.72189
G01 X5.48259 Y12.72797
G01 X5.48091 Y12.73023
G01 X5.45097 Y12.76838
G01 X5.44802 Y12.77427
G01 X5.43695 Y12.79385
G01 X5.43347 Y12.79939
G01 X5.41632 Y12.84468
G01 X5.41513 Y12.84762
G01 X5.41226 Y12.85456
G01 X5.41117 Y12.85723
G01 X5.39120 Y12.90147
G01 X5.38973 Y12.90785
G01 X5.38376 Y12.92941
G01 X5.38168 Y12.93579
G01 X5.37586 Y12.98382
G01 X5.37543 Y12.98669
G01 X5.37431 Y12.99411
G01 X5.37383 Y12.99718
G01 X5.36511 Y13.04445
G01 X5.36806 Y13.09238
G01 X5.36821 Y13.09535
G01 X5.36839 Y13.10279
G01 X5.36844 Y13.10592
G01 X5.36844 Y30.84812
G01 X5.36755 Y30.86163
G01 X5.36484 Y30.87487
G01 X5.34711 Y30.93875
G01 X5.34076 Y30.95556
G01 X5.33149 Y30.97098
G01 X5.31960 Y30.98449
G01 X5.27154 Y31.03014
G01 X5.25742 Y31.04131
G01 X5.24149 Y31.04975
G01 X5.22435 Y31.05523
G01 X5.15963 Y31.06956
G01 X5.14170 Y31.07190
G01 X5.12376 Y31.07093
G01 X5.10619 Y31.06674
G01 X5.04340 Y31.04576
G01 X5.02691 Y31.03850
G01 X5.01193 Y31.02844
G01 X4.99905 Y31.01589
G01 X4.95600 Y30.96550
G01 X4.94797 Y30.95460
G01 X4.94139 Y30.94279
G01 X4.87558 Y30.80151
G01 X4.75884 Y30.63484
G01 X4.61503 Y30.49102
G01 X4.44843 Y30.37434
G01 X4.26405 Y30.28841
G01 X4.06761 Y30.23578
G01 X3.86491 Y30.21802
G01 X3.66235 Y30.23578
G01 X3.46580 Y30.28841
G01 X3.28150 Y30.37434
G01 X3.11488 Y30.49102
G01 X2.97104 Y30.63484
G01 X2.85438 Y30.80151
G01 X2.76840 Y30.98584
G01 X2.71577 Y31.18234
G01 X2.69799 Y31.38498
G01 X2.79804 Y31.38498
G01 X2.79837 Y31.38498
G01 X2.79865 Y31.38175
G01 X2.81460 Y31.19976
G01 X2.81424 Y31.19968
G01 X2.81460 Y31.19976
G01 X2.86273 Y31.02018
G01 X2.86238 Y31.02005
G01 X2.86273 Y31.02018
G01 X2.94132 Y30.85168
G01 X2.94099 Y30.85148
G01 X2.94132 Y30.85168
G01 X3.04792 Y30.69941
G01 X3.04759 Y30.69915
G01 X3.04792 Y30.69941
G01 X3.17939 Y30.56793
G01 X3.17909 Y30.56766
G01 X3.17939 Y30.56793
G01 X3.33169 Y30.46131
G01 X3.33151 Y30.46098
G01 X3.33169 Y30.46131
G01 X3.50020 Y30.38274
G01 X3.50007 Y30.38234
G01 X3.50020 Y30.38274
G01 X3.67977 Y30.33464
G01 X3.67965 Y30.33423
G01 X3.67977 Y30.33464
G01 X3.86491 Y30.31838
G01 X3.86491 Y30.31805
G01 X3.86491 Y30.31838
G01 X4.05016 Y30.33464
G01 X4.05021 Y30.33423
G01 X4.05016 Y30.33464
G01 X4.22976 Y30.38274
G01 X4.22989 Y30.38234
G01 X4.22976 Y30.38274
G01 X4.39826 Y30.46131
G01 X4.39839 Y30.46098
G01 X4.39826 Y30.46131
G01 X4.55056 Y30.56793
G01 X4.55074 Y30.56766
G01 X4.55056 Y30.56793
G01 X4.68196 Y30.69941
G01 X4.68229 Y30.69915
G01 X4.68196 Y30.69941
G01 X4.78864 Y30.85168
G01 X4.78892 Y30.85148
G01 X4.78864 Y30.85168
G01 X4.85082 Y30.98503
G01 X4.86382 Y31.00868
G01 X4.87997 Y31.03042
G01 X4.92303 Y31.08081
G01 X4.94883 Y31.10596
G01 X4.97863 Y31.12613
G01 X5.01165 Y31.14058
G01 X5.07444 Y31.16156
G01 X5.10957 Y31.16994
G01 X5.14553 Y31.17177
G01 X5.18127 Y31.16720
G01 X5.24594 Y31.15285
G01 X5.28028 Y31.14190
G01 X5.31208 Y31.12501
G01 X5.34035 Y31.10266
G01 X5.38841 Y31.05701
G01 X5.41216 Y31.03001
G01 X5.43070 Y30.99915
G01 X5.44347 Y30.96550
G01 X5.46120 Y30.90159
G01 X5.46659 Y30.87512
G01 X5.46847 Y30.84812
G01 X5.46847 Y13.10592
G01 X5.46816 Y13.09446
G01 X5.46565 Y13.05082
G01 X5.46522 Y13.05082
G01 X5.46565 Y13.05082
G01 X5.47213 Y13.01521
G01 X5.47393 Y13.00394
G01 X5.47972 Y12.95743
G01 X5.48005 Y12.95629
G01 X5.48610 Y12.93462
G01 X5.48630 Y12.93363
G01 X5.48576 Y12.93343
G01 X5.48630 Y12.93363
G01 X5.50542 Y12.89078
G01 X5.50987 Y12.88016
G01 X5.52366 Y12.84359
G01 X5.52320 Y12.84331
G01 X5.52366 Y12.84359
G01 X5.52409 Y12.84300
G01 X5.53512 Y12.82347
G01 X5.53557 Y12.82243
G01 X5.56443 Y12.78534
G01 X5.57124 Y12.77612
G01 X5.59158 Y12.74661
G01 X5.59125 Y12.74641
G01 X5.59158 Y12.74661
G01 X5.61843 Y12.72289
G01 X5.62305 Y12.71857
G01 X5.62849 Y12.71346
G01 X5.63268 Y12.70945
G01 X6.51657 Y11.82555
G01 X6.52973 Y11.81100
G01 X6.54144 Y11.79520
G01 X6.56831 Y11.75499
G01 X6.58680 Y11.72042
G01 X6.59816 Y11.68296
G01 X6.60763 Y11.63551
G01 X6.61053 Y11.61608
G01 X6.61147 Y11.59647
G01 X6.61147 Y8.72350
G01 X6.61053 Y8.70384
G01 X6.60763 Y8.68444
G01 X6.59816 Y8.63697
G01 X6.58680 Y8.59950
G01 X6.56831 Y8.56493
G01 X6.54144 Y8.52472
G01 X6.52973 Y8.50895
G01 X6.51657 Y8.49434
G01 X5.26362 Y7.24149
G01 X5.25953 Y7.23748
G01 X5.25409 Y7.23237
G01 X5.24939 Y7.22810
G01 X5.22232 Y7.20407
G01 X5.22199 Y7.20433
G01 X5.22232 Y7.20407
G01 X5.19732 Y7.16818
G01 X5.19062 Y7.15902
G01 X5.16649 Y7.12823
G01 X5.16616 Y7.12762
G01 X5.15521 Y7.10811
G01 X5.15452 Y7.10700
G01 X5.15366 Y7.10743
G01 X5.15452 Y7.10700
G01 X5.13771 Y7.06316
G01 X5.13331 Y7.05261
G01 X5.11726 Y7.01695
G01 X5.11708 Y7.01622
G01 X5.11106 Y6.99460
G01 X5.11086 Y6.99392
G01 X5.10809 Y6.97126
G01 X5.10449 Y6.95061
G01 X5.09867 Y6.93047
G01 X5.08196 Y6.88162
G01 X5.07101 Y6.85589
G01 X5.05668 Y6.83191
G01 X5.03908 Y6.81020
G01 X5.00388 Y6.77243
G01 X4.98881 Y6.75787
G01 X4.97225 Y6.74497
G01 X4.85757 Y6.66466
G01 X4.71521 Y6.52231
G01 X4.71480 Y6.52275
G01 X4.71521 Y6.52231
G01 X4.59981 Y6.35742
G01 X4.59943 Y6.35762
G01 X4.59981 Y6.35742
G01 X4.51470 Y6.17492
G01 X4.51437 Y6.17504
G01 X4.51470 Y6.17492
G01 X4.46255 Y5.98048
G01 X4.46225 Y5.98053
G01 X4.46255 Y5.98048
G01 X4.44503 Y5.78000
G01 X4.44470 Y5.78000
G01 X4.44503 Y5.78000
G01 X4.46255 Y5.57939
G01 X4.46225 Y5.57931
G01 X4.46255 Y5.57939
G01 X4.51470 Y5.38498
G01 X4.51437 Y5.38480
G01 X4.51470 Y5.38498
G01 X4.59981 Y5.20250
G01 X4.59943 Y5.20228
G01 X4.59981 Y5.20250
G01 X4.71521 Y5.03761
G01 X4.71493 Y5.03733
G01 X4.71521 Y5.03761
G01 X4.85757 Y4.89529
G01 X4.85734 Y4.89496
G01 X4.85757 Y4.89529
G01 X5.02879 Y4.77540
G01 X5.04764 Y4.76047
G01 X5.06451 Y4.74337
G01 X5.10332 Y4.69910
G01 X5.12239 Y4.67342
G01 X5.13715 Y4.64513
G01 X5.14721 Y4.61480
G01 X5.16123 Y4.55755
G01 X5.16631 Y4.52598
G01 X5.16631 Y4.49400
G01 X5.16123 Y4.46242
G01 X5.14721 Y4.40515
G01 X5.13715 Y4.37482
G01 X5.12237 Y4.34640
G01 X5.10332 Y4.32082
G01 X5.06448 Y4.27647
G01 X5.04762 Y4.25948
G01 X5.02879 Y4.24459
G01 X4.85757 Y4.12468
G01 X4.85734 Y4.12488
G01 X4.85757 Y4.12468
G01 X4.71521 Y3.98234
G01 X4.71493 Y3.98252
G01 X4.71521 Y3.98234
G01 X4.59981 Y3.81744
G01 X4.59943 Y3.81757
G01 X4.59981 Y3.81744
G01 X4.51470 Y3.63494
G01 X4.51437 Y3.63504
G01 X4.51470 Y3.63494
G01 X4.46255 Y3.44048
G01 X4.46225 Y3.44053
G01 X4.46255 Y3.44048
G01 X4.44503 Y3.24000
G01 X4.44470 Y3.24000
G01 X4.44503 Y3.24000
G01 X4.46255 Y3.03944
G01 X4.46225 Y3.03936
G01 X4.46255 Y3.03944
G01 X4.51470 Y2.84493
G01 X4.51437 Y2.84485
G01 X4.51470 Y2.84493
G01 X4.59981 Y2.66245
G01 X4.59943 Y2.66233
G01 X4.59981 Y2.66245
G01 X4.71521 Y2.49761
G01 X4.71493 Y2.49738
G01 X4.71521 Y2.49761
G01 X4.85757 Y2.35529
G01 X4.85732 Y2.35499
G01 X4.85757 Y2.35529
G01 X5.02249 Y2.23977
G01 X5.02229 Y2.23944
G01 X5.02249 Y2.23977
G01 X5.20492 Y2.15473
G01 X5.20484 Y2.15438
G01 X5.20492 Y2.15473
G01 X5.39938 Y2.10261
G01 X5.39935 Y2.10226
G01 X5.39938 Y2.10261
G01 X5.59999 Y2.08504
G01 X5.59999 Y2.08465
G01 X5.59999 Y2.08504
G01 X5.80050 Y2.10261
G01 X5.80052 Y2.10226
G01 X5.80050 Y2.10261
G01 X5.99496 Y2.15473
G01 X5.99506 Y2.15438
G01 X5.99496 Y2.15473
G01 X6.17743 Y2.23977
G01 X6.17761 Y2.23944
G01 X6.17743 Y2.23977
G01 X6.34233 Y2.35529
G01 X6.34258 Y2.35499
G01 X6.34233 Y2.35529
G01 X6.48470 Y2.49761
G01 X6.48495 Y2.49738
G01 X6.48470 Y2.49761
G01 X6.60453 Y2.66878
G01 X6.61949 Y2.68765
G01 X6.63651 Y2.70452
G01 X6.68084 Y2.74338
G01 X6.70649 Y2.76243
G01 X6.73484 Y2.77721
G01 X6.76514 Y2.78722
G01 X6.82239 Y2.80124
G01 X6.85399 Y2.80637
G01 X6.88594 Y2.80637
G01 X6.91751 Y2.80124
G01 X6.97479 Y2.78722
G01 X7.00509 Y2.77721
G01 X7.03344 Y2.76243
G01 X7.05909 Y2.74338
G01 X7.10341 Y2.70452
G01 X7.12043 Y2.68765
G01 X7.13537 Y2.66878
G01 X7.25526 Y2.49761
G01 X7.25498 Y2.49738
G01 X7.25526 Y2.49761
G01 X7.39760 Y2.35529
G01 X7.39737 Y2.35499
G01 X7.39760 Y2.35529
G01 X7.56255 Y2.23977
G01 X7.56232 Y2.23944
G01 X7.56255 Y2.23977
G01 X7.74497 Y2.15473
G01 X7.74482 Y2.15438
G01 X7.74497 Y2.15473
G01 X7.93943 Y2.10261
G01 X7.93933 Y2.10226
G01 X7.93943 Y2.10261
G01 X8.13996 Y2.08504
G01 X8.13996 Y2.08465
G01 X8.13996 Y2.08504
G01 X8.34052 Y2.10261
G01 X8.34057 Y2.10226
G01 X8.34052 Y2.10261
G01 X8.53493 Y2.15473
G01 X8.53509 Y2.15438
G01 X8.53493 Y2.15473
G01 X8.71743 Y2.23977
G01 X8.71758 Y2.23944
G01 X8.71743 Y2.23977
G01 X8.88233 Y2.35529
G01 X8.88258 Y2.35499
G01 X8.88233 Y2.35529
G01 X9.02467 Y2.49761
G01 X9.02492 Y2.49738
G01 X9.02467 Y2.49761
G01 X9.14456 Y2.66878
G01 X9.15947 Y2.68765
G01 X9.17654 Y2.70452
G01 X9.22086 Y2.74338
G01 X9.24646 Y2.76243
G01 X9.27484 Y2.77721
G01 X9.30514 Y2.78722
G01 X9.36241 Y2.80124
G01 X9.39399 Y2.80637
G01 X9.42597 Y2.80637
G01 X9.45754 Y2.80124
G01 X9.51476 Y2.78722
G01 X9.54512 Y2.77721
G01 X9.57346 Y2.76243
G01 X9.59909 Y2.74338
G01 X9.64339 Y2.70452
G01 X9.66043 Y2.68765
G01 X9.67539 Y2.66878
G01 X9.79523 Y2.49761
G01 X9.79495 Y2.49738
G01 X9.79523 Y2.49761
G01 X9.93762 Y2.35529
G01 X9.93734 Y2.35499
G01 X9.93762 Y2.35529
G01 X10.10252 Y2.23977
G01 X10.10229 Y2.23944
G01 X10.10252 Y2.23977
G01 X10.28497 Y2.15473
G01 X10.28484 Y2.15438
G01 X10.28497 Y2.15473
G01 X10.47940 Y2.10261
G01 X10.47935 Y2.10226
G01 X10.47940 Y2.10261
G01 X10.67999 Y2.08504
G01 X10.67999 Y2.08465
G01 X10.67999 Y2.08504
G01 X10.88050 Y2.10261
G01 X10.88055 Y2.10226
G01 X10.88050 Y2.10261
G01 X11.07496 Y2.15473
G01 X11.07506 Y2.15438
G01 X11.07496 Y2.15473
G01 X11.25741 Y2.23977
G01 X11.25761 Y2.23944
G01 X11.25741 Y2.23977
G01 X11.42230 Y2.35529
G01 X11.42256 Y2.35499
G01 X11.42230 Y2.35529
G01 X11.56470 Y2.49761
G01 X11.56495 Y2.49738
G01 X11.56470 Y2.49761
G01 X11.68453 Y2.66878
G01 X11.69949 Y2.68765
G01 X11.71651 Y2.70452
G01 X11.76084 Y2.74338
G01 X11.78646 Y2.76243
G01 X11.81481 Y2.77721
G01 X11.84516 Y2.78722
G01 X11.90239 Y2.80124
G01 X11.93396 Y2.80637
G01 X11.96594 Y2.80637
G01 X11.99751 Y2.80124
G01 X12.05479 Y2.78722
G01 X12.08509 Y2.77721
G01 X12.11344 Y2.76243
G01 X12.13907 Y2.74338
G01 X12.18339 Y2.70452
G01 X12.20046 Y2.68765
G01 X12.21537 Y2.66878
G01 X12.33526 Y2.49761
G01 X12.33500 Y2.49738
G01 X12.33526 Y2.49761
G01 X12.47760 Y2.35529
G01 X12.47734 Y2.35499
G01 X12.47760 Y2.35529
G01 X12.64255 Y2.23977
G01 X12.64234 Y2.23944
G01 X12.64255 Y2.23977
G01 X12.82497 Y2.15473
G01 X12.82484 Y2.15438
G01 X12.82497 Y2.15473
G01 X13.01943 Y2.10261
G01 X13.01933 Y2.10226
G01 X13.01943 Y2.10261
G01 X13.21999 Y2.08504
G01 X13.21999 Y2.08465
G01 X13.21999 Y2.08504
G01 X13.42052 Y2.10261
G01 X13.42052 Y2.10226
G01 X13.42052 Y2.10261
G01 X13.61491 Y2.15473
G01 X13.61509 Y2.15438
G01 X13.61491 Y2.15473
G01 X13.79741 Y2.23977
G01 X13.79758 Y2.23944
G01 X13.79741 Y2.23977
G01 X13.96233 Y2.35529
G01 X13.96253 Y2.35499
G01 X13.96233 Y2.35529
G01 X14.10465 Y2.49761
G01 X14.10492 Y2.49738
G01 X14.10465 Y2.49761
G01 X14.22456 Y2.66878
G01 X14.23949 Y2.68765
G01 X14.25654 Y2.70452
G01 X14.30086 Y2.74338
G01 X14.32646 Y2.76243
G01 X14.35481 Y2.77721
G01 X14.38511 Y2.78722
G01 X14.44239 Y2.80124
G01 X14.47396 Y2.80637
G01 X14.50594 Y2.80637
G01 X14.53751 Y2.80124
G01 X14.59479 Y2.78722
G01 X14.62509 Y2.77721
G01 X14.65341 Y2.76243
G01 X14.67909 Y2.74338
G01 X14.72341 Y2.70452
G01 X14.74041 Y2.68765
G01 X14.75539 Y2.66878
G01 X14.87526 Y2.49761
G01 X14.87495 Y2.49738
G01 X14.87526 Y2.49761
G01 X15.01762 Y2.35529
G01 X15.01734 Y2.35499
G01 X15.01762 Y2.35529
G01 X15.18249 Y2.23977
G01 X15.18229 Y2.23944
G01 X15.18249 Y2.23977
G01 X15.36497 Y2.15473
G01 X15.36479 Y2.15438
G01 X15.36497 Y2.15473
G01 X15.55943 Y2.10261
G01 X15.55935 Y2.10226
G01 X15.55943 Y2.10261
G01 X15.75999 Y2.08504
G01 X15.75999 Y2.08465
G01 X15.75999 Y2.08504
G01 X15.96052 Y2.10261
G01 X15.96055 Y2.10226
G01 X15.96052 Y2.10261
G01 X16.15491 Y2.15473
G01 X16.15509 Y2.15438
G01 X16.15491 Y2.15473
G01 X16.33743 Y2.23977
G01 X16.33761 Y2.23944
G01 X16.33743 Y2.23977
G01 X16.50228 Y2.35529
G01 X16.50256 Y2.35499
G01 X16.50228 Y2.35529
G01 X16.64467 Y2.49761
G01 X16.64495 Y2.49738
G01 X16.64467 Y2.49761
G01 X16.76451 Y2.66878
G01 X16.77949 Y2.68765
G01 X16.79654 Y2.70452
G01 X16.84086 Y2.74338
G01 X16.86649 Y2.76243
G01 X16.89484 Y2.77721
G01 X16.92514 Y2.78722
G01 X16.98241 Y2.80124
G01 X17.01399 Y2.80637
G01 X17.04594 Y2.80637
G01 X17.07754 Y2.80124
G01 X17.13479 Y2.78722
G01 X17.16509 Y2.77721
G01 X17.19344 Y2.76243
G01 X17.21904 Y2.74338
G01 X17.26336 Y2.70452
G01 X17.28043 Y2.68765
G01 X17.29534 Y2.66878
G01 X17.41526 Y2.49761
G01 X17.41498 Y2.49738
G01 X17.41526 Y2.49761
G01 X17.55757 Y2.35529
G01 X17.55737 Y2.35499
G01 X17.55757 Y2.35529
G01 X17.72252 Y2.23977
G01 X17.72232 Y2.23944
G01 X17.72252 Y2.23977
G01 X17.90492 Y2.15473
G01 X17.90482 Y2.15438
G01 X17.90492 Y2.15473
G01 X18.09938 Y2.10261
G01 X18.09935 Y2.10226
G01 X18.09938 Y2.10261
G01 X18.29999 Y2.08504
G01 X18.29999 Y2.08465
G01 X18.29999 Y2.08504
G01 X18.50047 Y2.10261
G01 X18.50057 Y2.10226
G01 X18.50047 Y2.10261
G01 X18.69493 Y2.15473
G01 X18.69504 Y2.15438
G01 X18.69493 Y2.15473
G01 X18.87743 Y2.23977
G01 X18.87761 Y2.23944
G01 X18.87743 Y2.23977
G01 X19.04228 Y2.35529
G01 X19.04258 Y2.35499
G01 X19.04228 Y2.35529
G01 X19.18467 Y2.49761
G01 X19.18495 Y2.49738
G01 X19.18467 Y2.49761
G01 X19.30451 Y2.66878
G01 X19.31949 Y2.68765
G01 X19.33649 Y2.70452
G01 X19.38081 Y2.74338
G01 X19.40649 Y2.76243
G01 X19.43484 Y2.77721
G01 X19.46516 Y2.78722
G01 X19.52241 Y2.80124
G01 X19.55399 Y2.80637
G01 X19.58597 Y2.80637
G01 X19.61754 Y2.80124
G01 X19.67479 Y2.78722
G01 X19.70512 Y2.77721
G01 X19.73346 Y2.76243
G01 X19.75907 Y2.74338
G01 X19.80339 Y2.70452
G01 X19.82046 Y2.68765
G01 X19.83534 Y2.66878
G01 X19.95526 Y2.49761
G01 X19.95500 Y2.49738
G01 X19.95526 Y2.49761
G01 X20.09757 Y2.35529
G01 X20.09737 Y2.35499
G01 X20.09757 Y2.35529
G01 X20.26252 Y2.23977
G01 X20.26234 Y2.23944
G01 X20.26252 Y2.23977
G01 X20.44494 Y2.15473
G01 X20.44484 Y2.15438
G01 X20.44494 Y2.15473
G01 X20.63941 Y2.10261
G01 X20.63930 Y2.10226
G01 X20.63941 Y2.10261
G01 X20.83994 Y2.08504
G01 X20.83994 Y2.08465
G01 X20.83994 Y2.08504
G01 X21.04050 Y2.10261
G01 X21.04057 Y2.10226
G01 X21.04050 Y2.10261
G01 X21.23496 Y2.15473
G01 X21.23506 Y2.15438
G01 X21.23496 Y2.15473
G01 X21.41743 Y2.23977
G01 X21.41756 Y2.23944
G01 X21.41743 Y2.23977
G01 X21.58230 Y2.35529
G01 X21.58258 Y2.35499
G01 X21.58230 Y2.35529
G01 X21.72470 Y2.49761
G01 X21.72490 Y2.49738
G01 X21.72470 Y2.49761
G01 X21.84453 Y2.66878
G01 X21.85944 Y2.68765
G01 X21.87651 Y2.70452
G01 X21.92084 Y2.74338
G01 X21.94644 Y2.76243
G01 X21.97484 Y2.77721
G01 X22.00516 Y2.78722
G01 X22.06241 Y2.80124
G01 X22.09399 Y2.80637
G01 X22.12597 Y2.80637
G01 X22.15754 Y2.80124
G01 X22.21474 Y2.78722
G01 X22.24512 Y2.77721
G01 X22.27346 Y2.76243
G01 X22.29907 Y2.74338
G01 X22.34341 Y2.70452
G01 X22.36046 Y2.68765
G01 X22.37537 Y2.66878
G01 X22.49521 Y2.49761
G01 X22.49500 Y2.49738
G01 X22.49521 Y2.49761
G01 X22.63760 Y2.35529
G01 X22.63732 Y2.35499
G01 X22.63760 Y2.35529
G01 X22.80255 Y2.23977
G01 X22.80234 Y2.23944
G01 X22.80255 Y2.23977
G01 X22.98494 Y2.15473
G01 X22.98484 Y2.15438
G01 X22.98494 Y2.15473
G01 X23.17943 Y2.10261
G01 X23.17933 Y2.10226
G01 X23.17943 Y2.10261
G01 X23.37996 Y2.08504
G01 X23.37996 Y2.08465
G01 X23.37996 Y2.08504
G01 X23.58052 Y2.10261
G01 X23.58052 Y2.10226
G01 X23.58052 Y2.10261
G01 X23.77496 Y2.15473
G01 X23.77509 Y2.15438
G01 X23.77496 Y2.15473
G01 X23.95738 Y2.23977
G01 X23.95758 Y2.23944
G01 X23.95738 Y2.23977
G01 X24.12233 Y2.35529
G01 X24.12253 Y2.35499
G01 X24.12233 Y2.35529
G01 X24.26470 Y2.49761
G01 X24.26492 Y2.49738
G01 X24.26470 Y2.49761
G01 X24.38456 Y2.66878
G01 X24.39947 Y2.68765
G01 X24.41654 Y2.70452
G01 X24.46086 Y2.74338
G01 X24.48644 Y2.76243
G01 X24.51478 Y2.77721
G01 X24.54516 Y2.78722
G01 X24.60236 Y2.80124
G01 X24.63394 Y2.80637
G01 X24.66591 Y2.80637
G01 X24.69749 Y2.80124
G01 X24.75476 Y2.78722
G01 X24.78507 Y2.77721
G01 X24.81341 Y2.76243
G01 X24.83909 Y2.74338
G01 X24.88341 Y2.70452
G01 X24.90046 Y2.68765
G01 X24.91539 Y2.66878
G01 X25.03523 Y2.49761
G01 X25.03500 Y2.49738
G01 X25.03523 Y2.49761
G01 X25.17762 Y2.35529
G01 X25.17732 Y2.35499
G01 X25.17762 Y2.35529
G01 X25.34255 Y2.23977
G01 X25.34234 Y2.23944
G01 X25.34255 Y2.23977
G01 X25.52497 Y2.15473
G01 X25.52484 Y2.15438
G01 X25.52497 Y2.15473
G01 X25.71940 Y2.10261
G01 X25.71933 Y2.10226
G01 X25.71940 Y2.10261
G01 X25.91999 Y2.08504
G01 X25.91999 Y2.08465
G01 X25.91999 Y2.08504
G01 X26.12052 Y2.10261
G01 X26.12057 Y2.10226
G01 X26.12052 Y2.10261
G01 X26.31493 Y2.15473
G01 X26.31509 Y2.15438
G01 X26.31493 Y2.15473
G01 X26.49743 Y2.23977
G01 X26.49758 Y2.23944
G01 X26.49743 Y2.23977
G01 X26.66233 Y2.35529
G01 X26.66258 Y2.35499
G01 X26.66233 Y2.35529
G01 X26.80470 Y2.49761
G01 X26.80492 Y2.49738
G01 X26.80470 Y2.49761
G01 X26.92484 Y2.66926
G01 X26.93977 Y2.68806
G01 X26.95684 Y2.70495
G01 X27.00114 Y2.74376
G01 X27.02677 Y2.76283
G01 X27.05514 Y2.77759
G01 X27.08544 Y2.78770
G01 X27.14269 Y2.80167
G01 X27.17429 Y2.80680
G01 X27.20624 Y2.80680
G01 X27.23784 Y2.80167
G01 X27.29509 Y2.78770
G01 X27.32540 Y2.77759
G01 X27.34897 Y2.76532
G01 X27.35290 Y2.75140
G01 X27.34897 Y2.76532
G01 X27.47328 Y2.88966
G01 X27.48912 Y2.88564
G01 X27.47328 Y2.88966
G01 X27.43490 Y3.01610
G01 X27.43015 Y3.03515
G01 X27.42728 Y3.05455
G01 X27.41094 Y3.22039
G01 X27.41094 Y3.25953
G01 X27.42728 Y3.42542
G01 X27.43015 Y3.44477
G01 X27.43490 Y3.46382
G01 X27.47328 Y3.59029
G01 X27.48912 Y3.59425
G01 X27.47328 Y3.59029
G01 X27.34899 Y3.71457
G01 X27.35296 Y3.72854
G01 X27.34899 Y3.71457
G01 X27.32540 Y3.70230
G01 X27.29509 Y3.69219
G01 X27.23784 Y3.67817
G01 X27.20624 Y3.67309
G01 X27.17429 Y3.67309
G01 X27.14269 Y3.67817
G01 X27.08544 Y3.69219
G01 X27.05514 Y3.70230
G01 X27.02677 Y3.71701
G01 X27.00114 Y3.73614
G01 X26.95684 Y3.77500
G01 X26.93977 Y3.79186
G01 X26.92484 Y3.81063
G01 X26.80470 Y3.98234
G01 X26.80492 Y3.98252
G01 X26.80470 Y3.98234
G01 X26.66233 Y4.12468
G01 X26.66253 Y4.12488
G01 X26.66233 Y4.12468
G01 X26.49106 Y4.24459
G01 X26.47229 Y4.25948
G01 X26.45542 Y4.27647
G01 X26.41656 Y4.32082
G01 X26.39748 Y4.34642
G01 X26.38268 Y4.37487
G01 X26.37267 Y4.40525
G01 X26.35867 Y4.46253
G01 X26.35359 Y4.49402
G01 X26.35359 Y4.52595
G01 X26.35867 Y4.55747
G01 X26.37267 Y4.61472
G01 X26.38268 Y4.64510
G01 X26.39748 Y4.67342
G01 X26.41656 Y4.69913
G01 X26.45542 Y4.74337
G01 X26.47229 Y4.76047
G01 X26.49106 Y4.77535
G01 X26.66233 Y4.89527
G01 X26.66253 Y4.89496
G01 X26.66233 Y4.89527
G01 X26.80470 Y5.03761
G01 X26.80492 Y5.03733
G01 X26.80470 Y5.03761
G01 X26.92484 Y5.20921
G01 X26.93977 Y5.22808
G01 X26.95684 Y5.24495
G01 X27.00114 Y5.28378
G01 X27.02677 Y5.30283
G01 X27.05514 Y5.31762
G01 X27.08544 Y5.32765
G01 X27.14269 Y5.34167
G01 X27.17429 Y5.34675
G01 X27.20624 Y5.34675
G01 X27.23784 Y5.34167
G01 X27.29509 Y5.32765
G01 X27.32540 Y5.31762
G01 X27.34897 Y5.30537
G01 X27.35290 Y5.29140
G01 X27.34897 Y5.30537
G01 X27.47328 Y5.42968
G01 X27.48912 Y5.42559
G01 X27.47328 Y5.42968
G01 X27.43490 Y5.55605
G01 X27.43015 Y5.57510
G01 X27.42728 Y5.59455
G01 X27.41094 Y5.76034
G01 X27.41094 Y5.79958
G01 X27.42728 Y5.96542
G01 X27.43015 Y5.98477
G01 X27.43490 Y6.00382
G01 X27.47328 Y6.13029
G01 X27.48912 Y6.13430
G01 X27.47328 Y6.13029
G01 X27.34899 Y6.25452
G01 X27.35296 Y6.26854
G01 X27.34899 Y6.25452
G01 X27.32540 Y6.24230
G01 X27.29509 Y6.23219
G01 X27.23784 Y6.21822
G01 X27.20624 Y6.21309
G01 X27.17429 Y6.21309
G01 X27.14269 Y6.21822
G01 X27.08544 Y6.23219
G01 X27.05514 Y6.24230
G01 X27.02677 Y6.25706
G01 X27.00114 Y6.27614
G01 X26.95684 Y6.31500
G01 X26.93977 Y6.33186
G01 X26.92484 Y6.35066
G01 X26.80470 Y6.52231
G01 X26.80513 Y6.52267
G01 X26.80470 Y6.52231
G01 X26.66233 Y6.66466
G01 X26.55860 Y6.73727
G01 X26.53980 Y6.75218
G01 X26.52296 Y6.76925
G01 X26.48407 Y6.81358
G01 X26.46500 Y6.83918
G01 X26.45021 Y6.86760
G01 X26.44021 Y6.89795
G01 X26.42621 Y6.95518
G01 X26.42189 Y6.97878
G01 X26.42045 Y7.00270
G01 X26.42045 Y24.05375
G01 X26.42189 Y24.07760
G01 X26.42621 Y24.10122
G01 X26.44021 Y24.15842
G01 X26.45021 Y24.18883
G01 X26.46500 Y24.21715
G01 X26.48407 Y24.24285
G01 X26.52296 Y24.28718
G01 X26.53980 Y24.30422
G01 X26.55865 Y24.31915
G01 X26.58580 Y24.33818
G01 X26.71580 Y24.46810
G01 X26.71608 Y24.46792
G01 X26.71580 Y24.46810
G01 X26.82118 Y24.61865
G01 X26.82151 Y24.61852
G01 X26.82118 Y24.61865
G01 X26.89885 Y24.78532
G01 X26.89924 Y24.78517
G01 X26.89885 Y24.78532
G01 X26.94648 Y24.96287
G01 X26.94683 Y24.96276
G01 X26.94648 Y24.96287
G01 X26.96246 Y25.14595
G01 X26.96286 Y25.14595
G01 X26.96246 Y25.14595
G01 X26.94648 Y25.32903
G01 X26.94683 Y25.32913
G01 X26.94648 Y25.32903
G01 X26.89885 Y25.50660
G01 X26.89924 Y25.50673
G01 X26.89885 Y25.50660
G01 X26.82118 Y25.67325
G01 X26.82151 Y25.67338
G01 X26.82118 Y25.67325
G01 X26.71580 Y25.82380
G01 X26.71608 Y25.82400
G01 X26.71580 Y25.82380
G01 X26.58580 Y25.95380
G01 X26.58603 Y25.95408
G01 X26.58580 Y25.95380
G01 X26.43525 Y26.05916
G01 X26.43541 Y26.05951
G01 X26.43525 Y26.05916
G01 X26.26860 Y26.13683
G01 X26.26873 Y26.13724
G01 X26.26860 Y26.13683
G01 X26.09103 Y26.18448
G01 X26.09111 Y26.18483
G01 X26.09103 Y26.18448
G01 X25.90797 Y26.20046
G01 X25.90797 Y26.20086
G01 X25.90797 Y26.20046
G01 X25.72487 Y26.18448
G01 X25.72482 Y26.18483
G01 X25.72487 Y26.18448
G01 X25.54732 Y26.13683
G01 X25.54717 Y26.13724
G01 X25.54732 Y26.13683
G01 X25.38070 Y26.05916
G01 X25.38052 Y26.05951
G01 X25.38070 Y26.05916
G01 X25.23015 Y25.95380
G01 X25.22990 Y25.95408
G01 X25.23015 Y25.95380
G01 X25.10015 Y25.82380
G01 X25.09985 Y25.82400
G01 X25.10015 Y25.82380
G01 X24.99472 Y25.67325
G01 X24.99441 Y25.67338
G01 X24.99472 Y25.67325
G01 X24.91707 Y25.50660
G01 X24.91666 Y25.50673
G01 X24.91707 Y25.50660
G01 X24.86947 Y25.32903
G01 X24.86911 Y25.32913
G01 X24.86947 Y25.32903
G01 X24.85342 Y25.14595
G01 X24.85309 Y25.14595
G01 X24.85342 Y25.14595
G01 X24.86947 Y24.96287
G01 X24.86911 Y24.96276
G01 X24.86947 Y24.96287
G01 X24.91707 Y24.78532
G01 X24.91666 Y24.78517
G01 X24.91707 Y24.78532
G01 X24.99472 Y24.61865
G01 X24.99441 Y24.61852
G01 X24.99472 Y24.61865
G01 X25.10015 Y24.46810
G01 X25.09967 Y24.46772
G01 X25.10015 Y24.46810
G01 X25.23015 Y24.33815
G01 X25.28128 Y24.30236
G01 X25.30008 Y24.28745
G01 X25.31687 Y24.27041
G01 X25.35580 Y24.22609
G01 X25.37493 Y24.20038
G01 X25.38964 Y24.17204
G01 X25.39975 Y24.14166
G01 X25.41369 Y24.08438
G01 X25.41801 Y24.06084
G01 X25.41946 Y24.03691
G01 X25.41946 Y7.00270
G01 X25.41801 Y6.97878
G01 X25.41369 Y6.95518
G01 X25.39975 Y6.89795
G01 X25.38964 Y6.86755
G01 X25.37493 Y6.83918
G01 X25.35580 Y6.81352
G01 X25.31687 Y6.76920
G01 X25.30008 Y6.75218
G01 X25.28128 Y6.73727
G01 X25.17762 Y6.66466
G01 X25.17742 Y6.66491
G01 X25.17762 Y6.66466
G01 X25.03523 Y6.52231
G01 X25.03500 Y6.52257
G01 X25.03523 Y6.52231
G01 X24.91539 Y6.35109
G01 X24.90046 Y6.33225
G01 X24.88341 Y6.31538
G01 X24.83909 Y6.27652
G01 X24.81341 Y6.25744
G01 X24.78507 Y6.24268
G01 X24.75476 Y6.23263
G01 X24.69749 Y6.21861
G01 X24.66591 Y6.21358
G01 X24.63394 Y6.21358
G01 X24.60236 Y6.21861
G01 X24.54516 Y6.23263
G01 X24.51478 Y6.24268
G01 X24.48644 Y6.25744
G01 X24.46086 Y6.27652
G01 X24.41654 Y6.31538
G01 X24.39947 Y6.33225
G01 X24.38456 Y6.35109
G01 X24.26470 Y6.52231
G01 X24.26492 Y6.52257
G01 X24.26470 Y6.52231
G01 X24.12233 Y6.66466
G01 X24.12253 Y6.66496
G01 X24.12233 Y6.66466
G01 X23.95738 Y6.78012
G01 X23.95758 Y6.78043
G01 X23.95738 Y6.78012
G01 X23.77496 Y6.86521
G01 X23.77509 Y6.86554
G01 X23.77496 Y6.86521
G01 X23.58052 Y6.91733
G01 X23.58052 Y6.91766
G01 X23.58052 Y6.91733
G01 X23.37996 Y6.93483
G01 X23.37996 Y6.93522
G01 X23.37996 Y6.93483
G01 X23.17943 Y6.91733
G01 X23.17933 Y6.91766
G01 X23.17943 Y6.91733
G01 X22.98494 Y6.86521
G01 X22.98484 Y6.86554
G01 X22.98494 Y6.86521
G01 X22.80255 Y6.78012
G01 X22.80234 Y6.78043
G01 X22.80255 Y6.78012
G01 X22.63760 Y6.66466
G01 X22.63732 Y6.66496
G01 X22.63760 Y6.66466
G01 X22.49521 Y6.52231
G01 X22.49500 Y6.52257
G01 X22.49521 Y6.52231
G01 X22.37537 Y6.35109
G01 X22.36046 Y6.33225
G01 X22.34341 Y6.31538
G01 X22.29907 Y6.27652
G01 X22.27346 Y6.25744
G01 X22.24512 Y6.24268
G01 X22.21474 Y6.23263
G01 X22.15754 Y6.21861
G01 X22.12597 Y6.21358
G01 X22.09399 Y6.21358
G01 X22.06241 Y6.21861
G01 X22.00516 Y6.23263
G01 X21.97484 Y6.24268
G01 X21.94644 Y6.25744
G01 X21.92084 Y6.27652
G01 X21.87651 Y6.31538
G01 X21.85944 Y6.33225
G01 X21.84453 Y6.35109
G01 X21.72470 Y6.52231
G01 X21.72490 Y6.52257
G01 X21.72470 Y6.52231
G01 X21.58230 Y6.66466
G01 X21.58258 Y6.66496
G01 X21.58230 Y6.66466
G01 X21.41743 Y6.78012
G01 X21.41756 Y6.78043
G01 X21.41743 Y6.78012
G01 X21.23496 Y6.86521
G01 X21.23506 Y6.86554
G01 X21.23496 Y6.86521
G01 X21.04050 Y6.91733
G01 X21.04057 Y6.91766
G01 X21.04050 Y6.91733
G01 X20.83994 Y6.93483
G01 X20.83994 Y6.93522
G01 X20.83994 Y6.93483
G01 X20.63941 Y6.91733
G01 X20.63930 Y6.91766
G01 X20.63941 Y6.91733
G01 X20.44494 Y6.86521
G01 X20.44484 Y6.86554
G01 X20.44494 Y6.86521
G01 X20.26252 Y6.78012
G01 X20.26234 Y6.78043
G01 X20.26252 Y6.78012
G01 X20.09757 Y6.66466
G01 X20.09737 Y6.66496
G01 X20.09757 Y6.66466
G01 X19.95526 Y6.52231
G01 X19.95500 Y6.52257
G01 X19.95526 Y6.52231
G01 X19.83534 Y6.35109
G01 X19.82046 Y6.33225
G01 X19.80339 Y6.31538
G01 X19.75907 Y6.27652
G01 X19.73346 Y6.25744
G01 X19.70512 Y6.24268
G01 X19.67479 Y6.23263
G01 X19.61754 Y6.21861
G01 X19.58597 Y6.21358
G01 X19.55399 Y6.21358
G01 X19.52241 Y6.21861
G01 X19.46516 Y6.23263
G01 X19.43484 Y6.24268
G01 X19.40649 Y6.25744
G01 X19.38081 Y6.27652
G01 X19.33649 Y6.31538
G01 X19.31949 Y6.33225
G01 X19.30451 Y6.35109
G01 X19.18467 Y6.52231
G01 X19.18495 Y6.52257
G01 X19.18467 Y6.52231
G01 X19.04228 Y6.66466
G01 X19.04258 Y6.66496
G01 X19.04228 Y6.66466
G01 X18.87743 Y6.78012
G01 X18.87761 Y6.78043
G01 X18.87743 Y6.78012
G01 X18.69493 Y6.86521
G01 X18.69504 Y6.86554
G01 X18.69493 Y6.86521
G01 X18.61472 Y6.88673
G01 X18.50047 Y6.91728
G01 X18.50057 Y6.91766
G01 X18.50047 Y6.91728
G01 X18.29999 Y6.93483
G01 X18.29999 Y6.93522
G01 X18.29999 Y6.93483
G01 X18.09938 Y6.91733
G01 X18.09935 Y6.91766
G01 X18.09938 Y6.91733
G01 X17.90492 Y6.86521
G01 X17.90482 Y6.86554
G01 X17.90492 Y6.86521
G01 X17.72252 Y6.78012
G01 X17.72232 Y6.78043
G01 X17.72252 Y6.78012
G01 X17.55757 Y6.66466
G01 X17.55737 Y6.66496
G01 X17.55757 Y6.66466
G01 X17.41526 Y6.52231
G01 X17.41498 Y6.52257
G01 X17.41526 Y6.52231
G01 X17.29534 Y6.35109
G01 X17.28043 Y6.33225
G01 X17.26336 Y6.31538
G01 X17.21904 Y6.27652
G01 X17.19344 Y6.25744
G01 X17.16509 Y6.24268
G01 X17.13479 Y6.23263
G01 X17.07754 Y6.21861
G01 X17.04594 Y6.21358
G01 X17.01399 Y6.21358
G01 X16.98241 Y6.21861
G01 X16.92514 Y6.23263
G01 X16.89484 Y6.24268
G01 X16.86649 Y6.25744
G01 X16.84086 Y6.27652
G01 X16.79654 Y6.31538
G01 X16.77949 Y6.33225
G01 X16.76451 Y6.35109
G01 X16.64467 Y6.52231
G01 X16.64495 Y6.52257
G01 X16.64467 Y6.52231
G01 X16.50228 Y6.66466
G01 X16.50256 Y6.66496
G01 X16.50228 Y6.66466
G01 X16.33743 Y6.78012
G01 X16.33761 Y6.78043
G01 X16.33743 Y6.78012
G01 X16.15491 Y6.86521
G01 X16.15509 Y6.86554
G01 X16.15491 Y6.86521
G01 X15.96052 Y6.91733
G01 X15.96055 Y6.91766
G01 X15.96052 Y6.91733
G01 X15.75999 Y6.93483
G01 X15.75999 Y6.93522
G01 X15.75999 Y6.93483
G01 X15.55943 Y6.91733
G01 X15.55935 Y6.91766
G01 X15.55943 Y6.91733
G01 X15.36497 Y6.86521
G01 X15.36479 Y6.86554
G01 X15.36497 Y6.86521
G01 X15.18249 Y6.78012
G01 X15.18229 Y6.78043
G01 X15.18249 Y6.78012
G01 X15.01762 Y6.66466
G01 X15.01734 Y6.66496
G01 X15.01762 Y6.66466
G01 X14.87526 Y6.52231
G01 X14.87495 Y6.52257
G01 X14.87526 Y6.52231
G01 X14.75509 Y6.35066
G01 X14.74010 Y6.33186
G01 X14.72306 Y6.31500
G01 X14.67879 Y6.27614
G01 X14.65313 Y6.25706
G01 X14.62479 Y6.24230
G01 X14.59448 Y6.23219
G01 X14.53721 Y6.21822
G01 X14.50564 Y6.21309
G01 X14.47366 Y6.21309
G01 X14.44208 Y6.21822
G01 X14.38481 Y6.23219
G01 X14.35451 Y6.24230
G01 X14.33096 Y6.25452
G01 X14.32697 Y6.26854
G01 X14.33096 Y6.25452
G01 X14.20670 Y6.13029
G01 X14.19083 Y6.13433
G01 X14.20670 Y6.13029
G01 X14.24498 Y6.00382
G01 X14.24978 Y5.98477
G01 X14.25270 Y5.96542
G01 X14.26901 Y5.79958
G01 X14.26997 Y5.78000
G01 X14.26901 Y5.76034
G01 X14.25270 Y5.59455
G01 X14.24978 Y5.57510
G01 X14.24498 Y5.55605
G01 X14.20663 Y5.42966
G01 X14.19083 Y5.42559
G01 X14.20663 Y5.42966
G01 X14.33098 Y5.30537
G01 X14.32702 Y5.29140
G01 X14.33098 Y5.30537
G01 X14.35451 Y5.31762
G01 X14.38481 Y5.32765
G01 X14.44208 Y5.34167
G01 X14.47366 Y5.34675
G01 X14.50564 Y5.34675
G01 X14.53721 Y5.34167
G01 X14.59448 Y5.32765
G01 X14.62479 Y5.31762
G01 X14.65313 Y5.30283
G01 X14.67879 Y5.28378
G01 X14.72306 Y5.24495
G01 X14.74010 Y5.22808
G01 X14.75509 Y5.20921
G01 X14.87526 Y5.03761
G01 X14.87495 Y5.03733
G01 X14.87526 Y5.03761
G01 X15.01762 Y4.89529
G01 X15.01742 Y4.89506
G01 X15.01762 Y4.89529
G01 X15.18884 Y4.77540
G01 X15.20759 Y4.76047
G01 X15.22446 Y4.74337
G01 X15.26337 Y4.69910
G01 X15.28242 Y4.67342
G01 X15.29720 Y4.64513
G01 X15.30723 Y4.61480
G01 X15.32125 Y4.55755
G01 X15.32636 Y4.52598
G01 X15.32636 Y4.49400
G01 X15.32125 Y4.46242
G01 X15.30723 Y4.40515
G01 X15.29720 Y4.37482
G01 X15.28242 Y4.34640
G01 X15.26329 Y4.32082
G01 X15.22446 Y4.27647
G01 X15.20759 Y4.25948
G01 X15.18884 Y4.24459
G01 X15.01762 Y4.12468
G01 X15.01734 Y4.12488
G01 X15.01762 Y4.12468
G01 X14.87526 Y3.98234
G01 X14.87495 Y3.98252
G01 X14.87526 Y3.98234
G01 X14.75539 Y3.81112
G01 X14.74041 Y3.79225
G01 X14.72341 Y3.77538
G01 X14.67909 Y3.73652
G01 X14.65341 Y3.71744
G01 X14.62509 Y3.70268
G01 X14.59479 Y3.69268
G01 X14.53751 Y3.67866
G01 X14.50594 Y3.67358
G01 X14.47396 Y3.67358
G01 X14.44239 Y3.67866
G01 X14.38511 Y3.69268
G01 X14.35481 Y3.70268
G01 X14.32646 Y3.71744
G01 X14.30086 Y3.73652
G01 X14.25654 Y3.77538
G01 X14.23949 Y3.79225
G01 X14.22456 Y3.81112
G01 X14.10465 Y3.98234
G01 X14.10485 Y3.98249
G01 X14.10465 Y3.98234
G01 X13.96233 Y4.12468
G01 X13.96253 Y4.12488
G01 X13.96233 Y4.12468
G01 X13.79063 Y4.24485
G01 X13.77188 Y4.25973
G01 X13.75501 Y4.27683
G01 X13.71610 Y4.32107
G01 X13.69705 Y4.34678
G01 X13.68227 Y4.37512
G01 X13.67224 Y4.40550
G01 X13.65824 Y4.46278
G01 X13.65314 Y4.49428
G01 X13.65314 Y4.52620
G01 X13.65824 Y4.55773
G01 X13.67224 Y4.61498
G01 X13.68227 Y4.64533
G01 X13.69454 Y4.66900
G01 X13.70853 Y4.67289
G01 X13.69454 Y4.66900
G01 X13.57028 Y4.79323
G01 X13.57429 Y4.80858
G01 X13.57028 Y4.79323
G01 X13.44386 Y4.75493
G01 X13.40541 Y4.74729
G01 X13.23960 Y4.73095
G01 X13.20038 Y4.73095
G01 X13.03454 Y4.74729
G01 X12.99609 Y4.75493
G01 X12.86967 Y4.79323
G01 X12.86566 Y4.80858
G01 X12.86967 Y4.79323
G01 X12.74534 Y4.66898
G01 X12.73142 Y4.67289
G01 X12.74534 Y4.66898
G01 X12.75761 Y4.64536
G01 X12.76769 Y4.61498
G01 X12.78171 Y4.55773
G01 X12.78679 Y4.52620
G01 X12.78679 Y4.49428
G01 X12.78171 Y4.46278
G01 X12.76769 Y4.40550
G01 X12.75761 Y4.37512
G01 X12.74288 Y4.34675
G01 X12.72375 Y4.32102
G01 X12.68486 Y4.27672
G01 X12.66800 Y4.25971
G01 X12.64925 Y4.24485
G01 X12.47760 Y4.12468
G01 X12.47739 Y4.12488
G01 X12.47760 Y4.12468
G01 X12.33526 Y3.98234
G01 X12.33500 Y3.98252
G01 X12.33526 Y3.98234
G01 X12.21537 Y3.81112
G01 X12.20046 Y3.79225
G01 X12.18339 Y3.77538
G01 X12.13907 Y3.73652
G01 X12.11344 Y3.71744
G01 X12.08509 Y3.70268
G01 X12.05479 Y3.69268
G01 X11.99751 Y3.67866
G01 X11.96594 Y3.67358
G01 X11.93396 Y3.67358
G01 X11.90239 Y3.67866
G01 X11.84516 Y3.69268
G01 X11.81481 Y3.70268
G01 X11.78646 Y3.71744
G01 X11.76084 Y3.73652
G01 X11.71651 Y3.77538
G01 X11.69949 Y3.79225
G01 X11.68453 Y3.81112
G01 X11.56470 Y3.98234
G01 X11.56495 Y3.98252
G01 X11.56470 Y3.98234
G01 X11.42230 Y4.12468
G01 X11.42256 Y4.12488
G01 X11.42230 Y4.12468
G01 X11.25108 Y4.24459
G01 X11.23231 Y4.25948
G01 X11.21542 Y4.27647
G01 X11.17656 Y4.32082
G01 X11.15748 Y4.34642
G01 X11.14268 Y4.37487
G01 X11.13267 Y4.40525
G01 X11.11865 Y4.46253
G01 X11.11359 Y4.49402
G01 X11.11359 Y4.52595
G01 X11.11865 Y4.55747
G01 X11.13267 Y4.61472
G01 X11.14273 Y4.64510
G01 X11.15748 Y4.67342
G01 X11.17656 Y4.69913
G01 X11.21542 Y4.74337
G01 X11.23231 Y4.76047
G01 X11.25108 Y4.77535
G01 X11.42230 Y4.89527
G01 X11.42251 Y4.89506
G01 X11.42230 Y4.89527
G01 X11.56470 Y5.03761
G01 X11.56495 Y5.03733
G01 X11.56470 Y5.03761
G01 X11.68484 Y5.20921
G01 X11.69977 Y5.22808
G01 X11.71684 Y5.24495
G01 X11.76117 Y5.28378
G01 X11.78677 Y5.30283
G01 X11.81511 Y5.31762
G01 X11.84547 Y5.32765
G01 X11.90269 Y5.34167
G01 X11.93427 Y5.34675
G01 X11.96627 Y5.34675
G01 X11.99782 Y5.34167
G01 X12.05507 Y5.32765
G01 X12.08542 Y5.31762
G01 X12.10897 Y5.30537
G01 X12.11293 Y5.29140
G01 X12.10897 Y5.30537
G01 X12.23328 Y5.42968
G01 X12.24915 Y5.42559
G01 X12.23328 Y5.42968
G01 X12.19492 Y5.55605
G01 X12.19017 Y5.57510
G01 X12.18728 Y5.59455
G01 X12.17094 Y5.76034
G01 X12.17094 Y5.79958
G01 X12.18728 Y5.96542
G01 X12.19017 Y5.98477
G01 X12.19492 Y6.00382
G01 X12.23328 Y6.13029
G01 X12.24915 Y6.13430
G01 X12.23328 Y6.13029
G01 X12.10897 Y6.25452
G01 X12.11293 Y6.26854
G01 X12.10897 Y6.25452
G01 X12.08542 Y6.24230
G01 X12.05507 Y6.23219
G01 X11.99782 Y6.21822
G01 X11.96627 Y6.21309
G01 X11.93427 Y6.21309
G01 X11.90269 Y6.21822
G01 X11.84547 Y6.23219
G01 X11.81511 Y6.24230
G01 X11.78677 Y6.25706
G01 X11.76117 Y6.27614
G01 X11.71684 Y6.31500
G01 X11.69977 Y6.33186
G01 X11.68484 Y6.35066
G01 X11.56470 Y6.52231
G01 X11.56495 Y6.52257
G01 X11.56470 Y6.52231
G01 X11.42230 Y6.66466
G01 X11.42256 Y6.66496
G01 X11.42230 Y6.66466
G01 X11.25741 Y6.78012
G01 X11.25761 Y6.78043
G01 X11.25741 Y6.78012
G01 X11.07496 Y6.86521
G01 X11.07506 Y6.86554
G01 X11.07496 Y6.86521
G01 X10.88050 Y6.91733
G01 X10.88055 Y6.91766
G01 X10.88050 Y6.91733
G01 X10.67999 Y6.93483
G01 X10.67999 Y6.93522
G01 X10.67999 Y6.93483
G01 X10.47940 Y6.91733
G01 X10.47935 Y6.91766
G01 X10.47940 Y6.91733
G01 X10.29835 Y6.86880
G01 X10.27590 Y6.86412
G01 X10.25307 Y6.86206
G01 X10.19678 Y6.86026
G01 X10.16632 Y6.86158
G01 X10.13640 Y6.86750
G01 X10.10778 Y6.87796
G01 X10.05644 Y6.90121
G01 X10.02967 Y6.91586
G01 X10.00544 Y6.93448
G01 X9.98436 Y6.95655
G01 X9.94862 Y7.00009
G01 X9.93115 Y7.02506
G01 X9.91766 Y7.05236
G01 X9.90849 Y7.08144
G01 X9.89571 Y7.13631
G01 X9.89178 Y7.15886
G01 X9.89046 Y7.18177
G01 X9.89046 Y32.90865
G01 X9.89139 Y32.92826
G01 X9.89429 Y32.94769
G01 X9.90374 Y32.99511
G01 X9.91512 Y33.03262
G01 X9.93361 Y33.06717
G01 X9.96048 Y33.10740
G01 X9.97214 Y33.12317
G01 X9.98537 Y33.13770
G01 X10.07880 Y33.23115
G01 X10.18421 Y33.38170
G01 X10.18451 Y33.38149
G01 X10.18421 Y33.38170
G01 X10.26188 Y33.54829
G01 X10.26224 Y33.54817
G01 X10.26188 Y33.54829
G01 X10.30945 Y33.72587
G01 X10.30983 Y33.72579
G01 X10.30945 Y33.72587
G01 X10.32548 Y33.90897
G01 X10.32586 Y33.90897
G01 X10.32548 Y33.90897
G01 X10.30945 Y34.09208
G01 X10.30983 Y34.09208
G01 X10.30945 Y34.09208
G01 X10.26188 Y34.26958
G01 X10.26224 Y34.26973
G01 X10.26188 Y34.26958
G01 X10.18421 Y34.43625
G01 X10.18451 Y34.43643
G01 X10.18421 Y34.43625
G01 X10.07880 Y34.58680
G01 X10.07908 Y34.58700
G01 X10.07880 Y34.58680
G01 X9.94880 Y34.71677
G01 X9.94900 Y34.71705
G01 X9.94880 Y34.71677
G01 X9.79823 Y34.82221
G01 X9.79843 Y34.82249
G01 X9.79823 Y34.82221
G01 X9.63160 Y34.89988
G01 X9.63176 Y34.90024
G01 X9.63160 Y34.89988
G01 X9.45406 Y34.94748
G01 X9.45411 Y34.94781
G01 X9.45406 Y34.94748
G01 X9.27097 Y34.96346
G01 X9.27097 Y34.96386
G01 X9.27097 Y34.96346
G01 X9.08784 Y34.94748
G01 X9.08779 Y34.94781
G01 X9.08784 Y34.94748
G01 X8.91032 Y34.89988
G01 X8.91019 Y34.90011
G01 X8.91032 Y34.89988
G01 X8.71802 Y34.81022
G01 X8.68464 Y34.79815
G01 X8.68350 Y34.79795
G01 X8.64591 Y34.78472
G01 X8.61073 Y34.77580
G01 X8.57446 Y34.77346
G01 X8.53841 Y34.77765
G01 X8.47306 Y34.79142
G01 X8.43834 Y34.80206
G01 X8.40613 Y34.81885
G01 X8.37748 Y34.84121
G01 X8.32874 Y34.88687
G01 X8.30458 Y34.91395
G01 X8.28578 Y34.94499
G01 X8.27286 Y34.97887
G01 X8.25485 Y35.04319
G01 X8.24931 Y35.06991
G01 X8.24746 Y35.09714
G01 X8.24746 Y36.25911
G01 X8.24842 Y36.27872
G01 X8.25132 Y36.29810
G01 X8.26074 Y36.34562
G01 X8.27212 Y36.38311
G01 X8.29061 Y36.41768
G01 X8.31751 Y36.45792
G01 X8.34233 Y36.48814
G01 X8.46427 Y36.61011
G01 X8.47260 Y36.61799
G01 X8.50542 Y36.64727
G01 X8.50562 Y36.64707
G01 X8.50542 Y36.64727
G01 X8.53056 Y36.68339
G01 X8.53730 Y36.69251
G01 X8.56150 Y36.72342
G01 X8.56201 Y36.72309
G01 X8.56150 Y36.72342
G01 X8.56176 Y36.72398
G01 X8.57278 Y36.74351
G01 X8.57341 Y36.74455
G01 X8.59020 Y36.78837
G01 X8.59460 Y36.79891
G01 X8.61065 Y36.83462
G01 X8.61139 Y36.83442
G01 X8.61065 Y36.83462
G01 X8.61083 Y36.83526
G01 X8.61682 Y36.85690
G01 X8.61720 Y36.85807
G01 X8.62300 Y36.90457
G01 X8.62477 Y36.91593
G01 X8.63128 Y36.95151
G01 X8.63163 Y36.95146
G01 X8.63128 Y36.95151
G01 X8.62879 Y36.99513
G01 X8.62843 Y37.00656
G01 X8.62843 Y37.88834
G01 X8.62990 Y37.91227
G01 X8.63417 Y37.93587
G01 X8.64819 Y37.99317
G01 X8.65825 Y38.02347
G01 X8.67306 Y38.05187
G01 X8.69213 Y38.07750
G01 X8.73097 Y38.12179
G01 X8.74784 Y38.13879
G01 X8.76661 Y38.15372
G01 X8.80580 Y38.18115
G01 X8.93577 Y38.31115
G01 X8.93608 Y38.31087
G01 X8.93577 Y38.31115
G01 X9.04121 Y38.46170
G01 X9.04154 Y38.46149
G01 X9.04121 Y38.46170
G01 X9.11888 Y38.62829
G01 X9.11921 Y38.62814
G01 X9.11888 Y38.62829
G01 X9.16648 Y38.80584
G01 X9.16683 Y38.80579
G01 X9.16648 Y38.80584
G01 X9.18246 Y38.98897
G01 X9.18286 Y38.98897
G01 X9.18246 Y38.98897
G01 X9.16648 Y39.17208
G01 X9.16683 Y39.17213
G01 X9.16648 Y39.17208
G01 X9.11888 Y39.34963
G01 X9.11921 Y39.34976
G01 X9.11888 Y39.34963
G01 X9.04121 Y39.51623
G01 X9.04154 Y39.51643
G01 X9.04121 Y39.51623
G01 X8.93577 Y39.66677
G01 X8.93608 Y39.66698
G01 X8.93577 Y39.66677
G01 X8.80580 Y39.79677
G01 X8.80603 Y39.79705
G01 X8.80580 Y39.79677
G01 X8.65525 Y39.90221
G01 X8.65541 Y39.90254
G01 X8.65525 Y39.90221
G01 X8.48860 Y39.97988
G01 X8.48871 Y39.98024
G01 X8.48860 Y39.97988
G01 X8.31106 Y40.02745
G01 X8.31113 Y40.02781
G01 X8.31106 Y40.02745
G01 X8.12795 Y40.04348
G01 X8.12795 Y40.04384
G01 X8.12795 Y40.04348
G01 X7.94487 Y40.02745
G01 X7.94482 Y40.02781
G01 X7.94487 Y40.02745
G01 X7.76732 Y39.97988
G01 X7.76717 Y39.98024
G01 X7.76732 Y39.97988
G01 X7.60070 Y39.90221
G01 X7.60052 Y39.90254
G01 X7.60070 Y39.90221
G01 X7.45012 Y39.79677
G01 X7.44992 Y39.79705
G01 X7.45012 Y39.79677
G01 X7.32013 Y39.66677
G01 X7.31985 Y39.66698
G01 X7.32013 Y39.66677
G01 X7.21472 Y39.51623
G01 X7.21441 Y39.51643
G01 X7.21472 Y39.51623
G01 X7.13704 Y39.34963
G01 X7.13666 Y39.34976
G01 X7.13704 Y39.34963
G01 X7.08947 Y39.17208
G01 X7.08909 Y39.17213
G01 X7.08947 Y39.17208
G01 X7.07344 Y38.98897
G01 X7.07306 Y38.98897
G01 X7.07344 Y38.98897
G01 X7.08947 Y38.80584
G01 X7.08909 Y38.80579
G01 X7.08947 Y38.80584
G01 X7.13704 Y38.62829
G01 X7.13666 Y38.62814
G01 X7.13704 Y38.62829
G01 X7.21472 Y38.46170
G01 X7.21441 Y38.46149
G01 X7.21472 Y38.46170
G01 X7.32013 Y38.31115
G01 X7.31980 Y38.31079
G01 X7.32013 Y38.31115
G01 X7.45012 Y38.18115
G01 X7.48934 Y38.15372
G01 X7.50809 Y38.13879
G01 X7.52495 Y38.12179
G01 X7.56379 Y38.07750
G01 X7.58287 Y38.05187
G01 X7.59767 Y38.02347
G01 X7.60771 Y37.99317
G01 X7.62173 Y37.93587
G01 X7.62605 Y37.91227
G01 X7.62747 Y37.88834
G01 X7.62747 Y37.32317
G01 X7.62650 Y37.30351
G01 X7.62361 Y37.28410
G01 X7.61418 Y37.23665
G01 X7.60280 Y37.19916
G01 X7.58429 Y37.16459
G01 X7.55747 Y37.12436
G01 X7.54578 Y37.10859
G01 X7.53255 Y37.09406
G01 X7.41065 Y36.97216
G01 X7.40242 Y36.96434
G01 X7.35912 Y36.92568
G01 X7.33661 Y36.90826
G01 X7.31185 Y36.89429
G01 X7.24982 Y36.86472
G01 X7.21467 Y36.85189
G01 X7.17779 Y36.84580
G01 X7.14042 Y36.84671
G01 X7.07217 Y36.85471
G01 X7.03560 Y36.86259
G01 X7.00113 Y36.87707
G01 X6.96999 Y36.89777
G01 X6.91650 Y36.94095
G01 X6.89595 Y36.96002
G01 X6.87824 Y36.98182
G01 X6.77680 Y37.12675
G01 X6.77705 Y37.12703
G01 X6.77680 Y37.12675
G01 X6.64680 Y37.25680
G01 X6.64700 Y37.25708
G01 X6.64680 Y37.25680
G01 X6.49623 Y37.36218
G01 X6.49643 Y37.36251
G01 X6.49623 Y37.36218
G01 X6.32963 Y37.43985
G01 X6.32976 Y37.44021
G01 X6.32963 Y37.43985
G01 X6.15208 Y37.48743
G01 X6.15213 Y37.48783
G01 X6.15208 Y37.48743
G01 X5.96897 Y37.50348
G01 X5.96897 Y37.50381
G01 X5.96897 Y37.50348
G01 X5.78582 Y37.48743
G01 X5.78576 Y37.48783
G01 X5.78582 Y37.48743
G01 X5.60827 Y37.43985
G01 X5.60814 Y37.44021
G01 X5.60827 Y37.43985
G01 X5.44170 Y37.36218
G01 X5.44152 Y37.36251
G01 X5.44170 Y37.36218
G01 X5.29110 Y37.25680
G01 X5.29087 Y37.25702
G01 X5.29110 Y37.25680
G01 X5.16209 Y37.12779
G01 X5.14586 Y37.11318
G01 X5.12813 Y37.10051
G01 X5.08287 Y37.07163
G01 X5.05734 Y37.05786
G01 X5.03001 Y37.04791
G01 X5.00159 Y37.04209
G01 X4.94833 Y37.03508
G01 X4.91934 Y37.03338
G01 X4.89041 Y37.03592
G01 X4.86214 Y37.04262
G01 X4.81091 Y37.05875
G01 X4.78394 Y37.06945
G01 X4.75872 Y37.08397
G01 X4.73596 Y37.10201
G01 X4.73037 Y37.10714
G01 X4.72874 Y37.10810
G01 X4.70202 Y37.13051
G01 X4.55056 Y37.28202
G01 X4.39826 Y37.38862
G01 X4.28518 Y37.44130
G01 X4.26044 Y37.45507
G01 X4.23786 Y37.47221
G01 X4.18569 Y37.51793
G01 X4.15983 Y37.54544
G01 X4.13954 Y37.57729
G01 X4.12559 Y37.61242
G01 X4.10614 Y37.67905
G01 X4.09905 Y37.71608
G01 X4.09905 Y37.75382
G01 X4.10614 Y37.79086
G01 X4.12559 Y37.85751
G01 X4.13951 Y37.89261
G01 X4.15981 Y37.92446
G01 X4.18567 Y37.95189
G01 X4.23784 Y37.99769
G01 X4.26042 Y38.01483
G01 X4.28521 Y38.02863
G01 X4.39826 Y38.08128
G01 X4.39839 Y38.08100
G01 X4.39826 Y38.08128
G01 X4.55056 Y38.18793
G01 X4.55074 Y38.18766
G01 X4.55056 Y38.18793
G01 X4.68196 Y38.31938
G01 X4.68229 Y38.31915
G01 X4.68196 Y38.31938
G01 X4.78864 Y38.47170
G01 X4.78892 Y38.47150
G01 X4.78864 Y38.47170
G01 X4.86717 Y38.64016
G01 X4.86755 Y38.64000
G01 X4.86717 Y38.64016
G01 X4.91526 Y38.81976
G01 X4.91569 Y38.81968
G01 X4.91526 Y38.81976
G01 X4.93146 Y39.00493
G01 X4.93189 Y39.00493
G01 X4.93146 Y39.00493
G01 X4.91526 Y39.19017
G01 X4.91569 Y39.19024
G01 X4.91526 Y39.19017
G01 X4.86717 Y39.36972
G01 X4.86755 Y39.36987
G01 X4.86717 Y39.36972
G01 X4.78864 Y39.53825
G01 X4.78892 Y39.53845
G01 X4.78864 Y39.53825
G01 X4.68196 Y39.69050
G01 X4.68229 Y39.69078
G01 X4.68196 Y39.69050
G01 X4.55056 Y39.82199
G01 X4.55077 Y39.82227
G01 X4.55056 Y39.82199
G01 X4.39826 Y39.92860
G01 X4.39839 Y39.92895
G01 X4.39826 Y39.92860
G01 X4.22976 Y40.00716
G01 X4.22989 Y40.00757
G01 X4.22976 Y40.00716
G01 X4.05016 Y40.05529
G01 X4.05021 Y40.05570
G01 X4.05016 Y40.05529
G01 X3.86491 Y40.07152
G01 X3.86491 Y40.07188
G01 X3.86491 Y40.07152
G01 X3.67977 Y40.05529
G01 X3.67965 Y40.05570
G01 X3.67977 Y40.05529
G01 X3.50020 Y40.00716
G01 X3.50007 Y40.00757
G01 X3.50020 Y40.00716
G01 X3.33169 Y39.92860
G01 X3.33151 Y39.92895
G01 X3.33169 Y39.92860
G01 X3.17939 Y39.82199
G01 X3.17909 Y39.82227
G01 X3.17939 Y39.82199
G01 X3.04792 Y39.69050
G01 X3.04759 Y39.69078
G01 X3.04792 Y39.69050
G01 X2.94132 Y39.53825
G01 X2.94099 Y39.53845
G01 X2.94132 Y39.53825
G01 X2.86273 Y39.36972
G01 X2.86238 Y39.36987
G01 X2.86273 Y39.36972
G01 X2.81460 Y39.19017
G01 X2.81424 Y39.19024
G01 X2.81460 Y39.19017
G01 X2.79837 Y39.00493
G01 X2.79804 Y39.00493
G01 X2.79837 Y39.00493
G01 X2.81460 Y38.81976
G01 X2.81424 Y38.81968
G01 X2.81460 Y38.81976
G01 X2.86273 Y38.64016
G01 X2.86238 Y38.64000
G01 X2.86273 Y38.64016
G01 X2.94132 Y38.47170
G01 X2.94099 Y38.47150
G01 X2.94132 Y38.47170
G01 X3.04792 Y38.31938
G01 X3.04759 Y38.31915
G01 X3.04792 Y38.31938
G01 X3.17939 Y38.18793
G01 X3.17909 Y38.18766
G01 X3.17939 Y38.18793
G01 X3.33169 Y38.08128
G01 X3.33154 Y38.08100
G01 X3.33169 Y38.08128
G01 X3.44462 Y38.02863
G01 X3.46939 Y38.01483
G01 X3.49197 Y37.99769
G01 X3.54416 Y37.95197
G01 X3.57010 Y37.92449
G01 X3.59042 Y37.89261
G01 X3.60436 Y37.85751
G01 X3.62372 Y37.79086
G01 X3.63080 Y37.75382
G01 X3.63080 Y37.71608
G01 X3.62372 Y37.67905
G01 X3.60436 Y37.61242
G01 X3.59042 Y37.57729
G01 X3.57010 Y37.54542
G01 X3.54411 Y37.51793
G01 X3.49192 Y37.47214
G01 X3.46939 Y37.45507
G01 X3.44465 Y37.44135
G01 X3.33172 Y37.38865
G01 X3.33154 Y37.38893
G01 X3.33172 Y37.38865
G01 X3.17939 Y37.28197
G01 X3.17909 Y37.28230
G01 X3.17939 Y37.28197
G01 X3.04792 Y37.15055
G01 X3.04759 Y37.15080
G01 X3.04792 Y37.15055
G01 X2.94132 Y36.99827
G01 X2.94099 Y36.99843
G01 X2.94132 Y36.99827
G01 X2.86273 Y36.82970
G01 X2.86238 Y36.82985
G01 X2.86273 Y36.82970
G01 X2.81460 Y36.65014
G01 X2.81424 Y36.65022
G01 X2.81460 Y36.65014
G01 X2.79837 Y36.46498
G01 X2.79804 Y36.46498
G01 X2.79837 Y36.46498
G01 X2.81460 Y36.27973
G01 X2.81424 Y36.27966
G01 X2.81460 Y36.27973
G01 X2.86273 Y36.10018
G01 X2.86238 Y36.10005
G01 X2.86273 Y36.10018
G01 X2.94132 Y35.93168
G01 X2.94099 Y35.93147
G01 X2.94132 Y35.93168
G01 X3.04792 Y35.77941
G01 X3.04759 Y35.77913
G01 X3.04792 Y35.77941
G01 X3.17939 Y35.64791
G01 X3.17909 Y35.64766
G01 X3.17939 Y35.64791
G01 X3.33169 Y35.54131
G01 X3.33154 Y35.54103
G01 X3.33169 Y35.54131
G01 X3.44462 Y35.48860
G01 X3.46939 Y35.47481
G01 X3.49197 Y35.45774
G01 X3.54416 Y35.41194
G01 X3.57010 Y35.38446
G01 X3.59042 Y35.35263
G01 X3.60436 Y35.31748
G01 X3.62372 Y35.25083
G01 X3.63080 Y35.21382
G01 X3.63080 Y35.17610
G01 X3.62372 Y35.13902
G01 X3.60436 Y35.07240
G01 X3.59042 Y35.03729
G01 X3.57010 Y35.00542
G01 X3.54411 Y34.97791
G01 X3.49192 Y34.93219
G01 X3.46939 Y34.91509
G01 X3.44465 Y34.90133
G01 X3.33172 Y34.84862
G01 X3.33154 Y34.84890
G01 X3.33172 Y34.84862
G01 X3.17939 Y34.74199
G01 X3.17909 Y34.74227
G01 X3.17939 Y34.74199
G01 X3.04792 Y34.61052
G01 X3.04759 Y34.61080
G01 X3.04792 Y34.61052
G01 X2.94132 Y34.45825
G01 X2.94099 Y34.45845
G01 X2.94132 Y34.45825
G01 X2.86273 Y34.28975
G01 X2.86238 Y34.28987
G01 X2.86273 Y34.28975
G01 X2.81460 Y34.11012
G01 X2.81424 Y34.11024
G01 X2.81460 Y34.11012
G01 X2.79837 Y33.92495
G01 X2.79804 Y33.92495
G01 X2.79837 Y33.92495
G01 X2.81460 Y33.73976
G01 X2.81424 Y33.73963
G01 X2.81460 Y33.73976
G01 X2.86273 Y33.56016
G01 X2.86238 Y33.56003
G01 X2.86273 Y33.56016
G01 X2.94132 Y33.39170
G01 X2.94099 Y33.39150
G01 X2.94132 Y33.39170
G01 X3.04792 Y33.23938
G01 X3.04759 Y33.23910
G01 X3.04792 Y33.23938
G01 X3.17939 Y33.10788
G01 X3.17909 Y33.10760
G01 X3.17939 Y33.10788
G01 X3.33169 Y33.00128
G01 X3.33154 Y33.00100
G01 X3.33169 Y33.00128
G01 X3.44462 Y32.94863
G01 X3.46939 Y32.93486
G01 X3.49197 Y32.91771
G01 X3.54416 Y32.87197
G01 X3.57010 Y32.84449
G01 X3.59042 Y32.81261
G01 X3.60436 Y32.77751
G01 X3.62372 Y32.71088
G01 X3.63080 Y32.67380
G01 X3.63080 Y32.63608
G01 X3.62372 Y32.59905
G01 X3.60436 Y32.53242
G01 X3.59042 Y32.49727
G01 X3.57010 Y32.46537
G01 X3.54411 Y32.43793
G01 X3.49192 Y32.39216
G01 X3.46939 Y32.37509
G01 X3.44465 Y32.36130
G01 X3.33172 Y32.30865
G01 X3.33154 Y32.30893
G01 X3.33172 Y32.30865
G01 X3.17939 Y32.20199
G01 X3.17909 Y32.20225
G01 X3.17939 Y32.20199
G01 X3.04792 Y32.07055
G01 X3.04759 Y32.07078
G01 X3.04792 Y32.07055
G01 X2.94132 Y31.91828
G01 X2.94099 Y31.91843
G01 X2.94132 Y31.91828
G01 X2.86273 Y31.74972
G01 X2.86238 Y31.74985
G01 X2.86273 Y31.74972
G01 X2.81460 Y31.57017
G01 X2.81424 Y31.57024
G01 X2.81460 Y31.57017
G01 X2.79837 Y31.38498
G04 P0 ( dwell for no time -- G64 should not smooth over this point )
G00 Z5.00000 ( retract )

G00 X2.90396 Y33.90539 ( rapid move to begin. )
G01 F150.00000
( Mill infeed pass 1/1 )
G01 Z-0.05000
G04 P0 ( dwell for no time -- G64 should not smooth over this point )
G01 F300.00000
G01 X2.90396 Y33.90539
G01 X2.91856 Y33.75670
G01 X2.92143 Y33.73732
G01 X2.92623 Y33.71825
G01 X2.96962 Y33.57532
G01 X2.98455 Y33.53910
G01 X3.05498 Y33.40735
G01 X3.06319 Y33.39363
G01 X3.06847 Y33.38594
G01 X3.07680 Y33.37476
G01 X3.17157 Y33.25927
G01 X3.18016 Y33.24979
G01 X3.18981 Y33.24014
G01 X3.19928 Y33.23156
G01 X3.31478 Y33.13681
G01 X3.34734 Y33.11502
G01 X3.47911 Y33.04461
G01 X3.49679 Y33.03618
G01 X3.51528 Y33.02960
G01 X3.65821 Y32.98619
G01 X3.67726 Y32.98147
G01 X3.69672 Y32.97860
G01 X3.84533 Y32.96392
G01 X3.88455 Y32.96392
G01 X4.03324 Y32.97860
G01 X4.05267 Y32.98147
G01 X4.07170 Y32.98619
G01 X4.21460 Y33.02960
G01 X4.23314 Y33.03618
G01 X4.25087 Y33.04461
G01 X4.38262 Y33.11502
G01 X4.41521 Y33.13681
G01 X4.53067 Y33.23156
G01 X4.54518 Y33.24474
G01 X4.55841 Y33.25927
G01 X4.65313 Y33.37476
G01 X4.66486 Y33.39054
G01 X4.67490 Y33.40735
G01 X4.74533 Y33.53910
G01 X4.76032 Y33.57532
G01 X4.80372 Y33.71825
G01 X4.80850 Y33.73732
G01 X4.81140 Y33.75670
G01 X4.82603 Y33.90539
G01 X4.82603 Y33.94456
G01 X4.81140 Y34.09325
G01 X4.80372 Y34.13171
G01 X4.76032 Y34.27466
G01 X4.75371 Y34.29310
G01 X4.74533 Y34.31085
G01 X4.67490 Y34.44260
G01 X4.65313 Y34.47519
G01 X4.55841 Y34.59069
G01 X4.54518 Y34.60516
G01 X4.53067 Y34.61840
G01 X4.41521 Y34.71314
G01 X4.38262 Y34.73496
G01 X4.25087 Y34.80537
G01 X4.23314 Y34.81372
G01 X4.21460 Y34.82038
G01 X4.07170 Y34.86371
G01 X4.05267 Y34.86848
G01 X4.03324 Y34.87138
G01 X3.88455 Y34.88604
G01 X3.84533 Y34.88604
G01 X3.69672 Y34.87138
G01 X3.67726 Y34.86848
G01 X3.65821 Y34.86371
G01 X3.51528 Y34.82038
G01 X3.49679 Y34.81372
G01 X3.47911 Y34.80537
G01 X3.34734 Y34.73496
G01 X3.31478 Y34.71314
G01 X3.19928 Y34.61840
G01 X3.19004 Y34.60996
G01 X3.17995 Y34.59988
G01 X3.17157 Y34.59069
G01 X3.07680 Y34.47519
G01 X3.06870 Y34.46429
G01 X3.06309 Y34.45612
G01 X3.05498 Y34.44260
G01 X2.98455 Y34.31085
G01 X2.96962 Y34.27466
G01 X2.92623 Y34.13171
G01 X2.92143 Y34.11266
G01 X2.91856 Y34.09325
G01 X2.90396 Y33.94456
G01 X2.90396 Y33.90539
G01 X3.00347 Y33.91520
G01 X3.01805 Y33.76651
G01 X3.01950 Y33.75683
G01 X3.02189 Y33.74730
G01 X3.06525 Y33.60430
G01 X3.07279 Y33.58622
G01 X3.14317 Y33.45449
G01 X3.14825 Y33.44608
G01 X3.15404 Y33.43819
G01 X3.24881 Y33.32274
G01 X3.25547 Y33.31540
G01 X3.26273 Y33.30882
G01 X3.37820 Y33.21408
G01 X3.39451 Y33.20318
G01 X3.52623 Y33.13278
G01 X3.53507 Y33.12859
G01 X3.54429 Y33.12531
G01 X3.68724 Y33.08190
G01 X3.69682 Y33.07956
G01 X3.70652 Y33.07806
G01 X3.85514 Y33.06346
G01 X3.87474 Y33.06346
G01 X4.02339 Y33.07806
G01 X4.03316 Y33.07956
G01 X4.04261 Y33.08190
G01 X4.18556 Y33.12531
G01 X4.19481 Y33.12859
G01 X4.20373 Y33.13278
G01 X4.33548 Y33.20318
G01 X4.35178 Y33.21408
G01 X4.46725 Y33.30882
G01 X4.47451 Y33.31540
G01 X4.48104 Y33.32274
G01 X4.57586 Y33.43819
G01 X4.58168 Y33.44608
G01 X4.58671 Y33.45449
G01 X4.65712 Y33.58622
G01 X4.66468 Y33.60430
G01 X4.70799 Y33.74730
G01 X4.71043 Y33.75683
G01 X4.71185 Y33.76651
G01 X4.72646 Y33.91520
G01 X4.72646 Y33.93476
G01 X4.71185 Y34.08345
G01 X4.71043 Y34.09312
G01 X4.70799 Y34.10265
G01 X4.66468 Y34.24560
G01 X4.65712 Y34.26374
G01 X4.58671 Y34.39546
G01 X4.58168 Y34.40389
G01 X4.57586 Y34.41177
G01 X4.48104 Y34.52721
G01 X4.47451 Y34.53450
G01 X4.46725 Y34.54108
G01 X4.35178 Y34.63587
G01 X4.33548 Y34.64677
G01 X4.20373 Y34.71718
G01 X4.19481 Y34.72137
G01 X4.18556 Y34.72467
G01 X4.04261 Y34.76800
G01 X4.03316 Y34.77039
G01 X4.02339 Y34.77184
G01 X3.87474 Y34.78649
G01 X3.85514 Y34.78649
G01 X3.70652 Y34.77184
G01 X3.69682 Y34.77039
G01 X3.68724 Y34.76800
G01 X3.54429 Y34.72467
G01 X3.53507 Y34.72137
G01 X3.52623 Y34.71718
G01 X3.39451 Y34.64677
G01 X3.37820 Y34.63587
G01 X3.26273 Y34.54108
G01 X3.25547 Y34.53450
G01 X3.24881 Y34.52721
G01 X3.15404 Y34.41177
G01 X3.14825 Y34.40389
G01 X3.14317 Y34.39546
G01 X3.07279 Y34.26374
G01 X3.06525 Y34.24560
G01 X3.02189 Y34.10265
G01 X3.01950 Y34.09312
G01 X3.01805 Y34.08345
G01 X3.00347 Y33.93476
G01 X3.00347 Y33.91520
G04 P0 ( dwell for no time -- G64 should not smooth over this point )
G00 Z5.00000 ( retract )

G00 X2.90396 Y36.44537 ( rapid move to begin. )
G01 F150.00000
( Mill infeed pass 1/1 )
G01 Z-0.05000
G04 P0 ( dwell for no time -- G64 should not smooth over this point )
G01 F300.00000
G01 X2.90396 Y36.44537
G01 X2.91856 Y36.29673
G01 X2.92143 Y36.27732
G01 X2.92623 Y36.25827
G01 X2.96962 Y36.11532
G01 X2.98455 Y36.07907
G01 X3.05498 Y35.94738
G01 X3.06319 Y35.93366
G01 X3.06847 Y35.92591
G01 X3.07680 Y35.91474
G01 X3.17157 Y35.79929
G01 X3.18016 Y35.78982
G01 X3.18981 Y35.78017
G01 X3.19928 Y35.77158
G01 X3.31478 Y35.67679
G01 X3.34734 Y35.65497
G01 X3.47911 Y35.58456
G01 X3.49679 Y35.57621
G01 X3.51528 Y35.56955
G01 X3.65821 Y35.52622
G01 X3.67726 Y35.52144
G01 X3.69672 Y35.51855
G01 X3.84533 Y35.50394
G01 X3.88455 Y35.50394
G01 X4.03324 Y35.51855
G01 X4.05267 Y35.52144
G01 X4.07170 Y35.52622
G01 X4.21460 Y35.56955
G01 X4.23314 Y35.57621
G01 X4.25087 Y35.58456
G01 X4.38262 Y35.65497
G01 X4.41521 Y35.67679
G01 X4.53067 Y35.77158
G01 X4.54518 Y35.78474
G01 X4.55841 Y35.79929
G01 X4.65313 Y35.91474
G01 X4.66486 Y35.93051
G01 X4.67490 Y35.94738
G01 X4.74533 Y36.07907
G01 X4.76032 Y36.11532
G01 X4.80372 Y36.25827
G01 X4.80850 Y36.27732
G01 X4.81140 Y36.29673
G01 X4.82603 Y36.44537
G01 X4.82603 Y36.48459
G01 X4.81140 Y36.63323
G01 X4.80372 Y36.67168
G01 X4.76032 Y36.81461
G01 X4.75371 Y36.83312
G01 X4.74533 Y36.85088
G01 X4.67490 Y36.98258
G01 X4.65313 Y37.01522
G01 X4.55841 Y37.13066
G01 X4.55021 Y37.13965
G01 X4.53964 Y37.15019
G01 X4.53067 Y37.15837
G01 X4.41521 Y37.25316
G01 X4.38262 Y37.27496
G01 X4.25087 Y37.34537
G01 X4.23314 Y37.35375
G01 X4.21460 Y37.36038
G01 X4.07170 Y37.40374
G01 X4.05267 Y37.40851
G01 X4.03324 Y37.41133
G01 X3.88455 Y37.42601
G01 X3.84533 Y37.42601
G01 X3.69672 Y37.41133
G01 X3.67726 Y37.40851
G01 X3.65821 Y37.40374
G01 X3.51528 Y37.36038
G01 X3.49679 Y37.35375
G01 X3.47911 Y37.34537
G01 X3.34734 Y37.27496
G01 X3.31478 Y37.25316
G01 X3.19928 Y37.15837
G01 X3.19004 Y37.14999
G01 X3.17995 Y37.13993
G01 X3.17157 Y37.13066
G01 X3.07680 Y37.01522
G01 X3.06870 Y37.00429
G01 X3.06309 Y36.99614
G01 X3.05498 Y36.98258
G01 X2.98455 Y36.85088
G01 X2.96962 Y36.81461
G01 X2.92623 Y36.67168
G01 X2.92143 Y36.65261
G01 X2.91856 Y36.63323
G01 X2.90396 Y36.48459
G01 X2.90396 Y36.44537
G01 X3.00347 Y36.45517
G01 X3.01805 Y36.30653
G01 X3.01950 Y36.29680
G01 X3.02189 Y36.28728
G01 X3.06525 Y36.14433
G01 X3.07279 Y36.12624
G01 X3.14317 Y35.99447
G01 X3.14825 Y35.98603
G01 X3.15404 Y35.97821
G01 X3.24881 Y35.86272
G01 X3.25547 Y35.85543
G01 X3.26273 Y35.84885
G01 X3.37820 Y35.75411
G01 X3.39451 Y35.74321
G01 X3.52623 Y35.67280
G01 X3.53507 Y35.66861
G01 X3.54429 Y35.66526
G01 X3.68724 Y35.62193
G01 X3.69682 Y35.61954
G01 X3.70652 Y35.61809
G01 X3.85514 Y35.60343
G01 X3.87474 Y35.60343
G01 X4.02339 Y35.61809
G01 X4.03316 Y35.61954
G01 X4.04261 Y35.62193
G01 X4.18556 Y35.66526
G01 X4.19481 Y35.66861
G01 X4.20373 Y35.67280
G01 X4.33548 Y35.74321
G01 X4.35178 Y35.75411
G01 X4.46725 Y35.84885
G01 X4.47451 Y35.85543
G01 X4.48104 Y35.86272
G01 X4.57586 Y35.97821
G01 X4.58168 Y35.98603
G01 X4.58671 Y35.99447
G01 X4.65712 Y36.12624
G01 X4.66468 Y36.14433
G01 X4.70799 Y36.28728
G01 X4.71043 Y36.29680
G01 X4.71185 Y36.30653
G01 X4.72646 Y36.45517
G01 X4.72646 Y36.47478
G01 X4.71185 Y36.62342
G01 X4.71043 Y36.63315
G01 X4.70799 Y36.64267
G01 X4.66468 Y36.78563
G01 X4.65712 Y36.80371
G01 X4.58671 Y36.93541
G01 X4.58168 Y36.94389
G01 X4.57586 Y36.95174
G01 X4.48104 Y37.06724
G01 X4.47451 Y37.07453
G01 X4.46725 Y37.08110
G01 X4.35178 Y37.17585
G01 X4.33548 Y37.18674
G01 X4.20373 Y37.25715
G01 X4.19481 Y37.26134
G01 X4.18556 Y37.26462
G01 X4.04261 Y37.30803
G01 X4.03316 Y37.31042
G01 X4.02339 Y37.31186
G01 X3.87474 Y37.32647
G01 X3.85514 Y37.32647
G01 X3.70652 Y37.31186
G01 X3.69682 Y37.31042
G01 X3.68724 Y37.30803
G01 X3.54429 Y37.26462
G01 X3.53507 Y37.26134
G01 X3.52623 Y37.25715
G01 X3.39451 Y37.18674
G01 X3.37820 Y37.17585
G01 X3.26273 Y37.08110
G01 X3.25547 Y37.07453
G01 X3.24881 Y37.06724
G01 X3.15404 Y36.95174
G01 X3.14825 Y36.94389
G01 X3.14317 Y36.93541
G01 X3.07279 Y36.80371
G01 X3.06525 Y36.78563
G01 X3.02189 Y36.64267
G01 X3.01950 Y36.63315
G01 X3.01805 Y36.62342
G01 X3.00347 Y36.47478
G01 X3.00347 Y36.45517
G04 P0 ( dwell for no time -- G64 should not smooth over this point )
G00 Z5.00000 ( retract )

G00 X2.90396 Y38.98539 ( rapid move to begin. )
G01 F150.00000
( Mill infeed pass 1/1 )
G01 Z-0.05000
G04 P0 ( dwell for no time -- G64 should not smooth over this point )
G01 F300.00000
G01 X2.90396 Y38.98539
G01 X2.91856 Y38.83670
G01 X2.92143 Y38.81730
G01 X2.92623 Y38.79825
G01 X2.96962 Y38.65529
G01 X2.98455 Y38.61910
G01 X3.05498 Y38.48732
G01 X3.06319 Y38.47363
G01 X3.06847 Y38.46594
G01 X3.07680 Y38.45476
G01 X3.17157 Y38.33924
G01 X3.18016 Y38.32979
G01 X3.18981 Y38.32012
G01 X3.19928 Y38.31156
G01 X3.31478 Y38.21681
G01 X3.34734 Y38.19500
G01 X3.47911 Y38.12459
G01 X3.49679 Y38.11615
G01 X3.51528 Y38.10958
G01 X3.65821 Y38.06624
G01 X3.67726 Y38.06147
G01 X3.69672 Y38.05857
G01 X3.84533 Y38.04392
G01 X3.88455 Y38.04392
G01 X4.03324 Y38.05857
G01 X4.05267 Y38.06147
G01 X4.07170 Y38.06624
G01 X4.21460 Y38.10958
G01 X4.23314 Y38.11615
G01 X4.25087 Y38.12459
G01 X4.38262 Y38.19500
G01 X4.41521 Y38.21681
G01 X4.53067 Y38.31156
G01 X4.53989 Y38.31991
G01 X4.55000 Y38.33007
G01 X4.55841 Y38.33924
G01 X4.65313 Y38.45476
G01 X4.66115 Y38.46546
G01 X4.66689 Y38.47389
G01 X4.67490 Y38.48732
G01 X4.74533 Y38.61910
G01 X4.76032 Y38.65529
G01 X4.80372 Y38.79825
G01 X4.80850 Y38.81730
G01 X4.81140 Y38.83670
G01 X4.82603 Y38.98539
G01 X4.82603 Y39.02453
G01 X4.81140 Y39.17325
G01 X4.80372 Y39.21171
G01 X4.76032 Y39.35463
G01 X4.75371 Y39.37307
G01 X4.74533 Y39.39085
G01 X4.67490 Y39.52260
G01 X4.65313 Y39.55517
G01 X4.55841 Y39.67069
G01 X4.55021 Y39.67968
G01 X4.53961 Y39.69022
G01 X4.53067 Y39.69840
G01 X4.41521 Y39.79314
G01 X4.38262 Y39.81493
G01 X4.25087 Y39.88534
G01 X4.23314 Y39.89370
G01 X4.21460 Y39.90035
G01 X4.07170 Y39.94374
G01 X4.05267 Y39.94848
G01 X4.03324 Y39.95136
G01 X3.88455 Y39.96604
G01 X3.84533 Y39.96604
G01 X3.69672 Y39.95136
G01 X3.67726 Y39.94848
G01 X3.65821 Y39.94374
G01 X3.51528 Y39.90035
G01 X3.49679 Y39.89370
G01 X3.47911 Y39.88534
G01 X3.34734 Y39.81493
G01 X3.31478 Y39.79314
G01 X3.19928 Y39.69840
G01 X3.19004 Y39.69001
G01 X3.17995 Y39.67993
G01 X3.17157 Y39.67069
G01 X3.07680 Y39.55517
G01 X3.06870 Y39.54427
G01 X3.06309 Y39.53612
G01 X3.05498 Y39.52260
G01 X2.98455 Y39.39085
G01 X2.96962 Y39.35463
G01 X2.92623 Y39.21171
G01 X2.92143 Y39.19266
G01 X2.91856 Y39.17325
G01 X2.90396 Y39.02453
G01 X2.90396 Y38.98539
G01 X3.00347 Y38.99520
G01 X3.01805 Y38.84651
G01 X3.01950 Y38.83683
G01 X3.02189 Y38.82730
G01 X3.06525 Y38.68435
G01 X3.07279 Y38.66619
G01 X3.14317 Y38.53449
G01 X3.14825 Y38.52606
G01 X3.15404 Y38.51819
G01 X3.24881 Y38.40274
G01 X3.25547 Y38.39545
G01 X3.26273 Y38.38887
G01 X3.37820 Y38.29408
G01 X3.39451 Y38.28316
G01 X3.52623 Y38.21275
G01 X3.53507 Y38.20858
G01 X3.54429 Y38.20528
G01 X3.68724 Y38.16190
G01 X3.69682 Y38.15956
G01 X3.70652 Y38.15812
G01 X3.85514 Y38.14346
G01 X3.87474 Y38.14346
G01 X4.02339 Y38.15812
G01 X4.03316 Y38.15956
G01 X4.04261 Y38.16190
G01 X4.18556 Y38.20528
G01 X4.19481 Y38.20858
G01 X4.20373 Y38.21275
G01 X4.33548 Y38.28316
G01 X4.35178 Y38.29408
G01 X4.46725 Y38.38887
G01 X4.47451 Y38.39545
G01 X4.48104 Y38.40274
G01 X4.57586 Y38.51819
G01 X4.58168 Y38.52606
G01 X4.58671 Y38.53449
G01 X4.65712 Y38.66619
G01 X4.66468 Y38.68435
G01 X4.70799 Y38.82730
G01 X4.71043 Y38.83683
G01 X4.71185 Y38.84651
G01 X4.72646 Y38.99520
G01 X4.72646 Y39.01473
G01 X4.71185 Y39.16345
G01 X4.71043 Y39.17310
G01 X4.70799 Y39.18262
G01 X4.66468 Y39.32563
G01 X4.65712 Y39.34374
G01 X4.58671 Y39.47544
G01 X4.58168 Y39.48387
G01 X4.57586 Y39.49177
G01 X4.48104 Y39.60721
G01 X4.47451 Y39.61453
G01 X4.46725 Y39.62110
G01 X4.35178 Y39.71587
G01 X4.33548 Y39.72677
G01 X4.20373 Y39.79718
G01 X4.19481 Y39.80137
G01 X4.18556 Y39.80464
G01 X4.04261 Y39.84803
G01 X4.03316 Y39.85039
G01 X4.02339 Y39.85181
G01 X3.87474 Y39.86649
G01 X3.85514 Y39.86649
G01 X3.70652 Y39.85181
G01 X3.69682 Y39.85039
G01 X3.68724 Y39.84803
G01 X3.54429 Y39.80464
G01 X3.53507 Y39.80137
G01 X3.52623 Y39.79718
G01 X3.39451 Y39.72677
G01 X3.37820 Y39.71587
G01 X3.26273 Y39.62110
G01 X3.25547 Y39.61453
G01 X3.24881 Y39.60721
G01 X3.15404 Y39.49177
G01 X3.14825 Y39.48387
G01 X3.14317 Y39.47544
G01 X3.07279 Y39.34374
G01 X3.06525 Y39.32563
G01 X3.02189 Y39.18262
G01 X3.01950 Y39.17310
G01 X3.01805 Y39.16345
G01 X3.00347 Y39.01473
G01 X3.00347 Y38.99520
G04 P0 ( dwell for no time -- G64 should not smooth over this point )
G00 Z5.00000 ( retract )

G00 X17.21195 Y40.23937 ( rapid move to begin. )
G01 F150.00000
( Mill infeed pass 1/1 )
G01 Z-0.05000
G04 P0 ( dwell for no time -- G64 should not smooth over this point )
G01 F300.00000
G01 X17.21195 Y40.23937
G01 X17.21099 Y40.25897
G01 X17.21195 Y40.27858
G01 X17.22636 Y40.42489
G01 X17.23395 Y40.46334
G01 X17.27670 Y40.60403
G01 X17.29169 Y40.64028
G01 X17.36100 Y40.76992
G01 X17.36908 Y40.78348
G01 X17.37467 Y40.79159
G01 X17.38279 Y40.80248
G01 X17.47606 Y40.91615
G01 X17.48447 Y40.92550
G01 X17.49448 Y40.93550
G01 X17.50372 Y40.94391
G01 X17.61739 Y41.03715
G01 X17.65003 Y41.05897
G01 X17.77970 Y41.12826
G01 X17.79742 Y41.13665
G01 X17.81586 Y41.14328
G01 X17.89991 Y41.16878
G01 X17.91940 Y41.15453
G01 X17.89991 Y41.16878
G01 X17.89991 Y63.22926
G01 X17.91434 Y63.23797
