( pcb2gcode 2.5.0 )
( Software-independent Gcode )

G94 ( Millimeters per minute feed rate. )
G21 ( Units == Millimeters. )

G90 ( Absolute coordinates. )
G00 S10000 ( RPM spindle speed. )
G64 P0.01000 ( set maximum deviation from commanded toolpath )
G01 F300.00000 ( Feedrate. )


G00 Z30.00000 (Retract to tool change height)
T1
M5      (Spindle stop.)
G04 P1.00000 (Wait for spindle to stop)
(MSG, Change tool bit to cutter diameter 4.00000mm)
M6      (Tool change.)
M0      (Temporary machine stop.)
M3 ( Spindle on clockwise. )
G04 P1.00000 (Wait for spindle to get up to speed)
G04 P0 ( dwell for no time -- G64 should not smooth over this point )
G00 Z5.00000 ( retract )

G00 X-2.00000 Y0.00000 ( rapid move to begin. )
G01 Z-1.60000 F60.00000 ( plunge. )
G04 P0 ( dwell for no time -- G64 should not smooth over this point )
G01 F300.00000
G01 X-2.00000 Y69.99996
G01 X-1.96157 Y70.39013
G01 X-1.84775 Y70.76531
G01 X-1.66294 Y71.11111
G01 X-1.41417 Y71.41418
G01 X-1.11110 Y71.66293
G01 X-0.76533 Y71.84771
G01 X-0.39014 Y71.96153
G01 X0.00000 Y71.99998
G01 X99.99993 Y71.99998
G01 X100.39012 Y71.96153
G01 X100.76531 Y71.84771
G01 X101.11108 Y71.66293
G01 X101.41417 Y71.41418
G01 X101.66289 Y71.11111
G01 X101.84770 Y70.76531
G01 X101.96154 Y70.39013
G01 X101.99997 Y69.99996
G01 X101.99997 Y0.00000
G01 X101.96954 Y-0.34727
G01 X101.87932 Y-0.68400
G01 X101.73198 Y-1.00000
G01 X101.53205 Y-1.28554
G01 X101.28555 Y-1.53205
G01 X100.99995 Y-1.73203
G01 X100.68400 Y-1.87937
G01 X100.34727 Y-1.96959
G01 X99.99993 Y-2.00000
G01 X0.00000 Y-2.00000
G01 X-0.39014 Y-1.96157
G01 X-0.76533 Y-1.84775
G01 X-1.11110 Y-1.66294
G01 X-1.41417 Y-1.41417
G01 X-1.66294 Y-1.11110
G01 X-1.84775 Y-0.76533
G01 X-1.96157 Y-0.39014
G01 X-2.00000 Y0.00000

G04 P0 ( dwell for no time -- G64 should not smooth over this point )
G00 Z30.000000 ( retract )

M5 ( Spindle off. )
G04 P1.000000
M9 ( Coolant off. )
M2 ( Program end. )

