( pcb2gcode 2.5.0 )
( Software-independent Gcode )

G94 ( Millimeters per minute feed rate. )
G21 ( Units == Millimeters. )

G90 ( Absolute coordinates. )
G00 S14000 ( RPM spindle speed. )
G01 F600.00000 ( Feedrate. )


G00 Z10.00000 (Retract to tool change height)
T1
M5      (Spindle stop.)
G04 P1.00000 (Wait for spindle to stop)
(MSG, Change tool bit to mill diameter 0.20000mm)
M6      (Tool change.)
M0      (Temporary machine stop.)
M3 ( Spindle on clockwise. )
G04 P1.00000 (Wait for spindle to get up to speed)
G04 P0 ( dwell for no time -- G64 should not smooth over this point )
G00 Z2.00000 ( retract )

G00 X-6.05817 Y90.48678 ( rapid move to begin. )
G01 F300.00000
( Mill infeed pass 1/1 )
G01 Z-0.10000
G04 P0 ( dwell for no time -- G64 should not smooth over this point )
G01 F600.00000
G01 X-6.05817 Y90.48678
G01 X-6.25459 Y90.63611
G01 X-6.54730 Y90.81223
G01 X-6.85733 Y90.95559
G01 X-7.18100 Y91.06466
G01 X-7.51461 Y91.13814
G01 X-7.85418 Y91.17502
G01 X-8.19571 Y91.17502
G01 X-8.53528 Y91.13814
G01 X-8.86891 Y91.06466
G01 X-9.19258 Y90.95559
G01 X-9.50261 Y90.81223
G01 X-9.79532 Y90.63611
G01 X-9.99174 Y90.48678
G01 X-9.76868 Y90.26377
G01 X-9.61625 Y90.38889
G01 X-9.60833 Y90.39471
G01 X-9.59995 Y90.39974
G01 X-9.12448 Y90.65386
G01 X-9.10640 Y90.66141
G01 X-8.59050 Y90.81792
G01 X-8.57127 Y90.82168
G01 X-8.03480 Y90.87454
G01 X-8.02494 Y90.87502
G01 X-8.01519 Y90.87454
G01 X-7.47869 Y90.82168
G01 X-7.45941 Y90.81792
G01 X-6.94359 Y90.66141
G01 X-6.92543 Y90.65386
G01 X-6.44997 Y90.39974
G01 X-6.44158 Y90.39471
G01 X-6.43374 Y90.38889
G01 X-6.28123 Y90.26372
G01 X-6.05817 Y90.48678
G01 X-6.15091 Y90.48282
G01 X-6.20989 Y90.47649
G01 X-6.31085 Y90.55323
G01 X-6.59409 Y90.72392
G01 X-6.89429 Y90.86268
G01 X-7.20772 Y90.96834
G01 X-7.53076 Y91.03943
G01 X-7.85959 Y91.07520
G01 X-8.19030 Y91.07502
G01 X-8.51913 Y91.03928
G01 X-8.84211 Y90.96819
G01 X-9.15555 Y90.86255
G01 X-9.45573 Y90.72371
G01 X-9.73906 Y90.55323
G01 X-9.84003 Y90.47649
G01 X-9.89901 Y90.48282
G01 X-9.84003 Y90.47649
G01 X-9.76208 Y90.39854
G01 X-9.76416 Y90.36524
G01 X-9.76208 Y90.39854
G01 X-9.67968 Y90.46616
G01 X-9.66393 Y90.47787
G01 X-9.64706 Y90.48795
G01 X-9.17160 Y90.74210
G01 X-9.13543 Y90.75711
G01 X-8.61953 Y90.91355
G01 X-8.60051 Y90.91835
G01 X-8.58105 Y90.92122
G01 X-8.04458 Y90.97408
G01 X-8.00534 Y90.97408
G01 X-7.46886 Y90.92122
G01 X-7.44948 Y90.91835
G01 X-7.43043 Y90.91355
G01 X-6.91456 Y90.75711
G01 X-6.87831 Y90.74210
G01 X-6.40290 Y90.48795
G01 X-6.38606 Y90.47787
G01 X-6.37024 Y90.46616
G01 X-6.28784 Y90.39854
G01 X-6.28581 Y90.36524
G01 X-6.28784 Y90.39854
G01 X-6.20989 Y90.47649
G04 P0 ( dwell for no time -- G64 should not smooth over this point )
G00 Z2.00000 ( retract )

G00 X-10.26367 Y89.76880 ( rapid move to begin. )
G01 F300.00000
( Mill infeed pass 1/1 )
G01 Z-0.10000
G04 P0 ( dwell for no time -- G64 should not smooth over this point )
G01 F600.00000
G01 X-10.26367 Y89.76880
G01 X-10.48707 Y89.99214
G01 X-10.53629 Y89.93415
G01 X-10.72804 Y89.65143
G01 X-10.88803 Y89.34962
G01 X-11.01442 Y89.03230
G01 X-11.10584 Y88.70322
G01 X-11.16106 Y88.36611
G01 X-11.17960 Y88.02504
G01 X-11.16106 Y87.68397
G01 X-11.10584 Y87.34688
G01 X-11.01442 Y87.01775
G01 X-10.88803 Y86.70045
G01 X-10.72804 Y86.39868
G01 X-10.53637 Y86.11595
G01 X-10.48707 Y86.05796
G01 X-10.26370 Y86.28130
G01 X-10.38877 Y86.43378
G01 X-10.39466 Y86.44165
G01 X-10.39967 Y86.45009
G01 X-10.65384 Y86.92555
G01 X-10.66136 Y86.94363
G01 X-10.81785 Y87.45953
G01 X-10.82019 Y87.46901
G01 X-10.82164 Y87.47871
G01 X-10.87449 Y88.01523
G01 X-10.87449 Y88.03484
G01 X-10.82164 Y88.57132
G01 X-10.82019 Y88.58105
G01 X-10.81785 Y88.59057
G01 X-10.66136 Y89.10647
G01 X-10.65384 Y89.12455
G01 X-10.39967 Y89.60002
G01 X-10.39466 Y89.60842
G01 X-10.38877 Y89.61627
G01 X-10.26367 Y89.76880
G01 X-10.36512 Y89.76428
G01 X-10.39845 Y89.76215
G01 X-10.47810 Y89.84180
G01 X-10.48351 Y89.89852
G01 X-10.47810 Y89.84180
G01 X-10.64224 Y89.59979
G01 X-10.79710 Y89.30756
G01 X-10.91953 Y89.00035
G01 X-11.00797 Y88.68168
G01 X-11.06154 Y88.35529
G01 X-11.07945 Y88.02504
G01 X-11.06154 Y87.69476
G01 X-11.00797 Y87.36842
G01 X-10.91953 Y87.04976
G01 X-10.79710 Y86.74249
G01 X-10.64224 Y86.45029
G01 X-10.47810 Y86.20830
G01 X-10.48351 Y86.15154
G01 X-10.47810 Y86.20830
G01 X-10.39845 Y86.28791
G01 X-10.36512 Y86.28582
G01 X-10.39845 Y86.28791
G01 X-10.46614 Y86.37031
G01 X-10.47780 Y86.38608
G01 X-10.48788 Y86.40292
G01 X-10.74198 Y86.87838
G01 X-10.75699 Y86.91458
G01 X-10.91353 Y87.43045
G01 X-10.91831 Y87.44953
G01 X-10.92115 Y87.46891
G01 X-10.97401 Y88.00546
G01 X-10.97401 Y88.04465
G01 X-10.92115 Y88.58112
G01 X-10.91831 Y88.60053
G01 X-10.91353 Y88.61958
G01 X-10.75699 Y89.13548
G01 X-10.74198 Y89.17167
G01 X-10.48788 Y89.64711
G01 X-10.47780 Y89.66397
G01 X-10.46614 Y89.67975
G01 X-10.39845 Y89.76215
G04 P0 ( dwell for no time -- G64 should not smooth over this point )
G00 Z2.00000 ( retract )

G00 X-4.97034 Y88.02504 ( rapid move to begin. )
G01 F300.00000
( Mill infeed pass 1/1 )
G01 Z-0.10000
G04 P0 ( dwell for no time -- G64 should not smooth over this point )
G01 F600.00000
G01 X-4.97034 Y88.02504
G01 X-4.98825 Y87.69481
G01 X-5.04176 Y87.36842
G01 X-5.13021 Y87.04970
G01 X-5.25266 Y86.74242
G01 X-5.40758 Y86.45024
G01 X-5.57181 Y86.20830
G01 X-5.56640 Y86.15154
G01 X-5.57181 Y86.20830
G01 X-5.65144 Y86.28791
G01 X-5.68477 Y86.28585
G01 X-5.65144 Y86.28791
G01 X-5.58383 Y86.37031
G01 X-5.57212 Y86.38608
G01 X-5.56203 Y86.40292
G01 X-5.30791 Y86.87838
G01 X-5.29289 Y86.91458
G01 X-5.13638 Y87.43045
G01 X-5.13166 Y87.44953
G01 X-5.12879 Y87.46891
G01 X-5.07593 Y88.00546
G01 X-5.07593 Y88.04465
G01 X-5.12879 Y88.58112
G01 X-5.13166 Y88.60053
G01 X-5.13638 Y88.61958
G01 X-5.29289 Y89.13548
G01 X-5.30791 Y89.17167
G01 X-5.56203 Y89.64711
G01 X-5.57212 Y89.66397
G01 X-5.58383 Y89.67975
G01 X-5.65144 Y89.76215
G01 X-5.68479 Y89.76420
G01 X-5.65144 Y89.76215
G01 X-5.57181 Y89.84180
G01 X-5.56640 Y89.89852
G01 X-5.57181 Y89.84180
G01 X-5.40758 Y89.59986
G01 X-5.25266 Y89.30761
G01 X-5.13021 Y89.00040
G01 X-5.04176 Y88.68168
G01 X-4.98825 Y88.35529
G01 X-4.97034 Y88.02504
G01 X-4.87031 Y88.02504
G01 X-4.88883 Y87.68397
G01 X-4.94408 Y87.34688
G01 X-5.03547 Y87.01775
G01 X-5.16188 Y86.70045
G01 X-5.32190 Y86.39868
G01 X-5.51360 Y86.11595
G01 X-5.56285 Y86.05796
G01 X-5.78621 Y86.28130
G01 X-5.66114 Y86.43378
G01 X-5.65530 Y86.44165
G01 X-5.65025 Y86.45009
G01 X-5.39612 Y86.92555
G01 X-5.38863 Y86.94363
G01 X-5.23209 Y87.45953
G01 X-5.22975 Y87.46901
G01 X-5.22830 Y87.47871
G01 X-5.17547 Y88.01523
G01 X-5.17547 Y88.03484
G01 X-5.22830 Y88.57132
G01 X-5.22975 Y88.58105
G01 X-5.23209 Y88.59057
G01 X-5.38863 Y89.10647
G01 X-5.39612 Y89.12455
G01 X-5.65025 Y89.60002
G01 X-5.65530 Y89.60842
G01 X-5.66114 Y89.61627
G01 X-5.78621 Y89.76880
G01 X-5.56285 Y89.99214
G01 X-5.51360 Y89.93410
G01 X-5.32190 Y89.65143
G01 X-5.16188 Y89.34962
G01 X-5.03547 Y89.03230
G01 X-4.94408 Y88.70322
G01 X-4.88883 Y88.36611
G01 X-4.87031 Y88.02504
G04 P0 ( dwell for no time -- G64 should not smooth over this point )
G00 Z2.00000 ( retract )

G00 X-6.20989 Y85.57361 ( rapid move to begin. )
G01 F300.00000
( Mill infeed pass 1/1 )
G01 Z-0.10000
G04 P0 ( dwell for no time -- G64 should not smooth over this point )
G01 F600.00000
G01 X-6.20989 Y85.57361
G01 X-6.28784 Y85.65154
G01 X-6.28576 Y85.68486
G01 X-6.28784 Y85.65154
G01 X-6.37024 Y85.58387
G01 X-6.40290 Y85.56208
G01 X-6.87831 Y85.30795
G01 X-6.91456 Y85.29299
G01 X-7.43043 Y85.13647
G01 X-7.44948 Y85.13170
G01 X-7.46886 Y85.12880
G01 X-8.00534 Y85.07602
G01 X-8.04458 Y85.07602
G01 X-8.58105 Y85.12880
G01 X-8.60051 Y85.13170
G01 X-8.61953 Y85.13647
G01 X-9.13543 Y85.29299
G01 X-9.17160 Y85.30795
G01 X-9.64706 Y85.56208
G01 X-9.66393 Y85.57224
G01 X-9.67968 Y85.58387
G01 X-9.76208 Y85.65154
G01 X-9.76416 Y85.68481
G01 X-9.76208 Y85.65154
G01 X-9.84003 Y85.57361
G01 X-9.89901 Y85.56723
G01 X-9.84003 Y85.57361
G01 X-9.73906 Y85.49688
G01 X-9.45573 Y85.32639
G01 X-9.15555 Y85.18748
G01 X-8.84211 Y85.08192
G01 X-8.51913 Y85.01082
G01 X-8.19030 Y84.97503
G01 X-7.85959 Y84.97488
G01 X-7.53076 Y85.01062
G01 X-7.20772 Y85.08176
G01 X-6.89429 Y85.18735
G01 X-6.59409 Y85.32619
G01 X-6.31085 Y85.49688
G01 X-6.20989 Y85.57361
G01 X-6.15091 Y85.56728
G01 X-6.05817 Y85.56332
G01 X-6.28123 Y85.78633
G01 X-6.43374 Y85.66116
G01 X-6.44158 Y85.65532
G01 X-6.44997 Y85.65032
G01 X-6.92543 Y85.39616
G01 X-6.94359 Y85.38865
G01 X-7.45941 Y85.23218
G01 X-7.47869 Y85.22835
G01 X-8.01519 Y85.17549
G01 X-8.02494 Y85.17501
G01 X-8.03480 Y85.17549
G01 X-8.57127 Y85.22835
G01 X-8.59050 Y85.23218
G01 X-9.10640 Y85.38865
G01 X-9.12448 Y85.39616
G01 X-9.59995 Y85.65032
G01 X-9.60833 Y85.65532
G01 X-9.61625 Y85.66116
G01 X-9.76868 Y85.78633
G01 X-9.99174 Y85.56332
G01 X-9.79532 Y85.41400
G01 X-9.50261 Y85.23787
G01 X-9.19258 Y85.09446
G01 X-8.86891 Y84.98540
G01 X-8.53528 Y84.91196
G01 X-8.19571 Y84.87508
G01 X-7.85418 Y84.87508
G01 X-7.51461 Y84.91196
G01 X-7.18100 Y84.98540
G01 X-6.85733 Y85.09446
G01 X-6.54730 Y85.23787
G01 X-6.25459 Y85.41400
G01 X-6.05817 Y85.56332
G04 P0 ( dwell for no time -- G64 should not smooth over this point )
G00 Z2.00000 ( retract )

G00 X-4.58746 Y72.92753 ( rapid move to begin. )
G01 F300.00000
( Mill infeed pass 1/1 )
G01 Z-0.10000
G04 P0 ( dwell for no time -- G64 should not smooth over this point )
G01 F600.00000
G01 X-4.58746 Y72.92753
G01 X-4.65759 Y72.97534
G01 X-4.88314 Y73.08395
G01 X-5.12226 Y73.15771
G01 X-5.36981 Y73.19505
G01 X-5.62012 Y73.19505
G01 X-5.86762 Y73.15771
G01 X-6.10681 Y73.08395
G01 X-6.33231 Y72.97534
G01 X-6.40244 Y72.92753
G01 X-6.18019 Y72.70531
G01 X-6.02807 Y72.78656
G01 X-6.00999 Y72.79406
G01 X-5.77179 Y72.86629
G01 X-5.75256 Y72.87015
G01 X-5.50476 Y72.89454
G01 X-5.49498 Y72.89502
G01 X-5.48520 Y72.89454
G01 X-5.23742 Y72.87015
G01 X-5.22769 Y72.86871
G01 X-5.21817 Y72.86629
G01 X-4.97994 Y72.79406
G01 X-4.96183 Y72.78656
G01 X-4.80971 Y72.70523
G01 X-4.58746 Y72.92753
G01 X-4.67656 Y72.92027
G01 X-4.74837 Y72.90810
G01 X-4.91974 Y72.99058
G01 X-4.91967 Y72.99088
G01 X-4.91974 Y72.99058
G01 X-5.14461 Y73.05997
G01 X-5.14456 Y73.06022
G01 X-5.14461 Y73.05997
G01 X-5.37732 Y73.09507
G01 X-5.37730 Y73.09533
G01 X-5.37732 Y73.09507
G01 X-5.61263 Y73.09507
G01 X-5.61263 Y73.09533
G01 X-5.61263 Y73.09507
G01 X-5.84529 Y73.05997
G01 X-5.84537 Y73.06022
G01 X-5.84529 Y73.05997
G01 X-6.07019 Y72.99058
G01 X-6.07029 Y72.99088
G01 X-6.07019 Y72.99058
G01 X-6.24158 Y72.90810
G01 X-6.31334 Y72.92027
G01 X-6.24158 Y72.90810
G01 X-6.16196 Y72.82845
G01 X-6.16566 Y72.80546
G01 X-6.16196 Y72.82845
G01 X-6.07527 Y72.87478
G01 X-6.03904 Y72.88976
G01 X-5.80082 Y72.96200
G01 X-5.78177 Y72.96678
G01 X-5.76234 Y72.96967
G01 X-5.51459 Y72.99406
G01 X-5.47537 Y72.99406
G01 X-5.22762 Y72.96967
G01 X-5.18916 Y72.96200
G01 X-4.95093 Y72.88976
G01 X-4.93244 Y72.88316
G01 X-4.91466 Y72.87478
G01 X-4.82802 Y72.82845
G01 X-4.82439 Y72.80455
G01 X-4.82802 Y72.82845
G01 X-4.74837 Y72.90810
G04 P0 ( dwell for no time -- G64 should not smooth over this point )
G00 Z2.00000 ( retract )

G00 X-4.58746 Y70.12253 ( rapid move to begin. )
G01 F300.00000
( Mill infeed pass 1/1 )
G01 Z-0.10000
G04 P0 ( dwell for no time -- G64 should not smooth over this point )
G01 F600.00000
G01 X-4.58746 Y70.12253
G01 X-4.80971 Y70.34481
G01 X-4.96183 Y70.26353
G01 X-4.97994 Y70.25601
G01 X-5.21817 Y70.18372
G01 X-5.22769 Y70.18136
G01 X-5.23742 Y70.17991
G01 X-5.48520 Y70.15555
G01 X-5.49498 Y70.15507
G01 X-5.50476 Y70.15555
G01 X-5.75256 Y70.17991
G01 X-5.77179 Y70.18372
G01 X-6.00999 Y70.25601
G01 X-6.02807 Y70.26353
G01 X-6.18024 Y70.34478
G01 X-6.40249 Y70.12253
G01 X-6.33231 Y70.07471
G01 X-6.10681 Y69.96615
G01 X-5.86762 Y69.89233
G01 X-5.62015 Y69.85505
G01 X-5.36981 Y69.85505
G01 X-5.12226 Y69.89233
G01 X-4.88314 Y69.96615
G01 X-4.65764 Y70.07471
G01 X-4.58746 Y70.12253
G01 X-4.67656 Y70.12980
G01 X-4.74834 Y70.14199
G01 X-4.82800 Y70.22165
G01 X-4.82424 Y70.24458
G01 X-4.82800 Y70.22165
G01 X-4.91466 Y70.17532
G01 X-4.95093 Y70.16030
G01 X-5.18916 Y70.08802
G01 X-5.22762 Y70.08042
G01 X-5.47537 Y70.05599
G01 X-5.51459 Y70.05599
G01 X-5.76234 Y70.08042
G01 X-5.78177 Y70.08327
G01 X-5.80082 Y70.08802
G01 X-6.03904 Y70.16030
G01 X-6.07527 Y70.17532
G01 X-6.16196 Y70.22165
G01 X-6.16566 Y70.24458
G01 X-6.16196 Y70.22165
G01 X-6.24161 Y70.14199
G01 X-6.31334 Y70.12980
G01 X-6.24161 Y70.14199
G01 X-6.07019 Y70.05952
G01 X-6.07029 Y70.05921
G01 X-6.07019 Y70.05952
G01 X-5.84529 Y69.99012
G01 X-5.84537 Y69.98982
G01 X-5.84529 Y69.99012
G01 X-5.61263 Y69.95510
G01 X-5.61263 Y69.95477
G01 X-5.61263 Y69.95510
G01 X-5.37730 Y69.95510
G01 X-5.37725 Y69.95477
G01 X-5.37730 Y69.95510
G01 X-5.14461 Y69.99012
G01 X-5.14456 Y69.98982
G01 X-5.14461 Y69.99012
G01 X-4.91974 Y70.05952
G01 X-4.91967 Y70.05919
G01 X-4.91974 Y70.05952
G01 X-4.74834 Y70.14199
G04 P0 ( dwell for no time -- G64 should not smooth over this point )
G00 Z2.00000 ( retract )

G00 X-6.67519 Y72.21029 ( rapid move to begin. )
G01 F300.00000
( Mill infeed pass 1/1 )
G01 Z-0.10000
G04 P0 ( dwell for no time -- G64 should not smooth over this point )
G01 F600.00000
G01 X-6.67519 Y72.21029
G01 X-6.75652 Y72.05817
G01 X-6.76396 Y72.04011
G01 X-6.83627 Y71.80181
G01 X-6.84006 Y71.78260
G01 X-6.86449 Y71.53485
G01 X-6.86498 Y71.52502
G01 X-6.86449 Y71.51524
G01 X-6.84006 Y71.26744
G01 X-6.83627 Y71.24821
G01 X-6.76396 Y71.00999
G01 X-6.76071 Y71.00079
G01 X-6.75652 Y70.99190
G01 X-6.67519 Y70.83978
G01 X-6.89866 Y70.61634
G01 X-7.00379 Y70.79848
G01 X-7.09523 Y71.03140
G01 X-7.15090 Y71.27549
G01 X-7.16962 Y71.52502
G01 X-7.15090 Y71.77463
G01 X-7.09523 Y72.01872
G01 X-7.00379 Y72.25164
G01 X-6.89866 Y72.43376
G01 X-6.67519 Y72.21029
G01 X-6.77542 Y72.19576
G01 X-6.79833 Y72.19200
G01 X-6.87719 Y72.27089
G01 X-6.89177 Y72.34732
G01 X-6.87719 Y72.27089
G01 X-6.91341 Y72.20813
G01 X-6.99942 Y71.98910
G01 X-6.99983 Y71.98926
G01 X-6.99942 Y71.98910
G01 X-7.05179 Y71.75969
G01 X-7.05205 Y71.75974
G01 X-7.05179 Y71.75969
G01 X-7.06932 Y71.52502
G01 X-7.06965 Y71.52502
G01 X-7.06932 Y71.52502
G01 X-7.05179 Y71.29040
G01 X-7.05205 Y71.29035
G01 X-7.05179 Y71.29040
G01 X-6.99942 Y71.06099
G01 X-6.99983 Y71.06084
G01 X-6.99942 Y71.06099
G01 X-6.91341 Y70.84196
G01 X-6.87719 Y70.77918
G01 X-6.89177 Y70.70277
G01 X-6.87719 Y70.77918
G01 X-6.79833 Y70.85804
G01 X-6.77542 Y70.85431
G01 X-6.79833 Y70.85804
G01 X-6.84466 Y70.94478
G01 X-6.85967 Y70.98095
G01 X-6.93198 Y71.21918
G01 X-6.93673 Y71.23828
G01 X-6.93963 Y71.25766
G01 X-6.96401 Y71.50541
G01 X-6.96401 Y71.54460
G01 X-6.93963 Y71.79238
G01 X-6.93673 Y71.81181
G01 X-6.93198 Y71.83084
G01 X-6.85967 Y72.06909
G01 X-6.84466 Y72.10531
G01 X-6.79833 Y72.19200
G04 P0 ( dwell for no time -- G64 should not smooth over this point )
G00 Z2.00000 ( retract )

G00 X-17.02559 Y64.28572 ( rapid move to begin. )
G01 F300.00000
( Mill infeed pass 1/1 )
G01 Z-0.10000
G04 P0 ( dwell for no time -- G64 should not smooth over this point )
G01 F600.00000
G01 X-17.02559 Y64.28572
G01 X-16.59917 Y63.85930
G01 X-16.59851 Y63.85834
G01 X-16.59917 Y63.85930
G01 X-16.47497 Y63.73510
G01 X-16.46737 Y63.73824
G01 X-16.47497 Y63.73510
G01 X-16.47497 Y22.06502
G01 X-16.46737 Y22.06182
G01 X-16.47497 Y22.06502
G01 X-22.32768 Y16.21230
G01 X-22.35410 Y16.11479
G01 X-22.32768 Y16.21230
G01 X-22.33076 Y16.24345
G01 X-22.33360 Y16.26283
G01 X-22.33835 Y16.28188
G01 X-22.35263 Y16.32874
G01 X-22.36764 Y16.36498
G01 X-22.39073 Y16.40824
G01 X-22.40081 Y16.42503
G01 X-22.41252 Y16.44083
G01 X-22.44358 Y16.47867
G01 X-22.47127 Y16.50639
G01 X-22.50919 Y16.53753
G01 X-22.54181 Y16.55932
G01 X-22.58504 Y16.58238
G01 X-22.60279 Y16.59079
G01 X-22.62121 Y16.59739
G01 X-22.66809 Y16.61159
G01 X-22.68720 Y16.61642
G01 X-22.70658 Y16.61924
G01 X-22.75539 Y16.62404
G01 X-22.77493 Y16.62500
G01 X-24.77497 Y16.62500
G01 X-24.79458 Y16.62404
G01 X-24.84338 Y16.61924
G01 X-24.86278 Y16.61642
G01 X-24.88181 Y16.61159
G01 X-24.92869 Y16.59739
G01 X-24.94719 Y16.59079
G01 X-24.96494 Y16.58238
G01 X-25.00817 Y16.55932
G01 X-25.04071 Y16.53753
G01 X-25.07863 Y16.50639
G01 X-25.10632 Y16.47867
G01 X-25.13746 Y16.44083
G01 X-25.14731 Y16.42749
G01 X-25.14927 Y16.42439
G01 X-25.15239 Y16.41954
G01 X-25.16103 Y16.40613
G01 X-25.18419 Y16.36580
G01 X-25.19847 Y16.32721
G01 X-25.21277 Y16.28218
G01 X-25.21792 Y16.26450
G01 X-25.22067 Y16.24281
G01 X-25.22412 Y16.20849
G01 X-25.22463 Y16.19778
G01 X-25.22519 Y16.17441
G01 X-25.22519 Y14.87566
G01 X-25.22463 Y14.85234
G01 X-25.22412 Y14.84157
G01 X-25.22067 Y14.80733
G01 X-25.21792 Y14.78556
G01 X-25.21277 Y14.76796
G01 X-25.19847 Y14.72290
G01 X-25.18419 Y14.68424
G01 X-25.16103 Y14.64401
G01 X-25.15280 Y14.63113
G01 X-25.15265 Y14.63090
G01 X-25.15021 Y14.62719
G01 X-25.14724 Y14.62252
G01 X-25.13578 Y14.60464
G01 X-25.12923 Y14.59549
G01 X-25.10939 Y14.57362
G01 X-25.07637 Y14.54058
G01 X-25.05450 Y14.52074
G01 X-25.04538 Y14.51424
G01 X-25.00601 Y14.48894
G01 X-24.96573 Y14.46583
G01 X-24.92717 Y14.45153
G01 X-24.88211 Y14.43725
G01 X-24.86405 Y14.43197
G01 X-24.85463 Y14.43065
G01 X-24.84211 Y14.42907
G01 X-24.84073 Y14.42887
G01 X-24.81305 Y14.42458
G01 X-24.81168 Y14.42435
G01 X-24.79141 Y14.42064
G01 X-24.77317 Y14.41769
G01 X-24.76779 Y14.41693
G01 X-24.76245 Y14.41579
G01 X-24.64714 Y14.38594
G01 X-24.64698 Y14.38625
G01 X-24.64714 Y14.38594
G01 X-24.64213 Y14.38444
G01 X-24.57137 Y14.35800
G01 X-24.56306 Y14.35399
G01 X-24.55562 Y14.34850
G01 X-24.54846 Y14.35526
G01 X-24.55562 Y14.34850
G01 X-24.54935 Y14.34177
G01 X-24.54439 Y14.33400
G01 X-24.54094 Y14.32544
G01 X-24.49253 Y14.16369
G01 X-24.49194 Y14.16385
G01 X-24.49253 Y14.16369
G01 X-24.49090 Y14.15645
G01 X-24.48089 Y14.08658
G01 X-24.48051 Y14.08305
G01 X-24.47533 Y14.01114
G01 X-24.47503 Y14.00751
G01 X-24.47500 Y12.49082
G01 X-24.47523 Y12.48953
G01 X-24.47589 Y12.46258
G01 X-24.47599 Y12.46126
G01 X-24.47744 Y12.43469
G01 X-24.47790 Y12.43009
G01 X-24.49194 Y12.33522
G01 X-24.49380 Y12.32717
G01 X-24.49697 Y12.31958
G01 X-24.49341 Y12.31810
G01 X-24.49697 Y12.31958
G01 X-24.50131 Y12.31262
G01 X-24.54754 Y12.25082
G01 X-24.54980 Y12.24805
G01 X-24.59702 Y12.19349
G01 X-24.59936 Y12.19075
G01 X-30.05934 Y6.73059
G01 X-30.94057 Y5.84936
G01 X-31.06493 Y5.72505
G01 X-31.06178 Y5.71748
G01 X-31.06493 Y5.72505
G01 X-32.57318 Y5.72505
G01 X-32.57310 Y5.72538
G01 X-32.57318 Y5.72505
G01 X-32.99492 Y5.72505
G01 X-33.02421 Y5.69574
G01 X-32.99492 Y5.72505
G01 X-32.99492 Y7.46475
G01 X-33.00435 Y7.46917
G01 X-32.99492 Y7.46475
G01 X-32.99032 Y7.46818
G01 X-32.83272 Y7.59756
G01 X-32.82342 Y7.60597
G01 X-32.81334 Y7.61598
G01 X-32.81311 Y7.61621
G01 X-32.80188 Y7.62749
G01 X-32.75250 Y7.68199
G01 X-32.67663 Y7.78019
G01 X-32.64984 Y7.81860
G01 X-32.63775 Y7.83792
G01 X-32.55662 Y7.99337
G01 X-32.54735 Y8.01222
G01 X-32.54059 Y8.03203
G01 X-32.48804 Y8.19929
G01 X-32.48296 Y8.22154
G01 X-32.47473 Y8.26769
G01 X-32.45891 Y8.39073
G01 X-32.45527 Y8.46480
G01 X-32.45471 Y8.48816
G01 X-32.45471 Y10.00691
G01 X-32.45527 Y10.03030
G01 X-32.45891 Y10.10437
G01 X-32.47473 Y10.22740
G01 X-32.48296 Y10.27356
G01 X-32.48804 Y10.29581
G01 X-32.54059 Y10.46307
G01 X-32.54735 Y10.48288
G01 X-32.55662 Y10.50172
G01 X-32.63775 Y10.65717
G01 X-32.64984 Y10.67653
G01 X-32.67663 Y10.71493
G01 X-32.75250 Y10.81310
G01 X-32.80188 Y10.86761
G01 X-32.81359 Y10.87930
G01 X-32.82342 Y10.88915
G01 X-32.83488 Y10.90061
G01 X-32.88936 Y10.94998
G01 X-32.98763 Y11.02585
G01 X-33.02604 Y11.05263
G01 X-33.04534 Y11.06474
G01 X-33.20084 Y11.14589
G01 X-33.21964 Y11.15511
G01 X-33.23942 Y11.16187
G01 X-33.40671 Y11.21447
G01 X-33.42898 Y11.21953
G01 X-33.47506 Y11.22776
G01 X-33.59815 Y11.24356
G01 X-33.67163 Y11.24721
G01 X-33.71829 Y11.24721
G01 X-33.79172 Y11.24356
G01 X-33.91488 Y11.22776
G01 X-33.96096 Y11.21953
G01 X-33.98321 Y11.21447
G01 X-34.15052 Y11.16187
G01 X-34.17028 Y11.15511
G01 X-34.18908 Y11.14589
G01 X-34.34453 Y11.06474
G01 X-34.36388 Y11.05263
G01 X-34.40228 Y11.02585
G01 X-34.50051 Y10.94998
G01 X-34.55496 Y10.90061
G01 X-34.56604 Y10.88956
G01 X-34.57467 Y10.88090
G01 X-34.57668 Y10.87894
G01 X-34.58806 Y10.86761
G01 X-34.63744 Y10.81310
G01 X-34.71331 Y10.71493
G01 X-34.74008 Y10.67653
G01 X-34.75220 Y10.65717
G01 X-34.83330 Y10.50172
G01 X-34.84257 Y10.48288
G01 X-34.84927 Y10.46307
G01 X-34.90188 Y10.29581
G01 X-34.90698 Y10.27356
G01 X-34.91521 Y10.22743
G01 X-34.93101 Y10.10429
G01 X-34.93464 Y10.03033
G01 X-34.93523 Y10.00691
G01 X-34.93523 Y8.48816
G01 X-34.93464 Y8.46477
G01 X-34.93101 Y8.39073
G01 X-34.91521 Y8.26767
G01 X-34.90698 Y8.22154
G01 X-34.90188 Y8.19927
G01 X-34.84927 Y8.03203
G01 X-34.84257 Y8.01222
G01 X-34.83330 Y7.99337
G01 X-34.75220 Y7.83792
G01 X-34.74008 Y7.81860
G01 X-34.71331 Y7.78019
G01 X-34.63744 Y7.68199
G01 X-34.58362 Y7.62263
G01 X-34.55514 Y7.59454
G01 X-34.51907 Y7.56190
G01 X-34.51811 Y7.56099
G01 X-34.49847 Y7.54222
G01 X-34.49751 Y7.54128
G01 X-34.47871 Y7.52238
G01 X-34.47638 Y7.51979
G01 X-34.42789 Y7.46348
G01 X-34.42263 Y7.45619
G01 X-34.41877 Y7.45817
G01 X-34.42263 Y7.45619
G01 X-34.41885 Y7.44811
G01 X-34.41651 Y7.43942
G01 X-34.41118 Y7.40844
G01 X-34.41092 Y7.40701
G01 X-34.40084 Y7.33711
G01 X-34.40051 Y7.33358
G01 X-34.40013 Y7.33368
G01 X-34.40051 Y7.33358
G01 X-34.39535 Y7.26170
G01 X-34.39520 Y7.25804
G01 X-34.39520 Y6.14954
G01 X-34.39527 Y6.14684
G01 X-34.39817 Y6.09292
G01 X-34.39761 Y6.09287
G01 X-34.39817 Y6.09292
G01 X-34.39840 Y6.09030
G01 X-34.40406 Y6.03755
G01 X-34.40518 Y6.03122
G01 X-34.43779 Y5.89551
G01 X-34.43950 Y5.88972
G01 X-34.43924 Y5.88967
G01 X-34.43950 Y5.88972
G01 X-34.46418 Y5.82368
G01 X-34.46749 Y5.81657
G01 X-34.46426 Y5.81415
G01 X-34.46749 Y5.81657
G01 X-34.47186 Y5.81009
G01 X-34.47719 Y5.80430
G01 X-34.48339 Y5.79947
G01 X-34.49025 Y5.79571
G01 X-34.49406 Y5.79396
G01 X-34.50048 Y5.79155
G01 X-34.49969 Y5.79008
G01 X-34.50048 Y5.79155
G01 X-34.66327 Y5.74265
G01 X-34.67053 Y5.74103
G01 X-34.67043 Y5.74060
G01 X-34.67053 Y5.74103
G01 X-34.74033 Y5.73102
G01 X-34.74389 Y5.73059
G01 X-34.81587 Y5.72543
G01 X-34.81943 Y5.72520
G01 X-51.15046 Y5.72528
G01 X-51.15313 Y5.72538
G01 X-51.20695 Y5.72828
G01 X-51.20959 Y5.72848
G01 X-51.26230 Y5.73414
G01 X-51.26860 Y5.73524
G01 X-51.40449 Y5.76788
G01 X-51.40466 Y5.76747
G01 X-51.40449 Y5.76788
G01 X-51.41030 Y5.76965
G01 X-51.47637 Y5.79429
G01 X-51.48518 Y5.79864
G01 X-51.48688 Y5.79612
G01 X-51.48518 Y5.79864
G01 X-51.49293 Y5.80453
G01 X-51.49946 Y5.81189
G01 X-51.50438 Y5.82040
G01 X-51.50690 Y5.81903
G01 X-51.50438 Y5.82040
G01 X-51.50609 Y5.82421
G01 X-51.50850 Y5.83061
G01 X-51.55739 Y5.99333
G01 X-51.55894 Y6.00057
G01 X-51.56903 Y6.07044
G01 X-51.56936 Y6.07400
G01 X-51.57017 Y6.07387
G01 X-51.56936 Y6.07400
G01 X-51.57459 Y6.14598
G01 X-51.57469 Y6.14954
G01 X-51.57469 Y7.28560
G01 X-51.57469 Y7.28690
G01 X-51.57396 Y7.31385
G01 X-51.57388 Y7.31517
G01 X-51.57248 Y7.34174
G01 X-51.57296 Y7.34176
G01 X-51.57248 Y7.34174
G01 X-51.57195 Y7.34664
G01 X-51.55628 Y7.44801
G01 X-51.55531 Y7.45281
G01 X-51.55094 Y7.46998
G01 X-51.54861 Y7.47702
G01 X-51.54523 Y7.48352
G01 X-51.54894 Y7.48542
G01 X-51.54523 Y7.48352
G01 X-51.54101 Y7.48951
G01 X-51.50682 Y7.53079
G01 X-51.50446 Y7.53348
G01 X-51.45341 Y7.58692
G01 X-51.45087 Y7.58939
G01 X-51.41490 Y7.62195
G01 X-51.40352 Y7.63335
G01 X-51.39328 Y7.64359
G01 X-51.39303 Y7.64387
G01 X-51.38495 Y7.65278
G01 X-51.25567 Y7.81034
G01 X-51.24396 Y7.82611
G01 X-51.23387 Y7.84293
G01 X-51.13776 Y8.02274
G01 X-51.12277 Y8.05901
G01 X-51.06354 Y8.25410
G01 X-51.05587 Y8.29256
G01 X-51.03593 Y8.49543
G01 X-51.03497 Y8.51501
G01 X-51.03497 Y10.03502
G01 X-51.03593 Y10.05466
G01 X-51.05587 Y10.25755
G01 X-51.06354 Y10.29598
G01 X-51.12277 Y10.49111
G01 X-51.13776 Y10.52728
G01 X-51.23387 Y10.70708
G01 X-51.24396 Y10.72397
G01 X-51.25567 Y10.73967
G01 X-51.38495 Y10.89733
G01 X-51.39344 Y10.90670
G01 X-51.40311 Y10.91638
G01 X-51.41490 Y10.92817
G01 X-51.46938 Y10.97754
G01 X-51.56758 Y11.05341
G01 X-51.60598 Y11.08018
G01 X-51.62536 Y11.09230
G01 X-51.78079 Y11.17345
G01 X-51.79958 Y11.18267
G01 X-51.81945 Y11.18943
G01 X-51.98673 Y11.24193
G01 X-52.00898 Y11.24709
G01 X-52.05508 Y11.25532
G01 X-52.17814 Y11.27112
G01 X-52.25165 Y11.27470
G01 X-52.29831 Y11.27470
G01 X-52.37174 Y11.27112
G01 X-52.49481 Y11.25532
G01 X-52.54096 Y11.24709
G01 X-52.56316 Y11.24193
G01 X-52.73052 Y11.18943
G01 X-52.75031 Y11.18267
G01 X-52.76910 Y11.17338
G01 X-52.92452 Y11.09230
G01 X-52.94390 Y11.08018
G01 X-52.98231 Y11.05341
G01 X-53.08051 Y10.97754
G01 X-53.13499 Y10.92817
G01 X-53.14644 Y10.91668
G01 X-53.15660 Y10.90655
G01 X-53.16806 Y10.89509
G01 X-53.21739 Y10.84066
G01 X-53.29331 Y10.74239
G01 X-53.32003 Y10.70398
G01 X-53.33219 Y10.68463
G01 X-53.41332 Y10.52921
G01 X-53.42274 Y10.51000
G01 X-53.42462 Y10.50470
G01 X-53.42927 Y10.49078
G01 X-53.48183 Y10.32329
G01 X-53.48698 Y10.30101
G01 X-53.49521 Y10.25496
G01 X-53.51096 Y10.13185
G01 X-53.51459 Y10.05778
G01 X-53.51523 Y10.03442
G01 X-53.51523 Y8.51565
G01 X-53.51459 Y8.49233
G01 X-53.51096 Y8.41819
G01 X-53.49521 Y8.29515
G01 X-53.48698 Y8.24902
G01 X-53.48183 Y8.22685
G01 X-53.42930 Y8.05949
G01 X-53.42252 Y8.03968
G01 X-53.41332 Y8.02093
G01 X-53.33219 Y7.86548
G01 X-53.32003 Y7.84613
G01 X-53.29331 Y7.80772
G01 X-53.21744 Y7.70945
G01 X-53.16798 Y7.65492
G01 X-53.15604 Y7.64293
G01 X-53.14771 Y7.63455
G01 X-53.13758 Y7.62434
G01 X-53.09907 Y7.58939
G01 X-53.09811 Y7.58855
G01 X-53.07835 Y7.56965
G01 X-53.07738 Y7.56868
G01 X-53.05864 Y7.54971
G01 X-53.05622 Y7.54720
G01 X-53.00789 Y7.49106
G01 X-53.00270 Y7.48370
G01 X-52.99877 Y7.48573
G01 X-53.00270 Y7.48370
G01 X-52.99884 Y7.47559
G01 X-52.99651 Y7.46698
G01 X-52.99117 Y7.43600
G01 X-52.99094 Y7.43457
G01 X-52.98091 Y7.36470
G01 X-52.98053 Y7.36114
G01 X-52.98012 Y7.36114
G01 X-52.98053 Y7.36114
G01 X-52.97535 Y7.28916
G01 X-52.97520 Y7.28560
G01 X-52.97520 Y6.14954
G01 X-52.97530 Y6.14684
G01 X-52.97819 Y6.09292
G01 X-52.97769 Y6.09287
G01 X-52.97819 Y6.09292
G01 X-52.97842 Y6.09030
G01 X-52.98409 Y6.03755
G01 X-52.98513 Y6.03122
G01 X-53.01779 Y5.89551
G01 X-53.01957 Y5.88972
G01 X-53.01924 Y5.88967
G01 X-53.01957 Y5.88972
G01 X-53.04421 Y5.82368
G01 X-53.04751 Y5.81657
G01 X-53.04428 Y5.81415
G01 X-53.04751 Y5.81657
G01 X-53.05188 Y5.81009
G01 X-53.05719 Y5.80430
G01 X-53.06341 Y5.79947
G01 X-53.07027 Y5.79571
G01 X-53.07405 Y5.79396
G01 X-53.08043 Y5.79155
G01 X-53.07972 Y5.79008
G01 X-53.08043 Y5.79155
G01 X-53.24327 Y5.74265
G01 X-53.25053 Y5.74103
G01 X-53.25038 Y5.74060
G01 X-53.25053 Y5.74103
G01 X-53.32036 Y5.73102
G01 X-53.32391 Y5.73059
G01 X-53.39587 Y5.72543
G01 X-53.39943 Y5.72520
G01 X-69.82040 Y5.72528
G01 X-69.82314 Y5.72538
G01 X-69.87689 Y5.72828
G01 X-69.87958 Y5.72848
G01 X-69.93226 Y5.73414
G01 X-69.93241 Y5.73313
G01 X-69.93226 Y5.73414
G01 X-69.93859 Y5.73524
G01 X-70.07448 Y5.76788
G01 X-70.08029 Y5.76965
G01 X-70.14636 Y5.79429
G01 X-70.15347 Y5.79764
G01 X-70.15997 Y5.80204
G01 X-70.16851 Y5.79305
G01 X-70.15997 Y5.80204
G01 X-70.16566 Y5.80737
G01 X-70.17051 Y5.81349
G01 X-70.17435 Y5.82040
G01 X-70.17613 Y5.82421
G01 X-70.17854 Y5.83061
G01 X-70.22738 Y5.99333
G01 X-70.22893 Y6.00057
G01 X-70.22957 Y6.00044
G01 X-70.22893 Y6.00057
G01 X-70.23902 Y6.07044
G01 X-70.23940 Y6.07400
G01 X-70.24456 Y6.14598
G01 X-70.24471 Y6.14954
G01 X-70.24471 Y7.25804
G01 X-70.24468 Y7.25944
G01 X-70.24392 Y7.28608
G01 X-70.24392 Y7.28741
G01 X-70.24423 Y7.28743
G01 X-70.24392 Y7.28741
G01 X-70.24247 Y7.31397
G01 X-70.24196 Y7.31888
G01 X-70.22629 Y7.42058
G01 X-70.22533 Y7.42538
G01 X-70.22096 Y7.44250
G01 X-70.21857 Y7.44946
G01 X-70.21522 Y7.45604
G01 X-70.21923 Y7.45802
G01 X-70.21522 Y7.45604
G01 X-70.21098 Y7.46200
G01 X-70.17676 Y7.50336
G01 X-70.17435 Y7.50605
G01 X-70.12337 Y7.55936
G01 X-70.12086 Y7.56190
G01 X-70.08492 Y7.59449
G01 X-70.05185 Y7.62749
G01 X-70.00249 Y7.68199
G01 X-69.92660 Y7.78019
G01 X-69.89983 Y7.81860
G01 X-69.88771 Y7.83792
G01 X-69.80663 Y7.99337
G01 X-69.79734 Y8.01222
G01 X-69.79058 Y8.03203
G01 X-69.73808 Y8.19929
G01 X-69.73292 Y8.22154
G01 X-69.72469 Y8.26767
G01 X-69.70887 Y8.39081
G01 X-69.70529 Y8.46477
G01 X-69.70468 Y8.48816
G01 X-69.70468 Y10.00691
G01 X-69.70529 Y10.03033
G01 X-69.70887 Y10.10429
G01 X-69.72469 Y10.22743
G01 X-69.73292 Y10.27356
G01 X-69.73808 Y10.29581
G01 X-69.79058 Y10.46307
G01 X-69.79734 Y10.48288
G01 X-69.80656 Y10.50172
G01 X-69.88771 Y10.65717
G01 X-69.89983 Y10.67653
G01 X-69.92660 Y10.71493
G01 X-70.00247 Y10.81310
G01 X-70.05185 Y10.86761
G01 X-70.08494 Y10.90061
G01 X-70.13942 Y10.94998
G01 X-70.23762 Y11.02585
G01 X-70.27603 Y11.05263
G01 X-70.29541 Y11.06474
G01 X-70.40282 Y11.12087
G01 X-70.40493 Y11.12202
G01 X-70.44694 Y11.14658
G01 X-70.44900 Y11.14785
G01 X-70.45324 Y11.15069
G01 X-70.48743 Y11.17096
G01 X-70.49482 Y11.17495
G01 X-70.49970 Y11.17802
G01 X-70.60625 Y11.25275
G01 X-70.61044 Y11.25610
G01 X-70.66823 Y11.30652
G01 X-70.66851 Y11.30680
G01 X-70.67694 Y11.31427
G01 X-70.67724 Y11.31455
G01 X-70.68560 Y11.32212
G01 X-70.71263 Y11.32613
G01 X-70.91552 Y11.34607
G01 X-70.94499 Y11.34752
G01 X-70.97440 Y11.34607
G01 X-71.17727 Y11.32613
G01 X-71.20551 Y11.32194
G01 X-71.17727 Y11.32613
G01 X-70.97440 Y11.34607
G01 X-70.94499 Y11.34752
G01 X-70.91552 Y11.34607
G01 X-70.71263 Y11.32613
G01 X-70.68560 Y11.32212
G01 X-70.73820 Y11.36949
G01 X-70.74151 Y11.37282
G01 X-70.79888 Y11.43510
G01 X-70.90577 Y11.44561
G01 X-70.98420 Y11.44561
G01 X-71.09269 Y11.43495
G01 X-71.14532 Y11.37868
G01 X-71.14905 Y11.37508
G01 X-71.15192 Y11.37264
G01 X-71.20551 Y11.32194
G01 X-71.20714 Y11.32037
G01 X-71.21019 Y11.31727
G01 X-71.21506 Y11.31277
G01 X-71.35578 Y11.20076
G01 X-71.36175 Y11.19639
G01 X-71.39380 Y11.17805
G01 X-71.42113 Y11.16106
G01 X-71.43533 Y11.15156
G01 X-71.43757 Y11.15014
G01 X-71.48392 Y11.12255
G01 X-71.48634 Y11.12123
G01 X-71.59451 Y11.06474
G01 X-71.61387 Y11.05263
G01 X-71.65227 Y11.02585
G01 X-71.75052 Y10.94998
G01 X-71.80495 Y10.90061
G01 X-71.83802 Y10.86761
G01 X-71.88740 Y10.81310
G01 X-71.96327 Y10.71493
G01 X-71.99007 Y10.67653
G01 X-72.00216 Y10.65717
G01 X-72.08334 Y10.50172
G01 X-72.09256 Y10.48288
G01 X-72.09931 Y10.46307
G01 X-72.15182 Y10.29581
G01 X-72.15695 Y10.27356
G01 X-72.16518 Y10.22743
G01 X-72.18100 Y10.10429
G01 X-72.18466 Y10.03033
G01 X-72.18519 Y10.00691
G01 X-72.18519 Y8.48816
G01 X-72.18466 Y8.46477
G01 X-72.18100 Y8.39073
G01 X-72.16518 Y8.26767
G01 X-72.15695 Y8.22154
G01 X-72.15182 Y8.19929
G01 X-72.09931 Y8.03203
G01 X-72.09256 Y8.01222
G01 X-72.08331 Y7.99337
G01 X-72.00216 Y7.83792
G01 X-71.99007 Y7.81860
G01 X-71.96327 Y7.78019
G01 X-71.88740 Y7.68199
G01 X-71.83350 Y7.62261
G01 X-71.80511 Y7.59457
G01 X-71.76906 Y7.56190
G01 X-71.76810 Y7.56094
G01 X-71.74844 Y7.54222
G01 X-71.74750 Y7.54128
G01 X-71.72875 Y7.52238
G01 X-71.72634 Y7.51979
G01 X-71.67793 Y7.46348
G01 X-71.67270 Y7.45619
G01 X-71.66810 Y7.45842
G01 X-71.67270 Y7.45619
G01 X-71.66886 Y7.44811
G01 X-71.66650 Y7.43942
G01 X-71.66114 Y7.40844
G01 X-71.66096 Y7.40701
G01 X-71.65090 Y7.33711
G01 X-71.65047 Y7.33358
G01 X-71.64531 Y7.26170
G01 X-71.64498 Y7.25807
G01 X-71.64498 Y5.72505
G01 X-71.61562 Y5.69574
G01 X-71.64498 Y5.72505
G01 X-89.07492 Y5.72505
G01 X-89.10426 Y5.69574
G01 X-89.07492 Y5.72505
G01 X-89.07492 Y7.49223
G01 X-89.08424 Y7.49655
G01 X-89.07492 Y7.49223
G01 X-89.07032 Y7.49574
G01 X-88.91269 Y7.62502
G01 X-88.88495 Y7.65278
G01 X-88.75564 Y7.81034
G01 X-88.74391 Y7.82611
G01 X-88.73385 Y7.84293
G01 X-88.63776 Y8.02274
G01 X-88.62278 Y8.05901
G01 X-88.56359 Y8.25410
G01 X-88.55587 Y8.29256
G01 X-88.53596 Y8.49543
G01 X-88.53499 Y8.51501
G01 X-88.53499 Y10.03502
G01 X-88.53596 Y10.05466
G01 X-88.55587 Y10.25755
G01 X-88.56359 Y10.29598
G01 X-88.62278 Y10.49111
G01 X-88.63776 Y10.52728
G01 X-88.73385 Y10.70708
G01 X-88.74391 Y10.72397
G01 X-88.75564 Y10.73967
G01 X-88.88495 Y10.89733
G01 X-88.91269 Y10.92507
G01 X-89.07032 Y11.05438
G01 X-89.10291 Y11.07617
G01 X-89.28272 Y11.17223
G01 X-89.30040 Y11.18062
G01 X-89.31891 Y11.18725
G01 X-89.51404 Y11.24645
G01 X-89.55247 Y11.25407
G01 X-89.75534 Y11.27404
G01 X-89.76794 Y11.27470
G01 X-89.78201 Y11.27470
G01 X-89.79826 Y11.27470
G01 X-89.87172 Y11.27112
G01 X-89.99486 Y11.25532
G01 X-90.04099 Y11.24709
G01 X-90.06316 Y11.24193
G01 X-90.23049 Y11.18943
G01 X-90.25031 Y11.18267
G01 X-90.26908 Y11.17338
G01 X-90.42452 Y11.09230
G01 X-90.44385 Y11.08018
G01 X-90.48228 Y11.05341
G01 X-90.58053 Y10.97754
G01 X-90.63496 Y10.92817
G01 X-90.66803 Y10.89509
G01 X-90.71741 Y10.84066
G01 X-90.79328 Y10.74239
G01 X-90.82008 Y10.70398
G01 X-90.83217 Y10.68463
G01 X-90.91335 Y10.52921
G01 X-90.92272 Y10.51000
G01 X-90.92465 Y10.50470
G01 X-90.92922 Y10.49078
G01 X-90.98183 Y10.32329
G01 X-90.98696 Y10.30101
G01 X-90.99519 Y10.25496
G01 X-91.01101 Y10.13185
G01 X-91.01459 Y10.05778
G01 X-91.01520 Y10.03442
G01 X-91.01520 Y8.51565
G01 X-91.01459 Y8.49233
G01 X-91.01101 Y8.41819
G01 X-90.99519 Y8.29515
G01 X-90.98696 Y8.24902
G01 X-90.98183 Y8.22685
G01 X-90.92932 Y8.05949
G01 X-90.92257 Y8.03968
G01 X-90.91335 Y8.02093
G01 X-90.83217 Y7.86548
G01 X-90.82008 Y7.84613
G01 X-90.79328 Y7.80772
G01 X-90.71744 Y7.70945
G01 X-90.66798 Y7.65492
G01 X-90.63753 Y7.62434
G01 X-90.59910 Y7.58939
G01 X-90.59811 Y7.58855
G01 X-90.57832 Y7.56965
G01 X-90.57736 Y7.56868
G01 X-90.55861 Y7.54971
G01 X-90.55622 Y7.54720
G01 X-90.50794 Y7.49106
G01 X-90.50271 Y7.48370
G01 X-90.49818 Y7.48591
G01 X-90.50271 Y7.48370
G01 X-90.49887 Y7.47559
G01 X-90.49651 Y7.46698
G01 X-90.49115 Y7.43600
G01 X-90.49095 Y7.43457
G01 X-90.48086 Y7.36470
G01 X-90.48051 Y7.36114
G01 X-90.47532 Y7.28916
G01 X-90.47502 Y7.28916
G01 X-90.47532 Y7.28916
G01 X-90.47517 Y7.28560
G01 X-90.47517 Y6.14954
G01 X-90.47530 Y6.14684
G01 X-90.47820 Y6.09292
G01 X-90.47840 Y6.09030
G01 X-90.48404 Y6.03755
G01 X-90.48518 Y6.03122
G01 X-90.48452 Y6.03112
G01 X-90.48518 Y6.03122
G01 X-90.51777 Y5.89551
G01 X-90.51955 Y5.88972
G01 X-90.51919 Y5.88964
G01 X-90.51955 Y5.88972
G01 X-90.54421 Y5.82368
G01 X-90.54749 Y5.81657
G01 X-90.55183 Y5.81009
G01 X-90.55719 Y5.80430
G01 X-90.55023 Y5.79627
G01 X-90.55719 Y5.80430
G01 X-90.56341 Y5.79947
G01 X-90.57024 Y5.79571
G01 X-90.57408 Y5.79396
G01 X-90.58043 Y5.79155
G01 X-90.74324 Y5.74265
G01 X-90.75051 Y5.74103
G01 X-90.82038 Y5.73102
G01 X-90.82023 Y5.73006
G01 X-90.82038 Y5.73102
G01 X-90.82391 Y5.73059
G01 X-90.89587 Y5.72543
G01 X-90.89945 Y5.72528
G01 X-104.05914 Y5.72528
G01 X-104.06046 Y5.72536
G01 X-104.08739 Y5.72604
G01 X-104.08879 Y5.72609
G01 X-104.11530 Y5.72752
G01 X-104.11995 Y5.72797
G01 X-104.21474 Y5.74202
G01 X-104.22280 Y5.74395
G01 X-104.22424 Y5.74039
G01 X-104.22280 Y5.74395
G01 X-104.23039 Y5.74707
G01 X-104.23743 Y5.75149
G01 X-104.29915 Y5.79770
G01 X-104.30199 Y5.79993
G01 X-104.35648 Y5.84710
G01 X-104.35914 Y5.84954
G01 X-107.41042 Y8.90086
G01 X-107.41136 Y8.90183
G01 X-107.42988 Y8.92134
G01 X-107.43074 Y8.92233
G01 X-107.44847 Y8.94201
G01 X-107.45149 Y8.94570
G01 X-107.45169 Y8.94544
G01 X-107.45149 Y8.94570
G01 X-107.50867 Y9.02271
G01 X-107.51304 Y9.02972
G01 X-107.51547 Y9.02870
G01 X-107.51304 Y9.02972
G01 X-107.51613 Y9.03739
G01 X-107.51801 Y9.04536
G01 X-107.52901 Y9.12169
G01 X-107.52934 Y9.12167
G01 X-107.52901 Y9.12169
G01 X-107.52937 Y9.12525
G01 X-107.53460 Y9.19721
G01 X-107.53468 Y9.20079
G01 X-107.53468 Y10.03442
G01 X-107.53531 Y10.05778
G01 X-107.53889 Y10.13185
G01 X-107.55469 Y10.25496
G01 X-107.56292 Y10.30101
G01 X-107.56808 Y10.32326
G01 X-107.62063 Y10.49060
G01 X-107.62734 Y10.51036
G01 X-107.63661 Y10.52921
G01 X-107.71771 Y10.68463
G01 X-107.72982 Y10.70398
G01 X-107.75660 Y10.74239
G01 X-107.83247 Y10.84059
G01 X-107.88184 Y10.89509
G01 X-107.91491 Y10.92817
G01 X-107.96942 Y10.97754
G01 X-108.06759 Y11.05341
G01 X-108.10600 Y11.08018
G01 X-108.12538 Y11.09230
G01 X-108.28080 Y11.17345
G01 X-108.29962 Y11.18267
G01 X-108.31938 Y11.18943
G01 X-108.48674 Y11.24193
G01 X-108.50897 Y11.24709
G01 X-108.55504 Y11.25532
G01 X-108.67816 Y11.27112
G01 X-108.75159 Y11.27470
G01 X-108.76790 Y11.27470
G01 X-108.78204 Y11.27470
G01 X-108.79825 Y11.27470
G01 X-108.87171 Y11.27112
G01 X-108.99482 Y11.25532
G01 X-109.04097 Y11.24709
G01 X-109.06320 Y11.24193
G01 X-109.23046 Y11.18943
G01 X-109.25029 Y11.18267
G01 X-109.26906 Y11.17338
G01 X-109.42456 Y11.09230
G01 X-109.44387 Y11.08018
G01 X-109.48227 Y11.05341
G01 X-109.58052 Y10.97754
G01 X-109.63503 Y10.92817
G01 X-109.66802 Y10.89509
G01 X-109.71740 Y10.84059
G01 X-109.79327 Y10.74239
G01 X-109.82004 Y10.70398
G01 X-109.83216 Y10.68463
G01 X-109.91334 Y10.52918
G01 X-109.92268 Y10.51000
G01 X-109.92464 Y10.50470
G01 X-109.92926 Y10.49078
G01 X-109.98186 Y10.32326
G01 X-109.98692 Y10.30101
G01 X-109.99515 Y10.25496
G01 X-110.01097 Y10.13185
G01 X-110.01466 Y10.05778
G01 X-110.01516 Y10.03442
G01 X-110.01516 Y8.51565
G01 X-110.01466 Y8.49233
G01 X-110.01097 Y8.41829
G01 X-109.99515 Y8.29515
G01 X-109.98692 Y8.24902
G01 X-109.98186 Y8.22685
G01 X-109.92931 Y8.05949
G01 X-109.92253 Y8.03968
G01 X-109.91334 Y8.02093
G01 X-109.83216 Y7.86548
G01 X-109.82004 Y7.84613
G01 X-109.79324 Y7.80772
G01 X-109.71740 Y7.70943
G01 X-109.66802 Y7.65504
G01 X-109.63503 Y7.62195
G01 X-109.58052 Y7.57260
G01 X-109.48227 Y7.49670
G01 X-109.44387 Y7.46993
G01 X-109.42456 Y7.45781
G01 X-109.26906 Y7.37666
G01 X-109.25032 Y7.36744
G01 X-109.23046 Y7.36068
G01 X-109.06320 Y7.30818
G01 X-109.04097 Y7.30303
G01 X-108.99482 Y7.29480
G01 X-108.87178 Y7.27900
G01 X-108.79835 Y7.27542
G01 X-108.78227 Y7.27542
G01 X-108.76759 Y7.27542
G01 X-108.75159 Y7.27542
G01 X-108.67816 Y7.27900
G01 X-108.55502 Y7.29480
G01 X-108.50897 Y7.30303
G01 X-108.48674 Y7.30818
G01 X-108.31938 Y7.36068
G01 X-108.29947 Y7.36749
G01 X-108.28547 Y7.37427
G01 X-108.26759 Y7.38332
G01 X-108.26686 Y7.38372
G01 X-108.25411 Y7.38989
G01 X-108.25014 Y7.39165
G01 X-108.16747 Y7.42327
G01 X-108.16345 Y7.42462
G01 X-108.09485 Y7.44443
G01 X-108.09406 Y7.44463
G01 X-108.07699 Y7.44928
G01 X-108.07631 Y7.44946
G01 X-108.04293 Y7.45799
G01 X-108.03516 Y7.45939
G01 X-108.02726 Y7.45944
G01 X-108.02609 Y7.46960
G01 X-108.02726 Y7.45944
G01 X-108.01946 Y7.45830
G01 X-108.01192 Y7.45593
G01 X-108.00480 Y7.45245
G01 X-107.90813 Y7.39429
G01 X-107.90394 Y7.39147
G01 X-107.84743 Y7.34920
G01 X-107.84697 Y7.34971
G01 X-107.84743 Y7.34920
G01 X-107.84466 Y7.34694
G01 X-107.79002 Y7.29967
G01 X-107.78741 Y7.29724
G01 X-105.02053 Y4.53036
G01 X-105.00359 Y4.51426
G01 X-104.96953 Y4.48332
G01 X-104.93308 Y4.45632
G01 X-104.89422 Y4.43034
G01 X-104.85531 Y4.40699
G01 X-104.81429 Y4.38759
G01 X-104.77105 Y4.36971
G01 X-104.72841 Y4.35447
G01 X-104.68373 Y4.34324
G01 X-104.66150 Y4.33831
G01 X-104.63918 Y4.33443
G01 X-104.59369 Y4.32767
G01 X-104.54769 Y4.32541
G01 X-104.52429 Y4.32480
G01 X-30.77555 Y4.32480
G01 X-30.75215 Y4.32541
G01 X-30.70623 Y4.32767
G01 X-30.66071 Y4.33443
G01 X-30.63828 Y4.33834
G01 X-30.61616 Y4.34324
G01 X-30.57153 Y4.35447
G01 X-30.52876 Y4.36971
G01 X-30.48561 Y4.38759
G01 X-30.44461 Y4.40699
G01 X-30.40562 Y4.43034
G01 X-30.36681 Y4.45632
G01 X-30.33039 Y4.48332
G01 X-30.29627 Y4.51426
G01 X-30.27933 Y4.53039
G01 X-23.28011 Y11.52954
G01 X-23.26713 Y11.54307
G01 X-23.23251 Y11.58054
G01 X-23.21976 Y11.59735
G01 X-23.19837 Y11.62804
G01 X-23.15583 Y11.69451
G01 X-23.14340 Y11.72192
G01 X-23.11404 Y11.79278
G01 X-23.10345 Y11.82103
G01 X-23.08651 Y11.89817
G01 X-23.07998 Y11.93487
G01 X-23.07709 Y11.95577
G01 X-23.07505 Y12.00678
G01 X-23.07465 Y12.02552
G01 X-23.07465 Y13.30926
G01 X-23.07465 Y13.31058
G01 X-23.07394 Y13.33753
G01 X-23.07391 Y13.33893
G01 X-23.07246 Y13.36542
G01 X-23.07198 Y13.37007
G01 X-23.05793 Y13.46499
G01 X-23.05608 Y13.47297
G01 X-23.05885 Y13.47406
G01 X-23.05608 Y13.47297
G01 X-23.05285 Y13.48056
G01 X-23.04851 Y13.48760
G01 X-23.00241 Y13.54927
G01 X-23.00017 Y13.55201
G01 X-23.00040 Y13.55232
G01 X-23.00017 Y13.55201
G01 X-22.95288 Y13.60660
G01 X-22.95047 Y13.60929
G01 X-15.28023 Y21.27950
G01 X-15.26415 Y21.29637
G01 X-15.23326 Y21.33051
G01 X-15.20621 Y21.36690
G01 X-15.19719 Y21.38034
G01 X-15.19719 Y21.38039
G01 X-15.19691 Y21.38080
G01 X-15.18025 Y21.40574
G01 X-15.15693 Y21.44465
G01 X-15.13748 Y21.48575
G01 X-15.11965 Y21.52888
G01 X-15.10430 Y21.57165
G01 X-15.09333 Y21.61570
G01 X-15.08421 Y21.66139
G01 X-15.07751 Y21.70640
G01 X-15.07525 Y21.75225
G01 X-15.07469 Y21.77567
G01 X-15.07494 Y21.77501
G01 X-15.17492 Y21.77501
G01 X-15.17540 Y21.76523
G01 X-15.18508 Y21.66769
G01 X-15.18645 Y21.65799
G01 X-15.18889 Y21.64846
G01 X-15.21728 Y21.55471
G01 X-15.22485 Y21.53653
G01 X-15.27103 Y21.45012
G01 X-15.27603 Y21.44173
G01 X-15.28193 Y21.43381
G01 X-15.34413 Y21.35801
G01 X-15.35068 Y21.35075
G01 X-23.17488 Y13.52653
G01 X-23.17488 Y12.02501
G01 X-23.17526 Y12.01724
G01 X-23.18140 Y11.93901
G01 X-23.18384 Y11.92351
G01 X-23.20216 Y11.84716
G01 X-23.20701 Y11.83230
G01 X-23.23703 Y11.75981
G01 X-23.24412 Y11.74582
G01 X-23.28511 Y11.67889
G01 X-23.29438 Y11.66624
G01 X-23.34531 Y11.60652
G01 X-23.35064 Y11.60076
G01 X-30.35068 Y4.60077
G01 X-30.35800 Y4.59419
G01 X-30.43376 Y4.53201
G01 X-30.45002 Y4.52117
G01 X-30.53651 Y4.47491
G01 X-30.55459 Y4.46745
G01 X-30.64837 Y4.43895
G01 X-30.66757 Y4.43516
G01 X-30.76513 Y4.42551
G01 X-30.77499 Y4.42503
G01 X-104.52493 Y4.42503
G01 X-104.53473 Y4.42551
G01 X-104.63227 Y4.43516
G01 X-104.65147 Y4.43895
G01 X-104.74525 Y4.46745
G01 X-104.76336 Y4.47491
G01 X-104.84982 Y4.52117
G01 X-104.86613 Y4.53201
G01 X-104.94192 Y4.59419
G01 X-104.94921 Y4.60077
G01 X-108.01710 Y7.66874
G01 X-108.13376 Y7.57303
G01 X-108.15004 Y7.56208
G01 X-108.32985 Y7.46604
G01 X-108.34793 Y7.45847
G01 X-108.54306 Y7.39929
G01 X-108.55258 Y7.39696
G01 X-108.56228 Y7.39551
G01 X-108.76515 Y7.37549
G01 X-108.78479 Y7.37549
G01 X-108.98768 Y7.39551
G01 X-108.99739 Y7.39696
G01 X-109.00691 Y7.39929
G01 X-109.20201 Y7.45847
G01 X-109.22012 Y7.46604
G01 X-109.39993 Y7.56208
G01 X-109.41623 Y7.57303
G01 X-109.57376 Y7.70234
G01 X-109.58103 Y7.70894
G01 X-109.58763 Y7.71621
G01 X-109.71702 Y7.87379
G01 X-109.72286 Y7.88166
G01 X-109.72789 Y7.89007
G01 X-109.82395 Y8.06988
G01 X-109.83150 Y8.08804
G01 X-109.89070 Y8.28309
G01 X-109.89309 Y8.29261
G01 X-109.89446 Y8.30236
G01 X-109.91445 Y8.50526
G01 X-109.91494 Y8.51501
G01 X-109.91494 Y10.03502
G01 X-109.91445 Y10.04485
G01 X-109.89446 Y10.24772
G01 X-109.89070 Y10.26693
G01 X-109.83150 Y10.46205
G01 X-109.82822 Y10.47127
G01 X-109.82395 Y10.48013
G01 X-109.72789 Y10.65994
G01 X-109.72286 Y10.66837
G01 X-109.71702 Y10.67625
G01 X-109.58763 Y10.83391
G01 X-109.58103 Y10.84117
G01 X-109.57376 Y10.84770
G01 X-109.41623 Y10.97709
G01 X-109.39993 Y10.98793
G01 X-109.22012 Y11.08407
G01 X-109.20201 Y11.09154
G01 X-109.00691 Y11.15075
G01 X-108.99739 Y11.15316
G01 X-108.98768 Y11.15461
G01 X-108.78479 Y11.17452
G01 X-108.76515 Y11.17452
G01 X-108.56228 Y11.15461
G01 X-108.55258 Y11.15316
G01 X-108.54306 Y11.15075
G01 X-108.34793 Y11.09154
G01 X-108.32985 Y11.08407
G01 X-108.15004 Y10.98793
G01 X-108.13376 Y10.97709
G01 X-107.97610 Y10.84770
G01 X-107.96884 Y10.84117
G01 X-107.96223 Y10.83391
G01 X-107.83292 Y10.67625
G01 X-107.82711 Y10.66837
G01 X-107.82208 Y10.65994
G01 X-107.72591 Y10.48013
G01 X-107.71847 Y10.46205
G01 X-107.65926 Y10.26693
G01 X-107.65685 Y10.25743
G01 X-107.65540 Y10.24772
G01 X-107.63541 Y10.04485
G01 X-107.63493 Y10.03502
G01 X-107.63493 Y8.98357
G01 X-104.27639 Y5.62505
G01 X-90.37494 Y5.62505
G01 X-90.37494 Y7.54882
G01 X-90.39991 Y7.56208
G01 X-90.41622 Y7.57303
G01 X-90.57378 Y7.70234
G01 X-90.58104 Y7.70894
G01 X-90.58767 Y7.71621
G01 X-90.71696 Y7.87379
G01 X-90.72287 Y7.88166
G01 X-90.72790 Y7.89007
G01 X-90.82397 Y8.06988
G01 X-90.83151 Y8.08804
G01 X-90.89064 Y8.28309
G01 X-90.89303 Y8.29261
G01 X-90.89448 Y8.30236
G01 X-90.91449 Y8.50526
G01 X-90.91497 Y8.51501
G01 X-90.91497 Y10.03502
G01 X-90.91449 Y10.04485
G01 X-90.89448 Y10.24772
G01 X-90.89064 Y10.26693
G01 X-90.83151 Y10.46205
G01 X-90.82816 Y10.47127
G01 X-90.82397 Y10.48013
G01 X-90.72790 Y10.65994
G01 X-90.72287 Y10.66837
G01 X-90.71696 Y10.67625
G01 X-90.58767 Y10.83391
G01 X-90.58104 Y10.84117
G01 X-90.57378 Y10.84770
G01 X-90.41622 Y10.97709
G01 X-90.39991 Y10.98793
G01 X-90.22011 Y11.08407
G01 X-90.20194 Y11.09154
G01 X-90.00690 Y11.15075
G01 X-89.99740 Y11.15316
G01 X-89.98762 Y11.15461
G01 X-89.78475 Y11.17452
G01 X-89.76519 Y11.17452
G01 X-89.56230 Y11.15461
G01 X-89.55259 Y11.15316
G01 X-89.54307 Y11.15075
G01 X-89.34797 Y11.09154
G01 X-89.32986 Y11.08407
G01 X-89.15005 Y10.98793
G01 X-89.13375 Y10.97709
G01 X-88.97612 Y10.84770
G01 X-88.96885 Y10.84117
G01 X-88.96225 Y10.83391
G01 X-88.83296 Y10.67625
G01 X-88.82712 Y10.66837
G01 X-88.82201 Y10.65994
G01 X-88.72595 Y10.48013
G01 X-88.71841 Y10.46205
G01 X-88.65928 Y10.26693
G01 X-88.65686 Y10.25743
G01 X-88.65542 Y10.24772
G01 X-88.63543 Y10.04485
G01 X-88.63494 Y10.03502
G01 X-88.63494 Y8.51501
G01 X-88.63543 Y8.50526
G01 X-88.65542 Y8.30236
G01 X-88.65686 Y8.29261
G01 X-88.65928 Y8.28309
G01 X-88.71841 Y8.08804
G01 X-88.72595 Y8.06988
G01 X-88.82201 Y7.89007
G01 X-88.82712 Y7.88166
G01 X-88.83296 Y7.87379
G01 X-88.96225 Y7.71621
G01 X-88.96885 Y7.70894
G01 X-88.97612 Y7.70234
G01 X-89.13375 Y7.57303
G01 X-89.15005 Y7.56208
G01 X-89.17495 Y7.54882
G01 X-89.17495 Y5.62505
G01 X-71.54493 Y5.62505
G01 X-71.54493 Y7.52126
G01 X-71.56993 Y7.53465
G01 X-71.58621 Y7.54549
G01 X-71.74376 Y7.67488
G01 X-71.75103 Y7.68141
G01 X-71.75766 Y7.68867
G01 X-71.88697 Y7.84631
G01 X-71.89286 Y7.85421
G01 X-71.89789 Y7.86259
G01 X-71.99395 Y8.04239
G01 X-72.00152 Y8.06051
G01 X-72.06071 Y8.25560
G01 X-72.06304 Y8.26513
G01 X-72.06447 Y8.27480
G01 X-72.08448 Y8.47770
G01 X-72.08496 Y8.48753
G01 X-72.08496 Y10.00757
G01 X-72.08448 Y10.01737
G01 X-72.06447 Y10.22027
G01 X-72.06071 Y10.23949
G01 X-72.00152 Y10.43459
G01 X-71.99817 Y10.44381
G01 X-71.99395 Y10.45270
G01 X-71.89789 Y10.63248
G01 X-71.89286 Y10.64089
G01 X-71.88697 Y10.64879
G01 X-71.75766 Y10.80635
G01 X-71.75103 Y10.81361
G01 X-71.74376 Y10.82022
G01 X-71.58621 Y10.94960
G01 X-71.56993 Y10.96045
G01 X-71.39012 Y11.05654
G01 X-71.37201 Y11.06406
G01 X-71.17691 Y11.12326
G01 X-71.16739 Y11.12560
G01 X-71.15769 Y11.12705
G01 X-70.95474 Y11.14704
G01 X-70.93518 Y11.14704
G01 X-70.73229 Y11.12705
G01 X-70.72258 Y11.12560
G01 X-70.71306 Y11.12326
G01 X-70.51796 Y11.06406
G01 X-70.49985 Y11.05654
G01 X-70.32004 Y10.96045
G01 X-70.30376 Y10.94960
G01 X-70.14610 Y10.82022
G01 X-70.13884 Y10.81361
G01 X-70.13224 Y10.80635
G01 X-70.00295 Y10.64879
G01 X-69.99711 Y10.64089
G01 X-69.99208 Y10.63248
G01 X-69.89594 Y10.45270
G01 X-69.88845 Y10.43459
G01 X-69.82927 Y10.23949
G01 X-69.82685 Y10.22997
G01 X-69.82540 Y10.22027
G01 X-69.80541 Y10.01737
G01 X-69.80493 Y10.00757
G01 X-69.80493 Y8.48753
G01 X-69.80541 Y8.47770
G01 X-69.82540 Y8.27480
G01 X-69.82685 Y8.26513
G01 X-69.82927 Y8.25560
G01 X-69.88845 Y8.06051
G01 X-69.89594 Y8.04239
G01 X-69.99208 Y7.86259
G01 X-69.99711 Y7.85421
G01 X-70.00295 Y7.84631
G01 X-70.13224 Y7.68867
G01 X-70.13884 Y7.68141
G01 X-70.14610 Y7.67488
G01 X-70.30376 Y7.54549
G01 X-70.32004 Y7.53465
G01 X-70.34494 Y7.52126
G01 X-70.34494 Y5.62505
G01 X-52.87497 Y5.62505
G01 X-52.87497 Y7.54882
G01 X-52.89991 Y7.56208
G01 X-52.91622 Y7.57303
G01 X-53.07383 Y7.70234
G01 X-53.08109 Y7.70894
G01 X-53.08762 Y7.71621
G01 X-53.21698 Y7.87379
G01 X-53.22788 Y7.89007
G01 X-53.32399 Y8.06988
G01 X-53.32818 Y8.07874
G01 X-53.33148 Y8.08804
G01 X-53.39064 Y8.28309
G01 X-53.39305 Y8.29261
G01 X-53.39453 Y8.30236
G01 X-53.41452 Y8.50526
G01 X-53.41500 Y8.51501
G01 X-53.41500 Y10.03502
G01 X-53.41452 Y10.04485
G01 X-53.39453 Y10.24772
G01 X-53.39305 Y10.25743
G01 X-53.39064 Y10.26693
G01 X-53.33148 Y10.46205
G01 X-53.32818 Y10.47127
G01 X-53.32399 Y10.48013
G01 X-53.22788 Y10.65994
G01 X-53.21698 Y10.67625
G01 X-53.08762 Y10.83391
G01 X-53.08109 Y10.84117
G01 X-53.07383 Y10.84770
G01 X-52.91622 Y10.97709
G01 X-52.90832 Y10.98288
G01 X-52.89991 Y10.98793
G01 X-52.72013 Y11.08407
G01 X-52.70197 Y11.09154
G01 X-52.50692 Y11.15075
G01 X-52.48769 Y11.15461
G01 X-52.28475 Y11.17452
G01 X-52.27500 Y11.17500
G01 X-52.26514 Y11.17452
G01 X-52.06227 Y11.15461
G01 X-52.04307 Y11.15075
G01 X-51.84792 Y11.09154
G01 X-51.82986 Y11.08407
G01 X-51.65005 Y10.98793
G01 X-51.64165 Y10.98288
G01 X-51.63375 Y10.97709
G01 X-51.47614 Y10.84770
G01 X-51.46888 Y10.84117
G01 X-51.46227 Y10.83391
G01 X-51.33291 Y10.67625
G01 X-51.32201 Y10.65994
G01 X-51.22590 Y10.48013
G01 X-51.22171 Y10.47127
G01 X-51.21846 Y10.46205
G01 X-51.15925 Y10.26693
G01 X-51.15689 Y10.25743
G01 X-51.15546 Y10.24772
G01 X-51.13545 Y10.04485
G01 X-51.13497 Y10.03502
G01 X-51.13497 Y8.51501
G01 X-51.13545 Y8.50526
G01 X-51.15546 Y8.30236
G01 X-51.15689 Y8.29261
G01 X-51.15925 Y8.28309
G01 X-51.21846 Y8.08804
G01 X-51.22171 Y8.07874
G01 X-51.22590 Y8.06988
G01 X-51.32201 Y7.89007
G01 X-51.33291 Y7.87379
G01 X-51.46227 Y7.71621
G01 X-51.46888 Y7.70894
G01 X-51.47614 Y7.70234
G01 X-51.63375 Y7.57303
G01 X-51.64165 Y7.56714
G01 X-51.65005 Y7.56208
G01 X-51.67497 Y7.54882
G01 X-51.67497 Y5.62505
G01 X-34.29497 Y5.62505
G01 X-34.29497 Y7.52124
G01 X-34.31991 Y7.53465
G01 X-34.32829 Y7.53965
G01 X-34.33619 Y7.54549
G01 X-34.49380 Y7.67488
G01 X-34.50107 Y7.68141
G01 X-34.50767 Y7.68867
G01 X-34.63696 Y7.84631
G01 X-34.64785 Y7.86259
G01 X-34.74397 Y8.04239
G01 X-34.74816 Y8.05126
G01 X-34.75148 Y8.06051
G01 X-34.81069 Y8.25560
G01 X-34.81305 Y8.26513
G01 X-34.81450 Y8.27480
G01 X-34.83452 Y8.47770
G01 X-34.83500 Y8.48753
G01 X-34.83500 Y10.00757
G01 X-34.83452 Y10.01737
G01 X-34.81450 Y10.22027
G01 X-34.81305 Y10.22997
G01 X-34.81069 Y10.23949
G01 X-34.75148 Y10.43459
G01 X-34.74816 Y10.44381
G01 X-34.74397 Y10.45270
G01 X-34.64785 Y10.63248
G01 X-34.63696 Y10.64879
G01 X-34.50767 Y10.80635
G01 X-34.50107 Y10.81361
G01 X-34.49380 Y10.82022
G01 X-34.33619 Y10.94960
G01 X-34.32829 Y10.95544
G01 X-34.31991 Y10.96045
G01 X-34.14011 Y11.05654
G01 X-34.12195 Y11.06406
G01 X-33.92690 Y11.12326
G01 X-33.90767 Y11.12705
G01 X-33.70480 Y11.14704
G01 X-33.69497 Y11.14752
G01 X-33.68519 Y11.14704
G01 X-33.48225 Y11.12705
G01 X-33.46304 Y11.12326
G01 X-33.26797 Y11.06406
G01 X-33.24984 Y11.05654
G01 X-33.07006 Y10.96045
G01 X-33.06165 Y10.95544
G01 X-33.05375 Y10.94960
G01 X-32.89614 Y10.82022
G01 X-32.88888 Y10.81361
G01 X-32.88225 Y10.80635
G01 X-32.75296 Y10.64879
G01 X-32.74206 Y10.63248
G01 X-32.64595 Y10.45270
G01 X-32.64176 Y10.44381
G01 X-32.63846 Y10.43459
G01 X-32.57923 Y10.23949
G01 X-32.57689 Y10.22997
G01 X-32.57544 Y10.22027
G01 X-32.55543 Y10.01737
G01 X-32.55494 Y10.00757
G01 X-32.55494 Y8.48753
G01 X-32.55543 Y8.47770
G01 X-32.57544 Y8.27480
G01 X-32.57689 Y8.26513
G01 X-32.57923 Y8.25560
G01 X-32.63846 Y8.06051
G01 X-32.64176 Y8.05126
G01 X-32.64595 Y8.04239
G01 X-32.74206 Y7.86259
G01 X-32.75296 Y7.84631
G01 X-32.88225 Y7.68867
G01 X-32.88888 Y7.68141
G01 X-32.89614 Y7.67488
G01 X-33.05375 Y7.54549
G01 X-33.06165 Y7.53965
G01 X-33.07006 Y7.53465
G01 X-33.09490 Y7.52129
G01 X-33.09490 Y5.62505
G01 X-31.02345 Y5.62505
G01 X-24.37495 Y12.27358
G01 X-24.37495 Y14.52506
G01 X-24.77497 Y14.52506
G01 X-24.78473 Y14.52554
G01 X-24.83355 Y14.53029
G01 X-24.84325 Y14.53174
G01 X-24.85277 Y14.53413
G01 X-24.89964 Y14.54835
G01 X-24.90893 Y14.55170
G01 X-24.91780 Y14.55589
G01 X-24.96098 Y14.57896
G01 X-24.97728 Y14.58991
G01 X-25.01521 Y14.62094
G01 X-25.02908 Y14.63481
G01 X-25.06017 Y14.67273
G01 X-25.06596 Y14.68061
G01 X-25.07104 Y14.68904
G01 X-25.09412 Y14.73220
G01 X-25.10164 Y14.75036
G01 X-25.11584 Y14.79722
G01 X-25.11825 Y14.80672
G01 X-25.11970 Y14.81645
G01 X-25.12448 Y14.86527
G01 X-25.12496 Y14.87502
G01 X-25.12496 Y16.17502
G01 X-25.12448 Y16.18487
G01 X-25.11970 Y16.23362
G01 X-25.11825 Y16.24329
G01 X-25.11584 Y16.25282
G01 X-25.10164 Y16.29976
G01 X-25.09412 Y16.31787
G01 X-25.07104 Y16.36110
G01 X-25.06596 Y16.36951
G01 X-25.06017 Y16.37740
G01 X-25.02908 Y16.41523
G01 X-25.01521 Y16.42909
G01 X-24.97728 Y16.46021
G01 X-24.96098 Y16.47108
G01 X-24.91780 Y16.49417
G01 X-24.90893 Y16.49836
G01 X-24.89964 Y16.50169
G01 X-24.85277 Y16.51591
G01 X-24.84325 Y16.51832
G01 X-24.83355 Y16.51977
G01 X-24.78473 Y16.52457
G01 X-24.77497 Y16.52506
G01 X-22.77493 Y16.52506
G01 X-22.76517 Y16.52457
G01 X-22.71641 Y16.51977
G01 X-22.70668 Y16.51832
G01 X-22.69715 Y16.51591
G01 X-22.65026 Y16.50169
G01 X-22.64104 Y16.49836
G01 X-22.63218 Y16.49417
G01 X-22.58892 Y16.47108
G01 X-22.57262 Y16.46021
G01 X-22.53477 Y16.42909
G01 X-22.52090 Y16.41523
G01 X-22.48981 Y16.37740
G01 X-22.48394 Y16.36951
G01 X-22.47892 Y16.36110
G01 X-22.45578 Y16.31787
G01 X-22.44833 Y16.29976
G01 X-22.43406 Y16.25282
G01 X-22.43172 Y16.24329
G01 X-22.43027 Y16.23362
G01 X-22.42542 Y16.18487
G01 X-22.42494 Y16.17502
G01 X-22.42494 Y15.97360
G01 X-16.37499 Y22.02357
G01 X-16.37499 Y63.77652
G01 X-22.75339 Y70.15507
G01 X-24.54498 Y70.15507
G01 X-24.56233 Y70.15652
G01 X-24.57919 Y70.16104
G01 X-24.59499 Y70.16841
G01 X-24.60921 Y70.17841
G01 X-24.62156 Y70.19073
G01 X-24.63157 Y70.20501
G01 X-24.63891 Y70.22083
G01 X-24.64343 Y70.23765
G01 X-24.64498 Y70.25505
G01 X-24.64498 Y72.79505
G01 X-24.64302 Y72.81455
G01 X-24.63738 Y72.83327
G01 X-24.62809 Y72.85057
G01 X-24.61567 Y72.86573
G01 X-24.60050 Y72.87816
G01 X-24.58323 Y72.88743
G01 X-24.56448 Y72.89309
G01 X-24.54498 Y72.89502
G01 X-23.54495 Y72.89502
G01 X-23.54495 Y85.87503
G01 X-23.73500 Y85.87503
G01 X-23.74478 Y85.87551
G01 X-23.79357 Y85.88031
G01 X-23.80327 Y85.88176
G01 X-23.81280 Y85.88415
G01 X-23.85968 Y85.89835
G01 X-23.87777 Y85.90584
G01 X-23.92103 Y85.92901
G01 X-23.92941 Y85.93401
G01 X-23.93731 Y85.93990
G01 X-23.97518 Y85.97094
G01 X-23.98242 Y85.97755
G01 X-23.98905 Y85.98481
G01 X-24.02011 Y86.02271
G01 X-24.03101 Y86.03904
G01 X-24.05415 Y86.08222
G01 X-24.05829 Y86.09108
G01 X-24.06159 Y86.10033
G01 X-24.07589 Y86.14722
G01 X-24.07967 Y86.16647
G01 X-24.08450 Y86.21521
G01 X-24.08498 Y86.22502
G01 X-24.08498 Y89.32501
G01 X-24.08450 Y89.33482
G01 X-24.07967 Y89.38358
G01 X-24.07589 Y89.40284
G01 X-24.06159 Y89.44973
G01 X-24.05829 Y89.45897
G01 X-24.05415 Y89.46784
G01 X-24.03101 Y89.51109
G01 X-24.02011 Y89.52735
G01 X-23.98905 Y89.56524
G01 X-23.98242 Y89.57251
G01 X-23.97518 Y89.57909
G01 X-23.93731 Y89.61023
G01 X-23.92941 Y89.61604
G01 X-23.92103 Y89.62112
G01 X-23.87777 Y89.64416
G01 X-23.85968 Y89.65171
G01 X-23.81280 Y89.66590
G01 X-23.80327 Y89.66829
G01 X-23.79357 Y89.66974
G01 X-23.74478 Y89.67454
G01 X-23.73500 Y89.67502
G01 X-22.15499 Y89.67502
G01 X-22.14516 Y89.67454
G01 X-22.09642 Y89.66974
G01 X-22.08666 Y89.66829
G01 X-22.07714 Y89.66590
G01 X-22.03025 Y89.65171
G01 X-22.01217 Y89.64416
G01 X-21.96893 Y89.62112
G01 X-21.96053 Y89.61604
G01 X-21.95263 Y89.61023
G01 X-21.91478 Y89.57909
G01 X-21.90749 Y89.57251
G01 X-21.90089 Y89.56524
G01 X-21.86982 Y89.52735
G01 X-21.85893 Y89.51109
G01 X-21.83576 Y89.46784
G01 X-21.83157 Y89.45897
G01 X-21.82832 Y89.44973
G01 X-21.81407 Y89.40284
G01 X-21.81026 Y89.38358
G01 X-21.80543 Y89.33482
G01 X-21.80495 Y89.32501
G01 X-21.80495 Y86.22502
G01 X-21.80543 Y86.21521
G01 X-21.81026 Y86.16647
G01 X-21.81407 Y86.14722
G01 X-21.82832 Y86.10033
G01 X-21.83157 Y86.09108
G01 X-21.83576 Y86.08222
G01 X-21.85893 Y86.03904
G01 X-21.86982 Y86.02271
G01 X-21.90089 Y85.98481
G01 X-21.90749 Y85.97755
G01 X-21.91478 Y85.97094
G01 X-21.95263 Y85.93990
G01 X-21.96053 Y85.93401
G01 X-21.96893 Y85.92901
G01 X-22.01217 Y85.90584
G01 X-22.03025 Y85.89835
G01 X-22.07714 Y85.88415
G01 X-22.08666 Y85.88176
G01 X-22.09642 Y85.88031
G01 X-22.14516 Y85.87551
G01 X-22.15499 Y85.87503
G01 X-22.34496 Y85.87503
G01 X-22.34496 Y72.89502
G01 X-22.00498 Y72.89502
G01 X-21.98547 Y72.89309
G01 X-21.96672 Y72.88743
G01 X-21.94940 Y72.87816
G01 X-21.93429 Y72.86573
G01 X-21.92179 Y72.85057
G01 X-21.91260 Y72.83327
G01 X-21.90686 Y72.81455
G01 X-21.90493 Y72.79505
G01 X-21.90493 Y71.00361
G01 X-15.35068 Y64.44937
G01 X-15.34413 Y64.44210
G01 X-15.28193 Y64.36634
G01 X-15.27103 Y64.35003
G01 X-15.22485 Y64.26359
G01 X-15.21728 Y64.24543
G01 X-15.18889 Y64.15166
G01 X-15.18508 Y64.13240
G01 X-15.17540 Y64.03484
G01 X-15.17492 Y64.02506
G01 X-15.17492 Y21.77501
G01 X-15.07494 Y21.77501
G01 X-15.07469 Y21.77567
G01 X-15.07469 Y64.02443
G01 X-15.07525 Y64.04790
G01 X-15.07751 Y64.09372
G01 X-15.08421 Y64.13883
G01 X-15.09221 Y64.18000
G01 X-15.10430 Y64.22849
G01 X-15.11965 Y64.27126
G01 X-15.13748 Y64.31444
G01 X-15.15691 Y64.35544
G01 X-15.18025 Y64.39433
G01 X-15.20621 Y64.43321
G01 X-15.23326 Y64.46961
G01 X-15.26415 Y64.50375
G01 X-15.28023 Y64.52064
G01 X-21.68042 Y70.92088
G01 X-21.68138 Y70.92180
G01 X-21.69977 Y70.94118
G01 X-21.70066 Y70.94219
G01 X-21.71841 Y70.96190
G01 X-21.72134 Y70.96551
G01 X-21.77864 Y71.04275
G01 X-21.78298 Y71.04976
G01 X-21.78613 Y71.05738
G01 X-21.78969 Y71.05598
G01 X-21.78613 Y71.05738
G01 X-21.78798 Y71.06543
G01 X-21.79903 Y71.14176
G01 X-21.79936 Y71.14532
G01 X-21.80460 Y71.21722
G01 X-21.80470 Y71.22086
G01 X-21.80470 Y72.79423
G01 X-21.80574 Y72.82515
G01 X-21.80673 Y72.83200
G01 X-21.81504 Y72.85466
G01 X-21.81511 Y72.85491
G01 X-21.81867 Y72.86452
G01 X-21.82367 Y72.87800
G01 X-21.83632 Y72.90180
G01 X-21.84892 Y72.91867
G01 X-21.84940 Y72.91930
G01 X-21.86281 Y72.93716
G01 X-21.88075 Y72.95062
G01 X-21.89807 Y72.96355
G01 X-21.90863 Y72.97145
G01 X-21.92238 Y72.97661
G01 X-21.93505 Y72.98130
G01 X-21.94214 Y72.98395
G01 X-21.96731 Y72.99340
G01 X-21.98288 Y72.99784
G01 X-22.01816 Y73.00752
G01 X-22.02032 Y73.00815
G01 X-22.06817 Y73.02365
G01 X-22.07028 Y73.02438
G01 X-22.14016 Y73.05044
G01 X-22.14071 Y73.05062
G01 X-22.15517 Y73.05626
G01 X-22.16340 Y73.06030
G01 X-22.17074 Y73.06586
G01 X-22.17696 Y73.07272
G01 X-22.18537 Y73.06482
G01 X-22.17696 Y73.07272
G01 X-22.18186 Y73.08049
G01 X-22.18519 Y73.08910
G01 X-22.22756 Y73.23718
G01 X-22.22893 Y73.24381
G01 X-22.22941 Y73.24371
G01 X-22.22893 Y73.24381
G01 X-22.23901 Y73.31369
G01 X-22.23942 Y73.31725
G01 X-22.24458 Y73.38915
G01 X-22.24473 Y73.39276
G01 X-22.24473 Y85.41460
G01 X-22.24468 Y85.41532
G01 X-22.24450 Y85.42903
G01 X-22.24450 Y85.42972
G01 X-22.24409 Y85.44315
G01 X-22.24465 Y85.44321
G01 X-22.24409 Y85.44315
G01 X-22.24384 Y85.44745
G01 X-22.23401 Y85.53371
G01 X-22.23337 Y85.53787
G01 X-22.21940 Y85.60775
G01 X-22.21862 Y85.61123
G01 X-22.19642 Y85.69167
G01 X-22.19350 Y85.69959
G01 X-22.18930 Y85.70688
G01 X-22.19817 Y85.71374
G01 X-22.18930 Y85.70688
G01 X-22.18389 Y85.71339
G01 X-22.17752 Y85.71887
G01 X-22.17036 Y85.72327
G01 X-22.14894 Y85.73381
G01 X-22.14694 Y85.73470
G01 X-22.09980 Y85.75550
G01 X-22.09771 Y85.75636
G01 X-22.08892 Y85.75979
G01 X-22.05138 Y85.77612
G01 X-22.02700 Y85.78791
G01 X-22.02606 Y85.78832
G01 X-22.00653 Y85.79731
G01 X-22.00556 Y85.79771
G01 X-21.96553 Y85.81499
G01 X-21.92398 Y85.83891
G01 X-21.88466 Y85.86416
G01 X-21.87539 Y85.87074
G01 X-21.85352 Y85.89052
G01 X-21.82045 Y85.92365
G01 X-21.80066 Y85.94546
G01 X-21.79411 Y85.95471
G01 X-21.76886 Y85.99406
G01 X-21.74572 Y86.03429
G01 X-21.73142 Y86.07285
G01 X-21.71714 Y86.11793
G01 X-21.71204 Y86.13556
G01 X-21.70930 Y86.15715
G01 X-21.70576 Y86.19157
G01 X-21.70528 Y86.20218
G01 X-21.70472 Y86.22565
G01 X-21.70472 Y89.32440
G01 X-21.70528 Y89.34787
G01 X-21.70576 Y89.35854
G01 X-21.70930 Y89.39291
G01 X-21.71204 Y89.41455
G01 X-21.71714 Y89.43212
G01 X-21.73142 Y89.47721
G01 X-21.74572 Y89.51582
G01 X-21.76886 Y89.55605
G01 X-21.79411 Y89.59534
G01 X-21.80066 Y89.60459
G01 X-21.82045 Y89.62646
G01 X-21.85352 Y89.65953
G01 X-21.87539 Y89.67932
G01 X-21.88466 Y89.68589
G01 X-21.92398 Y89.71114
G01 X-21.96416 Y89.73431
G01 X-22.00279 Y89.74851
G01 X-22.04785 Y89.76283
G01 X-22.06543 Y89.76796
G01 X-22.08707 Y89.77070
G01 X-22.12144 Y89.77421
G01 X-22.13210 Y89.77469
G01 X-22.15557 Y89.77530
G01 X-23.73436 Y89.77530
G01 X-23.75783 Y89.77469
G01 X-23.76842 Y89.77421
G01 X-23.80287 Y89.77070
G01 X-23.82443 Y89.76796
G01 X-23.84208 Y89.76283
G01 X-23.88712 Y89.74851
G01 X-23.92570 Y89.73431
G01 X-23.96588 Y89.71119
G01 X-24.00535 Y89.68584
G01 X-24.01455 Y89.67932
G01 X-24.03642 Y89.65950
G01 X-24.04780 Y89.64807
G01 X-24.05803 Y89.63786
G01 X-24.06941 Y89.62646
G01 X-24.08925 Y89.60459
G01 X-24.09580 Y89.59542
G01 X-24.12105 Y89.55613
G01 X-24.14424 Y89.51582
G01 X-24.15844 Y89.47721
G01 X-24.17271 Y89.43212
G01 X-24.17787 Y89.41455
G01 X-24.18069 Y89.39278
G01 X-24.18409 Y89.35849
G01 X-24.18465 Y89.34779
G01 X-24.18521 Y89.32440
G01 X-24.18521 Y86.22565
G01 X-24.18465 Y86.20228
G01 X-24.18409 Y86.19157
G01 X-24.18069 Y86.15730
G01 X-24.17787 Y86.13556
G01 X-24.17271 Y86.11793
G01 X-24.15844 Y86.07285
G01 X-24.14424 Y86.03429
G01 X-24.12105 Y85.99393
G01 X-24.09580 Y85.95471
G01 X-24.08925 Y85.94546
G01 X-24.06941 Y85.92365
G01 X-24.05829 Y85.91247
G01 X-24.04754 Y85.90170
G01 X-24.04716 Y85.90137
G01 X-24.03865 Y85.89362
G01 X-24.00076 Y85.86256
G01 X-23.96814 Y85.84077
G01 X-23.92489 Y85.81765
G01 X-23.88872 Y85.80267
G01 X-23.84183 Y85.78847
G01 X-23.82273 Y85.78367
G01 X-23.80335 Y85.78077
G01 X-23.75453 Y85.77597
G01 X-23.73500 Y85.77501
G01 X-23.64495 Y85.77501
G01 X-23.61805 Y85.80018
G01 X-23.64495 Y85.77501
G01 X-23.64495 Y73.41681
G01 X-23.64528 Y73.41684
G01 X-23.64495 Y73.41681
G01 X-23.64495 Y72.99502
G01 X-23.61582 Y72.96604
G01 X-23.64495 Y72.99502
G01 X-24.54498 Y72.99502
G01 X-24.58402 Y72.99121
G01 X-24.60462 Y72.98491
G01 X-24.62801 Y72.97630
G01 X-24.64140 Y72.97145
G01 X-24.65173 Y72.96363
G01 X-24.66893 Y72.95077
G01 X-24.68709 Y72.93716
G01 X-24.70032 Y72.91948
G01 X-24.70784 Y72.90940
G01 X-24.71356 Y72.90180
G01 X-24.72130 Y72.89147
G01 X-24.72616 Y72.87831
G01 X-24.73494 Y72.85443
G01 X-24.74317 Y72.83200
G01 X-24.74414 Y72.82515
G01 X-24.74518 Y72.79423
G01 X-24.74518 Y70.25588
G01 X-24.74414 Y70.22490
G01 X-24.74317 Y70.21809
G01 X-24.73647 Y70.19983
G01 X-24.72671 Y70.17336
G01 X-24.72130 Y70.15863
G01 X-24.71163 Y70.14570
G01 X-24.70307 Y70.13427
G01 X-24.69443 Y70.12276
G01 X-24.67723 Y70.10552
G01 X-24.69443 Y70.12276
G01 X-24.68709 Y70.11288
G01 X-24.67723 Y70.10552
G01 X-24.65844 Y70.09147
G01 X-24.65425 Y70.08832
G01 X-24.64140 Y70.07867
G01 X-24.62649 Y70.07318
G01 X-24.62504 Y70.07267
G01 X-24.60048 Y70.06363
G01 X-24.58186 Y70.05677
G01 X-24.57508 Y70.05589
G01 X-24.54409 Y70.05484
G01 X-22.97071 Y70.05484
G01 X-22.96941 Y70.05477
G01 X-22.94239 Y70.05403
G01 X-22.94109 Y70.05403
G01 X-22.91463 Y70.05258
G01 X-22.90995 Y70.05210
G01 X-22.81503 Y70.03805
G01 X-22.80706 Y70.03620
G01 X-22.80592 Y70.03894
G01 X-22.80706 Y70.03620
G01 X-22.79939 Y70.03305
G01 X-22.79245 Y70.02861
G01 X-22.73071 Y69.98248
G01 X-22.73048 Y69.98278
G01 X-22.73071 Y69.98248
G01 X-22.72796 Y69.98027
G01 X-22.67333 Y69.93297
G01 X-22.67074 Y69.93056
G01 X-17.02559 Y64.28572
G01 X-22.79487 Y70.05502
G01 X-22.79172 Y70.06267
G01 X-22.79487 Y70.05502
G01 X-24.54498 Y70.05502
G01 X-24.57967 Y70.05807
G01 X-24.60048 Y70.06363
G01 X-24.62504 Y70.07267
G01 X-24.62649 Y70.07318
G01 X-24.64498 Y70.08182
G01 X-24.65425 Y70.08832
G01 X-24.65844 Y70.09147
G01 X-24.67723 Y70.10552
G01 X-24.69443 Y70.12276
G01 X-24.70307 Y70.13427
G01 X-24.71163 Y70.14570
G01 X-24.71815 Y70.15507
G01 X-24.72671 Y70.17336
G01 X-24.73639 Y70.19952
G01 X-24.73647 Y70.19983
G01 X-24.74195 Y70.22027
G01 X-24.74495 Y70.25505
G01 X-24.74495 Y72.79505
G01 X-24.74114 Y72.83404
G01 X-24.73494 Y72.85443
G01 X-24.72616 Y72.87831
G01 X-24.71356 Y72.90180
G01 X-24.70784 Y72.90940
G01 X-24.70063 Y72.91915
G01 X-24.70032 Y72.91948
G01 X-24.68635 Y72.93642
G01 X-24.66893 Y72.95077
G01 X-24.65173 Y72.96363
G01 X-24.62801 Y72.97630
G01 X-24.60462 Y72.98491
G01 X-24.58186 Y72.99332
G01 X-24.57508 Y72.99421
G01 X-24.54409 Y72.99527
G01 X-24.06949 Y72.99527
G01 X-24.06588 Y72.99540
G01 X-23.99390 Y73.00058
G01 X-23.99380 Y72.99987
G01 X-23.99390 Y73.00058
G01 X-23.99039 Y73.00099
G01 X-23.92052 Y73.01100
G01 X-23.91328 Y73.01260
G01 X-23.75057 Y73.06144
G01 X-23.74411 Y73.06385
G01 X-23.74025 Y73.06563
G01 X-23.73896 Y73.06312
G01 X-23.74025 Y73.06563
G01 X-23.73177 Y73.07056
G01 X-23.72443 Y73.07709
G01 X-23.71846 Y73.08484
G01 X-23.71605 Y73.08313
G01 X-23.71846 Y73.08484
G01 X-23.71419 Y73.09370
G01 X-23.68958 Y73.15964
G01 X-23.68780 Y73.16543
G01 X-23.68732 Y73.16530
G01 X-23.68780 Y73.16543
G01 X-23.65511 Y73.30134
G01 X-23.65407 Y73.30772
G01 X-23.64841 Y73.36040
G01 X-23.64818 Y73.36307
G01 X-23.64528 Y73.41684
G01 X-23.64518 Y73.41951
G01 X-23.64503 Y85.41463
G01 X-23.64536 Y85.41824
G01 X-23.65052 Y85.49017
G01 X-23.65090 Y85.49373
G01 X-23.66093 Y85.56360
G01 X-23.66060 Y85.56365
G01 X-23.66093 Y85.56360
G01 X-23.66205 Y85.56906
G01 X-23.69370 Y85.69058
G01 X-23.69667 Y85.69886
G01 X-23.70104 Y85.70648
G01 X-23.69410 Y85.71209
G01 X-23.70104 Y85.70648
G01 X-23.70660 Y85.71326
G01 X-23.71336 Y85.71887
G01 X-23.72098 Y85.72327
G01 X-23.74211 Y85.73315
G01 X-23.74274 Y85.73348
G01 X-23.75953 Y85.74102
G01 X-23.76027 Y85.74130
G01 X-23.78989 Y85.75405
G01 X-23.82418 Y85.77023
G01 X-23.83604 Y85.77638
G01 X-23.83822 Y85.77742
G01 X-23.88318 Y85.79804
G01 X-23.88534 Y85.79901
G01 X-23.90680 Y85.80759
G01 X-23.91859 Y85.81252
G01 X-23.92440 Y85.81506
G01 X-23.96588 Y85.83886
G01 X-24.00535 Y85.86421
G01 X-24.01455 Y85.87074
G01 X-24.03642 Y85.89060
G01 X-24.04716 Y85.90137
G01 X-24.05829 Y85.91247
G01 X-24.06636 Y85.92139
G01 X-24.09743 Y85.95923
G01 X-24.11922 Y85.99187
G01 X-24.14229 Y86.03505
G01 X-24.15074 Y86.05281
G01 X-24.15730 Y86.07132
G01 X-24.17157 Y86.11821
G01 X-24.17917 Y86.15667
G01 X-24.18402 Y86.20541
G01 X-24.18498 Y86.22502
G01 X-24.18498 Y89.32501
G01 X-24.18402 Y89.34462
G01 X-24.17917 Y89.39339
G01 X-24.17157 Y89.43184
G01 X-24.15730 Y89.47873
G01 X-24.15074 Y89.49725
G01 X-24.14229 Y89.51500
G01 X-24.11922 Y89.55818
G01 X-24.09743 Y89.59082
G01 X-24.06636 Y89.62867
G01 X-24.05803 Y89.63786
G01 X-24.04780 Y89.64807
G01 X-24.03865 Y89.65638
G01 X-24.00076 Y89.68749
G01 X-23.96814 Y89.70929
G01 X-23.92489 Y89.73238
G01 X-23.88872 Y89.74741
G01 X-23.84183 Y89.76159
G01 X-23.82273 Y89.76639
G01 X-23.80335 Y89.76928
G01 X-23.75453 Y89.77406
G01 X-23.73500 Y89.77502
G01 X-22.15499 Y89.77502
G01 X-22.13538 Y89.77406
G01 X-22.08659 Y89.76928
G01 X-22.06721 Y89.76639
G01 X-22.04816 Y89.76159
G01 X-22.00127 Y89.74741
G01 X-21.96505 Y89.73238
G01 X-21.92179 Y89.70929
G01 X-21.88920 Y89.68749
G01 X-21.85133 Y89.65638
G01 X-21.84188 Y89.64785
G01 X-21.83213 Y89.63812
G01 X-21.82360 Y89.62867
G01 X-21.79251 Y89.59082
G01 X-21.77074 Y89.55818
G01 X-21.74762 Y89.51500
G01 X-21.73924 Y89.49725
G01 X-21.73264 Y89.47873
G01 X-21.71841 Y89.43184
G01 X-21.71074 Y89.39339
G01 X-21.70592 Y89.34462
G01 X-21.70495 Y89.32501
G01 X-21.70495 Y86.22502
G01 X-21.70592 Y86.20541
G01 X-21.71074 Y86.15667
G01 X-21.71841 Y86.11821
G01 X-21.73264 Y86.07132
G01 X-21.73924 Y86.05281
G01 X-21.74762 Y86.03505
G01 X-21.77074 Y85.99187
G01 X-21.79251 Y85.95923
G01 X-21.82360 Y85.92139
G01 X-21.83190 Y85.91222
G01 X-21.84214 Y85.90193
G01 X-21.85133 Y85.89362
G01 X-21.88920 Y85.86256
G01 X-21.92179 Y85.84077
G01 X-21.96505 Y85.81765
G01 X-22.00127 Y85.80267
G01 X-22.04816 Y85.78847
G01 X-22.06721 Y85.78367
G01 X-22.08659 Y85.78077
G01 X-22.13538 Y85.77597
G01 X-22.15499 Y85.77501
G01 X-22.24491 Y85.77501
G01 X-22.27257 Y85.80129
G01 X-22.24491 Y85.77501
G01 X-22.24491 Y72.99502
G01 X-22.27297 Y72.96805
G01 X-22.24491 Y72.99502
G01 X-22.00498 Y72.99502
G01 X-21.96594 Y72.99121
G01 X-21.94214 Y72.98395
G01 X-21.93505 Y72.98130
G01 X-21.92238 Y72.97661
G01 X-21.89807 Y72.96355
G01 X-21.88136 Y72.95110
G01 X-21.88075 Y72.95062
G01 X-21.86352 Y72.93642
G01 X-21.84940 Y72.91930
G01 X-21.84892 Y72.91867
G01 X-21.83632 Y72.90180
G01 X-21.82860 Y72.89147
G01 X-21.81867 Y72.86452
G01 X-21.81511 Y72.85491
G01 X-21.81504 Y72.85466
G01 X-21.80881 Y72.83404
G01 X-21.80495 Y72.79505
G01 X-21.80495 Y71.04509
G01 X-21.81252 Y71.04189
G01 X-21.80495 Y71.04509
G01 X-15.28000 Y64.52006
G01 X-15.26681 Y64.50553
G01 X-15.20461 Y64.42976
G01 X-15.18282 Y64.39715
G01 X-15.13666 Y64.31066
G01 X-15.12165 Y64.27449
G01 X-15.09318 Y64.18066
G01 X-15.08556 Y64.14223
G01 X-15.07591 Y64.04467
G01 X-15.07494 Y64.02506
G01 X-15.07494 Y21.77501
G01 X-15.07591 Y21.75547
G01 X-15.08556 Y21.65786
G01 X-15.09318 Y21.61943
G01 X-15.12165 Y21.52565
G01 X-15.13666 Y21.48946
G01 X-15.18282 Y21.40300
G01 X-15.18927 Y21.39233
G01 X-15.19691 Y21.38080
G01 X-15.19719 Y21.38039
G01 X-15.19719 Y21.38034
G01 X-15.20461 Y21.37038
G01 X-15.26681 Y21.29459
G01 X-15.28000 Y21.28004
G01 X-23.07490 Y13.48516
G01 X-23.08239 Y13.48826
G01 X-23.07490 Y13.48516
G01 X-23.07490 Y12.02501
G01 X-23.07554 Y12.00937
G01 X-23.08168 Y11.93111
G01 X-23.08659 Y11.90012
G01 X-23.10492 Y11.82382
G01 X-23.11460 Y11.79403
G01 X-23.14462 Y11.72148
G01 X-23.15890 Y11.69352
G01 X-23.19989 Y11.62669
G01 X-23.21836 Y11.60124
G01 X-23.26929 Y11.54163
G01 X-23.27996 Y11.53004
G01 X-30.27997 Y4.53008
G01 X-30.29450 Y4.51687
G01 X-30.37029 Y4.45470
G01 X-30.40288 Y4.43293
G01 X-30.48936 Y4.38675
G01 X-30.52553 Y4.37174
G01 X-30.61931 Y4.34332
G01 X-30.65782 Y4.33562
G01 X-30.75538 Y4.32604
G01 X-30.77499 Y4.32508
G01 X-104.52493 Y4.32508
G01 X-104.54449 Y4.32604
G01 X-104.64210 Y4.33562
G01 X-104.68053 Y4.34332
G01 X-104.77428 Y4.37174
G01 X-104.81055 Y4.38675
G01 X-104.89696 Y4.43293
G01 X-104.92955 Y4.45470
G01 X-105.00537 Y4.51687
G01 X-105.01992 Y4.53008
G01 X-108.02373 Y7.53389
G01 X-108.02154 Y7.56648
G01 X-108.02373 Y7.53389
G01 X-108.07031 Y7.49574
G01 X-108.10292 Y7.47394
G01 X-108.28271 Y7.37780
G01 X-108.30046 Y7.36940
G01 X-108.31890 Y7.36279
G01 X-108.51402 Y7.30366
G01 X-108.55243 Y7.29597
G01 X-108.75532 Y7.27598
G01 X-108.76759 Y7.27542
G01 X-108.78227 Y7.27542
G01 X-108.79454 Y7.27598
G01 X-108.99744 Y7.29597
G01 X-109.03594 Y7.30366
G01 X-109.23104 Y7.36279
G01 X-109.24951 Y7.36940
G01 X-109.26726 Y7.37780
G01 X-109.44707 Y7.47394
G01 X-109.47966 Y7.49574
G01 X-109.63721 Y7.62502
G01 X-109.66495 Y7.65278
G01 X-109.79426 Y7.81034
G01 X-109.80600 Y7.82611
G01 X-109.81610 Y7.84293
G01 X-109.91219 Y8.02274
G01 X-109.92720 Y8.05901
G01 X-109.98639 Y8.25410
G01 X-109.99403 Y8.29256
G01 X-110.01402 Y8.49543
G01 X-110.01499 Y8.51501
G01 X-110.01499 Y10.03502
G01 X-110.01402 Y10.05466
G01 X-109.99403 Y10.25755
G01 X-109.98639 Y10.29598
G01 X-109.92720 Y10.49111
G01 X-109.92060 Y10.50955
G01 X-109.91219 Y10.52728
G01 X-109.81610 Y10.70708
G01 X-109.80600 Y10.72397
G01 X-109.79426 Y10.73967
G01 X-109.66495 Y10.89733
G01 X-109.63721 Y10.92507
G01 X-109.47966 Y11.05438
G01 X-109.44707 Y11.07617
G01 X-109.26726 Y11.17223
G01 X-109.24951 Y11.18062
G01 X-109.23104 Y11.18725
G01 X-109.03594 Y11.24645
G01 X-108.99744 Y11.25407
G01 X-108.79454 Y11.27404
G01 X-108.78204 Y11.27470
G01 X-108.76790 Y11.27470
G01 X-108.75532 Y11.27404
G01 X-108.55243 Y11.25407
G01 X-108.51402 Y11.24645
G01 X-108.31890 Y11.18725
G01 X-108.30046 Y11.18062
G01 X-108.28271 Y11.17223
G01 X-108.10292 Y11.07617
G01 X-108.07031 Y11.05438
G01 X-107.91268 Y10.92507
G01 X-107.88499 Y10.89733
G01 X-107.75561 Y10.73967
G01 X-107.74397 Y10.72397
G01 X-107.73384 Y10.70708
G01 X-107.63777 Y10.52728
G01 X-107.62276 Y10.49111
G01 X-107.56356 Y10.29598
G01 X-107.55594 Y10.25755
G01 X-107.53595 Y10.05466
G01 X-107.53498 Y10.03502
G01 X-107.53498 Y9.02499
G01 X-107.54258 Y9.02190
G01 X-107.53498 Y9.02499
G01 X-104.23494 Y5.72505
G01 X-104.23814 Y5.71748
G01 X-104.23494 Y5.72505
G01 X-90.47499 Y5.72505
G01 X-90.44563 Y5.69574
G01 X-90.47499 Y5.72505
G01 X-90.47499 Y7.49221
G01 X-90.46565 Y7.49655
G01 X-90.47499 Y7.49221
G01 X-90.47967 Y7.49574
G01 X-90.63722 Y7.62502
G01 X-90.66499 Y7.65278
G01 X-90.79427 Y7.81034
G01 X-90.80601 Y7.82611
G01 X-90.81604 Y7.84293
G01 X-90.91221 Y8.02274
G01 X-90.92722 Y8.05901
G01 X-90.98635 Y8.25410
G01 X-90.99404 Y8.29256
G01 X-91.01403 Y8.49543
G01 X-91.01500 Y8.51501
G01 X-91.01500 Y10.03502
G01 X-91.01403 Y10.05466
G01 X-90.99404 Y10.25755
G01 X-90.98635 Y10.29598
G01 X-90.92722 Y10.49111
G01 X-90.92059 Y10.50955
G01 X-90.91221 Y10.52728
G01 X-90.81604 Y10.70708
G01 X-90.80601 Y10.72397
G01 X-90.79427 Y10.73967
G01 X-90.66499 Y10.89733
G01 X-90.63722 Y10.92507
G01 X-90.47967 Y11.05438
G01 X-90.44705 Y11.07617
G01 X-90.26725 Y11.17223
G01 X-90.24952 Y11.18062
G01 X-90.23098 Y11.18725
G01 X-90.03588 Y11.24645
G01 X-89.99745 Y11.25407
G01 X-89.79455 Y11.27404
G01 X-89.78201 Y11.27470
G01 X-89.76794 Y11.27470
G01 X-89.75163 Y11.27470
G01 X-89.67817 Y11.27112
G01 X-89.55506 Y11.25532
G01 X-89.50893 Y11.24709
G01 X-89.48673 Y11.24193
G01 X-89.31940 Y11.18943
G01 X-89.29958 Y11.18267
G01 X-89.28084 Y11.17345
G01 X-89.12537 Y11.09230
G01 X-89.10604 Y11.08018
G01 X-89.06763 Y11.05341
G01 X-88.96936 Y10.97754
G01 X-88.91493 Y10.92817
G01 X-88.88186 Y10.89509
G01 X-88.83248 Y10.84066
G01 X-88.75661 Y10.74239
G01 X-88.72984 Y10.70398
G01 X-88.71772 Y10.68463
G01 X-88.63654 Y10.52918
G01 X-88.62735 Y10.51036
G01 X-88.62057 Y10.49060
G01 X-88.56809 Y10.32326
G01 X-88.56293 Y10.30101
G01 X-88.55470 Y10.25499
G01 X-88.53891 Y10.13185
G01 X-88.53530 Y10.05778
G01 X-88.53469 Y10.03442
G01 X-88.53469 Y8.51565
G01 X-88.53530 Y8.49233
G01 X-88.53891 Y8.41829
G01 X-88.55470 Y8.29515
G01 X-88.56293 Y8.24902
G01 X-88.56809 Y8.22685
G01 X-88.62059 Y8.05949
G01 X-88.62735 Y8.03970
G01 X-88.63657 Y8.02093
G01 X-88.71772 Y7.86548
G01 X-88.72984 Y7.84613
G01 X-88.75661 Y7.80772
G01 X-88.83248 Y7.70945
G01 X-88.88186 Y7.65504
G01 X-88.91493 Y7.62195
G01 X-88.95079 Y7.58941
G01 X-88.95336 Y7.58692
G01 X-89.00446 Y7.53348
G01 X-89.00677 Y7.53079
G01 X-89.04099 Y7.48951
G01 X-89.04523 Y7.48352
G01 X-89.04891 Y7.48542
G01 X-89.04523 Y7.48352
G01 X-89.04858 Y7.47702
G01 X-89.05094 Y7.46998
G01 X-89.05536 Y7.45281
G01 X-89.05633 Y7.44801
G01 X-89.07198 Y7.34664
G01 X-89.07248 Y7.34174
G01 X-89.07297 Y7.34176
G01 X-89.07248 Y7.34174
G01 X-89.07393 Y7.31517
G01 X-89.07393 Y7.31385
G01 X-89.07469 Y7.28690
G01 X-89.07472 Y7.28560
G01 X-89.07472 Y6.14954
G01 X-89.07457 Y6.14598
G01 X-89.06941 Y6.07400
G01 X-89.07020 Y6.07387
G01 X-89.06941 Y6.07400
G01 X-89.06903 Y6.07044
G01 X-89.05894 Y6.00057
G01 X-89.05740 Y5.99333
G01 X-89.00855 Y5.83061
G01 X-89.00614 Y5.82421
G01 X-89.00436 Y5.82040
G01 X-89.00710 Y5.81888
G01 X-89.00436 Y5.82040
G01 X-89.00052 Y5.81349
G01 X-88.99567 Y5.80737
G01 X-88.98998 Y5.80204
G01 X-88.98348 Y5.79764
G01 X-88.98501 Y5.79538
G01 X-88.98348 Y5.79764
G01 X-88.97632 Y5.79429
G01 X-88.91030 Y5.76965
G01 X-88.90449 Y5.76788
G01 X-88.76860 Y5.73524
G01 X-88.76227 Y5.73414
G01 X-88.76237 Y5.73384
G01 X-88.76227 Y5.73414
G01 X-88.70959 Y5.72848
G01 X-88.70690 Y5.72828
G01 X-88.65315 Y5.72538
G01 X-88.65041 Y5.72528
G01 X-72.06947 Y5.72528
G01 X-72.06589 Y5.72543
G01 X-71.99393 Y5.73059
G01 X-71.99378 Y5.72972
G01 X-71.99393 Y5.73059
G01 X-71.99037 Y5.73102
G01 X-71.92050 Y5.74103
G01 X-71.91323 Y5.74265
G01 X-71.75042 Y5.79155
G01 X-71.74407 Y5.79396
G01 X-71.74021 Y5.79571
G01 X-71.73340 Y5.79947
G01 X-71.72718 Y5.80430
G01 X-71.72019 Y5.79622
G01 X-71.72718 Y5.80430
G01 X-71.72182 Y5.81009
G01 X-71.71745 Y5.81657
G01 X-71.71420 Y5.82368
G01 X-71.68954 Y5.88972
G01 X-71.68918 Y5.88964
G01 X-71.68954 Y5.88972
G01 X-71.68776 Y5.89551
G01 X-71.65517 Y6.03138
G01 X-71.65451 Y6.03125
G01 X-71.65517 Y6.03138
G01 X-71.65403 Y6.03767
G01 X-71.64839 Y6.09043
G01 X-71.64818 Y6.09305
G01 X-71.64529 Y6.14684
G01 X-71.64516 Y6.14954
G01 X-71.64498 Y7.25807
G01 X-71.64498 Y7.46475
G01 X-71.63564 Y7.46902
G01 X-71.64498 Y7.46475
G01 X-71.64966 Y7.46818
G01 X-71.80721 Y7.59756
G01 X-71.83495 Y7.62530
G01 X-71.96426 Y7.78286
G01 X-71.97600 Y7.79866
G01 X-71.98606 Y7.81547
G01 X-72.08219 Y7.99528
G01 X-72.09721 Y8.03147
G01 X-72.15634 Y8.22657
G01 X-72.16403 Y8.26503
G01 X-72.18402 Y8.46797
G01 X-72.18499 Y8.48753
G01 X-72.18499 Y10.00757
G01 X-72.18402 Y10.02713
G01 X-72.16403 Y10.23002
G01 X-72.15634 Y10.26850
G01 X-72.09721 Y10.46355
G01 X-72.09060 Y10.48206
G01 X-72.08219 Y10.49982
G01 X-71.98606 Y10.67963
G01 X-71.97600 Y10.69642
G01 X-71.96426 Y10.71221
G01 X-71.83495 Y10.86977
G01 X-71.80721 Y10.89751
G01 X-71.64966 Y11.02684
G01 X-71.61707 Y11.04864
G01 X-71.43726 Y11.14478
G01 X-71.41951 Y11.15316
G01 X-71.40099 Y11.15976
G01 X-71.20595 Y11.21897
G01 X-71.16744 Y11.22659
G01 X-70.96454 Y11.24660
G01 X-70.94499 Y11.24757
G01 X-70.92533 Y11.24660
G01 X-70.72246 Y11.22659
G01 X-70.68403 Y11.21897
G01 X-70.48890 Y11.15976
G01 X-70.47046 Y11.15316
G01 X-70.45271 Y11.14478
G01 X-70.27293 Y11.04864
G01 X-70.24031 Y11.02684
G01 X-70.08268 Y10.89751
G01 X-70.05494 Y10.86977
G01 X-69.92563 Y10.71221
G01 X-69.91397 Y10.69642
G01 X-69.90384 Y10.67963
G01 X-69.80778 Y10.49982
G01 X-69.79277 Y10.46355
G01 X-69.73358 Y10.26850
G01 X-69.72594 Y10.23002
G01 X-69.70595 Y10.02713
G01 X-69.70498 Y10.00757
G01 X-69.70498 Y8.48753
G01 X-69.70595 Y8.46797
G01 X-69.72594 Y8.26503
G01 X-69.73358 Y8.22657
G01 X-69.79277 Y8.03147
G01 X-69.80778 Y7.99528
G01 X-69.90384 Y7.81547
G01 X-69.91397 Y7.79866
G01 X-69.92563 Y7.78286
G01 X-70.05494 Y7.62530
G01 X-70.08268 Y7.59756
G01 X-70.24031 Y7.46818
G01 X-70.24491 Y7.46475
G01 X-70.25423 Y7.46909
G01 X-70.24491 Y7.46475
G01 X-70.24491 Y5.72505
G01 X-70.27425 Y5.69574
G01 X-70.24491 Y5.72505
G01 X-52.97497 Y5.72505
G01 X-52.94568 Y5.69574
G01 X-52.97497 Y5.72505
G01 X-52.97497 Y7.49256
G01 X-52.96544 Y7.49703
G01 X-52.97497 Y7.49256
G01 X-52.97964 Y7.49574
G01 X-53.13725 Y7.62502
G01 X-53.14771 Y7.63455
G01 X-53.15604 Y7.64293
G01 X-53.16499 Y7.65278
G01 X-53.29430 Y7.81034
G01 X-53.30598 Y7.82611
G01 X-53.31606 Y7.84293
G01 X-53.41218 Y8.02274
G01 X-53.42719 Y8.05901
G01 X-53.48635 Y8.25410
G01 X-53.49402 Y8.29256
G01 X-53.51403 Y8.49543
G01 X-53.51500 Y8.51501
G01 X-53.51500 Y10.03502
G01 X-53.51403 Y10.05466
G01 X-53.49402 Y10.25755
G01 X-53.48635 Y10.29598
G01 X-53.42719 Y10.49111
G01 X-53.41218 Y10.52728
G01 X-53.31606 Y10.70708
G01 X-53.30598 Y10.72397
G01 X-53.29430 Y10.73967
G01 X-53.16499 Y10.89733
G01 X-53.15660 Y10.90655
G01 X-53.14644 Y10.91668
G01 X-53.13725 Y10.92507
G01 X-52.97964 Y11.05438
G01 X-52.94705 Y11.07617
G01 X-52.76725 Y11.17223
G01 X-52.74949 Y11.18062
G01 X-52.73100 Y11.18725
G01 X-52.53588 Y11.24645
G01 X-52.51690 Y11.25118
G01 X-52.49747 Y11.25407
G01 X-52.29458 Y11.27404
G01 X-52.25539 Y11.27404
G01 X-52.05249 Y11.25407
G01 X-52.03306 Y11.25118
G01 X-52.01401 Y11.24645
G01 X-51.81894 Y11.18725
G01 X-51.80047 Y11.18062
G01 X-51.78272 Y11.17223
G01 X-51.60291 Y11.07617
G01 X-51.57032 Y11.05438
G01 X-51.41272 Y10.92507
G01 X-51.40311 Y10.91638
G01 X-51.39344 Y10.90670
G01 X-51.38188 Y10.89509
G01 X-51.33250 Y10.84066
G01 X-51.25663 Y10.74239
G01 X-51.22986 Y10.70398
G01 X-51.21775 Y10.68463
G01 X-51.13657 Y10.52918
G01 X-51.12737 Y10.51036
G01 X-51.12059 Y10.49060
G01 X-51.06806 Y10.32326
G01 X-51.06296 Y10.30101
G01 X-51.05473 Y10.25499
G01 X-51.03893 Y10.13185
G01 X-51.03530 Y10.05778
G01 X-51.03474 Y10.03442
G01 X-51.03474 Y8.51565
G01 X-51.03530 Y8.49233
G01 X-51.03893 Y8.41829
G01 X-51.05473 Y8.29515
G01 X-51.06296 Y8.24902
G01 X-51.06806 Y8.22685
G01 X-51.12059 Y8.05949
G01 X-51.12737 Y8.03970
G01 X-51.13657 Y8.02093
G01 X-51.21775 Y7.86548
G01 X-51.22986 Y7.84613
G01 X-51.25666 Y7.80772
G01 X-51.33250 Y7.70945
G01 X-51.38191 Y7.65504
G01 X-51.39303 Y7.64387
G01 X-51.39328 Y7.64359
G01 X-51.40352 Y7.63335
G01 X-51.41272 Y7.62502
G01 X-51.57032 Y7.49574
G01 X-51.57492 Y7.49256
G01 X-51.58445 Y7.49703
G01 X-51.57492 Y7.49256
G01 X-51.57492 Y5.72505
G01 X-51.60428 Y5.69574
G01 X-51.57492 Y5.72505
G01 X-34.39494 Y5.72505
G01 X-34.36566 Y5.69574
G01 X-34.39494 Y5.72505
G01 X-34.39494 Y7.46508
G01 X-34.38542 Y7.46957
G01 X-34.39494 Y7.46508
G01 X-34.39964 Y7.46818
G01 X-34.55723 Y7.59756
G01 X-34.56812 Y7.60742
G01 X-34.57427 Y7.61344
G01 X-34.58499 Y7.62530
G01 X-34.71427 Y7.78286
G01 X-34.72598 Y7.79866
G01 X-34.73607 Y7.81547
G01 X-34.83218 Y7.99528
G01 X-34.84719 Y8.03147
G01 X-34.90640 Y8.22657
G01 X-34.91399 Y8.26503
G01 X-34.93401 Y8.46797
G01 X-34.93497 Y8.48753
G01 X-34.93497 Y10.00757
G01 X-34.93401 Y10.02713
G01 X-34.91399 Y10.23002
G01 X-34.90640 Y10.26850
G01 X-34.84719 Y10.46355
G01 X-34.83218 Y10.49982
G01 X-34.73607 Y10.67963
G01 X-34.72598 Y10.69642
G01 X-34.71427 Y10.71221
G01 X-34.58499 Y10.86977
G01 X-34.57668 Y10.87894
G01 X-34.57467 Y10.88090
G01 X-34.56642 Y10.88925
G01 X-34.56604 Y10.88956
G01 X-34.55723 Y10.89751
G01 X-34.39964 Y11.02684
G01 X-34.36703 Y11.04864
G01 X-34.18722 Y11.14478
G01 X-34.16947 Y11.15316
G01 X-34.15100 Y11.15976
G01 X-33.95593 Y11.21897
G01 X-33.93691 Y11.22369
G01 X-33.91745 Y11.22659
G01 X-33.71458 Y11.24660
G01 X-33.67536 Y11.24660
G01 X-33.47249 Y11.22659
G01 X-33.45304 Y11.22369
G01 X-33.43399 Y11.21897
G01 X-33.23894 Y11.15976
G01 X-33.22045 Y11.15316
G01 X-33.20272 Y11.14478
G01 X-33.02291 Y11.04864
G01 X-32.99032 Y11.02684
G01 X-32.83272 Y10.89751
G01 X-32.82342 Y10.88915
G01 X-32.82319 Y10.88895
G01 X-32.81359 Y10.87930
G01 X-32.80501 Y10.86977
G01 X-32.67567 Y10.71221
G01 X-32.66396 Y10.69642
G01 X-32.65388 Y10.67963
G01 X-32.55776 Y10.49982
G01 X-32.54275 Y10.46355
G01 X-32.48359 Y10.26850
G01 X-32.47592 Y10.23002
G01 X-32.45593 Y10.02713
G01 X-32.45497 Y10.00757
G01 X-32.45497 Y8.48753
G01 X-32.45593 Y8.46797
G01 X-32.47592 Y8.26503
G01 X-32.48359 Y8.22657
G01 X-32.54275 Y8.03147
G01 X-32.55776 Y7.99528
G01 X-32.65388 Y7.81547
G01 X-32.66396 Y7.79866
G01 X-32.67567 Y7.78286
G01 X-32.80501 Y7.62530
G01 X-32.81311 Y7.61621
G01 X-32.81334 Y7.61598
G01 X-32.82342 Y7.60597
G01 X-32.83488 Y7.59449
G01 X-32.87079 Y7.56190
G01 X-32.87338 Y7.55939
G01 X-32.92446 Y7.50592
G01 X-32.92680 Y7.50333
G01 X-32.96094 Y7.46203
G01 X-32.96523 Y7.45604
G01 X-32.96894 Y7.45797
G01 X-32.96523 Y7.45604
G01 X-32.96861 Y7.44948
G01 X-32.97094 Y7.44250
G01 X-32.97531 Y7.42523
G01 X-32.97628 Y7.42053
G01 X-32.99192 Y7.31918
G01 X-32.99248 Y7.31418
G01 X-32.99289 Y7.31423
G01 X-32.99248 Y7.31418
G01 X-32.99386 Y7.28771
G01 X-32.99396 Y7.28631
G01 X-32.99467 Y7.25944
G01 X-32.99467 Y7.25804
G01 X-32.99467 Y6.14954
G01 X-32.99457 Y6.14598
G01 X-32.98941 Y6.07400
G01 X-32.98903 Y6.07044
G01 X-32.97895 Y6.00059
G01 X-32.97940 Y6.00054
G01 X-32.97895 Y6.00059
G01 X-32.97732 Y5.99333
G01 X-32.92850 Y5.83061
G01 X-32.92614 Y5.82429
G01 X-32.92436 Y5.82040
G01 X-32.92639 Y5.81921
G01 X-32.92436 Y5.82040
G01 X-32.91938 Y5.81189
G01 X-32.91293 Y5.80453
G01 X-32.90516 Y5.79864
G01 X-32.90686 Y5.79612
G01 X-32.90516 Y5.79864
G01 X-32.89629 Y5.79429
G01 X-32.83036 Y5.76965
G01 X-32.82454 Y5.76788
G01 X-32.82464 Y5.76747
G01 X-32.82454 Y5.76788
G01 X-32.68865 Y5.73524
G01 X-32.68230 Y5.73414
G01 X-32.62959 Y5.72848
G01 X-32.62693 Y5.72828
G01 X-32.57310 Y5.72538
G01 X-32.57044 Y5.72528
G01 X-31.24075 Y5.72520
G01 X-31.23714 Y5.72543
G01 X-31.16516 Y5.73059
G01 X-31.16160 Y5.73102
G01 X-31.08527 Y5.74199
G01 X-31.08395 Y5.73861
G01 X-31.08527 Y5.74199
G01 X-31.07720 Y5.74390
G01 X-31.06960 Y5.74700
G01 X-31.06259 Y5.75137
G01 X-30.98558 Y5.80852
G01 X-30.98197 Y5.81146
G01 X-30.96221 Y5.82922
G01 X-30.96122 Y5.83013
G01 X-30.94171 Y5.84865
G01 X-30.94057 Y5.84936
G01 X-30.05934 Y6.73059
G01 X-24.47492 Y12.31503
G01 X-24.46733 Y12.31183
G01 X-24.47492 Y12.31503
G01 X-24.47492 Y14.42501
G01 X-24.44571 Y14.45417
G01 X-24.47492 Y14.42501
G01 X-24.77497 Y14.42501
G01 X-24.79458 Y14.42597
G01 X-24.84338 Y14.43080
G01 X-24.86278 Y14.43372
G01 X-24.88181 Y14.43842
G01 X-24.92869 Y14.45264
G01 X-24.94719 Y14.45927
G01 X-24.96494 Y14.46766
G01 X-25.00817 Y14.49082
G01 X-25.04071 Y14.51254
G01 X-25.07863 Y14.54363
G01 X-25.10632 Y14.57139
G01 X-25.13746 Y14.60929
G01 X-25.14724 Y14.62252
G01 X-25.15021 Y14.62719
G01 X-25.15265 Y14.63090
G01 X-25.15280 Y14.63113
G01 X-25.15925 Y14.64190
G01 X-25.18234 Y14.68505
G01 X-25.19735 Y14.72132
G01 X-25.21155 Y14.76819
G01 X-25.21630 Y14.78721
G01 X-25.21922 Y14.80669
G01 X-25.22397 Y14.85544
G01 X-25.22493 Y14.87502
G01 X-25.22493 Y16.17502
G01 X-25.22397 Y16.19468
G01 X-25.21922 Y16.24345
G01 X-25.21630 Y16.26283
G01 X-25.21155 Y16.28188
G01 X-25.19735 Y16.32874
G01 X-25.18234 Y16.36498
G01 X-25.15925 Y16.40824
G01 X-25.15239 Y16.41954
G01 X-25.14927 Y16.42439
G01 X-25.14731 Y16.42749
G01 X-25.13586 Y16.44538
G01 X-25.12923 Y16.45460
G01 X-25.10947 Y16.47649
G01 X-25.07637 Y16.50948
G01 X-25.05450 Y16.52932
G01 X-25.04538 Y16.53590
G01 X-25.00594 Y16.56125
G01 X-24.96573 Y16.58431
G01 X-24.92717 Y16.59854
G01 X-24.88211 Y16.61286
G01 X-24.86446 Y16.61802
G01 X-24.84274 Y16.62079
G01 X-24.80845 Y16.62419
G01 X-24.79773 Y16.62470
G01 X-24.77431 Y16.62531
G01 X-22.77559 Y16.62531
G01 X-22.75219 Y16.62470
G01 X-22.74145 Y16.62419
G01 X-22.70721 Y16.62079
G01 X-22.68544 Y16.61802
G01 X-22.66784 Y16.61286
G01 X-22.62273 Y16.59854
G01 X-22.58417 Y16.58431
G01 X-22.54399 Y16.56125
G01 X-22.50452 Y16.53590
G01 X-22.48425 Y16.52137
G01 X-22.48328 Y16.52074
G01 X-22.46434 Y16.50783
G01 X-22.46342 Y16.50717
G01 X-22.37678 Y16.45101
G01 X-22.35943 Y16.43936
G01 X-22.32715 Y16.41665
G01 X-22.32616 Y16.41599
G01 X-22.29858 Y16.39762
G01 X-22.29098 Y16.39346
G01 X-22.28275 Y16.39066
G01 X-22.28420 Y16.38485
G01 X-22.28275 Y16.39066
G01 X-22.27422 Y16.38937
G01 X-22.26558 Y16.38952
G01 X-22.25707 Y16.39117
G01 X-22.24894 Y16.39432
G01 X-22.24844 Y16.39254
G01 X-22.24894 Y16.39432
G01 X-22.14800 Y16.44355
G01 X-22.14397 Y16.44568
G01 X-22.08245 Y16.48297
G01 X-22.08222 Y16.48264
G01 X-22.08245 Y16.48297
G01 X-22.07851 Y16.48561
G01 X-21.99845 Y16.54512
G01 X-21.99466 Y16.54822
G01 X-21.97673 Y16.56450
G01 X-21.97584 Y16.56534
G01 X-21.95804 Y16.58226
G01 X-21.95707 Y16.58304
G01 X-16.59932 Y21.94077
G01 X-16.59699 Y21.94348
G01 X-16.54977 Y21.99804
G01 X-16.54751 Y22.00081
G01 X-16.50136 Y22.06261
G01 X-16.49699 Y22.06957
G01 X-16.49346 Y22.06810
G01 X-16.49699 Y22.06957
G01 X-16.49384 Y22.07714
G01 X-16.49191 Y22.08522
G01 X-16.47789 Y22.18029
G01 X-16.47740 Y22.18496
G01 X-16.47601 Y22.21145
G01 X-16.47593 Y22.21278
G01 X-16.47522 Y22.23952
G01 X-16.47504 Y22.24079
G01 X-16.47504 Y63.55925
G01 X-16.47537 Y63.56283
G01 X-16.48053 Y63.63479
G01 X-16.48086 Y63.63835
G01 X-16.49191 Y63.71478
G01 X-16.48853 Y63.71607
G01 X-16.49191 Y63.71478
G01 X-16.49379 Y63.72278
G01 X-16.49691 Y63.73042
G01 X-16.50128 Y63.73743
G01 X-16.55840 Y63.81442
G01 X-16.56140 Y63.81805
G01 X-16.57908 Y63.83776
G01 X-16.58002 Y63.83880
G01 X-16.59851 Y63.85834
G01 X-16.59948 Y63.85923
G01 X-22.67074 Y69.93056
G04 P0 ( dwell for no time -- G64 should not smooth over this point )
G00 Z2.00000 ( retract )

G00 X-27.69859 Y77.70375 ( rapid move to begin. )
G01 F300.00000
( Mill infeed pass 1/1 )
G01 Z-0.10000
G04 P0 ( dwell for no time -- G64 should not smooth over this point )
G01 F600.00000
G01 X-27.69859 Y77.70375
G01 X-27.92267 Y77.92773
G01 X-28.04479 Y77.82747
G01 X-28.05269 Y77.82166
G01 X-28.06115 Y77.81658
G01 X-28.50202 Y77.58094
G01 X-28.52010 Y77.57342
G01 X-28.99849 Y77.42834
G01 X-29.00799 Y77.42592
G01 X-29.01769 Y77.42455
G01 X-29.51520 Y77.37550
G01 X-29.53478 Y77.37550
G01 X-30.03224 Y77.42455
G01 X-30.04197 Y77.42592
G01 X-30.05149 Y77.42834
G01 X-30.52983 Y77.57342
G01 X-30.54796 Y77.58094
G01 X-30.98883 Y77.81658
G01 X-30.99721 Y77.82166
G01 X-31.00514 Y77.82747
G01 X-31.12729 Y77.92773
G01 X-31.35124 Y77.70375
G01 X-31.09696 Y77.52326
G01 X-30.80694 Y77.36298
G01 X-30.50077 Y77.23619
G01 X-30.18241 Y77.14447
G01 X-29.85574 Y77.08899
G01 X-29.52495 Y77.07037
G01 X-29.19409 Y77.08899
G01 X-28.86750 Y77.14447
G01 X-28.54913 Y77.23619
G01 X-28.24299 Y77.36298
G01 X-27.95295 Y77.52326
G01 X-27.69859 Y77.70375
G01 X-27.79831 Y77.71216
G01 X-27.85305 Y77.71675
G01 X-28.00621 Y77.60797
G01 X-28.28640 Y77.45310
G01 X-28.58215 Y77.33062
G01 X-28.88970 Y77.24200
G01 X-29.20532 Y77.18833
G01 X-29.52495 Y77.17043
G01 X-29.84453 Y77.18851
G01 X-30.16013 Y77.24210
G01 X-30.46775 Y77.33070
G01 X-30.76343 Y77.45328
G01 X-31.04362 Y77.60807
G01 X-31.19678 Y77.71675
G01 X-31.25164 Y77.71216
G01 X-31.19678 Y77.71675
G01 X-31.12068 Y77.79293
G01 X-31.12287 Y77.82569
G01 X-31.12068 Y77.79293
G01 X-31.06856 Y77.75015
G01 X-31.05281 Y77.73847
G01 X-31.03595 Y77.72839
G01 X-30.59510 Y77.49273
G01 X-30.55886 Y77.47774
G01 X-30.08050 Y77.33263
G01 X-30.06145 Y77.32788
G01 X-30.04207 Y77.32498
G01 X-29.54456 Y77.27599
G01 X-29.50534 Y77.27599
G01 X-29.00791 Y77.32498
G01 X-28.98848 Y77.32788
G01 X-28.96943 Y77.33263
G01 X-28.49104 Y77.47774
G01 X-28.45488 Y77.49273
G01 X-28.01396 Y77.72839
G01 X-27.98137 Y77.75015
G01 X-27.92930 Y77.79293
G01 X-27.92706 Y77.82569
G01 X-27.92930 Y77.79293
G01 X-27.85305 Y77.71675
G04 P0 ( dwell for no time -- G64 should not smooth over this point )
G00 Z2.00000 ( retract )

G00 X-26.67032 Y80.02506 ( rapid move to begin. )
G01 F300.00000
( Mill infeed pass 1/1 )
G01 Z-0.10000
G04 P0 ( dwell for no time -- G64 should not smooth over this point )
G01 F600.00000
G01 X-26.67032 Y80.02506
G01 X-26.68825 Y80.34464
G01 X-26.74190 Y80.66023
G01 X-26.83052 Y80.96785
G01 X-26.95302 Y81.26361
G01 X-27.10789 Y81.54380
G01 X-27.21665 Y81.69691
G01 X-27.21205 Y81.75170
G01 X-27.21665 Y81.69691
G01 X-27.29290 Y81.62071
G01 X-27.32562 Y81.62289
G01 X-27.29290 Y81.62071
G01 X-27.25013 Y81.56859
G01 X-27.22836 Y81.53605
G01 X-26.99270 Y81.09513
G01 X-26.97771 Y81.05896
G01 X-26.83260 Y80.58058
G01 X-26.82778 Y80.56153
G01 X-26.82496 Y80.54210
G01 X-26.77596 Y80.04466
G01 X-26.77596 Y80.00545
G01 X-26.82496 Y79.50794
G01 X-26.82778 Y79.48851
G01 X-26.83260 Y79.46953
G01 X-26.97771 Y78.99115
G01 X-26.99270 Y78.95490
G01 X-27.22836 Y78.51406
G01 X-27.23844 Y78.49719
G01 X-27.25013 Y78.48145
G01 X-27.29285 Y78.42940
G01 X-27.32562 Y78.42714
G01 X-27.29285 Y78.42940
G01 X-27.21665 Y78.35323
G01 X-27.21205 Y78.29836
G01 X-27.21665 Y78.35323
G01 X-27.10789 Y78.50631
G01 X-26.95302 Y78.78650
G01 X-26.83052 Y79.08218
G01 X-26.74190 Y79.38980
G01 X-26.68825 Y79.70542
G01 X-26.67032 Y80.02506
G01 X-26.57032 Y80.02506
G01 X-26.58891 Y79.69427
G01 X-26.64441 Y79.36760
G01 X-26.73611 Y79.04916
G01 X-26.86288 Y78.74307
G01 X-27.02320 Y78.45305
G01 X-27.20367 Y78.19877
G01 X-27.42767 Y78.42272
G01 X-27.32745 Y78.54487
G01 X-27.32158 Y78.55279
G01 X-27.31655 Y78.56118
G01 X-27.08091 Y79.00204
G01 X-27.07334 Y79.02013
G01 X-26.92823 Y79.49851
G01 X-26.92590 Y79.50801
G01 X-26.92445 Y79.51779
G01 X-26.87548 Y80.01520
G01 X-26.87548 Y80.03481
G01 X-26.92445 Y80.53232
G01 X-26.92590 Y80.54200
G01 X-26.92823 Y80.55152
G01 X-27.07334 Y81.02990
G01 X-27.07665 Y81.03912
G01 X-27.08091 Y81.04799
G01 X-27.31655 Y81.48886
G01 X-27.32745 Y81.50516
G01 X-27.42770 Y81.62731
G01 X-27.20367 Y81.85134
G01 X-27.02320 Y81.59706
G01 X-26.86288 Y81.30702
G01 X-26.73611 Y81.00087
G01 X-26.64441 Y80.68251
G01 X-26.58891 Y80.35584
G01 X-26.57032 Y80.02506
G04 P0 ( dwell for no time -- G64 should not smooth over this point )
G00 Z2.00000 ( retract )

G00 X-27.85305 Y82.33333 ( rapid move to begin. )
G01 F300.00000
( Mill infeed pass 1/1 )
G01 Z-0.10000
G04 P0 ( dwell for no time -- G64 should not smooth over this point )
G01 F600.00000
G01 X-27.85305 Y82.33333
G01 X-28.00621 Y82.44212
G01 X-28.28640 Y82.59701
G01 X-28.58215 Y82.71951
G01 X-28.88970 Y82.80811
G01 X-29.20532 Y82.86178
G01 X-29.52495 Y82.87953
G01 X-29.84459 Y82.86157
G01 X-30.16013 Y82.80796
G01 X-30.46775 Y82.71939
G01 X-30.76343 Y82.59686
G01 X-31.04362 Y82.44199
G01 X-31.19686 Y82.33333
G01 X-31.25164 Y82.33793
G01 X-31.19686 Y82.33333
G01 X-31.12061 Y82.25711
G01 X-31.12287 Y82.22442
G01 X-31.12061 Y82.25711
G01 X-31.06856 Y82.29988
G01 X-31.05281 Y82.31159
G01 X-31.03595 Y82.32167
G01 X-30.59510 Y82.55731
G01 X-30.55886 Y82.57232
G01 X-30.08050 Y82.71740
G01 X-30.06145 Y82.72218
G01 X-30.04207 Y82.72508
G01 X-29.54456 Y82.77407
G01 X-29.50534 Y82.77407
G01 X-29.00791 Y82.72508
G01 X-28.98848 Y82.72218
G01 X-28.96943 Y82.71740
G01 X-28.49104 Y82.57232
G01 X-28.45488 Y82.55731
G01 X-28.01396 Y82.32167
G01 X-27.99717 Y82.31159
G01 X-27.98137 Y82.29988
G01 X-27.92930 Y82.25711
G01 X-27.92711 Y82.22442
G01 X-27.92930 Y82.25711
G01 X-27.85305 Y82.33333
G01 X-27.79831 Y82.33793
G01 X-27.69867 Y82.34636
G01 X-27.95295 Y82.52680
G01 X-28.24299 Y82.68708
G01 X-28.54913 Y82.81392
G01 X-28.86750 Y82.90559
G01 X-29.19409 Y82.96112
G01 X-29.52495 Y82.97968
G01 X-29.85574 Y82.96112
G01 X-30.18241 Y82.90559
G01 X-30.50077 Y82.81392
G01 X-30.80694 Y82.68708
G01 X-31.09696 Y82.52680
G01 X-31.35124 Y82.34636
G01 X-31.12729 Y82.12233
G01 X-31.00514 Y82.22256
G01 X-30.99721 Y82.22843
G01 X-30.98883 Y82.23346
G01 X-30.54796 Y82.46909
G01 X-30.52983 Y82.47661
G01 X-30.05149 Y82.62170
G01 X-30.03224 Y82.62553
G01 X-29.53478 Y82.67453
G01 X-29.52495 Y82.67501
G01 X-29.51520 Y82.67453
G01 X-29.01769 Y82.62553
G01 X-28.99849 Y82.62170
G01 X-28.52010 Y82.47661
G01 X-28.50202 Y82.46909
G01 X-28.06115 Y82.23346
G01 X-28.05269 Y82.22843
G01 X-28.04479 Y82.22256
G01 X-27.92269 Y82.12233
G01 X-27.69867 Y82.34636
G04 P0 ( dwell for no time -- G64 should not smooth over this point )
G00 Z2.00000 ( retract )

G00 X-28.37499 Y85.61466 ( rapid move to begin. )
G01 F300.00000
( Mill infeed pass 1/1 )
G01 Z-0.10000
G04 P0 ( dwell for no time -- G64 should not smooth over this point )
G01 F600.00000
G01 X-28.37499 Y85.61466
G01 X-28.57773 Y85.68054
G01 X-28.77969 Y85.78344
G01 X-28.96305 Y85.91666
G01 X-29.12333 Y86.07694
G01 X-29.25655 Y86.26032
G01 X-29.35945 Y86.46230
G01 X-29.42950 Y86.67785
G01 X-29.46493 Y86.90170
G01 X-29.46493 Y87.42504
G01 X-29.16496 Y87.42504
G01 X-29.16496 Y87.01501
G01 X-29.16447 Y87.00520
G01 X-29.14446 Y86.80233
G01 X-29.14309 Y86.79261
G01 X-29.14068 Y86.78308
G01 X-29.08152 Y86.58798
G01 X-29.07822 Y86.57879
G01 X-29.07403 Y86.56987
G01 X-28.97791 Y86.39012
G01 X-28.96702 Y86.37379
G01 X-28.83765 Y86.21618
G01 X-28.83110 Y86.20891
G01 X-28.82378 Y86.20234
G01 X-28.66623 Y86.07297
G01 X-28.65833 Y86.06713
G01 X-28.64992 Y86.06213
G01 X-28.47006 Y85.96601
G01 X-28.45200 Y85.95850
G01 X-28.37499 Y85.93518
G01 X-28.37499 Y85.61466
G01 X-28.42884 Y85.68014
G01 X-28.47499 Y85.75227
G01 X-28.53930 Y85.77323
G01 X-28.72726 Y85.86896
G01 X-28.72749 Y85.86860
G01 X-28.72726 Y85.86896
G01 X-28.89793 Y85.99296
G01 X-28.89811 Y85.99268
G01 X-28.89793 Y85.99296
G01 X-29.04708 Y86.14206
G01 X-29.04730 Y86.14186
G01 X-29.04708 Y86.14206
G01 X-29.17103 Y86.31270
G01 X-29.17126 Y86.31257
G01 X-29.17103 Y86.31270
G01 X-29.26679 Y86.50063
G01 X-29.26704 Y86.50051
G01 X-29.26679 Y86.50063
G01 X-29.33194 Y86.70129
G01 X-29.33224 Y86.70117
G01 X-29.33194 Y86.70129
G01 X-29.36493 Y86.90957
G01 X-29.36526 Y86.90957
G01 X-29.36493 Y86.90957
G01 X-29.36493 Y87.32502
G01 X-29.39422 Y87.35435
G01 X-29.36493 Y87.32502
G01 X-29.26496 Y87.32502
G01 X-29.23565 Y87.35435
G01 X-29.26496 Y87.32502
G01 X-29.26496 Y87.01501
G01 X-29.26399 Y86.99540
G01 X-29.24405 Y86.79253
G01 X-29.24113 Y86.77312
G01 X-29.23638 Y86.75407
G01 X-29.17715 Y86.55898
G01 X-29.16221 Y86.52276
G01 X-29.06610 Y86.34295
G01 X-29.04431 Y86.31039
G01 X-28.91497 Y86.15275
G01 X-28.90179 Y86.13823
G01 X-28.88726 Y86.12502
G01 X-28.72965 Y85.99571
G01 X-28.71385 Y85.98400
G01 X-28.69706 Y85.97391
G01 X-28.51726 Y85.87780
G01 X-28.48104 Y85.86279
G01 X-28.47499 Y85.86098
G01 X-28.46036 Y85.86990
G01 X-28.47499 Y85.86098
G01 X-28.47499 Y85.75227
G04 P0 ( dwell for no time -- G64 should not smooth over this point )
G00 Z2.00000 ( retract )

G00 X-28.47499 Y89.68907 ( rapid move to begin. )
G01 F300.00000
( Mill infeed pass 1/1 )
G01 Z-0.10000
G04 P0 ( dwell for no time -- G64 should not smooth over this point )
G01 F600.00000
G01 X-28.47499 Y89.68907
G01 X-28.48104 Y89.68727
G01 X-28.51726 Y89.67225
G01 X-28.69706 Y89.57614
G01 X-28.71385 Y89.56606
G01 X-28.72965 Y89.55435
G01 X-28.88726 Y89.42504
G01 X-28.90179 Y89.41183
G01 X-28.91497 Y89.39727
G01 X-29.04431 Y89.23974
G01 X-29.06610 Y89.20710
G01 X-29.16221 Y89.02727
G01 X-29.17715 Y88.99108
G01 X-29.23638 Y88.79598
G01 X-29.24113 Y88.77693
G01 X-29.24405 Y88.75750
G01 X-29.26399 Y88.55460
G01 X-29.26496 Y88.53505
G01 X-29.26496 Y88.22504
G01 X-29.23565 Y88.19575
G01 X-29.26496 Y88.22504
G01 X-29.36493 Y88.22504
G01 X-29.39422 Y88.19575
G01 X-29.36493 Y88.22504
G01 X-29.36493 Y88.64048
G01 X-29.36526 Y88.64056
G01 X-29.36493 Y88.64048
G01 X-29.33194 Y88.84884
G01 X-29.33224 Y88.84889
G01 X-29.33194 Y88.84884
G01 X-29.26679 Y89.04942
G01 X-29.26704 Y89.04957
G01 X-29.26679 Y89.04942
G01 X-29.17103 Y89.23736
G01 X-29.17126 Y89.23753
G01 X-29.17103 Y89.23736
G01 X-29.04708 Y89.40799
G01 X-29.04730 Y89.40820
G01 X-29.04708 Y89.40799
G01 X-28.89793 Y89.55717
G01 X-28.89811 Y89.55737
G01 X-28.89793 Y89.55717
G01 X-28.72726 Y89.68112
G01 X-28.72749 Y89.68153
