( pcb2gcode 2.5.0 )
( Software-independent Gcode )

( This file uses only one drill bit. Forced by 'onedrill' option )

G94       (Millimeters per minute feed rate.)
G21       (Units == Millimeters.)
G90       (Absolute coordinates.)
G00 S14000     (RPM spindle speed.)

G00 Z10.00000 (Retract)
T1
M5      (Spindle stop.)
G04 P1.00000
(MSG, Change tool bit to drill size 0.8mm)
M6      (Tool change.)
M0      (Temporary machine stop.)
M3      (Spindle on clockwise.)
G0 Z2.00000
G04 P1.00000

G1 F600.00000
G0 X-89.77500 Y9.27500
G1 Z-1.10000
G1 Z2.00000
G0 X-94.85500 Y9.27500
G1 Z-1.10000
G1 Z2.00000
G0 X-99.93500 Y9.27500
G1 Z-1.10000
G1 Z2.00000
G0 X-108.77500 Y9.27500
G1 Z-1.10000
G1 Z2.00000
G0 X-113.85500 Y9.27500
G1 Z-1.10000
G1 Z2.00000
G0 X-118.93500 Y9.27500
G1 Z-1.10000
G1 Z2.00000
G0 X-122.52500 Y25.02500
G1 Z-1.10000
G1 Z2.00000
G0 X-135.02500 Y28.02500
G1 Z-1.10000
G1 Z2.00000
G0 X-135.02500 Y23.52500
G1 Z-1.10000
G1 Z2.00000
G0 X-141.52500 Y23.52500
G1 Z-1.10000
G1 Z2.00000
G0 X-141.52500 Y28.02500
G1 Z-1.10000
G1 Z2.00000
G0 X-173.02500 Y8.02500
G1 Z-1.10000
G1 Z2.00000
G0 X-171.52500 Y23.52500
G1 Z-1.10000
G1 Z2.00000
G0 X-171.52500 Y28.02500
G1 Z-1.10000
G1 Z2.00000
G0 X-165.02500 Y23.52500
G1 Z-1.10000
G1 Z2.00000
G0 X-165.02500 Y28.02500
G1 Z-1.10000
G1 Z2.00000
G0 X-156.52500 Y38.52500
G1 Z-1.10000
G1 Z2.00000
G0 X-156.52500 Y43.02500
G1 Z-1.10000
G1 Z2.00000
G0 X-150.02500 Y38.52500
G1 Z-1.10000
G1 Z2.00000
G0 X-150.02500 Y43.02500
G1 Z-1.10000
G1 Z2.00000
G0 X-141.52500 Y53.52500
G1 Z-1.10000
G1 Z2.00000
G0 X-141.52500 Y58.02500
G1 Z-1.10000
G1 Z2.00000
G0 X-150.02500 Y68.52500
G1 Z-1.10000
G1 Z2.00000
G0 X-156.52500 Y68.52500
G1 Z-1.10000
G1 Z2.00000
G0 X-165.02500 Y58.02500
G1 Z-1.10000
G1 Z2.00000
G0 X-165.02500 Y53.52500
G1 Z-1.10000
G1 Z2.00000
G0 X-171.52500 Y53.52500
G1 Z-1.10000
G1 Z2.00000
G0 X-171.52500 Y58.02500
G1 Z-1.10000
G1 Z2.00000
G0 X-173.02500 Y88.02500
G1 Z-1.10000
G1 Z2.00000
G0 X-156.52500 Y73.02500
G1 Z-1.10000
G1 Z2.00000
G0 X-150.02500 Y73.02500
G1 Z-1.10000
G1 Z2.00000
G0 X-118.63500 Y87.80300
G1 Z-1.10000
G1 Z2.00000
G0 X-113.55500 Y87.80300
G1 Z-1.10000
G1 Z2.00000
G0 X-108.47500 Y87.80300
G1 Z-1.10000
G1 Z2.00000
G0 X-103.39500 Y87.80300
G1 Z-1.10000
G1 Z2.00000
G0 X-98.31500 Y87.80300
G1 Z-1.10000
G1 Z2.00000
G0 X-93.23500 Y87.80300
G1 Z-1.10000
G1 Z2.00000
G0 X-88.15500 Y87.80300
G1 Z-1.10000
G1 Z2.00000
G0 X-83.07500 Y87.80300
G1 Z-1.10000
G1 Z2.00000
G0 X-77.99500 Y87.80300
G1 Z-1.10000
G1 Z2.00000
G0 X-72.91500 Y87.80300
G1 Z-1.10000
G1 Z2.00000
G0 X-79.77500 Y80.77500
G1 Z-1.10000
G1 Z2.00000
G0 X-75.12500 Y79.98500
G1 Z-1.10000
G1 Z2.00000
G0 X-72.58500 Y79.98500
G1 Z-1.10000
G1 Z2.00000
G0 X-70.04500 Y79.98500
G1 Z-1.10000
G1 Z2.00000
G0 X-67.50500 Y79.98500
G1 Z-1.10000
G1 Z2.00000
G0 X-64.96500 Y79.98500
G1 Z-1.10000
G1 Z2.00000
G0 X-62.42500 Y79.98500
G1 Z-1.10000
G1 Z2.00000
G0 X-59.88500 Y79.98500
G1 Z-1.10000
G1 Z2.00000
G0 X-57.34500 Y79.98500
G1 Z-1.10000
G1 Z2.00000
G0 X-54.80500 Y79.98500
G1 Z-1.10000
G1 Z2.00000
G0 X-52.26500 Y79.98500
G1 Z-1.10000
G1 Z2.00000
G0 X-49.72500 Y79.98500
G1 Z-1.10000
G1 Z2.00000
G0 X-47.18500 Y79.98500
G1 Z-1.10000
G1 Z2.00000
G0 X-44.64500 Y79.98500
G1 Z-1.10000
G1 Z2.00000
G0 X-39.73500 Y85.77500
G1 Z-1.10000
G1 Z2.00000
G0 X-42.27500 Y85.77500
G1 Z-1.10000
G1 Z2.00000
G0 X-44.81500 Y85.77500
G1 Z-1.10000
G1 Z2.00000
G0 X-42.10500 Y79.98500
G1 Z-1.10000
G1 Z2.00000
G0 X-39.56500 Y79.98500
G1 Z-1.10000
G1 Z2.00000
G0 X-37.02500 Y79.98500
G1 Z-1.10000
G1 Z2.00000
G0 X-28.02500 Y87.77500
G1 Z-1.10000
G1 Z2.00000
G0 X-22.94500 Y87.77500
G1 Z-1.10000
G1 Z2.00000
G0 X-29.52500 Y80.02500
G1 Z-1.10000
G1 Z2.00000
G0 X-23.27500 Y71.52500
G1 Z-1.10000
G1 Z2.00000
G0 X-8.02500 Y88.02500
G1 Z-1.10000
G1 Z2.00000
G0 X-5.49500 Y71.52500
G1 Z-1.10000
G1 Z2.00000
G0 X-5.49500 Y30.88500
G1 Z-1.10000
G1 Z2.00000
G0 X-8.02500 Y8.02500
G1 Z-1.10000
G1 Z2.00000
G0 X-23.27500 Y30.88500
G1 Z-1.10000
G1 Z2.00000
G0 X-29.52500 Y25.02500
G1 Z-1.10000
G1 Z2.00000
G0 X-31.52500 Y15.52500
G1 Z-1.10000
G1 Z2.00000
G0 X-33.69500 Y9.24800
G1 Z-1.10000
G1 Z2.00000
G0 X-38.77500 Y9.24800
G1 Z-1.10000
G1 Z2.00000
G0 X-43.85500 Y9.24800
G1 Z-1.10000
G1 Z2.00000
G0 X-41.27500 Y15.52500
G1 Z-1.10000
G1 Z2.00000
G0 X-37.28100 Y21.26300
G1 Z-1.10000
G1 Z2.00000
G0 X-39.82100 Y21.26300
G1 Z-1.10000
G1 Z2.00000
G0 X-46.46200 Y21.22500
G1 Z-1.10000
G1 Z2.00000
G0 X-49.00200 Y21.22500
G1 Z-1.10000
G1 Z2.00000
G0 X-56.26600 Y21.29900
G1 Z-1.10000
G1 Z2.00000
G0 X-58.80600 Y21.29900
G1 Z-1.10000
G1 Z2.00000
G0 X-56.27500 Y15.27500
G1 Z-1.10000
G1 Z2.00000
G0 X-52.27500 Y9.27500
G1 Z-1.10000
G1 Z2.00000
G0 X-57.35500 Y9.27500
G1 Z-1.10000
G1 Z2.00000
G0 X-62.43500 Y9.27500
G1 Z-1.10000
G1 Z2.00000
G0 X-66.52500 Y15.52500
G1 Z-1.10000
G1 Z2.00000
G0 X-66.19700 Y21.40500
G1 Z-1.10000
G1 Z2.00000
G0 X-68.73700 Y21.40500
G1 Z-1.10000
G1 Z2.00000
G0 X-70.94500 Y9.24800
G1 Z-1.10000
G1 Z2.00000
G0 X-76.02500 Y9.24800
G1 Z-1.10000
G1 Z2.00000
G0 X-81.10500 Y9.24800
G1 Z-1.10000
G1 Z2.00000
G0 X-76.02500 Y16.02500
G1 Z-1.10000
G1 Z2.00000
G0 X-78.00300 Y21.37300
G1 Z-1.10000
G1 Z2.00000
G0 X-75.46300 Y21.37300
G1 Z-1.10000
G1 Z2.00000
G0 X-83.27500 Y31.52500
G1 Z-1.10000
G1 Z2.00000
G0 X-78.00300 Y28.99300
G1 Z-1.10000
G1 Z2.00000
G0 X-75.46300 Y28.99300
G1 Z-1.10000
G1 Z2.00000
G0 X-73.27500 Y31.27500
G1 Z-1.10000
G1 Z2.00000
G0 X-68.73700 Y29.02500
G1 Z-1.10000
G1 Z2.00000
G0 X-66.19700 Y29.02500
G1 Z-1.10000
G1 Z2.00000
G0 X-63.27500 Y31.27500
G1 Z-1.10000
G1 Z2.00000
G0 X-58.80600 Y28.91900
G1 Z-1.10000
G1 Z2.00000
G0 X-56.26600 Y28.91900
G1 Z-1.10000
G1 Z2.00000
G0 X-53.52500 Y31.27500
G1 Z-1.10000
G1 Z2.00000
G0 X-49.00200 Y28.84500
G1 Z-1.10000
G1 Z2.00000
G0 X-46.46200 Y28.84500
G1 Z-1.10000
G1 Z2.00000
G0 X-44.27500 Y31.27500
G1 Z-1.10000
G1 Z2.00000
G0 X-39.82100 Y28.88300
G1 Z-1.10000
G1 Z2.00000
G0 X-37.28100 Y28.88300
G1 Z-1.10000
G1 Z2.00000
G0 X-51.14500 Y42.90500
G1 Z-1.10000
G1 Z2.00000
G0 X-53.68500 Y42.90500
G1 Z-1.10000
G1 Z2.00000
G0 X-56.22500 Y42.90500
G1 Z-1.10000
G1 Z2.00000
G0 X-58.76500 Y42.90500
G1 Z-1.10000
G1 Z2.00000
G0 X-61.30500 Y42.90500
G1 Z-1.10000
G1 Z2.00000
G0 X-63.84500 Y42.90500
G1 Z-1.10000
G1 Z2.00000
G0 X-66.38500 Y42.90500
G1 Z-1.10000
G1 Z2.00000
G0 X-68.92500 Y42.90500
G1 Z-1.10000
G1 Z2.00000
G0 X-71.46500 Y42.90500
G1 Z-1.10000
G1 Z2.00000
G0 X-74.00500 Y42.90500
G1 Z-1.10000
G1 Z2.00000
G0 X-76.54500 Y42.90500
G1 Z-1.10000
G1 Z2.00000
G0 X-79.08500 Y42.90500
G1 Z-1.10000
G1 Z2.00000
G0 X-81.62500 Y42.90500
G1 Z-1.10000
G1 Z2.00000
G0 X-84.16500 Y42.90500
G1 Z-1.10000
G1 Z2.00000
G0 X-86.70500 Y42.90500
G1 Z-1.10000
G1 Z2.00000
G0 X-89.24500 Y42.90500
G1 Z-1.10000
G1 Z2.00000
G0 X-91.78500 Y42.90500
G1 Z-1.10000
G1 Z2.00000
G0 X-94.32500 Y42.90500
G1 Z-1.10000
G1 Z2.00000
G0 X-96.86500 Y42.90500
G1 Z-1.10000
G1 Z2.00000
G0 X-99.40500 Y42.90500
G1 Z-1.10000
G1 Z2.00000
G0 X-105.77500 Y45.02500
G1 Z-1.10000
G1 Z2.00000
G0 X-94.32500 Y58.14500
G1 Z-1.10000
G1 Z2.00000
G0 X-91.78500 Y58.14500
G1 Z-1.10000
G1 Z2.00000
G0 X-89.24500 Y58.14500
G1 Z-1.10000
G1 Z2.00000
G0 X-86.70500 Y58.14500
G1 Z-1.10000
G1 Z2.00000
G0 X-84.16500 Y58.14500
G1 Z-1.10000
G1 Z2.00000
G0 X-81.62500 Y58.14500
G1 Z-1.10000
G1 Z2.00000
G0 X-79.08500 Y58.14500
G1 Z-1.10000
G1 Z2.00000
G0 X-76.54500 Y58.14500
G1 Z-1.10000
G1 Z2.00000
G0 X-74.00500 Y58.14500
G1 Z-1.10000
G1 Z2.00000
G0 X-71.46500 Y58.14500
G1 Z-1.10000
G1 Z2.00000
G0 X-68.92500 Y58.14500
G1 Z-1.10000
G1 Z2.00000
G0 X-66.38500 Y58.14500
G1 Z-1.10000
G1 Z2.00000
G0 X-63.84500 Y58.14500
G1 Z-1.10000
G1 Z2.00000
G0 X-61.30500 Y58.14500
G1 Z-1.10000
G1 Z2.00000
G0 X-58.76500 Y58.14500
G1 Z-1.10000
G1 Z2.00000
G0 X-56.22500 Y58.14500
G1 Z-1.10000
G1 Z2.00000
G0 X-53.68500 Y58.14500
G1 Z-1.10000
G1 Z2.00000
G0 X-51.14500 Y58.14500
G1 Z-1.10000
G1 Z2.00000
G0 X-77.34500 Y63.47000
G1 Z-1.10000
G1 Z2.00000
G0 X-79.88500 Y63.47000
G1 Z-1.10000
G1 Z2.00000
G0 X-77.34500 Y71.09000
G1 Z-1.10000
G1 Z2.00000
G0 X-79.88500 Y71.09000
G1 Z-1.10000
G1 Z2.00000
G0 X-82.42500 Y71.09000
G1 Z-1.10000
G1 Z2.00000
G0 X-84.96500 Y71.09000
G1 Z-1.10000
G1 Z2.00000
G0 X-87.50500 Y71.09000
G1 Z-1.10000
G1 Z2.00000
G0 X-82.42500 Y63.47000
G1 Z-1.10000
G1 Z2.00000
G0 X-84.96500 Y63.47000
G1 Z-1.10000
G1 Z2.00000
G0 X-87.50500 Y63.47000
G1 Z-1.10000
G1 Z2.00000
G0 X-90.04500 Y63.47000
G1 Z-1.10000
G1 Z2.00000
G0 X-92.58500 Y63.47000
G1 Z-1.10000
G1 Z2.00000
G0 X-95.12500 Y63.47000
G1 Z-1.10000
G1 Z2.00000
G0 X-97.66500 Y63.47000
G1 Z-1.10000
G1 Z2.00000
G0 X-96.86500 Y58.14500
G1 Z-1.10000
G1 Z2.00000
G0 X-99.40500 Y58.14500
G1 Z-1.10000
G1 Z2.00000
G0 X-100.20500 Y63.47000
G1 Z-1.10000
G1 Z2.00000
G0 X-90.04500 Y71.09000
G1 Z-1.10000
G1 Z2.00000
G0 X-92.58500 Y71.09000
G1 Z-1.10000
G1 Z2.00000
G0 X-95.12500 Y71.09000
G1 Z-1.10000
G1 Z2.00000
G0 X-97.66500 Y71.09000
G1 Z-1.10000
G1 Z2.00000
G0 X-100.20500 Y71.09000
G1 Z-1.10000
G1 Z2.00000
G0 X-115.77500 Y80.77500
G1 Z-1.10000
G1 Z2.00000
G0 X-122.52500 Y80.02500
G1 Z-1.10000
G1 Z2.00000
G0 X-135.02500 Y58.02500
G1 Z-1.10000
G1 Z2.00000
G0 X-135.02500 Y53.52500
G1 Z-1.10000
G1 Z2.00000
G0 X-105.77500 Y27.52500
G1 Z-1.10000
G1 Z2.00000

G00 Z10.000 ( All done -- retract )

M5      (Spindle off.)
G04 P1.000000
M9      (Coolant off.)
M2      (Program end.)

