( pcb2gcode 2.5.0 )
( Software-independent Gcode )

G94 ( Millimeters per minute feed rate. )
G21 ( Units == Millimeters. )

G90 ( Absolute coordinates. )
G00 S14000 ( RPM spindle speed. )
G01 F600.00000 ( Feedrate. )


G00 Z10.00000 (Retract to tool change height)
T1
M5      (Spindle stop.)
G04 P1.00000 (Wait for spindle to stop)
(MSG, Change tool bit to cutter diameter 3.00000mm)
M6      (Tool change.)
M0      (Temporary machine stop.)
M3 ( Spindle on clockwise. )
G04 P1.00000 (Wait for spindle to get up to speed)
G04 P0 ( dwell for no time -- G64 should not smooth over this point )
G00 Z2.00000 ( retract )

G00 X-1.52496 Y3.02506 ( rapid move to begin. )
G01 Z-0.27500 F60.00000 ( plunge. )
G04 P0 ( dwell for no time -- G64 should not smooth over this point )
G01 F600.00000
G01 X-1.52496 Y93.02503
G01 X-1.55376 Y93.31769
G01 X-1.63916 Y93.59907
G01 X-1.77774 Y93.85840
G01 X-1.96428 Y94.08568
G01 X-2.19161 Y94.27222
G01 X-2.45094 Y94.41083
G01 X-2.73232 Y94.49620
G01 X-3.02498 Y94.52505
G01 X-178.02498 Y94.52505
G01 X-178.31762 Y94.49620
G01 X-178.59900 Y94.41083
G01 X-178.85831 Y94.27222
G01 X-179.08564 Y94.08568
G01 X-179.27218 Y93.85840
G01 X-179.41078 Y93.59907
G01 X-179.49615 Y93.31769
G01 X-179.52496 Y93.02503
G01 X-179.52496 Y3.02506
G01 X-179.50217 Y2.76455
G01 X-179.43448 Y2.51198
G01 X-179.32402 Y2.27505
G01 X-179.17403 Y2.06087
G01 X-178.98912 Y1.87596
G01 X-178.77497 Y1.72597
G01 X-178.53799 Y1.61551
G01 X-178.28544 Y1.54782
G01 X-178.02498 Y1.52503
G01 X-3.02498 Y1.52503
G01 X-2.73232 Y1.55386
G01 X-2.45094 Y1.63923
G01 X-2.19161 Y1.77782
G01 X-1.96428 Y1.96435
G01 X-1.77774 Y2.19166
G01 X-1.63916 Y2.45099
G01 X-1.55376 Y2.73240
G01 X-1.52496 Y3.02506
G01 Z-0.55000 F60.00000 ( plunge. )
G04 P0 ( dwell for no time -- G64 should not smooth over this point )
G01 F600.00000
G01 X-1.52496 Y93.02503
G01 X-1.55376 Y93.31769
G01 X-1.63916 Y93.59907
G01 X-1.77774 Y93.85840
G01 X-1.96428 Y94.08568
G01 X-2.19161 Y94.27222
G01 X-2.45094 Y94.41083
G01 X-2.73232 Y94.49620
G01 X-3.02498 Y94.52505
G01 X-178.02498 Y94.52505
G01 X-178.31762 Y94.49620
G01 X-178.59900 Y94.41083
G01 X-178.85831 Y94.27222
G01 X-179.08564 Y94.08568
G01 X-179.27218 Y93.85840
G01 X-179.41078 Y93.59907
G01 X-179.49615 Y93.31769
G01 X-179.52496 Y93.02503
G01 X-179.52496 Y3.02506
G01 X-179.50217 Y2.76455
G01 X-179.43448 Y2.51198
G01 X-179.32402 Y2.27505
G01 X-179.17403 Y2.06087
G01 X-178.98912 Y1.87596
G01 X-178.77497 Y1.72597
G01 X-178.53799 Y1.61551
G01 X-178.28544 Y1.54782
G01 X-178.02498 Y1.52503
G01 X-3.02498 Y1.52503
G01 X-2.73232 Y1.55386
G01 X-2.45094 Y1.63923
G01 X-2.19161 Y1.77782
G01 X-1.96428 Y1.96435
G01 X-1.77774 Y2.19166
G01 X-1.63916 Y2.45099
G01 X-1.55376 Y2.73240
G01 X-1.52496 Y3.02506
G01 Z-0.82500 F60.00000 ( plunge. )
G04 P0 ( dwell for no time -- G64 should not smooth over this point )
G01 F600.00000
G01 X-1.52496 Y93.02503
G01 X-1.55376 Y93.31769
G01 X-1.63916 Y93.59907
G01 X-1.77774 Y93.85840
G01 X-1.96428 Y94.08568
G01 X-2.19161 Y94.27222
G01 X-2.45094 Y94.41083
G01 X-2.73232 Y94.49620
G01 X-3.02498 Y94.52505
G01 X-178.02498 Y94.52505
G01 X-178.31762 Y94.49620
G01 X-178.59900 Y94.41083
G01 X-178.85831 Y94.27222
G01 X-179.08564 Y94.08568
G01 X-179.27218 Y93.85840
G01 X-179.41078 Y93.59907
G01 X-179.49615 Y93.31769
G01 X-179.52496 Y93.02503
G01 X-179.52496 Y3.02506
G01 X-179.50217 Y2.76455
G01 X-179.43448 Y2.51198
G01 X-179.32402 Y2.27505
G01 X-179.17403 Y2.06087
G01 X-178.98912 Y1.87596
G01 X-178.77497 Y1.72597
G01 X-178.53799 Y1.61551
G01 X-178.28544 Y1.54782
G01 X-178.02498 Y1.52503
G01 X-3.02498 Y1.52503
G01 X-2.73232 Y1.55386
G01 X-2.45094 Y1.63923
G01 X-2.19161 Y1.77782
G01 X-1.96428 Y1.96435
G01 X-1.77774 Y2.19166
G01 X-1.63916 Y2.45099
G01 X-1.55376 Y2.73240
G01 X-1.52496 Y3.02506
G01 Z-1.10000 F60.00000 ( plunge. )
G04 P0 ( dwell for no time -- G64 should not smooth over this point )
G01 F600.00000
G01 X-1.52496 Y93.02503
G01 X-1.55376 Y93.31769
G01 X-1.63916 Y93.59907
G01 X-1.77774 Y93.85840
G01 X-1.96428 Y94.08568
G01 X-2.19161 Y94.27222
G01 X-2.45094 Y94.41083
G01 X-2.73232 Y94.49620
G01 X-3.02498 Y94.52505
G01 X-178.02498 Y94.52505
G01 X-178.31762 Y94.49620
G01 X-178.59900 Y94.41083
G01 X-178.85831 Y94.27222
G01 X-179.08564 Y94.08568
G01 X-179.27218 Y93.85840
G01 X-179.41078 Y93.59907
G01 X-179.49615 Y93.31769
G01 X-179.52496 Y93.02503
G01 X-179.52496 Y3.02506
G01 X-179.50217 Y2.76455
G01 X-179.43448 Y2.51198
G01 X-179.32402 Y2.27505
G01 X-179.17403 Y2.06087
G01 X-178.98912 Y1.87596
G01 X-178.77497 Y1.72597
G01 X-178.53799 Y1.61551
G01 X-178.28544 Y1.54782
G01 X-178.02498 Y1.52503
G01 X-3.02498 Y1.52503
G01 X-2.73232 Y1.55386
G01 X-2.45094 Y1.63923
G01 X-2.19161 Y1.77782
G01 X-1.96428 Y1.96435
G01 X-1.77774 Y2.19166
G01 X-1.63916 Y2.45099
G01 X-1.55376 Y2.73240
G01 X-1.52496 Y3.02506

G04 P0 ( dwell for no time -- G64 should not smooth over this point )
G00 Z10.000000 ( retract )

M5 ( Spindle off. )
G04 P1.000000
M9 ( Coolant off. )
M2 ( Program end. )

