( pcb2gcode 2.5.0 )
( Software-independent Gcode )

G94 ( Millimeters per minute feed rate. )
G21 ( Units == Millimeters. )

G90 ( Absolute coordinates. )
G00 S10000 ( RPM spindle speed. )
G64 P0.01000 ( set maximum deviation from commanded toolpath )
G01 F600.00000 ( Feedrate. )


G00 Z10.00000 (Retract to tool change height)
T1
M5      (Spindle stop.)
G04 P1.00000 (Wait for spindle to stop)
(MSG, Change tool bit to mill diameter 0.20000mm)
M6      (Tool change.)
M0      (Temporary machine stop.)
M3 ( Spindle on clockwise. )
G04 P1.00000 (Wait for spindle to get up to speed)
G04 P0 ( dwell for no time -- G64 should not smooth over this point )
G00 Z5.00000 ( retract )

G00 X100.00000 Y0.05621 ( rapid move to begin. )
G01 F300.00000
( Mill infeed pass 1/1 )
G01 Z-0.05000
G04 P0 ( dwell for no time -- G64 should not smooth over this point )
G01 F600.00000
G01 X100.00000 Y0.05621
G01 X100.00000 Y69.94365
G01 X99.99510 Y69.94959
G01 X99.94968 Y69.99496
G01 X99.94371 Y69.99996
G01 X0.05633 Y69.99996
G01 X0.05042 Y69.99496
G01 X0.00500 Y69.94959
G01 X0.00007 Y69.94365
G01 X0.00007 Y0.05621
G01 X0.00500 Y0.05032
G01 X0.05042 Y0.00490
G01 X0.05631 Y0.00000
G01 X99.94379 Y0.00000
G01 X99.94968 Y0.00490
G01 X99.99510 Y0.05032
G01 X100.00000 Y0.05621
G01 X99.99954 Y0.32446
G01 X99.99954 Y69.67548
G01 X99.99782 Y69.70154
G01 X99.99274 Y69.72722
G01 X99.97615 Y69.78919
G01 X99.96419 Y69.82193
G01 X99.94676 Y69.85218
G01 X99.92436 Y69.87883
G01 X99.87894 Y69.92427
G01 X99.85225 Y69.94670
G01 X99.82205 Y69.96412
G01 X99.78931 Y69.97601
G01 X99.72728 Y69.99262
G01 X99.70163 Y69.99770
G01 X99.67554 Y69.99948
G01 X0.32456 Y69.99948
G01 X0.29842 Y69.99770
G01 X0.27277 Y69.99262
G01 X0.21077 Y69.97601
G01 X0.17800 Y69.96412
G01 X0.14782 Y69.94670
G01 X0.12110 Y69.92427
G01 X0.07577 Y69.87883
G01 X0.05331 Y69.85218
G01 X0.03589 Y69.82193
G01 X0.02395 Y69.78919
G01 X0.00734 Y69.72722
G01 X0.00223 Y69.70154
G01 X0.00056 Y69.67548
G01 X0.00056 Y0.32446
G01 X0.00223 Y0.29837
G01 X0.00734 Y0.27272
G01 X0.02395 Y0.21069
G01 X0.03589 Y0.17795
G01 X0.05331 Y0.14775
G01 X0.07577 Y0.12106
G01 X0.12110 Y0.07564
G01 X0.14782 Y0.05324
G01 X0.17800 Y0.03581
G01 X0.21077 Y0.02385
G01 X0.27277 Y0.00726
G01 X0.29842 Y0.00218
G01 X0.32456 Y0.00046
G01 X99.67554 Y0.00046
G01 X99.70163 Y0.00218
G01 X99.72728 Y0.00726
G01 X99.78931 Y0.02385
G01 X99.82205 Y0.03581
G01 X99.85225 Y0.05324
G01 X99.87894 Y0.07564
G01 X99.92436 Y0.12106
G01 X99.94676 Y0.14775
G01 X99.96419 Y0.17795
G01 X99.97615 Y0.21069
G01 X99.99274 Y0.27272
G01 X99.99782 Y0.29837
G01 X99.99954 Y0.32446
G01 X99.89954 Y0.32446
G01 X99.89868 Y0.31140
G01 X99.89616 Y0.29860
G01 X99.87955 Y0.23660
G01 X99.87361 Y0.22022
G01 X99.86485 Y0.20511
G01 X99.85367 Y0.19177
G01 X99.80823 Y0.14633
G01 X99.79489 Y0.13515
G01 X99.77978 Y0.12639
G01 X99.76340 Y0.12045
G01 X99.70140 Y0.10384
G01 X99.68860 Y0.10132
G01 X99.67554 Y0.10046
G01 X0.32456 Y0.10046
G01 X0.31148 Y0.10132
G01 X0.29865 Y0.10384
G01 X0.23667 Y0.12045
G01 X0.22029 Y0.12639
G01 X0.20520 Y0.13515
G01 X0.19182 Y0.14633
G01 X0.14645 Y0.19177
G01 X0.13523 Y0.20511
G01 X0.12651 Y0.22022
G01 X0.12055 Y0.23660
G01 X0.10393 Y0.29860
G01 X0.10142 Y0.31140
G01 X0.10053 Y0.32446
G01 X0.10053 Y69.67548
G01 X0.10142 Y69.68848
G01 X0.10393 Y69.70131
G01 X0.12055 Y69.76334
G01 X0.12651 Y69.77972
G01 X0.13523 Y69.79483
G01 X0.14645 Y69.80814
G01 X0.19182 Y69.85356
G01 X0.20520 Y69.86478
G01 X0.22029 Y69.87349
G01 X0.23667 Y69.87941
G01 X0.29865 Y69.89602
G01 X0.31148 Y69.89862
G01 X0.32456 Y69.89948
G01 X99.67554 Y69.89948
G01 X99.68860 Y69.89862
G01 X99.70140 Y69.89602
G01 X99.76340 Y69.87941
G01 X99.77978 Y69.87349
G01 X99.79489 Y69.86478
G01 X99.80823 Y69.85356
G01 X99.85367 Y69.80814
G01 X99.86485 Y69.79483
G01 X99.87361 Y69.77972
G01 X99.87955 Y69.76334
G01 X99.89616 Y69.70131
G01 X99.89868 Y69.68848
G01 X99.89954 Y69.67548
G01 X99.89954 Y0.32446
G04 P0 ( dwell for no time -- G64 should not smooth over this point )
G00 Z5.00000 ( retract )

G00 X95.59097 Y3.37696 ( rapid move to begin. )
G01 F300.00000
( Mill infeed pass 1/1 )
G01 Z-0.05000
G04 P0 ( dwell for no time -- G64 should not smooth over this point )
G01 F600.00000
G01 X95.59097 Y3.37696
G01 X95.57341 Y3.57746
G01 X95.57375 Y3.57759
G01 X95.57341 Y3.57746
G01 X95.52127 Y3.77193
G01 X95.52168 Y3.77210
G01 X95.52127 Y3.77193
G01 X95.43618 Y3.95435
G01 X95.43656 Y3.95455
G01 X95.43618 Y3.95435
G01 X95.32076 Y4.11927
G01 X95.32104 Y4.11952
G01 X95.32076 Y4.11927
G01 X95.17844 Y4.26164
G01 X95.17865 Y4.26189
G01 X95.17844 Y4.26164
G01 X95.00722 Y4.38150
G01 X94.98835 Y4.39644
G01 X94.97149 Y4.41348
G01 X94.93262 Y4.45780
G01 X94.91360 Y4.48348
G01 X94.89879 Y4.51183
G01 X94.88878 Y4.54216
G01 X94.87476 Y4.59936
G01 X94.86968 Y4.63098
G01 X94.86968 Y4.66291
G01 X94.87476 Y4.69448
G01 X94.88878 Y4.75173
G01 X94.89879 Y4.78206
G01 X94.91360 Y4.81046
G01 X94.93262 Y4.83608
G01 X94.97149 Y4.88041
G01 X94.98835 Y4.89745
G01 X95.00720 Y4.91231
G01 X95.17844 Y5.03222
G01 X95.17865 Y5.03202
G01 X95.17844 Y5.03222
G01 X95.32079 Y5.17456
G01 X95.32104 Y5.17436
G01 X95.32079 Y5.17456
G01 X95.43618 Y5.33946
G01 X95.43656 Y5.33933
G01 X95.43618 Y5.33946
G01 X95.52127 Y5.52199
G01 X95.52168 Y5.52186
G01 X95.52127 Y5.52199
G01 X95.57341 Y5.71642
G01 X95.57375 Y5.71637
G01 X95.57341 Y5.71642
G01 X95.59097 Y5.91690
G01 X95.59130 Y5.91690
G01 X95.59097 Y5.91690
G01 X95.57341 Y6.11751
G01 X95.57375 Y6.11759
G01 X95.57341 Y6.11751
G01 X95.52127 Y6.31198
G01 X95.52168 Y6.31210
G01 X95.52127 Y6.31198
G01 X95.43618 Y6.49437
G01 X95.43656 Y6.49460
G01 X95.43618 Y6.49437
G01 X95.32076 Y6.65932
G01 X95.32104 Y6.65955
G01 X95.32076 Y6.65932
G01 X95.17844 Y6.80166
G01 X95.17865 Y6.80194
G01 X95.17844 Y6.80166
G01 X95.09803 Y6.85795
G01 X95.01355 Y6.91713
G01 X95.01370 Y6.91744
G01 X95.01355 Y6.91713
G01 X94.83107 Y7.00220
G01 X94.83115 Y7.00255
G01 X94.83107 Y7.00220
G01 X94.63656 Y7.05432
G01 X94.63664 Y7.05467
G01 X94.63656 Y7.05432
G01 X94.43608 Y7.07187
G01 X94.43608 Y7.07222
G01 X94.43608 Y7.07187
G01 X94.23547 Y7.05432
G01 X94.23544 Y7.05467
G01 X94.23547 Y7.05432
G01 X94.04103 Y7.00220
G01 X94.04091 Y7.00255
G01 X94.04103 Y7.00220
G01 X93.85856 Y6.91713
G01 X93.85838 Y6.91744
G01 X93.85856 Y6.91713
G01 X93.69366 Y6.80166
G01 X93.69343 Y6.80194
G01 X93.69366 Y6.80166
G01 X93.55132 Y6.65932
G01 X93.55109 Y6.65955
G01 X93.55132 Y6.65932
G01 X93.43141 Y6.48810
G01 X93.41655 Y6.46930
G01 X93.39948 Y6.45244
G01 X93.35521 Y6.41360
G01 X93.32955 Y6.39453
G01 X93.30121 Y6.37972
G01 X93.27085 Y6.36969
G01 X93.21360 Y6.35561
G01 X93.18201 Y6.35056
G01 X93.15005 Y6.35056
G01 X93.11848 Y6.35561
G01 X93.06120 Y6.36969
G01 X93.03090 Y6.37972
G01 X93.00255 Y6.39448
G01 X92.97690 Y6.41355
G01 X92.93258 Y6.45244
G01 X92.91556 Y6.46930
G01 X92.90062 Y6.48810
G01 X92.78074 Y6.65932
G01 X92.78102 Y6.65955
G01 X92.78074 Y6.65932
G01 X92.63839 Y6.80166
G01 X92.63862 Y6.80194
G01 X92.63839 Y6.80166
G01 X92.47352 Y6.91713
G01 X92.47368 Y6.91744
G01 X92.47352 Y6.91713
G01 X92.29102 Y7.00220
G01 X92.29118 Y7.00255
G01 X92.29102 Y7.00220
G01 X92.09656 Y7.05432
G01 X92.09666 Y7.05467
G01 X92.09656 Y7.05432
G01 X91.89603 Y7.07187
G01 X91.89603 Y7.07222
G01 X91.89603 Y7.07187
G01 X91.69547 Y7.05432
G01 X91.69542 Y7.05467
G01 X91.69547 Y7.05432
G01 X91.50106 Y7.00220
G01 X91.50091 Y7.00255
G01 X91.50106 Y7.00220
G01 X91.31856 Y6.91713
G01 X91.31841 Y6.91744
G01 X91.31856 Y6.91713
G01 X91.15366 Y6.80166
G01 X91.15346 Y6.80194
G01 X91.15366 Y6.80166
G01 X91.01132 Y6.65932
G01 X91.01107 Y6.65955
G01 X91.01132 Y6.65932
G01 X90.89143 Y6.48810
G01 X90.87652 Y6.46930
G01 X90.85951 Y6.45244
G01 X90.81518 Y6.41360
G01 X90.78958 Y6.39453
G01 X90.76123 Y6.37972
G01 X90.73085 Y6.36969
G01 X90.67358 Y6.35561
G01 X90.64200 Y6.35056
G01 X90.61003 Y6.35056
G01 X90.57845 Y6.35561
G01 X90.52123 Y6.36969
G01 X90.49088 Y6.37972
G01 X90.46253 Y6.39448
G01 X90.43690 Y6.41355
G01 X90.39260 Y6.45244
G01 X90.37556 Y6.46930
G01 X90.36060 Y6.48810
G01 X90.24071 Y6.65932
G01 X90.24099 Y6.65955
G01 X90.24071 Y6.65932
G01 X90.09842 Y6.80166
G01 X90.09865 Y6.80194
G01 X90.09842 Y6.80166
G01 X89.93352 Y6.91713
G01 X89.93370 Y6.91744
G01 X89.93352 Y6.91713
G01 X89.75102 Y7.00220
G01 X89.75115 Y7.00255
G01 X89.75102 Y7.00220
G01 X89.55659 Y7.05432
G01 X89.55664 Y7.05467
G01 X89.55659 Y7.05432
G01 X89.35600 Y7.07187
G01 X89.35600 Y7.07222
G01 X89.35600 Y7.07187
G01 X89.15550 Y7.05432
G01 X89.15544 Y7.05467
G01 X89.15550 Y7.05432
G01 X88.96103 Y7.00220
G01 X88.96093 Y7.00255
G01 X88.96103 Y7.00220
G01 X88.77858 Y6.91713
G01 X88.77838 Y6.91744
G01 X88.77858 Y6.91713
G01 X88.61369 Y6.80166
G01 X88.61343 Y6.80194
G01 X88.61369 Y6.80166
G01 X88.47135 Y6.65932
G01 X88.47109 Y6.65955
G01 X88.47135 Y6.65932
G01 X88.35110 Y6.48764
G01 X88.33622 Y6.46887
G01 X88.31920 Y6.45201
G01 X88.27488 Y6.41317
G01 X88.24927 Y6.39409
G01 X88.22088 Y6.37929
G01 X88.19057 Y6.36923
G01 X88.13330 Y6.35521
G01 X88.10173 Y6.35015
G01 X88.06972 Y6.35015
G01 X88.03817 Y6.35521
G01 X87.98092 Y6.36923
G01 X87.95057 Y6.37929
G01 X87.92702 Y6.39155
G01 X87.92306 Y6.40552
G01 X87.92702 Y6.39155
G01 X87.80272 Y6.26722
G01 X87.78689 Y6.27131
G01 X87.80272 Y6.26722
G01 X87.84107 Y6.14088
G01 X87.84587 Y6.12183
G01 X87.84872 Y6.10238
G01 X87.86505 Y5.93654
G01 X87.86505 Y5.89732
G01 X87.84872 Y5.73151
G01 X87.84587 Y5.71213
G01 X87.84107 Y5.69311
G01 X87.80272 Y5.56664
G01 X87.78684 Y5.56265
G01 X87.80272 Y5.56664
G01 X87.92702 Y5.44238
G01 X87.92306 Y5.42836
G01 X87.92702 Y5.44238
G01 X87.95057 Y5.45460
G01 X87.98092 Y5.46471
G01 X88.03817 Y5.47873
G01 X88.06972 Y5.48381
G01 X88.10173 Y5.48381
G01 X88.13330 Y5.47873
G01 X88.19057 Y5.46471
G01 X88.22088 Y5.45460
G01 X88.24927 Y5.43982
G01 X88.27488 Y5.42074
G01 X88.31920 Y5.38188
G01 X88.33622 Y5.36501
G01 X88.35110 Y5.34629
G01 X88.47135 Y5.17456
G01 X88.47109 Y5.17439
G01 X88.47135 Y5.17456
G01 X88.61369 Y5.03222
G01 X88.61348 Y5.03207
G01 X88.61369 Y5.03222
G01 X88.78491 Y4.91231
G01 X88.80368 Y4.89748
G01 X88.82055 Y4.88043
G01 X88.85943 Y4.83613
G01 X88.87851 Y4.81051
G01 X88.89327 Y4.78208
G01 X88.90332 Y4.75176
G01 X88.91734 Y4.69448
G01 X88.92245 Y4.66291
G01 X88.92245 Y4.63098
G01 X88.91734 Y4.59936
G01 X88.90332 Y4.54216
G01 X88.89327 Y4.51183
G01 X88.87851 Y4.48348
G01 X88.85943 Y4.45780
G01 X88.82060 Y4.41348
G01 X88.80373 Y4.39644
G01 X88.78491 Y4.38150
G01 X88.61369 Y4.26164
G01 X88.61343 Y4.26189
G01 X88.61369 Y4.26164
G01 X88.47135 Y4.11927
G01 X88.47114 Y4.11945
G01 X88.47135 Y4.11927
G01 X88.35141 Y3.94805
G01 X88.33655 Y3.92933
G01 X88.31948 Y3.91246
G01 X88.27521 Y3.87360
G01 X88.24955 Y3.85448
G01 X88.22118 Y3.83969
G01 X88.19088 Y3.82963
G01 X88.13360 Y3.81561
G01 X88.10203 Y3.81053
G01 X88.07005 Y3.81053
G01 X88.03848 Y3.81561
G01 X87.98120 Y3.82963
G01 X87.95090 Y3.83969
G01 X87.92255 Y3.85445
G01 X87.89693 Y3.87353
G01 X87.85260 Y3.91244
G01 X87.83553 Y3.92930
G01 X87.82062 Y3.94805
G01 X87.70074 Y4.11927
G01 X87.70094 Y4.11947
G01 X87.70074 Y4.11927
G01 X87.55839 Y4.26164
G01 X87.55865 Y4.26189
G01 X87.55839 Y4.26164
G01 X87.38677 Y4.38186
G01 X87.36794 Y4.39679
G01 X87.35108 Y4.41383
G01 X87.31219 Y4.45816
G01 X87.29312 Y4.48373
G01 X87.27838 Y4.51208
G01 X87.26830 Y4.54241
G01 X87.25428 Y4.59971
G01 X87.24920 Y4.63123
G01 X87.24920 Y4.66326
G01 X87.25428 Y4.69483
G01 X87.26830 Y4.75211
G01 X87.27838 Y4.78244
G01 X87.29065 Y4.80593
G01 X87.30460 Y4.80995
G01 X87.29065 Y4.80593
G01 X87.16632 Y4.93029
G01 X87.17033 Y4.94553
G01 X87.16632 Y4.93029
G01 X87.03990 Y4.89189
G01 X87.00145 Y4.88424
G01 X86.83561 Y4.86791
G01 X86.79642 Y4.86791
G01 X86.63058 Y4.88424
G01 X86.59213 Y4.89189
G01 X86.46571 Y4.93029
G01 X86.46170 Y4.94553
G01 X86.46571 Y4.93029
G01 X86.34145 Y4.80593
G01 X86.32746 Y4.80995
G01 X86.34145 Y4.80593
G01 X86.35372 Y4.78244
G01 X86.36376 Y4.75211
G01 X86.37778 Y4.69483
G01 X86.38286 Y4.66326
G01 X86.38286 Y4.63123
G01 X86.37778 Y4.59971
G01 X86.36376 Y4.54241
G01 X86.35372 Y4.51208
G01 X86.33894 Y4.48373
G01 X86.31989 Y4.45816
G01 X86.28105 Y4.41383
G01 X86.26419 Y4.39679
G01 X86.24537 Y4.38186
G01 X86.07366 Y4.26164
G01 X86.07343 Y4.26189
G01 X86.07366 Y4.26164
G01 X85.93135 Y4.11927
G01 X85.93107 Y4.11950
G01 X85.93135 Y4.11927
G01 X85.81141 Y3.94805
G01 X85.79652 Y3.92933
G01 X85.77953 Y3.91246
G01 X85.73521 Y3.87360
G01 X85.70955 Y3.85448
G01 X85.68118 Y3.83969
G01 X85.65088 Y3.82963
G01 X85.59360 Y3.81561
G01 X85.56203 Y3.81053
G01 X85.53005 Y3.81053
G01 X85.49848 Y3.81561
G01 X85.44120 Y3.82963
G01 X85.41090 Y3.83969
G01 X85.38258 Y3.85445
G01 X85.35690 Y3.87353
G01 X85.31258 Y3.91244
G01 X85.29558 Y3.92930
G01 X85.28060 Y3.94805
G01 X85.16074 Y4.11927
G01 X85.16104 Y4.11950
G01 X85.16074 Y4.11927
G01 X85.01857 Y4.26184
G01 X84.84722 Y4.38150
G01 X84.82840 Y4.39644
G01 X84.81154 Y4.41348
G01 X84.77262 Y4.45780
G01 X84.75357 Y4.48348
G01 X84.73879 Y4.51183
G01 X84.72876 Y4.54216
G01 X84.71474 Y4.59936
G01 X84.70963 Y4.63098
G01 X84.70963 Y4.66291
G01 X84.71474 Y4.69448
G01 X84.72876 Y4.75173
G01 X84.73879 Y4.78206
G01 X84.75357 Y4.81046
G01 X84.77262 Y4.83608
G01 X84.81154 Y4.88041
G01 X84.82840 Y4.89745
G01 X84.84715 Y4.91231
G01 X85.01844 Y5.03222
G01 X85.01865 Y5.03202
G01 X85.01844 Y5.03222
G01 X85.16074 Y5.17456
G01 X85.16104 Y5.17439
G01 X85.16074 Y5.17456
G01 X85.28090 Y5.34627
G01 X85.29589 Y5.36504
G01 X85.31293 Y5.38190
G01 X85.35720 Y5.42077
G01 X85.38286 Y5.43984
G01 X85.41121 Y5.45460
G01 X85.44151 Y5.46471
G01 X85.49878 Y5.47873
G01 X85.53036 Y5.48381
G01 X85.56234 Y5.48381
G01 X85.59391 Y5.47873
G01 X85.65118 Y5.46471
G01 X85.68149 Y5.45460
G01 X85.70503 Y5.44238
G01 X85.70902 Y5.42836
G01 X85.70503 Y5.44238
G01 X85.82937 Y5.56661
G01 X85.84524 Y5.56263
G01 X85.82937 Y5.56661
G01 X85.79101 Y5.69311
G01 X85.78621 Y5.71213
G01 X85.78337 Y5.73151
G01 X85.76698 Y5.89732
G01 X85.76602 Y5.91693
G01 X85.76698 Y5.93654
G01 X85.78337 Y6.10238
G01 X85.78621 Y6.12183
G01 X85.79101 Y6.14088
G01 X85.82937 Y6.26725
G01 X85.84516 Y6.27134
G01 X85.82937 Y6.26725
G01 X85.70503 Y6.39155
G01 X85.70902 Y6.40552
G01 X85.70503 Y6.39155
G01 X85.68149 Y6.37929
G01 X85.65118 Y6.36923
G01 X85.59391 Y6.35521
G01 X85.56234 Y6.35015
G01 X85.53036 Y6.35015
G01 X85.49878 Y6.35521
G01 X85.44151 Y6.36923
G01 X85.41121 Y6.37929
G01 X85.38286 Y6.39404
G01 X85.35720 Y6.41312
G01 X85.31293 Y6.45201
G01 X85.29589 Y6.46887
G01 X85.28098 Y6.48764
G01 X85.16074 Y6.65932
G01 X85.16104 Y6.65955
G01 X85.16074 Y6.65932
G01 X85.01844 Y6.80166
G01 X85.01865 Y6.80194
G01 X85.01844 Y6.80166
G01 X84.85350 Y6.91713
G01 X84.85370 Y6.91744
G01 X84.85350 Y6.91713
G01 X84.67102 Y7.00220
G01 X84.67120 Y7.00255
G01 X84.67102 Y7.00220
G01 X84.47656 Y7.05432
G01 X84.47664 Y7.05467
G01 X84.47656 Y7.05432
G01 X84.27600 Y7.07187
G01 X84.27600 Y7.07222
G01 X84.27600 Y7.07187
G01 X84.07547 Y7.05432
G01 X84.07544 Y7.05467
G01 X84.07547 Y7.05432
G01 X83.88108 Y7.00220
G01 X83.88091 Y7.00255
G01 X83.88108 Y7.00220
G01 X83.69856 Y6.91713
G01 X83.69838 Y6.91744
G01 X83.69856 Y6.91713
G01 X83.53371 Y6.80166
G01 X83.53343 Y6.80194
G01 X83.53371 Y6.80166
G01 X83.39132 Y6.65932
G01 X83.39107 Y6.65955
G01 X83.39132 Y6.65932
G01 X83.27141 Y6.48810
G01 X83.25652 Y6.46930
G01 X83.23953 Y6.45244
G01 X83.19521 Y6.41360
G01 X83.16960 Y6.39453
G01 X83.14118 Y6.37972
G01 X83.11085 Y6.36969
G01 X83.05358 Y6.35561
G01 X83.02200 Y6.35056
G01 X82.99005 Y6.35056
G01 X82.95845 Y6.35561
G01 X82.90120 Y6.36969
G01 X82.87090 Y6.37972
G01 X82.84255 Y6.39448
G01 X82.81695 Y6.41355
G01 X82.77263 Y6.45244
G01 X82.75556 Y6.46930
G01 X82.74065 Y6.48810
G01 X82.62071 Y6.65932
G01 X82.62102 Y6.65955
G01 X82.62071 Y6.65932
G01 X82.47842 Y6.80166
G01 X82.47862 Y6.80194
G01 X82.47842 Y6.80166
G01 X82.31350 Y6.91713
G01 X82.31368 Y6.91744
G01 X82.31350 Y6.91713
G01 X82.13107 Y7.00220
G01 X82.13118 Y7.00255
G01 X82.13107 Y7.00220
G01 X81.93661 Y7.05432
G01 X81.93664 Y7.05467
G01 X81.93661 Y7.05432
G01 X81.73605 Y7.07187
G01 X81.73605 Y7.07222
G01 X81.73605 Y7.07187
G01 X81.53552 Y7.05432
G01 X81.53542 Y7.05467
G01 X81.53552 Y7.05432
G01 X81.34106 Y7.00220
G01 X81.34096 Y7.00255
G01 X81.34106 Y7.00220
G01 X81.15856 Y6.91713
G01 X81.15838 Y6.91744
G01 X81.15856 Y6.91713
G01 X81.07410 Y6.85790
G01 X80.99371 Y6.80166
G01 X80.99343 Y6.80194
G01 X80.99371 Y6.80166
G01 X80.85132 Y6.65932
G01 X80.85112 Y6.65955
G01 X80.85132 Y6.65932
G01 X80.73141 Y6.48810
G01 X80.71657 Y6.46930
G01 X80.69951 Y6.45244
G01 X80.65518 Y6.41360
G01 X80.62958 Y6.39453
G01 X80.60123 Y6.37972
G01 X80.57085 Y6.36969
G01 X80.51358 Y6.35561
G01 X80.48201 Y6.35056
G01 X80.45003 Y6.35056
G01 X80.41845 Y6.35561
G01 X80.36120 Y6.36969
G01 X80.33087 Y6.37972
G01 X80.30253 Y6.39448
G01 X80.27693 Y6.41355
G01 X80.23260 Y6.45244
G01 X80.21553 Y6.46930
G01 X80.20065 Y6.48810
G01 X80.08071 Y6.65932
G01 X80.08099 Y6.65955
G01 X80.08071 Y6.65932
G01 X79.93842 Y6.80166
G01 X79.93862 Y6.80194
G01 X79.93842 Y6.80166
G01 X79.77355 Y6.91713
G01 X79.77368 Y6.91744
G01 X79.77355 Y6.91713
G01 X79.59105 Y7.00220
G01 X79.59115 Y7.00255
G01 X79.59105 Y7.00220
G01 X79.39659 Y7.05432
G01 X79.39669 Y7.05467
G01 X79.39659 Y7.05432
G01 X79.19605 Y7.07187
G01 X79.19605 Y7.07222
G01 X79.19605 Y7.07187
G01 X78.99550 Y7.05432
G01 X78.99542 Y7.05467
G01 X78.99550 Y7.05432
G01 X78.80103 Y7.00220
G01 X78.80093 Y7.00255
G01 X78.80103 Y7.00220
G01 X78.61856 Y6.91713
G01 X78.61843 Y6.91744
G01 X78.61856 Y6.91713
G01 X78.53410 Y6.85795
G01 X78.45369 Y6.80166
G01 X78.45348 Y6.80194
G01 X78.45369 Y6.80166
G01 X78.31132 Y6.65932
G01 X78.31109 Y6.65955
G01 X78.31132 Y6.65932
G01 X78.19146 Y6.48810
G01 X78.17655 Y6.46930
G01 X78.15948 Y6.45244
G01 X78.11518 Y6.41360
G01 X78.08955 Y6.39453
G01 X78.06121 Y6.37972
G01 X78.03085 Y6.36969
G01 X77.97358 Y6.35561
G01 X77.94200 Y6.35056
G01 X77.91003 Y6.35056
G01 X77.87845 Y6.35561
G01 X77.82125 Y6.36969
G01 X77.79087 Y6.37972
G01 X77.76253 Y6.39448
G01 X77.73693 Y6.41355
G01 X77.69258 Y6.45244
G01 X77.67553 Y6.46930
G01 X77.66062 Y6.48810
G01 X77.54071 Y6.65932
G01 X77.54099 Y6.65955
G01 X77.54071 Y6.65932
G01 X77.39839 Y6.80166
G01 X77.39867 Y6.80194
G01 X77.39839 Y6.80166
G01 X77.23355 Y6.91713
G01 X77.23373 Y6.91744
G01 X77.23355 Y6.91713
G01 X77.05105 Y7.00220
G01 X77.05115 Y7.00255
G01 X77.05105 Y7.00220
G01 X76.85656 Y7.05432
G01 X76.85666 Y7.05467
G01 X76.85656 Y7.05432
G01 X76.65603 Y7.07187
G01 X76.65603 Y7.07222
G01 X76.65603 Y7.07187
G01 X76.45547 Y7.05432
G01 X76.45547 Y7.05467
G01 X76.45547 Y7.05432
G01 X76.26103 Y7.00220
G01 X76.26091 Y7.00255
G01 X76.26103 Y7.00220
G01 X76.07861 Y6.91713
G01 X76.07841 Y6.91744
G01 X76.07861 Y6.91713
G01 X75.91366 Y6.80166
G01 X75.91346 Y6.80194
G01 X75.91366 Y6.80166
G01 X75.77137 Y6.65932
G01 X75.77107 Y6.65955
G01 X75.77137 Y6.65932
G01 X75.65143 Y6.48810
G01 X75.63652 Y6.46930
G01 X75.61948 Y6.45244
G01 X75.57523 Y6.41360
G01 X75.54955 Y6.39453
G01 X75.52121 Y6.37972
G01 X75.49090 Y6.36969
G01 X75.43363 Y6.35561
G01 X75.40206 Y6.35056
G01 X75.37008 Y6.35056
G01 X75.33850 Y6.35561
G01 X75.28123 Y6.36969
G01 X75.25093 Y6.37972
G01 X75.22258 Y6.39448
G01 X75.19690 Y6.41355
G01 X75.15258 Y6.45244
G01 X75.13553 Y6.46930
G01 X75.12060 Y6.48810
G01 X75.00076 Y6.65932
G01 X75.00099 Y6.65955
G01 X75.00076 Y6.65932
G01 X74.85839 Y6.80166
G01 X74.85867 Y6.80194
G01 X74.85839 Y6.80166
G01 X74.69352 Y6.91713
G01 X74.69373 Y6.91744
G01 X74.69352 Y6.91713
G01 X74.51102 Y7.00220
G01 X74.51115 Y7.00255
G01 X74.51102 Y7.00220
G01 X74.31659 Y7.05432
G01 X74.31666 Y7.05467
G01 X74.31659 Y7.05432
G01 X74.11600 Y7.07187
G01 X74.11600 Y7.07222
G01 X74.11600 Y7.07187
G01 X73.91547 Y7.05432
G01 X73.91542 Y7.05467
G01 X73.91547 Y7.05432
G01 X73.72106 Y7.00220
G01 X73.72091 Y7.00255
G01 X73.72106 Y7.00220
G01 X73.53856 Y6.91713
G01 X73.53841 Y6.91744
G01 X73.53856 Y6.91713
G01 X73.37366 Y6.80166
G01 X73.37346 Y6.80194
G01 X73.37366 Y6.80166
G01 X73.23135 Y6.65932
G01 X73.23107 Y6.65955
G01 X73.23135 Y6.65932
G01 X73.11110 Y6.48764
G01 X73.09622 Y6.46887
G01 X73.07923 Y6.45201
G01 X73.03488 Y6.41317
G01 X73.00930 Y6.39409
G01 X72.98090 Y6.37929
G01 X72.95055 Y6.36923
G01 X72.89330 Y6.35521
G01 X72.86170 Y6.35015
G01 X72.82975 Y6.35015
G01 X72.79815 Y6.35521
G01 X72.74090 Y6.36923
G01 X72.71060 Y6.37929
G01 X72.68702 Y6.39155
G01 X72.68309 Y6.40552
G01 X72.68702 Y6.39155
G01 X72.56272 Y6.26722
G01 X72.54687 Y6.27131
G01 X72.56272 Y6.26722
G01 X72.60110 Y6.14088
G01 X72.60585 Y6.12183
G01 X72.60872 Y6.10238
G01 X72.62505 Y5.93654
G01 X72.62505 Y5.89732
G01 X72.60872 Y5.73151
G01 X72.60585 Y5.71213
G01 X72.60110 Y5.69311
G01 X72.56272 Y5.56664
G01 X72.54687 Y5.56265
G01 X72.56272 Y5.56664
G01 X72.68702 Y5.44238
G01 X72.68309 Y5.42836
G01 X72.68702 Y5.44238
G01 X72.71060 Y5.45460
G01 X72.74090 Y5.46471
G01 X72.79815 Y5.47873
G01 X72.82975 Y5.48381
G01 X72.86170 Y5.48381
G01 X72.89330 Y5.47873
G01 X72.95055 Y5.46471
G01 X72.98090 Y5.45460
G01 X73.00930 Y5.43982
G01 X73.03488 Y5.42074
G01 X73.07923 Y5.38188
G01 X73.09622 Y5.36501
G01 X73.11110 Y5.34629
G01 X73.23135 Y5.17456
G01 X73.23107 Y5.17439
G01 X73.23135 Y5.17456
G01 X73.37366 Y5.03222
G01 X73.37346 Y5.03202
G01 X73.37366 Y5.03222
G01 X73.54493 Y4.91231
G01 X73.56371 Y4.89748
G01 X73.58057 Y4.88043
G01 X73.61943 Y4.83613
G01 X73.63851 Y4.81051
G01 X73.65332 Y4.78208
G01 X73.66332 Y4.75176
G01 X73.67737 Y4.69448
G01 X73.68245 Y4.66291
G01 X73.68245 Y4.63098
G01 X73.67737 Y4.59936
G01 X73.66332 Y4.54216
G01 X73.65332 Y4.51183
G01 X73.63851 Y4.48348
G01 X73.61943 Y4.45780
G01 X73.58057 Y4.41348
G01 X73.56371 Y4.39644
G01 X73.54493 Y4.38150
G01 X73.37366 Y4.26164
G01 X73.37346 Y4.26189
G01 X73.37366 Y4.26164
G01 X73.23135 Y4.11927
G01 X73.23107 Y4.11950
G01 X73.23135 Y4.11927
G01 X73.11110 Y3.94767
G01 X73.09622 Y3.92890
G01 X73.07923 Y3.91198
G01 X73.03488 Y3.87317
G01 X73.00930 Y3.85409
G01 X72.98090 Y3.83931
G01 X72.95055 Y3.82925
G01 X72.89330 Y3.81523
G01 X72.86170 Y3.81015
G01 X72.82975 Y3.81015
G01 X72.79815 Y3.81523
G01 X72.74090 Y3.82925
G01 X72.71060 Y3.83931
G01 X72.68702 Y3.85153
G01 X72.68309 Y3.86550
G01 X72.68702 Y3.85153
G01 X72.56272 Y3.72727
G01 X72.54687 Y3.73131
G01 X72.56272 Y3.72727
G01 X72.60110 Y3.60088
G01 X72.60585 Y3.58183
G01 X72.60872 Y3.56238
G01 X72.62505 Y3.39659
G01 X72.62505 Y3.35732
G01 X72.60872 Y3.19156
G01 X72.60585 Y3.17208
G01 X72.60110 Y3.15305
G01 X72.56272 Y3.02669
G01 X72.54687 Y3.02260
G01 X72.56272 Y3.02669
G01 X72.68702 Y2.90236
G01 X72.68309 Y2.88836
G01 X72.68702 Y2.90236
G01 X72.71060 Y2.91465
G01 X72.74090 Y2.92466
G01 X72.79815 Y2.93868
G01 X72.82975 Y2.94381
G01 X72.86170 Y2.94381
G01 X72.89330 Y2.93868
G01 X72.95055 Y2.92466
G01 X72.98090 Y2.91465
G01 X73.00930 Y2.89987
G01 X73.03488 Y2.88079
G01 X73.07923 Y2.84193
G01 X73.09622 Y2.82506
G01 X73.11110 Y2.80624
G01 X73.23135 Y2.63456
G01 X73.23107 Y2.63439
G01 X73.23135 Y2.63456
G01 X73.37366 Y2.49222
G01 X73.37346 Y2.49199
G01 X73.37366 Y2.49222
G01 X73.53856 Y2.37681
G01 X73.53841 Y2.37647
G01 X73.53856 Y2.37681
G01 X73.72106 Y2.29174
G01 X73.72091 Y2.29138
G01 X73.72106 Y2.29174
G01 X73.91547 Y2.23962
G01 X73.91542 Y2.23926
G01 X73.91547 Y2.23962
G01 X74.11600 Y2.22209
G01 X74.11600 Y2.22171
G01 X74.11600 Y2.22209
G01 X74.31659 Y2.23962
G01 X74.31666 Y2.23926
G01 X74.31659 Y2.23962
G01 X74.51110 Y2.29174
G01 X74.51118 Y2.29138
G01 X74.51110 Y2.29174
G01 X74.69352 Y2.37681
G01 X74.69373 Y2.37647
G01 X74.69352 Y2.37681
G01 X74.85839 Y2.49222
G01 X74.85867 Y2.49199
G01 X74.85839 Y2.49222
G01 X75.00076 Y2.63456
G01 X75.00099 Y2.63439
G01 X75.00076 Y2.63456
G01 X75.12060 Y2.80579
G01 X75.13553 Y2.82466
G01 X75.15258 Y2.84147
G01 X75.19690 Y2.88039
G01 X75.22258 Y2.89949
G01 X75.25093 Y2.91424
G01 X75.28133 Y2.92423
G01 X75.33853 Y2.93827
G01 X75.37008 Y2.94330
G01 X75.40198 Y2.94330
G01 X75.43353 Y2.93827
G01 X75.49080 Y2.92423
G01 X75.52113 Y2.91424
G01 X75.54955 Y2.89946
G01 X75.57523 Y2.88036
G01 X75.61948 Y2.84145
G01 X75.63652 Y2.82458
G01 X75.65143 Y2.80581
G01 X75.77137 Y2.63456
G01 X75.77107 Y2.63439
G01 X75.77137 Y2.63456
G01 X75.91366 Y2.49222
G01 X75.91346 Y2.49199
G01 X75.91366 Y2.49222
G01 X76.07861 Y2.37681
G01 X76.07841 Y2.37647
G01 X76.07861 Y2.37681
G01 X76.26103 Y2.29174
G01 X76.26091 Y2.29138
G01 X76.26103 Y2.29174
G01 X76.45547 Y2.23962
G01 X76.45547 Y2.23926
G01 X76.45547 Y2.23962
G01 X76.65603 Y2.22209
G01 X76.65603 Y2.22171
G01 X76.65603 Y2.22209
G01 X76.85656 Y2.23962
G01 X76.85666 Y2.23926
G01 X76.85656 Y2.23962
G01 X77.05105 Y2.29174
G01 X77.05123 Y2.29138
G01 X77.05105 Y2.29174
G01 X77.23355 Y2.37681
G01 X77.23373 Y2.37647
G01 X77.23355 Y2.37681
G01 X77.39839 Y2.49222
G01 X77.39867 Y2.49199
G01 X77.39839 Y2.49222
G01 X77.54071 Y2.63456
G01 X77.54099 Y2.63439
G01 X77.54071 Y2.63456
G01 X77.66062 Y2.80579
G01 X77.67553 Y2.82466
G01 X77.69258 Y2.84147
G01 X77.73693 Y2.88039
G01 X77.76260 Y2.89949
G01 X77.79095 Y2.91424
G01 X77.82128 Y2.92423
G01 X77.87853 Y2.93827
G01 X77.91010 Y2.94330
G01 X77.94198 Y2.94330
G01 X77.97348 Y2.93827
G01 X78.03075 Y2.92423
G01 X78.06113 Y2.91424
G01 X78.08955 Y2.89946
G01 X78.11518 Y2.88036
G01 X78.15948 Y2.84145
G01 X78.17655 Y2.82458
G01 X78.19146 Y2.80581
G01 X78.31132 Y2.63456
G01 X78.31109 Y2.63439
G01 X78.31132 Y2.63456
G01 X78.45369 Y2.49222
G01 X78.45348 Y2.49199
G01 X78.45369 Y2.49222
G01 X78.61856 Y2.37681
G01 X78.61843 Y2.37647
G01 X78.61856 Y2.37681
G01 X78.80103 Y2.29174
G01 X78.80093 Y2.29138
G01 X78.80103 Y2.29174
G01 X78.99550 Y2.23962
G01 X78.99542 Y2.23926
G01 X78.99550 Y2.23962
G01 X79.19605 Y2.22209
G01 X79.19605 Y2.22171
G01 X79.19605 Y2.22209
G01 X79.39659 Y2.23962
G01 X79.39669 Y2.23926
G01 X79.39659 Y2.23962
G01 X79.59105 Y2.29174
G01 X79.59118 Y2.29138
G01 X79.59105 Y2.29174
G01 X79.77355 Y2.37681
G01 X79.77368 Y2.37647
G01 X79.77355 Y2.37681
G01 X79.93842 Y2.49222
G01 X79.93862 Y2.49199
G01 X79.93842 Y2.49222
G01 X80.08071 Y2.63456
G01 X80.08099 Y2.63439
G01 X80.08071 Y2.63456
G01 X80.20065 Y2.80579
G01 X80.21553 Y2.82466
G01 X80.23260 Y2.84147
G01 X80.27693 Y2.88039
G01 X80.30255 Y2.89949
G01 X80.33098 Y2.91424
G01 X80.36128 Y2.92423
G01 X80.41853 Y2.93827
G01 X80.45005 Y2.94330
G01 X80.48198 Y2.94330
G01 X80.51348 Y2.93827
G01 X80.57075 Y2.92423
G01 X80.60113 Y2.91424
G01 X80.62958 Y2.89946
G01 X80.65518 Y2.88036
G01 X80.69951 Y2.84145
G01 X80.71657 Y2.82458
G01 X80.73141 Y2.80581
G01 X80.85132 Y2.63456
G01 X80.85112 Y2.63439
G01 X80.85132 Y2.63456
G01 X80.99371 Y2.49222
G01 X80.99343 Y2.49199
G01 X80.99371 Y2.49222
G01 X81.15856 Y2.37681
G01 X81.15838 Y2.37647
G01 X81.15856 Y2.37681
G01 X81.34106 Y2.29174
G01 X81.34088 Y2.29138
G01 X81.34106 Y2.29174
G01 X81.53552 Y2.23962
G01 X81.53542 Y2.23926
G01 X81.53552 Y2.23962
G01 X81.73605 Y2.22209
G01 X81.73605 Y2.22171
G01 X81.73605 Y2.22209
G01 X81.93661 Y2.23962
G01 X81.93664 Y2.23926
G01 X81.93661 Y2.23962
G01 X82.13107 Y2.29174
G01 X82.13118 Y2.29138
G01 X82.13107 Y2.29174
G01 X82.31350 Y2.37681
G01 X82.31368 Y2.37647
G01 X82.31350 Y2.37681
G01 X82.47842 Y2.49222
G01 X82.47862 Y2.49199
G01 X82.47842 Y2.49222
G01 X82.62071 Y2.63456
G01 X82.62102 Y2.63439
G01 X82.62071 Y2.63456
G01 X82.74065 Y2.80579
G01 X82.75556 Y2.82466
G01 X82.77263 Y2.84147
G01 X82.81695 Y2.88039
G01 X82.84255 Y2.89949
G01 X82.87093 Y2.91424
G01 X82.90128 Y2.92423
G01 X82.95856 Y2.93827
G01 X82.99005 Y2.94330
G01 X83.02200 Y2.94330
G01 X83.05350 Y2.93827
G01 X83.11075 Y2.92423
G01 X83.14116 Y2.91424
G01 X83.16953 Y2.89946
G01 X83.19521 Y2.88036
G01 X83.23953 Y2.84145
G01 X83.25652 Y2.82458
G01 X83.27141 Y2.80581
G01 X83.39132 Y2.63456
G01 X83.39107 Y2.63439
G01 X83.39132 Y2.63456
G01 X83.53371 Y2.49222
G01 X83.53343 Y2.49199
G01 X83.53371 Y2.49222
G01 X83.69856 Y2.37681
G01 X83.69838 Y2.37647
G01 X83.69856 Y2.37681
G01 X83.88108 Y2.29174
G01 X83.88088 Y2.29138
G01 X83.88108 Y2.29174
G01 X84.07547 Y2.23962
G01 X84.07544 Y2.23926
G01 X84.07547 Y2.23962
G01 X84.27600 Y2.22209
G01 X84.27600 Y2.22171
G01 X84.27600 Y2.22209
G01 X84.47656 Y2.23962
G01 X84.47664 Y2.23926
G01 X84.47656 Y2.23962
G01 X84.67110 Y2.29174
G01 X84.67120 Y2.29138
G01 X84.67110 Y2.29174
G01 X84.85350 Y2.37681
G01 X84.85370 Y2.37647
G01 X84.85350 Y2.37681
G01 X85.01844 Y2.49222
G01 X85.01865 Y2.49199
G01 X85.01844 Y2.49222
G01 X85.16074 Y2.63456
G01 X85.16104 Y2.63439
G01 X85.16074 Y2.63456
G01 X85.28060 Y2.80579
G01 X85.29558 Y2.82466
G01 X85.31258 Y2.84147
G01 X85.35690 Y2.88039
G01 X85.38258 Y2.89949
G01 X85.41093 Y2.91424
G01 X85.44130 Y2.92423
G01 X85.49858 Y2.93827
G01 X85.53005 Y2.94330
G01 X85.56203 Y2.94330
G01 X85.59350 Y2.93827
G01 X85.65078 Y2.92423
G01 X85.68118 Y2.91424
G01 X85.70953 Y2.89946
G01 X85.73521 Y2.88036
G01 X85.77953 Y2.84145
G01 X85.79652 Y2.82458
G01 X85.81141 Y2.80581
G01 X85.93135 Y2.63456
G01 X85.93107 Y2.63439
G01 X85.93135 Y2.63456
G01 X86.07366 Y2.49222
G01 X86.07343 Y2.49199
G01 X86.07366 Y2.49222
G01 X86.23858 Y2.37681
G01 X86.23838 Y2.37647
G01 X86.23858 Y2.37681
G01 X86.42108 Y2.29174
G01 X86.42091 Y2.29138
G01 X86.42108 Y2.29174
G01 X86.61547 Y2.23962
G01 X86.61547 Y2.23926
G01 X86.61547 Y2.23962
G01 X86.81600 Y2.22209
G01 X86.81600 Y2.22171
G01 X86.81600 Y2.22209
G01 X87.01656 Y2.23962
G01 X87.01664 Y2.23926
G01 X87.01656 Y2.23962
G01 X87.21105 Y2.29174
G01 X87.21120 Y2.29138
G01 X87.21105 Y2.29174
G01 X87.39350 Y2.37681
G01 X87.39370 Y2.37647
G01 X87.39350 Y2.37681
G01 X87.55839 Y2.49222
G01 X87.55865 Y2.49199
G01 X87.55839 Y2.49222
G01 X87.70074 Y2.63456
G01 X87.70099 Y2.63439
G01 X87.70074 Y2.63456
G01 X87.82062 Y2.80579
G01 X87.83553 Y2.82466
G01 X87.85260 Y2.84147
G01 X87.89693 Y2.88039
G01 X87.92255 Y2.89949
G01 X87.95095 Y2.91424
G01 X87.98130 Y2.92423
G01 X88.03853 Y2.93827
G01 X88.07005 Y2.94330
G01 X88.10198 Y2.94330
G01 X88.13350 Y2.93827
G01 X88.19078 Y2.92423
G01 X88.22113 Y2.91424
G01 X88.24953 Y2.89946
G01 X88.27521 Y2.88036
G01 X88.31948 Y2.84145
G01 X88.33655 Y2.82458
G01 X88.35141 Y2.80581
G01 X88.47135 Y2.63456
G01 X88.47109 Y2.63439
G01 X88.47135 Y2.63456
G01 X88.61369 Y2.49222
G01 X88.61343 Y2.49199
G01 X88.61369 Y2.49222
G01 X88.77858 Y2.37681
G01 X88.77838 Y2.37647
G01 X88.77858 Y2.37681
G01 X88.96103 Y2.29174
G01 X88.96088 Y2.29138
G01 X88.96103 Y2.29174
G01 X89.15550 Y2.23962
G01 X89.15544 Y2.23926
G01 X89.15550 Y2.23962
G01 X89.35600 Y2.22209
G01 X89.35600 Y2.22171
G01 X89.35600 Y2.22209
G01 X89.55659 Y2.23962
G01 X89.55664 Y2.23926
G01 X89.55659 Y2.23962
G01 X89.75105 Y2.29174
G01 X89.75120 Y2.29138
G01 X89.75105 Y2.29174
G01 X89.93352 Y2.37681
G01 X89.93370 Y2.37647
G01 X89.93352 Y2.37681
G01 X90.09842 Y2.49222
G01 X90.09865 Y2.49199
G01 X90.09842 Y2.49222
G01 X90.24071 Y2.63456
G01 X90.24099 Y2.63439
G01 X90.24071 Y2.63456
G01 X90.36060 Y2.80579
G01 X90.37556 Y2.82466
G01 X90.39260 Y2.84147
G01 X90.43690 Y2.88039
G01 X90.46258 Y2.89949
G01 X90.49093 Y2.91424
G01 X90.52128 Y2.92423
G01 X90.57856 Y2.93827
G01 X90.61008 Y2.94330
G01 X90.64200 Y2.94330
G01 X90.67348 Y2.93827
G01 X90.73075 Y2.92423
G01 X90.76116 Y2.91424
G01 X90.78953 Y2.89946
G01 X90.81518 Y2.88036
G01 X90.85951 Y2.84145
G01 X90.87652 Y2.82458
G01 X90.89143 Y2.80581
G01 X91.01132 Y2.63456
G01 X91.01107 Y2.63439
G01 X91.01132 Y2.63456
G01 X91.15366 Y2.49222
G01 X91.15346 Y2.49199
G01 X91.15366 Y2.49222
G01 X91.31856 Y2.37681
G01 X91.31841 Y2.37647
G01 X91.31856 Y2.37681
G01 X91.50106 Y2.29174
G01 X91.50091 Y2.29138
G01 X91.50106 Y2.29174
G01 X91.69547 Y2.23962
G01 X91.69542 Y2.23926
G01 X91.69547 Y2.23962
G01 X91.89603 Y2.22209
G01 X91.89603 Y2.22171
G01 X91.89603 Y2.22209
G01 X92.09656 Y2.23962
G01 X92.09666 Y2.23926
G01 X92.09656 Y2.23962
G01 X92.29107 Y2.29174
G01 X92.29118 Y2.29138
G01 X92.29107 Y2.29174
G01 X92.47352 Y2.37681
G01 X92.47368 Y2.37647
G01 X92.47352 Y2.37681
G01 X92.63839 Y2.49222
G01 X92.63862 Y2.49199
G01 X92.63839 Y2.49222
G01 X92.78074 Y2.63456
G01 X92.78102 Y2.63439
G01 X92.78074 Y2.63456
G01 X92.90062 Y2.80579
G01 X92.91556 Y2.82466
G01 X92.93258 Y2.84147
G01 X92.97690 Y2.88039
G01 X93.00255 Y2.89949
G01 X93.03095 Y2.91424
G01 X93.06130 Y2.92423
G01 X93.11856 Y2.93827
G01 X93.15005 Y2.94330
G01 X93.18201 Y2.94330
G01 X93.21350 Y2.93827
G01 X93.27075 Y2.92423
G01 X93.30116 Y2.91424
G01 X93.32955 Y2.89946
G01 X93.35521 Y2.88036
G01 X93.39948 Y2.84145
G01 X93.41655 Y2.82458
G01 X93.43141 Y2.80581
G01 X93.55132 Y2.63456
G01 X93.55109 Y2.63439
G01 X93.55132 Y2.63456
G01 X93.69366 Y2.49222
G01 X93.69343 Y2.49199
G01 X93.69366 Y2.49222
G01 X93.85856 Y2.37681
G01 X93.85838 Y2.37647
G01 X93.85856 Y2.37681
G01 X94.04103 Y2.29174
G01 X94.04091 Y2.29138
G01 X94.04103 Y2.29174
G01 X94.23547 Y2.23962
G01 X94.23544 Y2.23926
G01 X94.23547 Y2.23962
G01 X94.43608 Y2.22209
G01 X94.43608 Y2.22171
G01 X94.43608 Y2.22209
G01 X94.63656 Y2.23962
G01 X94.63664 Y2.23926
G01 X94.63656 Y2.23962
G01 X94.83110 Y2.29174
G01 X94.83118 Y2.29138
G01 X94.83110 Y2.29174
G01 X95.01355 Y2.37681
G01 X95.01370 Y2.37647
G01 X95.01355 Y2.37681
G01 X95.17844 Y2.49222
G01 X95.17865 Y2.49199
G01 X95.17844 Y2.49222
G01 X95.32079 Y2.63456
G01 X95.32104 Y2.63436
G01 X95.32079 Y2.63456
G01 X95.43618 Y2.79946
G01 X95.43656 Y2.79933
G01 X95.43618 Y2.79946
G01 X95.52127 Y2.98199
G01 X95.52168 Y2.98186
G01 X95.52127 Y2.98199
G01 X95.57341 Y3.17642
G01 X95.57375 Y3.17632
G01 X95.57341 Y3.17642
G01 X95.59094 Y3.37647
G01 X95.59097 Y3.37696
G01 X95.59130 Y3.37696
G01 X95.69130 Y3.37696
G01 X95.67225 Y3.15895
G01 X95.61566 Y2.94759
G01 X95.52317 Y2.74932
G01 X95.39767 Y2.57005
G01 X95.24291 Y2.41534
G01 X95.06374 Y2.28981
G01 X94.86542 Y2.19740
G01 X94.65404 Y2.14071
G01 X94.43608 Y2.12166
G01 X94.21805 Y2.14071
G01 X94.00669 Y2.19740
G01 X93.80837 Y2.28981
G01 X93.62915 Y2.41534
G01 X93.47446 Y2.57005
G01 X93.34952 Y2.74846
G01 X93.34205 Y2.75786
G01 X93.33357 Y2.76631
G01 X93.28924 Y2.80513
G01 X93.27644 Y2.81468
G01 X93.26224 Y2.82207
G01 X93.24703 Y2.82715
G01 X93.18975 Y2.84109
G01 X93.17403 Y2.84363
G01 X93.15803 Y2.84363
G01 X93.14230 Y2.84109
G01 X93.08503 Y2.82715
G01 X93.06984 Y2.82207
G01 X93.05567 Y2.81470
G01 X93.04286 Y2.80515
G01 X92.99854 Y2.76631
G01 X92.99001 Y2.75786
G01 X92.98254 Y2.74843
G01 X92.85762 Y2.57005
G01 X92.70291 Y2.41534
G01 X92.52369 Y2.28981
G01 X92.32536 Y2.19740
G01 X92.11401 Y2.14071
G01 X91.89603 Y2.12166
G01 X91.67807 Y2.14071
G01 X91.46669 Y2.19740
G01 X91.26839 Y2.28981
G01 X91.08917 Y2.41534
G01 X90.93444 Y2.57005
G01 X90.80949 Y2.74846
G01 X90.80205 Y2.75786
G01 X90.79357 Y2.76631
G01 X90.74927 Y2.80513
G01 X90.73644 Y2.81468
G01 X90.72222 Y2.82207
G01 X90.70705 Y2.82715
G01 X90.64975 Y2.84109
G01 X90.63400 Y2.84363
G01 X90.61803 Y2.84363
G01 X90.60228 Y2.84109
G01 X90.54505 Y2.82715
G01 X90.52986 Y2.82207
G01 X90.51569 Y2.81470
G01 X90.50284 Y2.80515
G01 X90.45852 Y2.76631
G01 X90.44998 Y2.75786
G01 X90.44254 Y2.74843
G01 X90.31765 Y2.57005
G01 X90.16294 Y2.41534
G01 X89.98371 Y2.28981
G01 X89.78539 Y2.19740
G01 X89.57401 Y2.14071
G01 X89.35600 Y2.12166
G01 X89.13805 Y2.14071
G01 X88.92672 Y2.19740
G01 X88.72837 Y2.28981
G01 X88.54915 Y2.41534
G01 X88.39446 Y2.57005
G01 X88.26952 Y2.74846
G01 X88.26208 Y2.75786
G01 X88.25354 Y2.76631
G01 X88.20927 Y2.80513
G01 X88.19642 Y2.81468
G01 X88.18224 Y2.82207
G01 X88.16705 Y2.82715
G01 X88.10978 Y2.84109
G01 X88.09403 Y2.84363
G01 X88.07805 Y2.84363
G01 X88.06230 Y2.84109
G01 X88.00503 Y2.82715
G01 X87.98984 Y2.82207
G01 X87.97567 Y2.81470
G01 X87.96286 Y2.80515
G01 X87.91854 Y2.76631
G01 X87.91001 Y2.75786
G01 X87.90251 Y2.74843
G01 X87.77762 Y2.57005
G01 X87.62291 Y2.41534
G01 X87.44371 Y2.28981
G01 X87.24536 Y2.19740
G01 X87.03401 Y2.14071
G01 X86.81600 Y2.12166
G01 X86.59810 Y2.14071
G01 X86.38669 Y2.19740
G01 X86.18837 Y2.28981
G01 X86.00915 Y2.41534
G01 X85.85446 Y2.57005
G01 X85.72952 Y2.74846
G01 X85.72208 Y2.75786
G01 X85.71354 Y2.76631
G01 X85.66924 Y2.80513
G01 X85.65647 Y2.81468
G01 X85.64224 Y2.82207
G01 X85.62705 Y2.82715
G01 X85.56978 Y2.84109
G01 X85.55400 Y2.84363
G01 X85.53803 Y2.84363
G01 X85.52230 Y2.84109
G01 X85.46505 Y2.82715
G01 X85.44984 Y2.82207
G01 X85.43572 Y2.81470
G01 X85.42286 Y2.80515
G01 X85.37854 Y2.76631
G01 X85.37001 Y2.75786
G01 X85.36256 Y2.74843
G01 X85.23762 Y2.57005
G01 X85.08291 Y2.41534
G01 X84.90371 Y2.28981
G01 X84.70542 Y2.19740
G01 X84.49399 Y2.14071
G01 X84.27600 Y2.12166
G01 X84.05807 Y2.14071
G01 X83.84674 Y2.19740
G01 X83.64837 Y2.28981
G01 X83.46920 Y2.41534
G01 X83.31444 Y2.57005
G01 X83.18952 Y2.74846
G01 X83.18205 Y2.75786
G01 X83.17354 Y2.76631
G01 X83.12929 Y2.80513
G01 X83.11644 Y2.81468
G01 X83.10222 Y2.82207
G01 X83.08703 Y2.82715
G01 X83.02975 Y2.84109
G01 X83.01400 Y2.84363
G01 X82.99808 Y2.84363
G01 X82.98230 Y2.84109
G01 X82.92503 Y2.82715
G01 X82.90984 Y2.82207
G01 X82.89569 Y2.81470
G01 X82.88286 Y2.80515
G01 X82.83852 Y2.76631
G01 X82.83001 Y2.75786
G01 X82.82254 Y2.74843
G01 X82.69762 Y2.57005
G01 X82.54296 Y2.41534
G01 X82.36369 Y2.28981
G01 X82.16539 Y2.19740
G01 X81.95399 Y2.14071
G01 X81.73605 Y2.12166
G01 X81.51807 Y2.14071
G01 X81.30672 Y2.19740
G01 X81.10837 Y2.28981
G01 X80.92917 Y2.41534
G01 X80.77444 Y2.57005
G01 X80.64949 Y2.74846
G01 X80.64205 Y2.75786
G01 X80.63359 Y2.76631
G01 X80.58927 Y2.80513
G01 X80.57642 Y2.81468
G01 X80.56222 Y2.82207
G01 X80.54703 Y2.82715
G01 X80.48975 Y2.84109
G01 X80.47405 Y2.84363
G01 X80.45805 Y2.84363
G01 X80.44228 Y2.84109
G01 X80.38503 Y2.82715
G01 X80.36984 Y2.82207
G01 X80.35569 Y2.81470
G01 X80.34284 Y2.80515
G01 X80.29852 Y2.76631
G01 X80.28998 Y2.75786
G01 X80.28251 Y2.74843
G01 X80.15762 Y2.57005
G01 X80.00294 Y2.41534
G01 X79.82369 Y2.28981
G01 X79.62539 Y2.19740
G01 X79.41404 Y2.14071
G01 X79.19605 Y2.12166
G01 X78.97805 Y2.14071
G01 X78.76672 Y2.19740
G01 X78.56842 Y2.28981
G01 X78.38915 Y2.41534
G01 X78.23444 Y2.57005
G01 X78.10949 Y2.74846
G01 X78.10205 Y2.75786
G01 X78.09359 Y2.76631
G01 X78.04924 Y2.80513
G01 X78.03642 Y2.81468
G01 X78.02222 Y2.82207
G01 X78.00708 Y2.82715
G01 X77.94975 Y2.84109
G01 X77.93403 Y2.84363
G01 X77.91805 Y2.84363
G01 X77.90228 Y2.84109
G01 X77.84508 Y2.82715
G01 X77.82989 Y2.82207
G01 X77.81567 Y2.81470
G01 X77.80284 Y2.80515
G01 X77.75852 Y2.76631
G01 X77.74998 Y2.75786
G01 X77.74251 Y2.74843
G01 X77.61767 Y2.57005
G01 X77.46291 Y2.41534
G01 X77.28374 Y2.28981
G01 X77.08536 Y2.19740
G01 X76.87404 Y2.14071
G01 X76.65603 Y2.12166
G01 X76.43805 Y2.14071
G01 X76.22669 Y2.19740
G01 X76.02839 Y2.28981
G01 X75.84915 Y2.41534
G01 X75.69449 Y2.57005
G01 X75.56954 Y2.74846
G01 X75.56210 Y2.75786
G01 X75.55357 Y2.76631
G01 X75.50924 Y2.80513
G01 X75.49642 Y2.81468
G01 X75.48227 Y2.82207
G01 X75.46708 Y2.82715
G01 X75.40980 Y2.84109
G01 X75.39400 Y2.84363
G01 X75.37803 Y2.84363
G01 X75.36233 Y2.84109
G01 X75.30505 Y2.82715
G01 X75.28986 Y2.82207
G01 X75.27567 Y2.81470
G01 X75.26289 Y2.80515
G01 X75.21857 Y2.76631
G01 X75.21003 Y2.75786
G01 X75.20251 Y2.74843
G01 X75.07765 Y2.57005
G01 X74.92291 Y2.41534
G01 X74.74374 Y2.28981
G01 X74.54536 Y2.19740
G01 X74.33401 Y2.14071
G01 X74.11600 Y2.12166
G01 X73.89807 Y2.14071
G01 X73.68669 Y2.19740
G01 X73.48837 Y2.28981
G01 X73.30915 Y2.41534
G01 X73.15444 Y2.57005
G01 X73.02919 Y2.74894
G01 X73.02177 Y2.75826
G01 X73.01326 Y2.76669
G01 X72.96899 Y2.80556
G01 X72.95611 Y2.81516
G01 X72.94196 Y2.82255
G01 X72.92683 Y2.82758
G01 X72.86950 Y2.84160
G01 X72.85372 Y2.84414
G01 X72.83777 Y2.84414
G01 X72.82192 Y2.84160
G01 X72.76467 Y2.82758
G01 X72.74953 Y2.82255
G01 X72.73534 Y2.81516
G01 X72.72253 Y2.80563
G01 X72.67981 Y2.76812
G01 X72.44740 Y3.00060
G01 X72.44953 Y3.00457
G01 X72.45370 Y3.01338
G01 X72.45700 Y3.02263
G01 X72.50539 Y3.18214
G01 X72.50780 Y3.19161
G01 X72.50925 Y3.20137
G01 X72.52556 Y3.36713
G01 X72.52556 Y3.38679
G01 X72.50925 Y3.55257
G01 X72.50780 Y3.56232
G01 X72.50539 Y3.57180
G01 X72.45700 Y3.73129
G01 X72.44953 Y3.74934
G01 X72.44740 Y3.75336
G01 X72.67981 Y3.98579
G01 X72.72253 Y3.94833
G01 X72.73534 Y3.93878
G01 X72.74953 Y3.93141
G01 X72.76467 Y3.92633
G01 X72.82192 Y3.91236
G01 X72.83777 Y3.90982
G01 X72.85372 Y3.90982
G01 X72.86950 Y3.91236
G01 X72.92683 Y3.92633
G01 X72.94196 Y3.93141
G01 X72.95611 Y3.93878
G01 X72.96899 Y3.94835
G01 X73.01326 Y3.98722
G01 X73.02177 Y3.99565
G01 X73.02919 Y4.00502
G01 X73.15444 Y4.18384
G01 X73.30915 Y4.33852
G01 X73.48753 Y4.46341
G01 X73.49695 Y4.47093
G01 X73.50539 Y4.47947
G01 X73.54425 Y4.52379
G01 X73.55377 Y4.53657
G01 X73.56117 Y4.55071
G01 X73.56619 Y4.56593
G01 X73.58024 Y4.62318
G01 X73.58276 Y4.63893
G01 X73.58276 Y4.65496
G01 X73.58024 Y4.67070
G01 X73.56619 Y4.72803
G01 X73.56117 Y4.74315
G01 X73.55377 Y4.75732
G01 X73.54425 Y4.77015
G01 X73.50536 Y4.81444
G01 X73.49693 Y4.82295
G01 X73.48756 Y4.83045
G01 X73.30915 Y4.95534
G01 X73.15444 Y5.11010
G01 X73.02919 Y5.28889
G01 X73.02177 Y5.29831
G01 X73.01326 Y5.30675
G01 X72.96899 Y5.34561
G01 X72.95611 Y5.35511
G01 X72.94196 Y5.36255
G01 X72.92683 Y5.36758
G01 X72.86950 Y5.38160
G01 X72.85372 Y5.38409
G01 X72.83777 Y5.38409
G01 X72.82192 Y5.38160
G01 X72.76467 Y5.36758
G01 X72.74953 Y5.36255
G01 X72.73534 Y5.35511
G01 X72.72253 Y5.34563
G01 X72.67981 Y5.30817
G01 X72.44740 Y5.54055
G01 X72.44953 Y5.54457
G01 X72.45370 Y5.55343
G01 X72.45700 Y5.56268
G01 X72.50539 Y5.72214
G01 X72.50780 Y5.73161
G01 X72.50925 Y5.74131
G01 X72.52556 Y5.90713
G01 X72.52556 Y5.92673
G01 X72.50925 Y6.09257
G01 X72.50780 Y6.10227
G01 X72.50539 Y6.11185
G01 X72.45700 Y6.27129
G01 X72.44953 Y6.28940
G01 X72.44740 Y6.29331
G01 X72.67981 Y6.52579
G01 X72.72253 Y6.48833
G01 X72.73534 Y6.47878
G01 X72.74953 Y6.47141
G01 X72.76467 Y6.46636
G01 X72.82192 Y6.45234
G01 X72.83777 Y6.44980
G01 X72.85372 Y6.44980
G01 X72.86950 Y6.45234
G01 X72.92683 Y6.46636
G01 X72.94196 Y6.47141
G01 X72.95611 Y6.47878
G01 X72.96899 Y6.48833
G01 X73.01326 Y6.52722
G01 X73.02177 Y6.53565
G01 X73.02919 Y6.54502
G01 X73.15444 Y6.72384
G01 X73.30915 Y6.87855
G01 X73.48837 Y7.00408
G01 X73.68669 Y7.09653
G01 X73.89807 Y7.15317
G01 X74.11600 Y7.17225
G01 X74.33401 Y7.15317
G01 X74.54536 Y7.09653
G01 X74.74374 Y7.00408
G01 X74.92291 Y6.87855
G01 X75.07765 Y6.72384
G01 X75.20251 Y6.54545
G01 X75.21003 Y6.53606
G01 X75.21857 Y6.52762
G01 X75.26289 Y6.48873
G01 X75.27564 Y6.47921
G01 X75.28986 Y6.47182
G01 X75.30498 Y6.46681
G01 X75.36223 Y6.45279
G01 X75.37803 Y6.45023
G01 X75.39400 Y6.45023
G01 X75.40980 Y6.45279
G01 X75.46708 Y6.46681
G01 X75.48227 Y6.47182
G01 X75.49642 Y6.47921
G01 X75.50924 Y6.48879
G01 X75.55357 Y6.52765
G01 X75.56210 Y6.53606
G01 X75.56954 Y6.54545
G01 X75.69449 Y6.72384
G01 X75.84915 Y6.87855
G01 X76.02839 Y7.00408
G01 X76.22669 Y7.09653
G01 X76.43805 Y7.15317
G01 X76.65603 Y7.17225
G01 X76.87404 Y7.15317
G01 X77.08536 Y7.09653
G01 X77.28374 Y7.00408
G01 X77.46291 Y6.87855
G01 X77.61767 Y6.72384
G01 X77.74251 Y6.54545
G01 X77.74998 Y6.53606
G01 X77.75852 Y6.52762
G01 X77.80284 Y6.48873
G01 X77.81567 Y6.47921
G01 X77.82981 Y6.47182
G01 X77.84498 Y6.46681
G01 X77.90225 Y6.45279
G01 X77.91805 Y6.45023
G01 X77.93403 Y6.45023
G01 X77.94983 Y6.45279
G01 X78.00708 Y6.46681
G01 X78.02229 Y6.47182
G01 X78.03642 Y6.47921
G01 X78.04924 Y6.48879
G01 X78.09359 Y6.52765
G01 X78.10205 Y6.53606
G01 X78.10949 Y6.54545
G01 X78.23444 Y6.72384
G01 X78.38915 Y6.87855
G01 X78.56842 Y7.00408
G01 X78.76672 Y7.09653
G01 X78.97805 Y7.15317
G01 X79.19605 Y7.17225
G01 X79.41404 Y7.15317
G01 X79.62539 Y7.09653
G01 X79.82369 Y7.00408
G01 X80.00294 Y6.87855
G01 X80.15762 Y6.72384
G01 X80.28251 Y6.54545
G01 X80.28998 Y6.53606
G01 X80.29852 Y6.52762
G01 X80.34284 Y6.48873
G01 X80.35569 Y6.47921
G01 X80.36981 Y6.47182
G01 X80.38500 Y6.46681
G01 X80.44228 Y6.45279
G01 X80.45805 Y6.45023
G01 X80.47405 Y6.45023
G01 X80.48983 Y6.45279
G01 X80.54711 Y6.46681
G01 X80.56224 Y6.47182
G01 X80.57642 Y6.47921
G01 X80.58927 Y6.48879
G01 X80.63359 Y6.52765
G01 X80.64205 Y6.53606
G01 X80.64949 Y6.54545
G01 X80.77444 Y6.72384
G01 X80.92917 Y6.87855
G01 X81.10837 Y7.00408
G01 X81.30672 Y7.09653
G01 X81.51807 Y7.15317
G01 X81.73605 Y7.17225
G01 X81.95399 Y7.15317
G01 X82.16539 Y7.09653
G01 X82.36369 Y7.00408
G01 X82.54296 Y6.87855
G01 X82.69762 Y6.72384
G01 X82.82254 Y6.54545
G01 X82.83001 Y6.53606
G01 X82.83852 Y6.52762
G01 X82.88286 Y6.48873
G01 X82.89569 Y6.47921
G01 X82.90981 Y6.47182
G01 X82.92503 Y6.46681
G01 X82.98223 Y6.45279
G01 X82.99808 Y6.45023
G01 X83.01400 Y6.45023
G01 X83.02985 Y6.45279
G01 X83.08713 Y6.46681
G01 X83.10224 Y6.47182
G01 X83.11644 Y6.47921
G01 X83.12929 Y6.48879
G01 X83.17354 Y6.52765
G01 X83.18205 Y6.53606
G01 X83.18952 Y6.54545
G01 X83.31444 Y6.72384
G01 X83.46920 Y6.87855
G01 X83.64837 Y7.00408
G01 X83.84674 Y7.09653
G01 X84.05807 Y7.15317
G01 X84.27600 Y7.17225
G01 X84.49399 Y7.15317
G01 X84.70542 Y7.09653
G01 X84.90371 Y7.00408
G01 X85.08291 Y6.87855
G01 X85.23762 Y6.72384
G01 X85.36287 Y6.54502
G01 X85.37031 Y6.53560
G01 X85.37885 Y6.52717
G01 X85.42317 Y6.48833
G01 X85.43594 Y6.47878
G01 X85.45014 Y6.47141
G01 X85.46533 Y6.46636
G01 X85.52253 Y6.45234
G01 X85.53833 Y6.44980
G01 X85.55431 Y6.44980
G01 X85.57016 Y6.45234
G01 X85.62744 Y6.46636
G01 X85.64255 Y6.47141
G01 X85.65677 Y6.47878
G01 X85.66960 Y6.48833
G01 X85.71227 Y6.52579
G01 X85.94468 Y6.29333
G01 X85.94252 Y6.28940
G01 X85.93508 Y6.27129
G01 X85.88664 Y6.11185
G01 X85.88428 Y6.10227
G01 X85.88283 Y6.09257
G01 X85.86653 Y5.92673
G01 X85.86604 Y5.91693
G01 X85.86653 Y5.90713
G01 X85.88283 Y5.74131
G01 X85.88428 Y5.73161
G01 X85.88664 Y5.72214
G01 X85.93508 Y5.56268
G01 X85.94252 Y5.54457
G01 X85.94468 Y5.54053
G01 X85.71227 Y5.30814
G01 X85.66960 Y5.34561
G01 X85.65677 Y5.35511
G01 X85.64255 Y5.36255
G01 X85.62744 Y5.36758
G01 X85.57016 Y5.38160
G01 X85.55431 Y5.38409
G01 X85.53833 Y5.38409
G01 X85.52253 Y5.38160
G01 X85.46533 Y5.36758
G01 X85.45014 Y5.36255
G01 X85.43594 Y5.35511
G01 X85.42317 Y5.34563
G01 X85.37885 Y5.30677
G01 X85.37031 Y5.29834
G01 X85.36287 Y5.28886
G01 X85.23762 Y5.11010
G01 X85.08291 Y4.95534
G01 X84.90450 Y4.83045
G01 X84.89510 Y4.82295
G01 X84.88667 Y4.81442
G01 X84.84781 Y4.77009
G01 X84.83831 Y4.75729
G01 X84.83094 Y4.74312
G01 X84.82586 Y4.72801
G01 X84.81184 Y4.67070
G01 X84.80930 Y4.65496
G01 X84.80930 Y4.63893
G01 X84.81184 Y4.62318
G01 X84.82586 Y4.56593
G01 X84.83094 Y4.55071
G01 X84.83831 Y4.53657
G01 X84.84781 Y4.52379
G01 X84.88667 Y4.47947
G01 X84.89510 Y4.47093
G01 X84.90453 Y4.46341
G01 X85.08291 Y4.33852
G01 X85.23762 Y4.18384
G01 X85.36256 Y4.00545
G01 X85.37001 Y3.99600
G01 X85.37854 Y3.98757
G01 X85.42286 Y3.94871
G01 X85.43564 Y3.93924
G01 X85.44984 Y3.93179
G01 X85.46498 Y3.92679
G01 X85.52223 Y3.91274
G01 X85.53803 Y3.91025
G01 X85.55400 Y3.91025
G01 X85.56980 Y3.91274
G01 X85.62708 Y3.92679
G01 X85.64224 Y3.93179
G01 X85.65647 Y3.93924
G01 X85.66924 Y3.94873
G01 X85.71354 Y3.98760
G01 X85.72208 Y3.99603
G01 X85.72952 Y4.00545
G01 X85.85446 Y4.18384
G01 X86.00915 Y4.33852
G01 X86.18799 Y4.46377
G01 X86.19741 Y4.47119
G01 X86.20584 Y4.47972
G01 X86.24468 Y4.52404
G01 X86.25421 Y4.53685
G01 X86.26165 Y4.55107
G01 X86.26663 Y4.56618
G01 X86.28067 Y4.62343
G01 X86.28321 Y4.63928
G01 X86.28321 Y4.65521
G01 X86.28067 Y4.67106
G01 X86.26663 Y4.72829
G01 X86.26165 Y4.74350
G01 X86.25421 Y4.75767
G01 X86.24468 Y4.77050
G01 X86.20722 Y4.81315
G01 X86.43963 Y5.04556
G01 X86.44364 Y5.04345
G01 X86.45248 Y5.03926
G01 X86.46170 Y5.03596
G01 X86.62116 Y4.98762
G01 X86.64039 Y4.98376
G01 X86.80620 Y4.96743
G01 X86.82581 Y4.96743
G01 X86.99164 Y4.98376
G01 X87.01087 Y4.98762
G01 X87.17033 Y5.03596
G01 X87.17955 Y5.03926
G01 X87.18847 Y5.04345
G01 X87.19241 Y5.04558
G01 X87.42487 Y4.81315
G01 X87.38745 Y4.77050
G01 X87.37785 Y4.75767
G01 X87.37046 Y4.74350
G01 X87.36546 Y4.72829
G01 X87.35143 Y4.67106
G01 X87.34887 Y4.65521
G01 X87.34887 Y4.63928
G01 X87.35143 Y4.62343
G01 X87.36546 Y4.56618
G01 X87.37046 Y4.55107
G01 X87.37785 Y4.53685
G01 X87.38738 Y4.52404
G01 X87.42624 Y4.47972
G01 X87.43467 Y4.47119
G01 X87.44409 Y4.46377
G01 X87.62291 Y4.33852
G01 X87.77762 Y4.18384
G01 X87.90251 Y4.00545
G01 X87.91001 Y3.99600
G01 X87.91854 Y3.98757
G01 X87.96286 Y3.94871
G01 X87.97567 Y3.93924
G01 X87.98984 Y3.93179
G01 X88.00498 Y3.92679
G01 X88.06225 Y3.91274
G01 X88.07805 Y3.91025
G01 X88.09403 Y3.91025
G01 X88.10983 Y3.91274
G01 X88.16708 Y3.92679
G01 X88.18224 Y3.93179
G01 X88.19642 Y3.93924
G01 X88.20927 Y3.94873
G01 X88.25354 Y3.98760
G01 X88.26208 Y3.99603
G01 X88.26952 Y4.00545
G01 X88.39446 Y4.18384
G01 X88.54915 Y4.33852
G01 X88.72753 Y4.46341
G01 X88.73695 Y4.47093
G01 X88.74539 Y4.47947
G01 X88.78427 Y4.52379
G01 X88.79377 Y4.53657
G01 X88.80119 Y4.55071
G01 X88.80619 Y4.56593
G01 X88.82022 Y4.62318
G01 X88.82276 Y4.63893
G01 X88.82276 Y4.65496
G01 X88.82022 Y4.67070
G01 X88.80619 Y4.72803
G01 X88.80119 Y4.74315
G01 X88.79377 Y4.75732
G01 X88.78422 Y4.77015
G01 X88.74539 Y4.81444
G01 X88.73695 Y4.82295
G01 X88.72758 Y4.83045
G01 X88.54915 Y4.95534
G01 X88.39446 Y5.11010
G01 X88.26919 Y5.28889
G01 X88.26177 Y5.29831
G01 X88.25324 Y5.30675
G01 X88.20896 Y5.34561
G01 X88.19611 Y5.35511
G01 X88.18194 Y5.36255
G01 X88.16680 Y5.36758
G01 X88.10952 Y5.38160
G01 X88.09370 Y5.38409
G01 X88.07775 Y5.38409
G01 X88.06192 Y5.38160
G01 X88.00470 Y5.36758
G01 X87.98953 Y5.36255
G01 X87.97536 Y5.35511
G01 X87.96253 Y5.34563
G01 X87.91981 Y5.30817
G01 X87.68740 Y5.54055
G01 X87.68951 Y5.54457
G01 X87.69700 Y5.56268
G01 X87.74536 Y5.72214
G01 X87.74775 Y5.73161
G01 X87.74922 Y5.74131
G01 X87.76556 Y5.90713
G01 X87.76556 Y5.92673
G01 X87.74922 Y6.09257
G01 X87.74775 Y6.10227
G01 X87.74536 Y6.11185
G01 X87.69700 Y6.27129
G01 X87.68951 Y6.28940
G01 X87.68740 Y6.29331
G01 X87.91981 Y6.52579
G01 X87.96253 Y6.48833
G01 X87.97536 Y6.47878
G01 X87.98953 Y6.47141
G01 X88.00470 Y6.46636
G01 X88.06192 Y6.45234
G01 X88.07775 Y6.44980
G01 X88.09370 Y6.44980
G01 X88.10952 Y6.45234
G01 X88.16680 Y6.46636
G01 X88.18194 Y6.47141
G01 X88.19611 Y6.47878
G01 X88.20896 Y6.48833
G01 X88.25324 Y6.52722
G01 X88.26177 Y6.53565
G01 X88.26919 Y6.54502
G01 X88.39446 Y6.72384
G01 X88.54915 Y6.87855
G01 X88.72837 Y7.00408
G01 X88.92672 Y7.09653
G01 X89.13805 Y7.15317
G01 X89.35600 Y7.17225
G01 X89.57401 Y7.15317
G01 X89.78539 Y7.09653
G01 X89.98371 Y7.00408
G01 X90.16294 Y6.87855
G01 X90.31765 Y6.72384
G01 X90.44254 Y6.54545
G01 X90.44998 Y6.53606
G01 X90.45852 Y6.52762
G01 X90.50284 Y6.48873
G01 X90.51564 Y6.47921
G01 X90.52981 Y6.47182
G01 X90.54500 Y6.46681
G01 X90.60223 Y6.45279
G01 X90.61803 Y6.45023
G01 X90.63400 Y6.45023
G01 X90.64980 Y6.45279
G01 X90.70711 Y6.46681
G01 X90.72227 Y6.47182
G01 X90.73644 Y6.47921
G01 X90.74927 Y6.48879
G01 X90.79357 Y6.52765
G01 X90.80205 Y6.53606
G01 X90.80949 Y6.54545
G01 X90.93444 Y6.72384
G01 X91.08917 Y6.87855
G01 X91.26839 Y7.00408
G01 X91.46669 Y7.09653
G01 X91.67807 Y7.15317
G01 X91.89603 Y7.17225
G01 X92.11401 Y7.15317
G01 X92.32536 Y7.09653
G01 X92.52369 Y7.00408
G01 X92.70291 Y6.87855
G01 X92.85762 Y6.72384
G01 X92.98254 Y6.54545
G01 X92.99001 Y6.53606
G01 X92.99854 Y6.52762
G01 X93.04286 Y6.48873
G01 X93.05567 Y6.47921
G01 X93.06984 Y6.47182
G01 X93.08498 Y6.46681
G01 X93.14225 Y6.45279
G01 X93.15803 Y6.45023
G01 X93.17403 Y6.45023
G01 X93.18980 Y6.45279
G01 X93.24708 Y6.46681
G01 X93.26224 Y6.47182
G01 X93.27644 Y6.47921
G01 X93.28924 Y6.48879
G01 X93.33357 Y6.52765
G01 X93.34205 Y6.53606
G01 X93.34952 Y6.54545
G01 X93.47446 Y6.72384
G01 X93.62915 Y6.87855
G01 X93.80837 Y7.00408
G01 X94.00669 Y7.09653
G01 X94.21805 Y7.15317
G01 X94.43608 Y7.17225
G01 X94.65404 Y7.15317
G01 X94.86542 Y7.09653
G01 X95.06374 Y7.00408
G01 X95.24291 Y6.87855
G01 X95.39767 Y6.72384
G01 X95.52317 Y6.54456
G01 X95.61566 Y6.34627
G01 X95.67225 Y6.13489
G01 X95.69130 Y5.91690
G01 X95.67225 Y5.69900
G01 X95.61566 Y5.48759
G01 X95.52317 Y5.28932
G01 X95.39767 Y5.11010
G01 X95.24291 Y4.95534
G01 X95.06450 Y4.83045
G01 X95.05515 Y4.82295
G01 X95.04672 Y4.81442
G01 X95.00786 Y4.77009
G01 X94.99828 Y4.75729
G01 X94.99094 Y4.74312
G01 X94.98591 Y4.72801
G01 X94.97189 Y4.67070
G01 X94.96930 Y4.65496
G01 X94.96930 Y4.63893
G01 X94.97189 Y4.62318
G01 X94.98591 Y4.56593
G01 X94.99094 Y4.55071
G01 X94.99828 Y4.53657
G01 X95.00786 Y4.52379
G01 X95.04672 Y4.47947
G01 X95.05515 Y4.47093
G01 X95.06453 Y4.46341
G01 X95.24291 Y4.33852
G01 X95.39767 Y4.18384
G01 X95.52317 Y4.00454
G01 X95.61566 Y3.80627
G01 X95.67225 Y3.59489
G01 X95.69130 Y3.37696
G01 X95.59130 Y3.37696
G01 X95.59094 Y3.37647
G01 X95.58825 Y3.37350
G01 X95.58825 Y3.38038
G01 X95.58662 Y3.40505
G01 X95.58652 Y3.40629
G01 X95.58680 Y3.40629
G01 X95.58652 Y3.40629
G01 X95.57103 Y3.57292
G01 X95.56988 Y3.57970
G01 X95.57029 Y3.57975
G01 X95.56988 Y3.57970
G01 X95.55878 Y3.62709
G01 X95.55817 Y3.62941
G01 X95.51888 Y3.76730
G01 X95.51916 Y3.76743
G01 X95.51888 Y3.76730
G01 X95.51748 Y3.77144
G01 X95.50915 Y3.79324
G01 X95.50816 Y3.79552
G01 X95.48830 Y3.84066
G01 X95.48731 Y3.84289
G01 X95.43389 Y3.94957
G01 X95.43176 Y3.95343
G01 X95.43217 Y3.95359
G01 X95.43176 Y3.95343
G01 X95.40699 Y3.99379
G01 X95.40565 Y3.99588
G01 X95.37789 Y4.03649
G01 X95.37646 Y4.03845
G01 X95.31881 Y4.11442
G01 X95.31601 Y4.11782
G01 X95.31627 Y4.11803
G01 X95.31601 Y4.11782
G01 X95.26806 Y4.17071
G01 X95.26633 Y4.17251
G01 X95.23156 Y4.20728
G01 X95.22983 Y4.20891
G01 X95.17695 Y4.25686
G01 X95.17357 Y4.25966
G01 X95.17377 Y4.25999
G01 X95.17357 Y4.25966
G01 X95.09760 Y4.31731
G01 X95.09554 Y4.31874
G01 X95.05498 Y4.34652
G01 X95.05292 Y4.34787
G01 X95.00316 Y4.37845
G01 X94.95452 Y4.41249
G01 X94.91995 Y4.43997
G01 X94.91942 Y4.44040
G01 X94.90811 Y4.44914
G01 X94.90766 Y4.44952
G01 X94.87583 Y4.47340
G01 X94.79465 Y4.54640
G01 X94.78129 Y4.56052
G01 X94.77758 Y4.57556
G01 X94.76994 Y4.62298
G01 X94.76994 Y4.67096
G01 X94.77758 Y4.71833
G01 X94.78129 Y4.73339
G01 X94.79465 Y4.74749
G01 X94.87578 Y4.82046
G01 X94.90766 Y4.84441
G01 X94.90811 Y4.84475
G01 X94.91942 Y4.85353
G01 X94.91995 Y4.85389
G01 X94.95452 Y4.88135
G01 X95.00316 Y4.91548
G01 X95.05292 Y4.94602
G01 X95.05498 Y4.94736
G01 X95.09554 Y4.97510
G01 X95.09760 Y4.97652
G01 X95.17359 Y5.03423
G01 X95.17695 Y5.03702
G01 X95.17730 Y5.03652
G01 X95.17695 Y5.03702
G01 X95.22983 Y5.08498
G01 X95.23156 Y5.08660
G01 X95.26633 Y5.12143
G01 X95.26806 Y5.12315
G01 X95.31601 Y5.17606
G01 X95.31881 Y5.17944
G01 X95.37646 Y5.25544
G01 X95.37702 Y5.25496
G01 X95.37646 Y5.25544
G01 X95.37789 Y5.25744
G01 X95.40565 Y5.29801
G01 X95.40699 Y5.30007
G01 X95.43176 Y5.34045
G01 X95.43389 Y5.34431
G01 X95.48731 Y5.45104
G01 X95.48830 Y5.45325
G01 X95.50816 Y5.49839
G01 X95.50875 Y5.49816
G01 X95.50816 Y5.49839
G01 X95.50915 Y5.50073
G01 X95.51748 Y5.52252
G01 X95.51888 Y5.52666
G01 X95.55820 Y5.66445
G01 X95.55881 Y5.66682
G01 X95.56988 Y5.71424
G01 X95.57103 Y5.72094
G01 X95.57141 Y5.72087
G01 X95.57103 Y5.72094
G01 X95.58652 Y5.88764
G01 X95.58662 Y5.88881
G01 X95.58825 Y5.91350
G01 X95.58871 Y5.91350
G01 X95.58825 Y5.91350
G01 X95.58825 Y5.92033
G01 X95.58662 Y5.94500
G01 X95.58652 Y5.94629
G01 X95.57103 Y6.11289
G01 X95.57141 Y6.11297
G01 X95.57103 Y6.11289
G01 X95.56988 Y6.11970
G01 X95.55878 Y6.16707
G01 X95.55817 Y6.16941
G01 X95.51888 Y6.30730
G01 X95.51748 Y6.31144
G01 X95.50915 Y6.33324
G01 X95.50816 Y6.33552
G01 X95.50857 Y6.33560
G01 X95.50816 Y6.33552
G01 X95.48830 Y6.38066
G01 X95.48731 Y6.38287
G01 X95.43389 Y6.48960
G01 X95.43178 Y6.49338
G01 X95.43211 Y6.49359
G01 X95.43178 Y6.49338
G01 X95.40699 Y6.53385
G01 X95.40565 Y6.53590
G01 X95.37789 Y6.57649
G01 X95.37646 Y6.57845
G01 X95.31881 Y6.65447
G01 X95.31919 Y6.65485
G01 X95.31881 Y6.65447
G01 X95.31601 Y6.65785
G01 X95.26806 Y6.71071
G01 X95.26633 Y6.71251
G01 X95.23156 Y6.74728
G01 X95.22983 Y6.74896
G01 X95.17695 Y6.79691
G01 X95.17357 Y6.79971
G01 X95.09760 Y6.85736
G01 X95.09803 Y6.85795
G01 X95.09760 Y6.85736
G01 X95.09554 Y6.85879
G01 X95.05498 Y6.88657
G01 X95.05292 Y6.88790
G01 X95.01251 Y6.91271
G01 X95.00875 Y6.91482
G01 X94.90192 Y6.96819
G01 X94.89971 Y6.96925
G01 X94.85460 Y6.98906
G01 X94.85487 Y6.98965
G01 X94.85460 Y6.98906
G01 X94.85233 Y6.99000
G01 X94.83049 Y6.99839
G01 X94.82638 Y6.99976
G01 X94.68858 Y7.03913
G01 X94.68619 Y7.03971
G01 X94.63875 Y7.05084
G01 X94.63204 Y7.05193
G01 X94.63214 Y7.05246
G01 X94.63204 Y7.05193
G01 X94.46534 Y7.06742
G01 X94.46410 Y7.06752
G01 X94.43943 Y7.06918
G01 X94.43265 Y7.06918
G01 X94.40796 Y7.06752
G01 X94.40674 Y7.06742
G01 X94.40674 Y7.06775
G01 X94.40674 Y7.06742
G01 X94.24009 Y7.05193
G01 X94.23334 Y7.05084
G01 X94.23329 Y7.05119
G01 X94.23334 Y7.05084
G01 X94.18591 Y7.03971
G01 X94.18353 Y7.03913
G01 X94.04573 Y6.99976
G01 X94.04560 Y7.00009
G01 X94.04573 Y6.99976
G01 X94.04159 Y6.99839
G01 X94.01975 Y6.99000
G01 X94.01751 Y6.98906
G01 X93.97243 Y6.96925
G01 X93.97022 Y6.96819
G01 X93.86339 Y6.91482
G01 X93.85960 Y6.91271
G01 X93.85942 Y6.91302
G01 X93.85960 Y6.91271
G01 X93.81924 Y6.88790
G01 X93.81718 Y6.88657
G01 X93.77654 Y6.85879
G01 X93.77451 Y6.85731
G01 X93.69854 Y6.79971
G01 X93.69831 Y6.79999
G01 X93.69854 Y6.79971
G01 X93.69524 Y6.79694
G01 X93.64228 Y6.74896
G01 X93.64047 Y6.74723
G01 X93.60570 Y6.71246
G01 X93.60400 Y6.71071
G01 X93.55610 Y6.65780
G01 X93.55330 Y6.65447
G01 X93.55300 Y6.65470
G01 X93.55330 Y6.65447
G01 X93.49567 Y6.57845
G01 X93.49425 Y6.57644
G01 X93.46646 Y6.53590
G01 X93.46514 Y6.53385
G01 X93.43453 Y6.48406
G01 X93.40050 Y6.43552
G01 X93.37304 Y6.40090
G01 X93.37261 Y6.40037
G01 X93.36392 Y6.38914
G01 X93.36354 Y6.38861
G01 X93.33956 Y6.35673
G01 X93.26659 Y6.27558
G01 X93.25252 Y6.26222
G01 X93.23738 Y6.25853
G01 X93.19001 Y6.25089
G01 X93.14205 Y6.25089
G01 X93.09468 Y6.25853
G01 X93.07959 Y6.26222
G01 X93.06547 Y6.27560
G01 X92.99255 Y6.35673
G01 X92.96857 Y6.38856
G01 X92.96819 Y6.38909
G01 X92.95945 Y6.40037
G01 X92.95907 Y6.40090
G01 X92.93161 Y6.43547
G01 X92.89753 Y6.48411
G01 X92.86697 Y6.53385
G01 X92.86560 Y6.53590
G01 X92.83786 Y6.57649
G01 X92.83644 Y6.57850
G01 X92.77875 Y6.65447
G01 X92.77896 Y6.65465
G01 X92.77875 Y6.65447
G01 X92.77596 Y6.65780
G01 X92.72801 Y6.71071
G01 X92.72635 Y6.71251
G01 X92.69158 Y6.74728
G01 X92.69184 Y6.74754
G01 X92.69158 Y6.74728
G01 X92.68978 Y6.74896
G01 X92.63692 Y6.79691
G01 X92.63352 Y6.79971
G01 X92.55757 Y6.85736
G01 X92.55556 Y6.85879
G01 X92.51492 Y6.88657
G01 X92.51287 Y6.88790
G01 X92.47251 Y6.91271
G01 X92.46872 Y6.91482
G01 X92.46898 Y6.91528
G01 X92.46872 Y6.91482
G01 X92.36194 Y6.96819
G01 X92.35973 Y6.96925
G01 X92.31462 Y6.98906
G01 X92.31236 Y6.99000
G01 X92.29049 Y6.99839
G01 X92.29064 Y6.99872
G01 X92.29049 Y6.99839
G01 X92.28638 Y6.99976
G01 X92.14853 Y7.03913
G01 X92.14619 Y7.03971
G01 X92.09877 Y7.05084
G01 X92.09882 Y7.05119
G01 X92.09877 Y7.05084
G01 X92.09201 Y7.05193
G01 X91.92534 Y7.06742
G01 X91.92412 Y7.06752
G01 X91.89946 Y7.06918
G01 X91.89946 Y7.06958
G01 X91.89946 Y7.06918
G01 X91.89260 Y7.06918
G01 X91.86794 Y7.06752
G01 X91.86669 Y7.06742
G01 X91.70004 Y7.05193
G01 X91.69999 Y7.05236
G01 X91.70004 Y7.05193
G01 X91.69331 Y7.05084
G01 X91.64586 Y7.03971
G01 X91.64355 Y7.03913
G01 X91.50571 Y6.99976
G01 X91.50154 Y6.99839
G01 X91.47972 Y6.99000
G01 X91.47957 Y6.99049
G01 X91.47972 Y6.99000
G01 X91.47746 Y6.98906
G01 X91.43240 Y6.96925
G01 X91.43017 Y6.96819
G01 X91.32336 Y6.91482
G01 X91.31958 Y6.91271
G01 X91.27919 Y6.88790
G01 X91.27713 Y6.88657
G01 X91.27698 Y6.88688
G01 X91.27713 Y6.88657
G01 X91.23652 Y6.85879
G01 X91.23451 Y6.85736
G01 X91.15851 Y6.79971
G01 X91.15519 Y6.79694
G01 X91.15498 Y6.79714
G01 X91.15519 Y6.79694
G01 X91.10228 Y6.74896
G01 X91.10050 Y6.74723
G01 X91.06570 Y6.71246
G01 X91.06403 Y6.71071
G01 X91.01607 Y6.65780
G01 X91.01582 Y6.65808
G01 X91.01607 Y6.65780
G01 X91.01333 Y6.65447
G01 X90.95562 Y6.57845
G01 X90.95420 Y6.57644
G01 X90.92643 Y6.53590
G01 X90.92511 Y6.53385
G01 X90.89456 Y6.48406
G01 X90.86050 Y6.43552
G01 X90.83304 Y6.40090
G01 X90.83263 Y6.40037
G01 X90.82392 Y6.38914
G01 X90.82356 Y6.38861
G01 X90.79954 Y6.35673
G01 X90.72659 Y6.27558
G01 X90.71252 Y6.26222
G01 X90.69735 Y6.25853
G01 X90.64998 Y6.25089
G01 X90.60203 Y6.25089
G01 X90.55471 Y6.25853
G01 X90.53957 Y6.26222
G01 X90.52544 Y6.27560
G01 X90.45252 Y6.35673
G01 X90.42859 Y6.38856
G01 X90.42821 Y6.38909
G01 X90.41948 Y6.40037
G01 X90.41904 Y6.40090
G01 X90.39159 Y6.43547
G01 X90.35750 Y6.48411
G01 X90.32699 Y6.53385
G01 X90.32562 Y6.53590
G01 X90.29783 Y6.57649
G01 X90.29641 Y6.57850
G01 X90.23875 Y6.65447
G01 X90.23898 Y6.65465
G01 X90.23875 Y6.65447
G01 X90.23596 Y6.65780
G01 X90.18801 Y6.71071
G01 X90.18633 Y6.71251
G01 X90.15156 Y6.74728
G01 X90.14980 Y6.74896
G01 X90.15001 Y6.74919
G01 X90.14980 Y6.74896
G01 X90.09690 Y6.79691
G01 X90.09352 Y6.79971
G01 X90.01755 Y6.85736
G01 X90.01554 Y6.85879
G01 X89.97495 Y6.88657
G01 X89.97289 Y6.88790
G01 X89.97317 Y6.88835
G01 X89.97289 Y6.88790
G01 X89.93253 Y6.91271
G01 X89.92870 Y6.91482
G01 X89.82192 Y6.96819
G01 X89.81971 Y6.96925
G01 X89.77459 Y6.98906
G01 X89.77233 Y6.99000
G01 X89.75052 Y6.99839
G01 X89.75067 Y6.99882
G01 X89.75052 Y6.99839
G01 X89.74640 Y6.99976
G01 X89.60853 Y7.03913
G01 X89.60622 Y7.03971
G01 X89.55875 Y7.05084
G01 X89.55885 Y7.05129
G01 X89.55875 Y7.05084
G01 X89.55199 Y7.05193
G01 X89.38537 Y7.06742
G01 X89.38410 Y7.06752
G01 X89.35943 Y7.06918
G01 X89.35262 Y7.06918
G01 X89.32791 Y7.06752
G01 X89.32672 Y7.06742
G01 X89.32672 Y7.06791
G01 X89.32672 Y7.06742
G01 X89.16007 Y7.05193
G01 X89.15329 Y7.05084
G01 X89.10589 Y7.03971
G01 X89.10353 Y7.03913
G01 X89.10348 Y7.03946
G01 X89.10353 Y7.03913
G01 X88.96571 Y6.99976
G01 X88.96157 Y6.99839
G01 X88.93975 Y6.99000
G01 X88.93962 Y6.99028
G01 X88.93975 Y6.99000
G01 X88.93746 Y6.98906
G01 X88.89240 Y6.96925
G01 X88.89019 Y6.96819
G01 X88.78339 Y6.91482
G01 X88.78323 Y6.91512
G01 X88.78339 Y6.91482
G01 X88.77958 Y6.91271
G01 X88.73921 Y6.88790
G01 X88.73779 Y6.88703
G01 X88.70985 Y6.86854
G01 X88.70782 Y6.86712
G01 X88.69512 Y6.85780
G01 X88.69454 Y6.85736
G01 X88.61854 Y6.79971
G01 X88.61516 Y6.79691
G01 X88.56225 Y6.74896
G01 X88.56047 Y6.74723
G01 X88.52573 Y6.71246
G01 X88.52400 Y6.71071
G01 X88.52372 Y6.71093
G01 X88.52400 Y6.71071
G01 X88.47610 Y6.65780
G01 X88.47330 Y6.65447
G01 X88.41564 Y6.57845
G01 X88.41422 Y6.57644
G01 X88.38646 Y6.53590
G01 X88.38514 Y6.53385
G01 X88.35425 Y6.48363
G01 X88.32017 Y6.43499
G01 X88.29306 Y6.40085
G01 X88.29266 Y6.40032
G01 X88.28359 Y6.38856
G01 X88.28321 Y6.38802
G01 X88.25961 Y6.35668
G01 X88.18631 Y6.27499
G01 X88.17239 Y6.26181
G01 X88.15705 Y6.25805
G01 X88.10968 Y6.25041
G01 X88.06172 Y6.25041
G01 X88.01435 Y6.25805
G01 X87.95712 Y6.27210
G01 X87.95100 Y6.27416
G01 X87.94709 Y6.28741
G01 X87.95100 Y6.27416
G01 X87.91585 Y6.23895
G01 X87.90129 Y6.24294
G01 X87.91585 Y6.23895
G01 X87.93678 Y6.16989
G01 X87.94394 Y6.14129
G01 X87.94826 Y6.11218
G01 X87.96459 Y5.94639
G01 X87.96459 Y5.88759
G01 X87.94826 Y5.72171
G01 X87.94394 Y5.69262
G01 X87.93678 Y5.66402
G01 X87.91580 Y5.59496
G01 X87.90025 Y5.59097
G01 X87.91580 Y5.59496
G01 X87.95100 Y5.55981
G01 X87.94709 Y5.54655
G01 X87.95100 Y5.55981
G01 X87.95712 Y5.56179
G01 X88.01435 Y5.57581
G01 X88.06172 Y5.58345
G01 X88.10968 Y5.58345
G01 X88.15705 Y5.57581
G01 X88.17239 Y5.57210
G01 X88.18631 Y5.55887
G01 X88.25961 Y5.47723
G01 X88.28326 Y5.44584
G01 X88.28364 Y5.44525
G01 X88.29266 Y5.43364
G01 X88.29306 Y5.43311
G01 X88.32022 Y5.39882
G01 X88.35425 Y5.35026
G01 X88.38509 Y5.30007
G01 X88.38646 Y5.29801
G01 X88.41422 Y5.25747
G01 X88.41564 Y5.25546
G01 X88.47330 Y5.17944
G01 X88.47610 Y5.17606
G01 X88.52400 Y5.12318
G01 X88.52372 Y5.12298
G01 X88.52400 Y5.12318
G01 X88.52573 Y5.12145
G01 X88.56047 Y5.08663
G01 X88.56225 Y5.08498
G01 X88.61516 Y5.03702
G01 X88.61854 Y5.03423
G01 X88.61834 Y5.03403
G01 X88.61854 Y5.03423
G01 X88.69454 Y4.97655
G01 X88.69649 Y4.97510
G01 X88.73716 Y4.94736
G01 X88.73921 Y4.94602
G01 X88.78892 Y4.91548
G01 X88.83746 Y4.88140
G01 X88.87218 Y4.85386
G01 X88.87269 Y4.85353
G01 X88.88387 Y4.84482
G01 X88.88440 Y4.84449
G01 X88.91628 Y4.82049
G01 X88.99743 Y4.74749
G01 X89.01077 Y4.73339
G01 X89.01447 Y4.71830
G01 X89.02217 Y4.67093
G01 X89.02217 Y4.62298
G01 X89.01447 Y4.57556
G01 X89.01077 Y4.56052
G01 X88.99743 Y4.54640
G01 X88.91623 Y4.47340
G01 X88.88445 Y4.44952
G01 X88.88397 Y4.44914
G01 X88.87269 Y4.44040
G01 X88.87218 Y4.43997
G01 X88.83756 Y4.41249
G01 X88.78892 Y4.37845
G01 X88.73921 Y4.34787
G01 X88.73716 Y4.34652
G01 X88.69649 Y4.31874
G01 X88.69454 Y4.31731
G01 X88.61854 Y4.25966
G01 X88.61839 Y4.25991
G01 X88.61854 Y4.25966
G01 X88.61516 Y4.25686
G01 X88.56225 Y4.20891
G01 X88.56047 Y4.20726
G01 X88.52573 Y4.17248
G01 X88.52547 Y4.17269
G01 X88.52573 Y4.17248
G01 X88.52400 Y4.17071
G01 X88.47610 Y4.11782
G01 X88.47330 Y4.11442
G01 X88.41564 Y4.03842
G01 X88.41422 Y4.03647
G01 X88.38646 Y3.99588
G01 X88.38514 Y3.99379
G01 X88.35456 Y3.94409
G01 X88.32052 Y3.89555
G01 X88.29301 Y3.86090
G01 X88.29261 Y3.86039
G01 X88.28395 Y3.84914
G01 X88.28354 Y3.84858
G01 X88.25956 Y3.81673
G01 X88.18661 Y3.73558
G01 X88.17249 Y3.72224
G01 X88.15738 Y3.71853
G01 X88.11001 Y3.71089
G01 X88.06203 Y3.71089
G01 X88.01465 Y3.71853
G01 X87.99959 Y3.72224
G01 X87.98547 Y3.73560
G01 X87.91252 Y3.81673
G01 X87.88859 Y3.84856
G01 X87.88819 Y3.84909
G01 X87.87950 Y3.86039
G01 X87.87907 Y3.86090
G01 X87.85161 Y3.89550
G01 X87.81753 Y3.94411
G01 X87.78694 Y3.99379
G01 X87.78562 Y3.99588
G01 X87.75786 Y4.03649
G01 X87.75644 Y4.03845
G01 X87.69878 Y4.11442
G01 X87.69898 Y4.11460
G01 X87.69878 Y4.11442
G01 X87.69599 Y4.11782
G01 X87.64803 Y4.17071
G01 X87.64635 Y4.17251
G01 X87.61156 Y4.20728
G01 X87.61178 Y4.20746
G01 X87.61156 Y4.20728
G01 X87.60978 Y4.20891
G01 X87.55692 Y4.25686
G01 X87.55354 Y4.25966
G01 X87.47755 Y4.31731
G01 X87.47556 Y4.31874
G01 X87.43492 Y4.34652
G01 X87.43287 Y4.34787
G01 X87.38270 Y4.37868
G01 X87.33406 Y4.41277
G01 X87.29990 Y4.43995
G01 X87.29936 Y4.44035
G01 X87.28763 Y4.44937
G01 X87.28712 Y4.44983
G01 X87.25575 Y4.47330
G01 X87.17414 Y4.54663
G01 X87.16091 Y4.56057
G01 X87.15718 Y4.57591
G01 X87.14953 Y4.62326
G01 X87.14953 Y4.67119
G01 X87.15718 Y4.71856
G01 X87.17120 Y4.77583
G01 X87.17325 Y4.78193
G01 X87.18463 Y4.78569
G01 X87.17325 Y4.78193
G01 X87.13805 Y4.81714
G01 X87.14199 Y4.83174
G01 X87.13805 Y4.81714
G01 X87.06894 Y4.79618
G01 X87.01125 Y4.78472
G01 X86.84542 Y4.76844
G01 X86.81600 Y4.76700
G01 X86.78662 Y4.76844
G01 X86.62078 Y4.78472
G01 X86.56310 Y4.79618
G01 X86.49406 Y4.81714
G01 X86.49004 Y4.83174
G01 X86.49406 Y4.81714
G01 X86.45885 Y4.78196
G01 X86.44562 Y4.78592
G01 X86.45885 Y4.78196
G01 X86.46091 Y4.77583
G01 X86.47493 Y4.71856
G01 X86.48258 Y4.67119
G01 X86.48258 Y4.62326
G01 X86.47493 Y4.57591
G01 X86.47120 Y4.56057
G01 X86.45796 Y4.54663
G01 X86.37630 Y4.47330
G01 X86.34499 Y4.44983
G01 X86.34443 Y4.44937
G01 X86.33274 Y4.44038
G01 X86.33223 Y4.43997
G01 X86.29802 Y4.41277
G01 X86.24938 Y4.37868
G01 X86.19919 Y4.34787
G01 X86.19713 Y4.34652
G01 X86.15652 Y4.31874
G01 X86.15454 Y4.31731
G01 X86.07854 Y4.25966
G01 X86.07521 Y4.25686
G01 X86.02225 Y4.20891
G01 X86.02050 Y4.20726
G01 X86.02022 Y4.20751
G01 X86.02050 Y4.20726
G01 X85.98570 Y4.17248
G01 X85.98400 Y4.17071
G01 X85.93607 Y4.11782
G01 X85.93330 Y4.11442
G01 X85.87564 Y4.03842
G01 X85.87420 Y4.03647
G01 X85.84643 Y3.99588
G01 X85.84514 Y3.99379
G01 X85.81456 Y3.94409
G01 X85.78052 Y3.89555
G01 X85.75306 Y3.86090
G01 X85.75261 Y3.86039
G01 X85.74395 Y3.84914
G01 X85.74354 Y3.84858
G01 X85.71954 Y3.81673
G01 X85.64659 Y3.73558
G01 X85.63254 Y3.72224
G01 X85.61735 Y3.71853
G01 X85.56998 Y3.71089
G01 X85.52203 Y3.71089
G01 X85.47465 Y3.71853
G01 X85.45957 Y3.72224
G01 X85.44544 Y3.73560
G01 X85.37257 Y3.81673
G01 X85.34857 Y3.84856
G01 X85.34824 Y3.84909
G01 X85.33945 Y3.86039
G01 X85.33904 Y3.86090
G01 X85.31159 Y3.89550
G01 X85.27755 Y3.94411
G01 X85.24694 Y3.99379
G01 X85.24560 Y3.99588
G01 X85.21783 Y4.03649
G01 X85.21644 Y4.03845
G01 X85.15878 Y4.11442
G01 X85.15898 Y4.11460
G01 X85.15878 Y4.11442
G01 X85.15596 Y4.11782
G01 X85.10801 Y4.17071
G01 X85.10633 Y4.17251
G01 X85.07161 Y4.20728
G01 X85.06983 Y4.20891
G01 X85.07003 Y4.20919
G01 X85.06983 Y4.20891
G01 X85.01690 Y4.25686
G01 X85.01354 Y4.25966
G01 X84.93755 Y4.31731
G01 X84.93559 Y4.31874
G01 X84.89498 Y4.34652
G01 X84.89292 Y4.34787
G01 X84.84321 Y4.37845
G01 X84.79457 Y4.41249
G01 X84.75995 Y4.43997
G01 X84.75944 Y4.44040
G01 X84.74811 Y4.44914
G01 X84.74760 Y4.44952
G01 X84.71583 Y4.47340
G01 X84.63465 Y4.54640
G01 X84.62129 Y4.56052
G01 X84.61758 Y4.57556
G01 X84.60994 Y4.62298
G01 X84.60994 Y4.67096
G01 X84.61758 Y4.71833
G01 X84.62129 Y4.73339
G01 X84.63465 Y4.74749
G01 X84.71580 Y4.82046
G01 X84.74760 Y4.84441
G01 X84.74811 Y4.84475
G01 X84.75944 Y4.85353
G01 X84.75995 Y4.85389
G01 X84.79457 Y4.88135
G01 X84.84321 Y4.91548
G01 X84.89292 Y4.94602
G01 X84.89498 Y4.94736
G01 X84.93559 Y4.97510
G01 X84.93755 Y4.97652
G01 X85.01375 Y5.03405
G01 X85.01690 Y5.03702
G01 X85.06983 Y5.08498
G01 X85.07161 Y5.08660
G01 X85.10633 Y5.12143
G01 X85.10801 Y5.12315
G01 X85.10828 Y5.12295
G01 X85.10801 Y5.12315
G01 X85.15596 Y5.17606
G01 X85.15878 Y5.17944
G01 X85.21644 Y5.25546
G01 X85.21783 Y5.25744
G01 X85.24567 Y5.29801
G01 X85.24694 Y5.30007
G01 X85.27783 Y5.35023
G01 X85.31187 Y5.39887
G01 X85.33902 Y5.43311
G01 X85.33942 Y5.43364
G01 X85.34847 Y5.44533
G01 X85.34892 Y5.44591
G01 X85.37247 Y5.47723
G01 X85.44572 Y5.55884
G01 X85.45967 Y5.57210
G01 X85.47496 Y5.57581
G01 X85.52233 Y5.58345
G01 X85.57029 Y5.58345
G01 X85.61766 Y5.57581
G01 X85.67493 Y5.56179
G01 X85.68108 Y5.55981
G01 X85.68502 Y5.54655
G01 X85.68108 Y5.55981
G01 X85.71628 Y5.59493
G01 X85.73180 Y5.59097
G01 X85.71628 Y5.59493
G01 X85.69530 Y5.66402
G01 X85.68814 Y5.69262
G01 X85.68382 Y5.72171
G01 X85.66747 Y5.88759
G01 X85.66607 Y5.91693
G01 X85.66747 Y5.94639
G01 X85.68382 Y6.11218
G01 X85.68814 Y6.14129
G01 X85.69530 Y6.16989
G01 X85.71621 Y6.23895
G01 X85.73180 Y6.24299
G01 X85.71621 Y6.23895
G01 X85.68108 Y6.27416
G01 X85.68502 Y6.28741
G01 X85.68108 Y6.27416
G01 X85.67493 Y6.27210
G01 X85.61766 Y6.25805
G01 X85.57029 Y6.25041
G01 X85.52233 Y6.25041
G01 X85.47496 Y6.25805
G01 X85.45967 Y6.26181
G01 X85.44572 Y6.27502
G01 X85.37247 Y6.35668
G01 X85.34892 Y6.38797
G01 X85.34854 Y6.38851
G01 X85.33942 Y6.40032
G01 X85.33902 Y6.40085
G01 X85.31197 Y6.43494
G01 X85.27783 Y6.48363
G01 X85.24694 Y6.53385
G01 X85.24560 Y6.53590
G01 X85.21783 Y6.57649
G01 X85.21644 Y6.57845
G01 X85.15878 Y6.65447
G01 X85.15898 Y6.65465
G01 X85.15878 Y6.65447
G01 X85.15596 Y6.65780
G01 X85.10801 Y6.71071
G01 X85.10633 Y6.71251
G01 X85.07161 Y6.74728
G01 X85.06983 Y6.74896
G01 X85.07003 Y6.74919
G01 X85.06983 Y6.74896
G01 X85.01690 Y6.79691
G01 X85.01354 Y6.79971
G01 X84.93755 Y6.85736
G01 X84.93559 Y6.85879
G01 X84.89498 Y6.88657
G01 X84.89292 Y6.88790
G01 X84.89315 Y6.88835
G01 X84.89292 Y6.88790
G01 X84.85251 Y6.91271
G01 X84.84870 Y6.91482
G01 X84.74192 Y6.96819
G01 X84.73973 Y6.96925
G01 X84.69462 Y6.98906
G01 X84.69239 Y6.99000
G01 X84.67052 Y6.99839
G01 X84.66640 Y6.99976
G01 X84.66658 Y7.00019
G01 X84.66640 Y6.99976
G01 X84.52853 Y7.03913
G01 X84.52624 Y7.03971
G01 X84.47880 Y7.05084
G01 X84.47882 Y7.05119
G01 X84.47880 Y7.05084
G01 X84.47201 Y7.05193
G01 X84.30534 Y7.06742
G01 X84.30412 Y7.06752
G01 X84.27943 Y7.06918
G01 X84.27265 Y7.06918
G01 X84.27265 Y7.06963
G01 X84.27265 Y7.06918
G01 X84.24794 Y7.06752
G01 X84.24669 Y7.06742
G01 X84.08004 Y7.05193
G01 X84.07329 Y7.05084
G01 X84.07318 Y7.05134
G01 X84.07329 Y7.05084
G01 X84.02591 Y7.03971
G01 X84.02355 Y7.03913
G01 X83.88568 Y6.99976
G01 X83.88157 Y6.99839
G01 X83.85972 Y6.99000
G01 X83.85746 Y6.98906
G01 X83.81243 Y6.96925
G01 X83.81222 Y6.96963
G01 X83.81243 Y6.96925
G01 X83.81017 Y6.96819
G01 X83.70339 Y6.91482
G01 X83.69955 Y6.91271
G01 X83.65924 Y6.88790
G01 X83.65718 Y6.88657
G01 X83.65690 Y6.88693
G01 X83.65718 Y6.88657
G01 X83.61649 Y6.85879
G01 X83.61454 Y6.85736
G01 X83.53851 Y6.79971
G01 X83.53519 Y6.79694
G01 X83.48225 Y6.74896
G01 X83.48047 Y6.74723
G01 X83.48027 Y6.74743
G01 X83.48047 Y6.74723
G01 X83.44575 Y6.71246
G01 X83.44400 Y6.71071
G01 X83.39607 Y6.65780
G01 X83.39330 Y6.65447
G01 X83.33562 Y6.57845
G01 X83.33425 Y6.57644
G01 X83.30643 Y6.53590
G01 X83.30514 Y6.53385
G01 X83.27453 Y6.48406
G01 X83.24050 Y6.43552
G01 X83.21304 Y6.40090
G01 X83.21266 Y6.40037
G01 X83.20392 Y6.38914
G01 X83.20354 Y6.38861
G01 X83.17954 Y6.35673
G01 X83.10664 Y6.27558
G01 X83.09252 Y6.26222
G01 X83.07735 Y6.25853
G01 X83.02998 Y6.25089
G01 X82.98203 Y6.25089
G01 X82.93465 Y6.25853
G01 X82.91957 Y6.26222
G01 X82.90544 Y6.27560
G01 X82.83255 Y6.35673
G01 X82.80862 Y6.38856
G01 X82.80821 Y6.38909
G01 X82.79950 Y6.40037
G01 X82.79909 Y6.40090
G01 X82.77164 Y6.43547
G01 X82.73752 Y6.48411
G01 X82.70694 Y6.53385
G01 X82.70565 Y6.53590
G01 X82.67789 Y6.57649
G01 X82.67641 Y6.57850
G01 X82.61875 Y6.65447
G01 X82.61896 Y6.65465
G01 X82.61875 Y6.65447
G01 X82.61601 Y6.65780
G01 X82.56806 Y6.71071
G01 X82.56633 Y6.71251
G01 X82.53158 Y6.74728
G01 X82.53181 Y6.74754
G01 X82.53158 Y6.74728
G01 X82.52980 Y6.74896
G01 X82.47695 Y6.79691
G01 X82.47352 Y6.79971
G01 X82.39755 Y6.85736
G01 X82.39556 Y6.85879
G01 X82.35495 Y6.88657
G01 X82.35289 Y6.88790
G01 X82.31251 Y6.91271
G01 X82.30870 Y6.91482
G01 X82.30898 Y6.91528
G01 X82.30870 Y6.91482
G01 X82.20192 Y6.96819
G01 X82.19973 Y6.96925
G01 X82.15462 Y6.98906
G01 X82.15236 Y6.99000
G01 X82.13049 Y6.99839
G01 X82.13062 Y6.99872
G01 X82.13049 Y6.99839
G01 X82.12638 Y6.99976
G01 X81.98858 Y7.03913
G01 X81.98624 Y7.03971
G01 X81.93877 Y7.05084
G01 X81.93887 Y7.05119
G01 X81.93877 Y7.05084
G01 X81.93199 Y7.05193
G01 X81.76539 Y7.06742
G01 X81.76412 Y7.06752
G01 X81.73943 Y7.06918
G01 X81.73262 Y7.06918
G01 X81.73262 Y7.06963
G01 X81.73262 Y7.06918
G01 X81.70791 Y7.06752
G01 X81.70674 Y7.06742
G01 X81.54004 Y7.05193
G01 X81.53329 Y7.05084
G01 X81.53326 Y7.05124
G01 X81.53329 Y7.05084
G01 X81.48589 Y7.03971
G01 X81.48355 Y7.03913
G01 X81.34568 Y6.99976
G01 X81.34154 Y6.99839
G01 X81.31977 Y6.99000
G01 X81.31751 Y6.98906
G01 X81.31723 Y6.98965
G01 X81.31751 Y6.98906
G01 X81.27240 Y6.96925
G01 X81.27017 Y6.96819
G01 X81.16336 Y6.91482
G01 X81.15955 Y6.91271
G01 X81.11921 Y6.88790
G01 X81.11716 Y6.88657
G01 X81.07649 Y6.85879
G01 X81.07451 Y6.85736
G01 X81.07410 Y6.85790
G01 X81.07451 Y6.85736
G01 X80.99851 Y6.79971
G01 X80.99516 Y6.79694
G01 X80.94230 Y6.74896
G01 X80.94047 Y6.74723
G01 X80.90573 Y6.71246
G01 X80.90400 Y6.71071
G01 X80.85612 Y6.65780
G01 X80.85561 Y6.65823
G01 X80.85612 Y6.65780
G01 X80.85330 Y6.65447
G01 X80.79562 Y6.57845
G01 X80.79422 Y6.57644
G01 X80.76649 Y6.53590
G01 X80.76511 Y6.53385
G01 X80.73453 Y6.48406
G01 X80.70050 Y6.43552
G01 X80.67301 Y6.40090
G01 X80.67263 Y6.40037
G01 X80.66392 Y6.38914
G01 X80.66354 Y6.38861
G01 X80.63959 Y6.35673
G01 X80.56661 Y6.27558
G01 X80.55249 Y6.26222
G01 X80.53740 Y6.25853
G01 X80.49003 Y6.25089
G01 X80.44208 Y6.25089
G01 X80.39471 Y6.25853
G01 X80.37962 Y6.26222
G01 X80.36550 Y6.27560
G01 X80.29252 Y6.35673
G01 X80.26859 Y6.38856
G01 X80.26821 Y6.38909
G01 X80.25948 Y6.40037
G01 X80.25909 Y6.40090
G01 X80.23164 Y6.43547
G01 X80.19750 Y6.48411
G01 X80.16699 Y6.53385
G01 X80.16562 Y6.53590
G01 X80.13789 Y6.57649
G01 X80.13641 Y6.57850
G01 X80.07875 Y6.65447
G01 X80.07896 Y6.65465
G01 X80.07875 Y6.65447
G01 X80.07599 Y6.65780
G01 X80.02803 Y6.71071
G01 X80.02638 Y6.71251
G01 X79.99156 Y6.74728
G01 X79.99186 Y6.74754
G01 X79.99156 Y6.74728
G01 X79.98980 Y6.74896
G01 X79.93695 Y6.79691
G01 X79.93352 Y6.79971
G01 X79.85760 Y6.85736
G01 X79.85554 Y6.85879
G01 X79.81495 Y6.88657
G01 X79.81289 Y6.88790
G01 X79.77251 Y6.91271
G01 X79.76875 Y6.91482
G01 X79.76898 Y6.91528
G01 X79.76875 Y6.91482
G01 X79.66197 Y6.96819
G01 X79.65971 Y6.96925
G01 X79.61459 Y6.98906
G01 X79.61233 Y6.99000
G01 X79.59049 Y6.99839
G01 X79.59067 Y6.99872
G01 X79.59049 Y6.99839
G01 X79.58638 Y6.99976
G01 X79.44856 Y7.03913
G01 X79.44622 Y7.03971
G01 X79.39875 Y7.05084
G01 X79.39885 Y7.05119
G01 X79.39875 Y7.05084
G01 X79.39199 Y7.05193
G01 X79.22537 Y7.06742
G01 X79.22410 Y7.06752
G01 X79.19948 Y7.06918
G01 X79.19948 Y7.06958
G01 X79.19948 Y7.06918
G01 X79.19262 Y7.06918
G01 X79.16791 Y7.06752
G01 X79.16672 Y7.06742
G01 X79.00004 Y7.05193
G01 X79.00002 Y7.05236
G01 X79.00004 Y7.05193
G01 X78.99334 Y7.05084
G01 X78.94589 Y7.03971
G01 X78.94353 Y7.03913
G01 X78.80573 Y6.99976
G01 X78.80154 Y6.99839
G01 X78.77975 Y6.99000
G01 X78.77749 Y6.98906
G01 X78.77723 Y6.98965
G01 X78.77749 Y6.98906
G01 X78.73238 Y6.96925
G01 X78.73017 Y6.96819
G01 X78.62336 Y6.91482
G01 X78.61960 Y6.91271
G01 X78.57921 Y6.88790
G01 X78.57716 Y6.88657
G01 X78.53654 Y6.85879
G01 X78.53449 Y6.85736
G01 X78.53410 Y6.85795
G01 X78.53449 Y6.85736
G01 X78.45851 Y6.79971
G01 X78.45516 Y6.79694
G01 X78.40230 Y6.74896
G01 X78.40053 Y6.74723
G01 X78.36573 Y6.71246
G01 X78.36405 Y6.71071
G01 X78.31610 Y6.65780
G01 X78.31561 Y6.65823
G01 X78.31610 Y6.65780
G01 X78.31335 Y6.65447
G01 X78.25562 Y6.57845
G01 X78.25422 Y6.57644
G01 X78.22646 Y6.53590
G01 X78.22511 Y6.53385
G01 X78.19458 Y6.48406
G01 X78.16050 Y6.43552
G01 X78.13301 Y6.40090
G01 X78.13261 Y6.40037
G01 X78.12392 Y6.38914
G01 X78.12359 Y6.38861
G01 X78.09956 Y6.35673
G01 X78.02661 Y6.27558
G01 X78.01249 Y6.26222
G01 X77.99738 Y6.25853
G01 X77.95001 Y6.25089
G01 X77.90205 Y6.25089
G01 X77.85468 Y6.25853
G01 X77.83959 Y6.26222
G01 X77.82547 Y6.27560
G01 X77.75252 Y6.35673
G01 X77.72857 Y6.38856
G01 X77.72819 Y6.38909
G01 X77.71945 Y6.40037
G01 X77.71907 Y6.40090
G01 X77.69161 Y6.43547
G01 X77.65750 Y6.48411
G01 X77.62697 Y6.53385
G01 X77.62560 Y6.53590
G01 X77.59786 Y6.57649
G01 X77.59641 Y6.57850
G01 X77.53875 Y6.65447
G01 X77.53599 Y6.65780
G01 X77.53627 Y6.65808
G01 X77.53599 Y6.65780
G01 X77.48803 Y6.71071
G01 X77.48635 Y6.71251
G01 X77.45156 Y6.74728
G01 X77.44978 Y6.74896
G01 X77.39692 Y6.79691
G01 X77.39712 Y6.79714
G01 X77.39692 Y6.79691
G01 X77.39352 Y6.79971
G01 X77.31757 Y6.85736
G01 X77.31554 Y6.85879
G01 X77.27492 Y6.88657
G01 X77.27287 Y6.88790
G01 X77.27307 Y6.88820
G01 X77.27287 Y6.88790
G01 X77.23256 Y6.91271
G01 X77.22872 Y6.91482
G01 X77.12194 Y6.96819
G01 X77.11971 Y6.96925
G01 X77.07460 Y6.98906
G01 X77.07477 Y6.98944
G01 X77.07460 Y6.98906
G01 X77.07233 Y6.99000
G01 X77.05054 Y6.99839
G01 X77.04643 Y6.99976
G01 X76.90856 Y7.03913
G01 X76.90866 Y7.03956
G01 X76.90856 Y7.03913
G01 X76.90619 Y7.03971
G01 X76.85875 Y7.05084
G01 X76.85199 Y7.05193
G01 X76.68534 Y7.06742
G01 X76.68410 Y7.06752
G01 X76.65946 Y7.06918
G01 X76.65260 Y7.06918
G01 X76.62791 Y7.06752
G01 X76.62791 Y7.06801
G01 X76.62791 Y7.06752
G01 X76.62669 Y7.06742
G01 X76.46009 Y7.05193
G01 X76.45331 Y7.05084
G01 X76.45323 Y7.05119
G01 X76.45331 Y7.05084
G01 X76.40586 Y7.03971
G01 X76.40353 Y7.03913
G01 X76.26573 Y6.99976
G01 X76.26553 Y7.00019
G01 X76.26573 Y6.99976
G01 X76.26159 Y6.99839
G01 X76.23972 Y6.99000
G01 X76.23749 Y6.98906
G01 X76.19238 Y6.96925
G01 X76.19022 Y6.96819
G01 X76.08341 Y6.91482
G01 X76.07960 Y6.91271
G01 X76.03919 Y6.88790
G01 X76.03899 Y6.88825
G01 X76.03919 Y6.88790
G01 X76.03713 Y6.88657
G01 X75.99652 Y6.85879
G01 X75.99449 Y6.85736
G01 X75.91856 Y6.79971
G01 X75.91516 Y6.79694
G01 X75.86228 Y6.74896
G01 X75.86050 Y6.74723
G01 X75.82570 Y6.71246
G01 X75.82403 Y6.71071
G01 X75.77607 Y6.65780
G01 X75.77579 Y6.65808
G01 X75.77607 Y6.65780
G01 X75.77333 Y6.65447
G01 X75.71567 Y6.57845
G01 X75.71420 Y6.57644
G01 X75.68643 Y6.53590
G01 X75.68516 Y6.53385
G01 X75.65458 Y6.48406
G01 X75.62055 Y6.43552
G01 X75.59301 Y6.40090
G01 X75.59261 Y6.40037
G01 X75.58397 Y6.38914
G01 X75.58356 Y6.38861
G01 X75.55954 Y6.35673
G01 X75.48659 Y6.27558
G01 X75.47249 Y6.26222
G01 X75.45735 Y6.25853
G01 X75.40998 Y6.25089
G01 X75.36205 Y6.25089
G01 X75.31468 Y6.25853
G01 X75.29957 Y6.26222
G01 X75.28544 Y6.27560
G01 X75.21252 Y6.35673
G01 X75.18857 Y6.38856
G01 X75.18819 Y6.38909
G01 X75.17945 Y6.40037
G01 X75.17904 Y6.40090
G01 X75.15159 Y6.43547
G01 X75.11755 Y6.48411
G01 X75.08697 Y6.53385
G01 X75.08560 Y6.53590
G01 X75.05783 Y6.57649
G01 X75.05646 Y6.57850
G01 X74.99881 Y6.65447
G01 X74.99901 Y6.65465
G01 X74.99881 Y6.65447
G01 X74.99596 Y6.65780
G01 X74.94801 Y6.71071
G01 X74.94633 Y6.71251
G01 X74.91156 Y6.74728
G01 X74.91181 Y6.74754
G01 X74.91156 Y6.74728
G01 X74.90978 Y6.74896
G01 X74.85690 Y6.79691
G01 X74.85357 Y6.79971
G01 X74.77757 Y6.85736
G01 X74.77559 Y6.85879
G01 X74.73492 Y6.88657
G01 X74.73287 Y6.88790
G01 X74.69253 Y6.91271
G01 X74.68872 Y6.91482
G01 X74.68900 Y6.91528
G01 X74.68872 Y6.91482
G01 X74.58192 Y6.96819
G01 X74.57973 Y6.96925
G01 X74.53462 Y6.98906
G01 X74.53236 Y6.99000
G01 X74.51054 Y6.99839
G01 X74.51069 Y6.99872
G01 X74.51054 Y6.99839
G01 X74.50638 Y6.99976
G01 X74.36856 Y7.03913
G01 X74.36624 Y7.03971
G01 X74.31875 Y7.05084
G01 X74.31887 Y7.05119
G01 X74.31875 Y7.05084
G01 X74.31201 Y7.05193
G01 X74.14534 Y7.06742
G01 X74.14412 Y7.06752
G01 X74.11943 Y7.06918
G01 X74.11265 Y7.06918
G01 X74.11265 Y7.06963
G01 X74.11265 Y7.06918
G01 X74.08791 Y7.06752
G01 X74.08672 Y7.06742
G01 X73.92007 Y7.05193
G01 X73.91329 Y7.05084
G01 X73.91321 Y7.05140
G01 X73.91329 Y7.05084
G01 X73.86591 Y7.03971
G01 X73.86353 Y7.03913
G01 X73.72571 Y6.99976
G01 X73.72154 Y6.99839
G01 X73.69972 Y6.99000
G01 X73.69746 Y6.98906
G01 X73.65243 Y6.96925
G01 X73.65017 Y6.96819
G01 X73.65001 Y6.96862
G01 X73.65017 Y6.96819
G01 X73.54341 Y6.91482
G01 X73.53958 Y6.91271
G01 X73.49919 Y6.88790
G01 X73.49906 Y6.88815
G01 X73.49919 Y6.88790
G01 X73.49782 Y6.88703
G01 X73.46980 Y6.86849
G01 X73.46779 Y6.86712
G01 X73.45512 Y6.85780
G01 X73.45451 Y6.85736
G01 X73.37854 Y6.79971
G01 X73.37834 Y6.79994
G01 X73.37854 Y6.79971
G01 X73.37519 Y6.79691
G01 X73.32225 Y6.74896
G01 X73.32048 Y6.74723
G01 X73.28570 Y6.71246
G01 X73.28400 Y6.71071
G01 X73.23607 Y6.65780
G01 X73.23333 Y6.65447
G01 X73.23300 Y6.65470
G01 X73.23333 Y6.65447
G01 X73.17567 Y6.57845
G01 X73.17425 Y6.57644
G01 X73.14648 Y6.53590
G01 X73.14511 Y6.53385
G01 X73.11425 Y6.48363
G01 X73.08017 Y6.43499
G01 X73.05309 Y6.40085
G01 X73.05268 Y6.40032
G01 X73.04359 Y6.38856
G01 X73.04323 Y6.38802
G01 X73.01964 Y6.35668
G01 X72.94631 Y6.27499
G01 X72.93239 Y6.26181
G01 X72.91707 Y6.25805
G01 X72.86970 Y6.25041
G01 X72.82172 Y6.25041
G01 X72.77435 Y6.25805
G01 X72.71710 Y6.27210
G01 X72.71100 Y6.27416
G01 X72.70709 Y6.28741
G01 X72.71100 Y6.27416
G01 X72.67582 Y6.23895
G01 X72.66129 Y6.24294
G01 X72.67582 Y6.23895
G01 X72.69675 Y6.16989
G01 X72.70394 Y6.14129
G01 X72.70826 Y6.11218
G01 X72.72457 Y5.94639
G01 X72.72457 Y5.88759
G01 X72.70826 Y5.72171
G01 X72.70394 Y5.69262
G01 X72.69675 Y5.66402
G01 X72.67582 Y5.59496
G01 X72.66028 Y5.59097
G01 X72.67582 Y5.59496
G01 X72.71100 Y5.55981
G01 X72.70709 Y5.54655
G01 X72.71100 Y5.55981
G01 X72.71710 Y5.56179
G01 X72.77435 Y5.57581
G01 X72.82172 Y5.58345
G01 X72.86970 Y5.58345
G01 X72.91707 Y5.57581
G01 X72.93239 Y5.57210
G01 X72.94631 Y5.55887
G01 X73.01964 Y5.47723
G01 X73.04323 Y5.44584
G01 X73.04364 Y5.44525
G01 X73.05263 Y5.43364
G01 X73.05304 Y5.43311
G01 X73.08024 Y5.39882
G01 X73.11425 Y5.35026
G01 X73.14511 Y5.30007
G01 X73.14648 Y5.29801
G01 X73.17425 Y5.25747
G01 X73.17567 Y5.25546
G01 X73.23333 Y5.17944
G01 X73.23607 Y5.17606
G01 X73.28400 Y5.12318
G01 X73.28372 Y5.12298
G01 X73.28400 Y5.12318
G01 X73.28570 Y5.12145
G01 X73.32048 Y5.08663
G01 X73.32225 Y5.08498
G01 X73.37519 Y5.03702
G01 X73.37854 Y5.03423
G01 X73.37834 Y5.03403
G01 X73.37854 Y5.03423
G01 X73.45451 Y4.97655
G01 X73.45649 Y4.97510
G01 X73.49713 Y4.94736
G01 X73.49919 Y4.94602
G01 X73.54890 Y4.91548
G01 X73.59751 Y4.88140
G01 X73.63221 Y4.85386
G01 X73.63267 Y4.85353
G01 X73.64387 Y4.84482
G01 X73.64440 Y4.84449
G01 X73.67628 Y4.82049
G01 X73.75746 Y4.74749
G01 X73.77077 Y4.73339
G01 X73.77453 Y4.71830
G01 X73.78212 Y4.67093
G01 X73.78212 Y4.62298
G01 X73.77453 Y4.57556
G01 X73.77077 Y4.56052
G01 X73.75746 Y4.54640
G01 X73.67623 Y4.47340
G01 X73.64448 Y4.44952
G01 X73.64399 Y4.44914
G01 X73.63267 Y4.44040
G01 X73.63221 Y4.43997
G01 X73.59756 Y4.41249
G01 X73.54890 Y4.37845
G01 X73.49919 Y4.34787
G01 X73.49782 Y4.34698
G01 X73.46980 Y4.32852
G01 X73.46779 Y4.32712
G01 X73.45512 Y4.31782
G01 X73.45451 Y4.31731
G01 X73.37854 Y4.25966
G01 X73.37519 Y4.25686
G01 X73.32225 Y4.20891
G01 X73.32048 Y4.20726
G01 X73.28570 Y4.17248
G01 X73.28545 Y4.17274
G01 X73.28570 Y4.17248
G01 X73.28400 Y4.17071
G01 X73.23607 Y4.11782
G01 X73.23333 Y4.11442
G01 X73.17562 Y4.03842
G01 X73.17425 Y4.03647
G01 X73.14648 Y3.99588
G01 X73.14511 Y3.99379
G01 X73.11425 Y3.94363
G01 X73.08024 Y3.89506
G01 X73.05309 Y3.86080
G01 X73.05268 Y3.86034
G01 X73.04364 Y3.84861
G01 X73.04323 Y3.84807
G01 X73.01964 Y3.81668
G01 X72.94631 Y3.73504
G01 X72.93239 Y3.72181
G01 X72.91707 Y3.71810
G01 X72.86970 Y3.71041
G01 X72.82172 Y3.71041
G01 X72.77435 Y3.71810
G01 X72.71710 Y3.73212
G01 X72.71100 Y3.73416
G01 X72.70709 Y3.74741
G01 X72.71100 Y3.73416
G01 X72.67582 Y3.69895
G01 X72.66129 Y3.70289
G01 X72.67582 Y3.69895
G01 X72.69675 Y3.62989
G01 X72.70394 Y3.60129
G01 X72.70826 Y3.57221
G01 X72.72457 Y3.40639
G01 X72.72457 Y3.34754
G01 X72.70826 Y3.18171
G01 X72.70394 Y3.15260
G01 X72.69675 Y3.12405
G01 X72.67582 Y3.05498
G01 X72.66028 Y3.05097
G01 X72.67582 Y3.05498
G01 X72.71100 Y3.01976
G01 X72.70709 Y3.00655
G01 X72.71100 Y3.01976
G01 X72.71710 Y3.02184
G01 X72.77435 Y3.03586
G01 X72.82172 Y3.04345
G01 X72.86970 Y3.04345
G01 X72.91707 Y3.03586
G01 X72.93239 Y3.03207
G01 X72.94631 Y3.01892
G01 X73.01964 Y2.93726
G01 X73.04323 Y2.90584
G01 X73.04364 Y2.90525
G01 X73.05263 Y2.89359
G01 X73.05304 Y2.89311
G01 X73.08024 Y2.85887
G01 X73.11425 Y2.81031
G01 X73.14511 Y2.76007
G01 X73.14648 Y2.75806
G01 X73.17425 Y2.71742
G01 X73.17567 Y2.71546
G01 X73.23333 Y2.63942
G01 X73.23607 Y2.63611
G01 X73.28400 Y2.58323
G01 X73.28372 Y2.58298
G01 X73.28400 Y2.58323
G01 X73.28570 Y2.58145
G01 X73.32048 Y2.54668
G01 X73.32225 Y2.54495
G01 X73.37519 Y2.49702
G01 X73.37854 Y2.49420
G01 X73.37834 Y2.49405
G01 X73.37854 Y2.49420
G01 X73.45451 Y2.43660
G01 X73.45517 Y2.43606
G01 X73.46779 Y2.42684
G01 X73.46978 Y2.42545
G01 X73.49777 Y2.40688
G01 X73.49919 Y2.40602
G01 X73.53958 Y2.38117
G01 X73.53945 Y2.38092
G01 X73.53958 Y2.38117
G01 X73.54341 Y2.37904
G01 X73.65017 Y2.32573
G01 X73.65243 Y2.32466
G01 X73.69754 Y2.30485
G01 X73.69980 Y2.30388
G01 X73.69965 Y2.30355
G01 X73.69980 Y2.30388
G01 X73.72154 Y2.29552
G01 X73.72571 Y2.29420
G01 X73.86358 Y2.25481
G01 X73.86350 Y2.25445
G01 X73.86358 Y2.25481
G01 X73.86591 Y2.25417
G01 X73.91329 Y2.24312
G01 X73.92007 Y2.24203
G01 X74.08672 Y2.22654
G01 X74.08791 Y2.22639
G01 X74.11265 Y2.22476
G01 X74.11265 Y2.22420
G01 X74.11265 Y2.22476
G01 X74.11943 Y2.22476
G01 X74.14412 Y2.22639
G01 X74.14534 Y2.22654
G01 X74.31201 Y2.24203
G01 X74.31875 Y2.24312
G01 X74.31887 Y2.24274
G01 X74.31875 Y2.24312
G01 X74.36617 Y2.25417
G01 X74.36850 Y2.25483
G01 X74.50643 Y2.29420
G01 X74.50658 Y2.29370
G01 X74.50643 Y2.29420
G01 X74.51054 Y2.29552
G01 X74.53228 Y2.30388
G01 X74.53462 Y2.30482
G01 X74.57973 Y2.32466
G01 X74.58192 Y2.32573
G01 X74.68872 Y2.37904
G01 X74.69253 Y2.38117
G01 X74.73287 Y2.40602
G01 X74.73492 Y2.40736
G01 X74.73513 Y2.40703
G01 X74.73492 Y2.40736
G01 X74.77559 Y2.43510
G01 X74.77757 Y2.43652
G01 X74.85357 Y2.49420
G01 X74.85690 Y2.49702
G01 X74.85710 Y2.49677
G01 X74.85690 Y2.49702
G01 X74.90978 Y2.54495
G01 X74.91156 Y2.54665
G01 X74.94633 Y2.58138
G01 X74.94801 Y2.58315
G01 X74.99596 Y2.63611
G01 X74.99627 Y2.63586
G01 X74.99596 Y2.63611
G01 X74.99881 Y2.63942
G01 X75.05646 Y2.71546
G01 X75.05783 Y2.71739
G01 X75.08562 Y2.75806
G01 X75.08697 Y2.76007
G01 X75.11755 Y2.80977
G01 X75.15159 Y2.85841
G01 X75.17907 Y2.89309
G01 X75.17945 Y2.89354
G01 X75.18819 Y2.90482
G01 X75.18857 Y2.90540
G01 X75.21252 Y2.93723
G01 X75.28555 Y3.01841
G01 X75.29957 Y3.03169
G01 X75.31478 Y3.03543
G01 X75.36205 Y3.04300
G01 X75.40998 Y3.04300
G01 X75.45725 Y3.03543
G01 X75.47257 Y3.03169
G01 X75.48649 Y3.01843
G01 X75.55954 Y2.93723
G01 X75.58356 Y2.90528
G01 X75.58397 Y2.90482
G01 X75.59261 Y2.89354
G01 X75.59299 Y2.89309
G01 X75.62055 Y2.85836
G01 X75.65458 Y2.80987
G01 X75.68509 Y2.76007
G01 X75.68643 Y2.75806
G01 X75.71420 Y2.71742
G01 X75.71567 Y2.71546
G01 X75.77333 Y2.63942
G01 X75.77607 Y2.63611
G01 X75.77579 Y2.63586
G01 X75.77607 Y2.63611
G01 X75.82403 Y2.58323
G01 X75.82570 Y2.58145
G01 X75.86050 Y2.54668
G01 X75.86228 Y2.54495
G01 X75.91516 Y2.49702
G01 X75.91503 Y2.49674
G01 X75.91516 Y2.49702
G01 X75.91856 Y2.49420
G01 X75.99456 Y2.43660
G01 X75.99652 Y2.43510
G01 X76.03713 Y2.40736
G01 X76.03919 Y2.40602
G01 X76.03899 Y2.40568
G01 X76.03919 Y2.40602
G01 X76.07960 Y2.38117
G01 X76.08341 Y2.37904
G01 X76.19022 Y2.32573
G01 X76.19238 Y2.32466
G01 X76.23749 Y2.30485
G01 X76.23982 Y2.30388
G01 X76.26159 Y2.29552
G01 X76.26573 Y2.29420
G01 X76.26553 Y2.29370
G01 X76.26573 Y2.29420
G01 X76.40360 Y2.25481
G01 X76.40597 Y2.25417
G01 X76.45331 Y2.24312
G01 X76.45323 Y2.24277
G01 X76.45331 Y2.24312
G01 X76.46009 Y2.24203
G01 X76.62669 Y2.22654
G01 X76.62791 Y2.22639
G01 X76.65260 Y2.22476
G01 X76.65260 Y2.22428
G01 X76.65260 Y2.22476
G01 X76.65946 Y2.22476
G01 X76.68410 Y2.22639
G01 X76.68534 Y2.22654
G01 X76.85199 Y2.24203
G01 X76.85875 Y2.24312
G01 X76.85882 Y2.24274
G01 X76.85875 Y2.24312
G01 X76.90619 Y2.25417
G01 X76.90856 Y2.25483
G01 X77.04643 Y2.29420
G01 X77.04655 Y2.29370
G01 X77.04643 Y2.29420
G01 X77.05054 Y2.29552
G01 X77.07231 Y2.30388
G01 X77.07457 Y2.30485
G01 X77.11968 Y2.32466
G01 X77.12194 Y2.32573
G01 X77.22872 Y2.37907
G01 X77.23256 Y2.38117
G01 X77.27287 Y2.40602
G01 X77.27492 Y2.40736
G01 X77.27513 Y2.40703
G01 X77.27492 Y2.40736
G01 X77.31554 Y2.43510
G01 X77.31757 Y2.43652
G01 X77.39359 Y2.49420
G01 X77.39692 Y2.49702
G01 X77.39712 Y2.49677
G01 X77.39692 Y2.49702
G01 X77.44978 Y2.54495
G01 X77.45156 Y2.54665
G01 X77.48635 Y2.58138
G01 X77.48803 Y2.58315
G01 X77.53599 Y2.63611
G01 X77.53627 Y2.63586
G01 X77.53599 Y2.63611
G01 X77.53875 Y2.63942
G01 X77.59641 Y2.71546
G01 X77.59786 Y2.71739
G01 X77.62562 Y2.75806
G01 X77.62697 Y2.76007
G01 X77.65750 Y2.80977
G01 X77.69161 Y2.85841
G01 X77.71907 Y2.89309
G01 X77.71945 Y2.89354
G01 X77.72819 Y2.90482
G01 X77.72857 Y2.90540
G01 X77.75252 Y2.93723
G01 X77.82557 Y3.01841
G01 X77.83959 Y3.03169
G01 X77.85478 Y3.03543
G01 X77.90205 Y3.04300
G01 X77.95001 Y3.04300
G01 X77.99728 Y3.03543
G01 X78.01252 Y3.03169
G01 X78.02651 Y3.01843
G01 X78.09956 Y2.93723
G01 X78.12359 Y2.90528
G01 X78.12392 Y2.90482
G01 X78.13261 Y2.89354
G01 X78.13301 Y2.89309
G01 X78.16050 Y2.85836
G01 X78.19458 Y2.80987
G01 X78.22509 Y2.76007
G01 X78.22646 Y2.75806
G01 X78.25422 Y2.71742
G01 X78.25570 Y2.71546
G01 X78.31335 Y2.63942
G01 X78.31610 Y2.63611
G01 X78.31579 Y2.63586
G01 X78.31610 Y2.63611
G01 X78.36405 Y2.58323
G01 X78.36573 Y2.58145
G01 X78.40053 Y2.54668
G01 X78.40230 Y2.54495
G01 X78.45516 Y2.49702
G01 X78.45498 Y2.49674
G01 X78.45516 Y2.49702
G01 X78.45851 Y2.49420
G01 X78.53451 Y2.43660
G01 X78.53654 Y2.43510
G01 X78.57716 Y2.40736
G01 X78.57921 Y2.40602
G01 X78.57901 Y2.40568
G01 X78.57921 Y2.40602
G01 X78.61960 Y2.38117
G01 X78.62336 Y2.37904
G01 X78.73017 Y2.32573
G01 X78.73238 Y2.32466
G01 X78.77749 Y2.30485
G01 X78.77977 Y2.30388
G01 X78.80154 Y2.29552
G01 X78.80573 Y2.29420
G01 X78.80555 Y2.29370
G01 X78.80573 Y2.29420
G01 X78.94355 Y2.25481
G01 X78.94597 Y2.25417
G01 X78.99334 Y2.24312
G01 X78.99323 Y2.24277
G01 X78.99334 Y2.24312
G01 X79.00004 Y2.24203
G01 X79.16672 Y2.22654
G01 X79.16791 Y2.22639
G01 X79.19262 Y2.22476
G01 X79.19262 Y2.22428
G01 X79.19262 Y2.22476
G01 X79.19948 Y2.22476
G01 X79.22410 Y2.22639
G01 X79.22537 Y2.22654
G01 X79.39199 Y2.24203
G01 X79.39875 Y2.24312
G01 X79.39885 Y2.24274
G01 X79.39875 Y2.24312
G01 X79.44614 Y2.25417
G01 X79.44856 Y2.25483
G01 X79.58638 Y2.29420
G01 X79.58655 Y2.29370
G01 X79.58638 Y2.29420
G01 X79.59057 Y2.29552
G01 X79.61233 Y2.30388
G01 X79.61459 Y2.30485
G01 X79.65971 Y2.32466
G01 X79.66197 Y2.32573
G01 X79.76875 Y2.37907
G01 X79.77251 Y2.38117
G01 X79.81289 Y2.40602
G01 X79.81495 Y2.40736
G01 X79.81513 Y2.40703
G01 X79.81495 Y2.40736
G01 X79.85554 Y2.43510
G01 X79.85760 Y2.43652
G01 X79.93359 Y2.49420
G01 X79.93695 Y2.49702
G01 X79.93712 Y2.49677
G01 X79.93695 Y2.49702
G01 X79.98980 Y2.54495
G01 X79.99156 Y2.54665
G01 X80.02638 Y2.58138
G01 X80.02803 Y2.58315
G01 X80.07599 Y2.63611
G01 X80.07629 Y2.63586
G01 X80.07599 Y2.63611
G01 X80.07875 Y2.63942
G01 X80.13641 Y2.71546
G01 X80.13789 Y2.71739
G01 X80.16562 Y2.75806
G01 X80.16699 Y2.76007
G01 X80.19750 Y2.80977
G01 X80.23164 Y2.85841
G01 X80.25909 Y2.89309
G01 X80.25948 Y2.89354
G01 X80.26821 Y2.90482
G01 X80.26859 Y2.90540
G01 X80.29252 Y2.93723
G01 X80.36560 Y3.01841
G01 X80.37954 Y3.03169
G01 X80.39481 Y3.03543
G01 X80.44208 Y3.04300
G01 X80.48996 Y3.04300
G01 X80.53722 Y3.03543
G01 X80.55252 Y3.03169
G01 X80.56654 Y3.01843
G01 X80.63959 Y2.93723
G01 X80.66354 Y2.90528
G01 X80.66392 Y2.90482
G01 X80.67263 Y2.89354
G01 X80.67301 Y2.89309
G01 X80.70050 Y2.85836
G01 X80.73453 Y2.80987
G01 X80.76511 Y2.76007
G01 X80.76649 Y2.75806
G01 X80.79422 Y2.71742
G01 X80.79569 Y2.71546
G01 X80.85330 Y2.63942
G01 X80.85612 Y2.63611
G01 X80.85582 Y2.63586
G01 X80.85612 Y2.63611
G01 X80.90400 Y2.58323
G01 X80.90573 Y2.58145
G01 X80.94047 Y2.54668
G01 X80.94230 Y2.54495
G01 X80.99516 Y2.49702
G01 X80.99498 Y2.49674
G01 X80.99516 Y2.49702
G01 X80.99851 Y2.49420
G01 X81.07451 Y2.43660
G01 X81.07649 Y2.43510
G01 X81.11716 Y2.40736
G01 X81.11921 Y2.40602
G01 X81.11904 Y2.40568
G01 X81.11921 Y2.40602
G01 X81.15955 Y2.38117
G01 X81.16336 Y2.37904
G01 X81.27017 Y2.32573
G01 X81.27240 Y2.32466
G01 X81.31751 Y2.30485
G01 X81.31977 Y2.30388
G01 X81.34154 Y2.29552
G01 X81.34568 Y2.29420
G01 X81.34555 Y2.29370
G01 X81.34568 Y2.29420
G01 X81.48355 Y2.25481
G01 X81.48591 Y2.25417
G01 X81.53329 Y2.24312
G01 X81.53326 Y2.24277
G01 X81.53329 Y2.24312
G01 X81.54004 Y2.24203
G01 X81.70674 Y2.22654
G01 X81.70791 Y2.22639
G01 X81.73262 Y2.22476
G01 X81.73262 Y2.22428
G01 X81.73262 Y2.22476
G01 X81.73943 Y2.22476
G01 X81.76412 Y2.22639
G01 X81.76539 Y2.22654
G01 X81.93199 Y2.24203
G01 X81.93877 Y2.24312
G01 X81.93887 Y2.24274
G01 X81.93877 Y2.24312
G01 X81.98614 Y2.25417
G01 X81.98850 Y2.25483
G01 X82.12638 Y2.29420
G01 X82.12655 Y2.29370
G01 X82.12638 Y2.29420
G01 X82.13052 Y2.29552
G01 X82.15228 Y2.30388
G01 X82.15462 Y2.30485
G01 X82.19973 Y2.32466
G01 X82.20192 Y2.32573
G01 X82.30870 Y2.37907
G01 X82.31251 Y2.38117
G01 X82.35289 Y2.40602
G01 X82.35495 Y2.40736
G01 X82.35515 Y2.40703
G01 X82.35495 Y2.40736
G01 X82.39556 Y2.43510
G01 X82.39755 Y2.43652
G01 X82.47354 Y2.49420
G01 X82.47695 Y2.49702
G01 X82.47707 Y2.49677
G01 X82.47695 Y2.49702
G01 X82.52980 Y2.54495
G01 X82.53158 Y2.54665
G01 X82.56633 Y2.58138
G01 X82.56806 Y2.58315
G01 X82.61601 Y2.63611
G01 X82.61632 Y2.63586
G01 X82.61601 Y2.63611
G01 X82.61875 Y2.63942
G01 X82.67641 Y2.71546
G01 X82.67789 Y2.71739
G01 X82.70565 Y2.75806
G01 X82.70694 Y2.76007
G01 X82.73752 Y2.80977
G01 X82.77164 Y2.85841
G01 X82.79909 Y2.89309
G01 X82.79950 Y2.89354
G01 X82.80821 Y2.90482
G01 X82.80862 Y2.90540
G01 X82.83255 Y2.93723
G01 X82.90560 Y3.01841
G01 X82.91954 Y3.03169
G01 X82.93483 Y3.03543
G01 X82.98210 Y3.04300
G01 X83.02996 Y3.04300
G01 X83.07722 Y3.03543
G01 X83.09252 Y3.03169
G01 X83.10654 Y3.01843
G01 X83.17954 Y2.93723
G01 X83.20354 Y2.90528
G01 X83.20392 Y2.90482
G01 X83.21266 Y2.89354
G01 X83.21304 Y2.89309
G01 X83.24050 Y2.85836
G01 X83.27453 Y2.80987
G01 X83.30514 Y2.76007
G01 X83.30643 Y2.75806
G01 X83.33425 Y2.71742
G01 X83.33564 Y2.71546
G01 X83.39330 Y2.63942
G01 X83.39607 Y2.63611
G01 X83.39584 Y2.63586
G01 X83.39607 Y2.63611
G01 X83.44400 Y2.58323
G01 X83.44575 Y2.58145
G01 X83.48047 Y2.54668
G01 X83.48225 Y2.54495
G01 X83.53519 Y2.49702
G01 X83.53498 Y2.49674
G01 X83.53519 Y2.49702
G01 X83.53851 Y2.49420
G01 X83.61454 Y2.43660
G01 X83.61649 Y2.43510
G01 X83.65718 Y2.40736
G01 X83.65924 Y2.40602
G01 X83.65899 Y2.40568
G01 X83.65924 Y2.40602
G01 X83.69955 Y2.38117
G01 X83.70339 Y2.37904
G01 X83.81017 Y2.32573
G01 X83.81243 Y2.32466
G01 X83.85754 Y2.30485
G01 X83.85980 Y2.30388
G01 X83.88157 Y2.29552
G01 X83.88568 Y2.29420
G01 X83.88558 Y2.29370
G01 X83.88568 Y2.29420
G01 X84.02355 Y2.25481
G01 X84.02591 Y2.25417
G01 X84.07329 Y2.24312
G01 X84.07329 Y2.24277
G01 X84.07329 Y2.24312
G01 X84.08004 Y2.24203
G01 X84.24669 Y2.22654
G01 X84.24794 Y2.22639
G01 X84.27265 Y2.22476
G01 X84.27265 Y2.22428
G01 X84.27265 Y2.22476
G01 X84.27943 Y2.22476
G01 X84.30412 Y2.22639
G01 X84.30534 Y2.22654
G01 X84.47201 Y2.24203
G01 X84.47880 Y2.24312
G01 X84.47882 Y2.24274
G01 X84.47880 Y2.24312
G01 X84.52614 Y2.25417
G01 X84.52850 Y2.25483
G01 X84.66640 Y2.29420
G01 X84.66658 Y2.29370
G01 X84.66640 Y2.29420
G01 X84.67052 Y2.29552
G01 X84.69228 Y2.30388
G01 X84.69457 Y2.30485
G01 X84.73968 Y2.32466
G01 X84.74192 Y2.32573
G01 X84.84870 Y2.37907
G01 X84.85251 Y2.38117
G01 X84.89292 Y2.40602
G01 X84.89498 Y2.40736
G01 X84.89518 Y2.40703
G01 X84.89498 Y2.40736
G01 X84.93559 Y2.43510
G01 X84.93755 Y2.43652
G01 X85.01354 Y2.49420
G01 X85.01690 Y2.49702
G01 X85.01707 Y2.49677
G01 X85.01690 Y2.49702
G01 X85.06983 Y2.54495
G01 X85.07161 Y2.54665
G01 X85.10633 Y2.58138
G01 X85.10801 Y2.58315
G01 X85.15596 Y2.63611
G01 X85.15627 Y2.63586
G01 X85.15596 Y2.63611
G01 X85.15878 Y2.63942
G01 X85.21644 Y2.71546
G01 X85.21783 Y2.71739
G01 X85.24567 Y2.75806
G01 X85.24694 Y2.76007
G01 X85.27755 Y2.80977
G01 X85.31159 Y2.85841
G01 X85.33912 Y2.89309
G01 X85.33945 Y2.89354
G01 X85.34824 Y2.90482
G01 X85.34857 Y2.90540
G01 X85.37257 Y2.93723
G01 X85.44555 Y3.01841
G01 X85.45954 Y3.03169
G01 X85.47478 Y3.03543
G01 X85.52205 Y3.04300
G01 X85.56998 Y3.04300
G01 X85.61725 Y3.03543
G01 X85.63254 Y3.03169
G01 X85.64649 Y3.01843
G01 X85.71954 Y2.93723
G01 X85.74354 Y2.90528
G01 X85.74395 Y2.90482
G01 X85.75261 Y2.89354
G01 X85.75299 Y2.89309
G01 X85.78052 Y2.85836
G01 X85.81456 Y2.80987
G01 X85.84514 Y2.76007
G01 X85.84643 Y2.75806
G01 X85.87420 Y2.71742
G01 X85.87564 Y2.71546
G01 X85.93330 Y2.63942
G01 X85.93607 Y2.63611
G01 X85.93579 Y2.63586
G01 X85.93607 Y2.63611
G01 X85.98400 Y2.58323
G01 X85.98570 Y2.58145
G01 X86.02050 Y2.54668
G01 X86.02225 Y2.54495
G01 X86.07521 Y2.49702
G01 X86.07501 Y2.49674
G01 X86.07521 Y2.49702
G01 X86.07854 Y2.49420
G01 X86.15454 Y2.43660
G01 X86.15652 Y2.43510
G01 X86.19713 Y2.40736
G01 X86.19919 Y2.40602
G01 X86.19899 Y2.40568
G01 X86.19919 Y2.40602
G01 X86.23958 Y2.38117
G01 X86.24339 Y2.37904
G01 X86.35019 Y2.32573
G01 X86.35238 Y2.32466
G01 X86.39749 Y2.30485
G01 X86.39982 Y2.30388
G01 X86.42159 Y2.29552
G01 X86.42571 Y2.29420
G01 X86.42553 Y2.29370
G01 X86.42571 Y2.29420
G01 X86.56358 Y2.25481
G01 X86.56594 Y2.25417
G01 X86.61331 Y2.24312
G01 X86.61323 Y2.24277
G01 X86.61331 Y2.24312
G01 X86.62007 Y2.24203
G01 X86.78669 Y2.22654
G01 X86.78796 Y2.22639
G01 X86.81260 Y2.22476
G01 X86.81260 Y2.22428
G01 X86.81260 Y2.22476
G01 X86.81943 Y2.22476
G01 X86.84415 Y2.22639
G01 X86.84534 Y2.22654
G01 X87.01204 Y2.24203
G01 X87.01880 Y2.24312
G01 X87.01882 Y2.24274
G01 X87.01880 Y2.24312
G01 X87.06617 Y2.25417
G01 X87.06853 Y2.25483
G01 X87.20640 Y2.29420
G01 X87.20660 Y2.29370
G01 X87.20640 Y2.29420
G01 X87.21052 Y2.29552
G01 X87.23231 Y2.30388
G01 X87.23457 Y2.30485
G01 X87.27968 Y2.32466
G01 X87.28192 Y2.32573
G01 X87.38870 Y2.37907
G01 X87.39251 Y2.38117
G01 X87.43287 Y2.40602
G01 X87.43492 Y2.40736
G01 X87.43513 Y2.40703
G01 X87.43492 Y2.40736
G01 X87.47556 Y2.43510
G01 X87.47755 Y2.43652
G01 X87.55354 Y2.49420
G01 X87.55692 Y2.49702
G01 X87.55707 Y2.49677
G01 X87.55692 Y2.49702
G01 X87.60978 Y2.54495
G01 X87.61156 Y2.54665
G01 X87.64635 Y2.58138
G01 X87.64803 Y2.58315
G01 X87.69599 Y2.63611
G01 X87.69627 Y2.63586
G01 X87.69599 Y2.63611
G01 X87.69878 Y2.63942
G01 X87.75644 Y2.71546
G01 X87.75786 Y2.71739
G01 X87.78562 Y2.75806
G01 X87.78694 Y2.76007
G01 X87.81753 Y2.80977
G01 X87.85161 Y2.85841
G01 X87.87907 Y2.89309
G01 X87.87950 Y2.89354
G01 X87.88819 Y2.90482
G01 X87.88859 Y2.90540
G01 X87.91252 Y2.93723
G01 X87.98557 Y3.01841
G01 X87.99954 Y3.03169
G01 X88.01483 Y3.03543
G01 X88.06205 Y3.04300
G01 X88.11001 Y3.04300
G01 X88.15722 Y3.03543
G01 X88.17254 Y3.03169
G01 X88.18651 Y3.01843
G01 X88.25956 Y2.93723
G01 X88.28354 Y2.90528
G01 X88.28395 Y2.90482
G01 X88.29261 Y2.89354
G01 X88.29301 Y2.89309
G01 X88.32052 Y2.85836
G01 X88.35456 Y2.80987
G01 X88.38509 Y2.76007
G01 X88.38646 Y2.75806
G01 X88.41422 Y2.71742
G01 X88.41564 Y2.71546
G01 X88.47330 Y2.63942
G01 X88.47610 Y2.63611
G01 X88.47582 Y2.63586
G01 X88.47610 Y2.63611
G01 X88.52400 Y2.58323
G01 X88.52573 Y2.58145
G01 X88.56047 Y2.54668
G01 X88.56225 Y2.54495
G01 X88.61516 Y2.49702
G01 X88.61501 Y2.49674
G01 X88.61516 Y2.49702
G01 X88.61854 Y2.49420
G01 X88.69454 Y2.43660
G01 X88.69649 Y2.43510
G01 X88.73716 Y2.40736
G01 X88.73921 Y2.40602
G01 X88.73901 Y2.40568
G01 X88.73921 Y2.40602
G01 X88.77958 Y2.38117
G01 X88.78339 Y2.37904
G01 X88.89019 Y2.32573
G01 X88.89240 Y2.32466
G01 X88.93751 Y2.30485
