( pcb2gcode 2.5.0 )
( Software-independent Gcode )

G94 ( Millimeters per minute feed rate. )
G21 ( Units == Millimeters. )

G90 ( Absolute coordinates. )
G00 S10000 ( RPM spindle speed. )
G64 P0.01000 ( set maximum deviation from commanded toolpath )
G01 F300.00000 ( Feedrate. )


G00 Z30.00000 (Retract to tool change height)
T1
M5      (Spindle stop.)
G04 P1.00000 (Wait for spindle to stop)
(MSG, Change tool bit to mill diameter 0.20000mm)
M6      (Tool change.)
M0      (Temporary machine stop.)
M3 ( Spindle on clockwise. )
G04 P1.00000 (Wait for spindle to get up to speed)
G04 P0 ( dwell for no time -- G64 should not smooth over this point )
G00 Z5.00000 ( retract )

G00 X99.99954 Y0.32446 ( rapid move to begin. )
G01 F150.00000
( Mill infeed pass 1/1 )
G01 Z-0.05000
G04 P0 ( dwell for no time -- G64 should not smooth over this point )
G01 F300.00000
G01 X99.99954 Y0.32446
G01 X99.99782 Y0.29837
G01 X99.99274 Y0.27272
G01 X99.97615 Y0.21069
G01 X99.96419 Y0.17795
G01 X99.94676 Y0.14775
G01 X99.92436 Y0.12106
G01 X99.87894 Y0.07564
G01 X99.85225 Y0.05324
G01 X99.82205 Y0.03581
G01 X99.78931 Y0.02385
G01 X99.72728 Y0.00726
G01 X99.70163 Y0.00218
G01 X99.67554 Y0.00046
G01 X0.32456 Y0.00046
G01 X0.29842 Y0.00218
G01 X0.27277 Y0.00726
G01 X0.21077 Y0.02385
G01 X0.17800 Y0.03581
G01 X0.14782 Y0.05324
G01 X0.12110 Y0.07564
G01 X0.07577 Y0.12106
G01 X0.05331 Y0.14775
G01 X0.03589 Y0.17795
G01 X0.02395 Y0.21069
G01 X0.00734 Y0.27272
G01 X0.00223 Y0.29837
G01 X0.00056 Y0.32446
G01 X0.00056 Y69.67548
G01 X0.00223 Y69.70154
G01 X0.00734 Y69.72722
G01 X0.02395 Y69.78919
G01 X0.03589 Y69.82193
G01 X0.05331 Y69.85218
G01 X0.07577 Y69.87883
G01 X0.12110 Y69.92427
G01 X0.14782 Y69.94670
G01 X0.17800 Y69.96412
G01 X0.21077 Y69.97601
G01 X0.27277 Y69.99262
G01 X0.29842 Y69.99770
G01 X0.32456 Y69.99948
G01 X99.67554 Y69.99948
G01 X99.70163 Y69.99770
G01 X99.72728 Y69.99262
G01 X99.78931 Y69.97601
G01 X99.82205 Y69.96412
G01 X99.85225 Y69.94670
G01 X99.87894 Y69.92427
G01 X99.92436 Y69.87883
G01 X99.94676 Y69.85218
G01 X99.96419 Y69.82193
G01 X99.97615 Y69.78919
G01 X99.99274 Y69.72722
G01 X99.99782 Y69.70154
G01 X99.99954 Y69.67548
G01 X99.99954 Y0.32446
G01 X99.89954 Y0.32446
G01 X99.89954 Y69.67548
G01 X99.89868 Y69.68848
G01 X99.89616 Y69.70131
G01 X99.87955 Y69.76334
G01 X99.87361 Y69.77972
G01 X99.86485 Y69.79483
G01 X99.85367 Y69.80814
G01 X99.80823 Y69.85356
G01 X99.79489 Y69.86478
G01 X99.77978 Y69.87349
G01 X99.76340 Y69.87941
G01 X99.70140 Y69.89602
G01 X99.68860 Y69.89862
G01 X99.67554 Y69.89948
G01 X0.32456 Y69.89948
G01 X0.31148 Y69.89862
G01 X0.29865 Y69.89602
G01 X0.23667 Y69.87941
G01 X0.22029 Y69.87349
G01 X0.20520 Y69.86478
G01 X0.19182 Y69.85356
G01 X0.14645 Y69.80814
G01 X0.13523 Y69.79483
G01 X0.12651 Y69.77972
G01 X0.12055 Y69.76334
G01 X0.10393 Y69.70131
G01 X0.10142 Y69.68848
G01 X0.10053 Y69.67548
G01 X0.10053 Y0.32446
G01 X0.10142 Y0.31140
G01 X0.10393 Y0.29860
G01 X0.12055 Y0.23660
G01 X0.12651 Y0.22022
G01 X0.13523 Y0.20511
G01 X0.14645 Y0.19177
G01 X0.19182 Y0.14633
G01 X0.20520 Y0.13515
G01 X0.22029 Y0.12639
G01 X0.23667 Y0.12045
G01 X0.29865 Y0.10384
G01 X0.31148 Y0.10132
G01 X0.32456 Y0.10046
G01 X99.67554 Y0.10046
G01 X99.68860 Y0.10132
G01 X99.70140 Y0.10384
G01 X99.76340 Y0.12045
G01 X99.77978 Y0.12639
G01 X99.79489 Y0.13515
G01 X99.80823 Y0.14633
G01 X99.85367 Y0.19177
G01 X99.86485 Y0.20511
G01 X99.87361 Y0.22022
G01 X99.87955 Y0.23660
G01 X99.89616 Y0.29860
G01 X99.89868 Y0.31140
G01 X99.89954 Y0.32446
G04 P0 ( dwell for no time -- G64 should not smooth over this point )
G00 Z5.00000 ( retract )

G00 X95.69130 Y3.37696 ( rapid move to begin. )
G01 F150.00000
( Mill infeed pass 1/1 )
G01 Z-0.05000
G04 P0 ( dwell for no time -- G64 should not smooth over this point )
G01 F300.00000
G01 X95.69130 Y3.37696
G01 X95.67225 Y3.15895
G01 X95.61566 Y2.94759
G01 X95.52317 Y2.74932
G01 X95.39767 Y2.57005
G01 X95.24291 Y2.41534
G01 X95.06374 Y2.28981
G01 X94.86542 Y2.19740
G01 X94.65404 Y2.14071
G01 X94.43608 Y2.12166
G01 X94.21805 Y2.14071
G01 X94.00669 Y2.19740
G01 X93.80837 Y2.28981
G01 X93.62915 Y2.41534
G01 X93.47446 Y2.57005
G01 X93.34952 Y2.74846
G01 X93.34205 Y2.75786
G01 X93.33357 Y2.76631
G01 X93.28924 Y2.80513
G01 X93.27644 Y2.81468
G01 X93.26224 Y2.82207
G01 X93.24703 Y2.82715
G01 X93.18975 Y2.84109
G01 X93.17403 Y2.84363
G01 X93.15803 Y2.84363
G01 X93.14230 Y2.84109
G01 X93.08503 Y2.82715
G01 X93.06984 Y2.82207
G01 X93.05567 Y2.81470
G01 X93.04286 Y2.80515
G01 X92.99854 Y2.76631
G01 X92.99001 Y2.75786
G01 X92.98254 Y2.74843
G01 X92.85762 Y2.57005
G01 X92.70291 Y2.41534
G01 X92.52369 Y2.28981
G01 X92.32536 Y2.19740
G01 X92.11401 Y2.14071
G01 X91.89603 Y2.12166
G01 X91.67807 Y2.14071
G01 X91.46669 Y2.19740
G01 X91.26839 Y2.28981
G01 X91.08917 Y2.41534
G01 X90.93444 Y2.57005
G01 X90.80949 Y2.74846
G01 X90.80205 Y2.75786
G01 X90.79357 Y2.76631
G01 X90.74927 Y2.80513
G01 X90.73644 Y2.81468
G01 X90.72222 Y2.82207
G01 X90.70705 Y2.82715
G01 X90.64975 Y2.84109
G01 X90.63400 Y2.84363
G01 X90.61803 Y2.84363
G01 X90.60228 Y2.84109
G01 X90.54505 Y2.82715
G01 X90.52986 Y2.82207
G01 X90.51569 Y2.81470
G01 X90.50284 Y2.80515
G01 X90.45852 Y2.76631
G01 X90.44998 Y2.75786
G01 X90.44254 Y2.74843
G01 X90.31765 Y2.57005
G01 X90.16294 Y2.41534
G01 X89.98371 Y2.28981
G01 X89.78539 Y2.19740
G01 X89.57401 Y2.14071
G01 X89.35600 Y2.12166
G01 X89.13805 Y2.14071
G01 X88.92672 Y2.19740
G01 X88.72837 Y2.28981
G01 X88.54915 Y2.41534
G01 X88.39446 Y2.57005
G01 X88.26952 Y2.74846
G01 X88.26208 Y2.75786
G01 X88.25354 Y2.76631
G01 X88.20927 Y2.80513
G01 X88.19642 Y2.81468
G01 X88.18224 Y2.82207
G01 X88.16705 Y2.82715
G01 X88.10978 Y2.84109
G01 X88.09403 Y2.84363
G01 X88.07805 Y2.84363
G01 X88.06230 Y2.84109
G01 X88.00503 Y2.82715
G01 X87.98984 Y2.82207
G01 X87.97567 Y2.81470
G01 X87.96286 Y2.80515
G01 X87.91854 Y2.76631
G01 X87.91001 Y2.75786
G01 X87.90251 Y2.74843
G01 X87.77762 Y2.57005
G01 X87.62291 Y2.41534
G01 X87.44371 Y2.28981
G01 X87.24536 Y2.19740
G01 X87.03401 Y2.14071
G01 X86.81600 Y2.12166
G01 X86.59810 Y2.14071
G01 X86.38669 Y2.19740
G01 X86.18837 Y2.28981
G01 X86.00915 Y2.41534
G01 X85.85446 Y2.57005
G01 X85.72952 Y2.74846
G01 X85.72208 Y2.75786
G01 X85.71354 Y2.76631
G01 X85.66924 Y2.80513
G01 X85.65647 Y2.81468
G01 X85.64224 Y2.82207
G01 X85.62705 Y2.82715
G01 X85.56978 Y2.84109
G01 X85.55400 Y2.84363
G01 X85.53803 Y2.84363
G01 X85.52230 Y2.84109
G01 X85.46505 Y2.82715
G01 X85.44984 Y2.82207
G01 X85.43572 Y2.81470
G01 X85.42286 Y2.80515
G01 X85.37854 Y2.76631
G01 X85.37001 Y2.75786
G01 X85.36256 Y2.74843
G01 X85.23762 Y2.57005
G01 X85.08291 Y2.41534
G01 X84.90371 Y2.28981
G01 X84.70542 Y2.19740
G01 X84.49399 Y2.14071
G01 X84.27600 Y2.12166
G01 X84.05807 Y2.14071
G01 X83.84674 Y2.19740
G01 X83.64837 Y2.28981
G01 X83.46920 Y2.41534
G01 X83.31444 Y2.57005
G01 X83.18952 Y2.74846
G01 X83.18205 Y2.75786
G01 X83.17354 Y2.76631
G01 X83.12929 Y2.80513
G01 X83.11644 Y2.81468
G01 X83.10222 Y2.82207
G01 X83.08703 Y2.82715
G01 X83.02975 Y2.84109
G01 X83.01400 Y2.84363
G01 X82.99808 Y2.84363
G01 X82.98230 Y2.84109
G01 X82.92503 Y2.82715
G01 X82.90984 Y2.82207
G01 X82.89569 Y2.81470
G01 X82.88286 Y2.80515
G01 X82.83852 Y2.76631
G01 X82.83001 Y2.75786
G01 X82.82254 Y2.74843
G01 X82.69762 Y2.57005
G01 X82.54296 Y2.41534
G01 X82.36369 Y2.28981
G01 X82.16539 Y2.19740
G01 X81.95399 Y2.14071
G01 X81.73605 Y2.12166
G01 X81.51807 Y2.14071
G01 X81.30672 Y2.19740
G01 X81.10837 Y2.28981
G01 X80.92917 Y2.41534
G01 X80.77444 Y2.57005
G01 X80.64949 Y2.74846
G01 X80.64205 Y2.75786
G01 X80.63359 Y2.76631
G01 X80.58927 Y2.80513
G01 X80.57642 Y2.81468
G01 X80.56222 Y2.82207
G01 X80.54703 Y2.82715
G01 X80.48975 Y2.84109
G01 X80.47405 Y2.84363
G01 X80.45805 Y2.84363
G01 X80.44228 Y2.84109
G01 X80.38503 Y2.82715
G01 X80.36984 Y2.82207
G01 X80.35569 Y2.81470
G01 X80.34284 Y2.80515
G01 X80.29852 Y2.76631
G01 X80.28998 Y2.75786
G01 X80.28251 Y2.74843
G01 X80.15762 Y2.57005
G01 X80.00294 Y2.41534
G01 X79.82369 Y2.28981
G01 X79.62539 Y2.19740
G01 X79.41404 Y2.14071
G01 X79.19605 Y2.12166
G01 X78.97805 Y2.14071
G01 X78.76672 Y2.19740
G01 X78.56842 Y2.28981
G01 X78.38915 Y2.41534
G01 X78.23444 Y2.57005
G01 X78.10949 Y2.74846
G01 X78.10205 Y2.75786
G01 X78.09359 Y2.76631
G01 X78.04924 Y2.80513
G01 X78.03642 Y2.81468
G01 X78.02222 Y2.82207
G01 X78.00708 Y2.82715
G01 X77.94975 Y2.84109
G01 X77.93403 Y2.84363
G01 X77.91805 Y2.84363
G01 X77.90228 Y2.84109
G01 X77.84508 Y2.82715
G01 X77.82989 Y2.82207
G01 X77.81567 Y2.81470
G01 X77.80284 Y2.80515
G01 X77.75852 Y2.76631
G01 X77.74998 Y2.75786
G01 X77.74251 Y2.74843
G01 X77.61767 Y2.57005
G01 X77.46291 Y2.41534
G01 X77.28374 Y2.28981
G01 X77.08536 Y2.19740
G01 X76.87404 Y2.14071
G01 X76.65603 Y2.12166
G01 X76.43805 Y2.14071
G01 X76.22669 Y2.19740
G01 X76.02839 Y2.28981
G01 X75.84915 Y2.41534
G01 X75.69449 Y2.57005
G01 X75.56954 Y2.74846
G01 X75.56210 Y2.75786
G01 X75.55357 Y2.76631
G01 X75.50924 Y2.80513
G01 X75.49642 Y2.81468
G01 X75.48227 Y2.82207
G01 X75.46708 Y2.82715
G01 X75.40980 Y2.84109
G01 X75.39400 Y2.84363
G01 X75.37803 Y2.84363
G01 X75.36233 Y2.84109
G01 X75.30505 Y2.82715
G01 X75.28986 Y2.82207
G01 X75.27567 Y2.81470
G01 X75.26289 Y2.80515
G01 X75.21857 Y2.76631
G01 X75.21003 Y2.75786
G01 X75.20251 Y2.74843
G01 X75.07765 Y2.57005
G01 X74.92291 Y2.41534
G01 X74.74374 Y2.28981
G01 X74.54536 Y2.19740
G01 X74.33401 Y2.14071
G01 X74.11600 Y2.12166
G01 X73.89807 Y2.14071
G01 X73.68669 Y2.19740
G01 X73.48837 Y2.28981
G01 X73.30915 Y2.41534
G01 X73.15444 Y2.57005
G01 X73.02919 Y2.74894
G01 X73.02177 Y2.75826
G01 X73.01326 Y2.76669
G01 X72.96899 Y2.80556
G01 X72.95611 Y2.81516
G01 X72.94196 Y2.82255
G01 X72.92683 Y2.82758
G01 X72.86950 Y2.84160
G01 X72.85372 Y2.84414
G01 X72.83777 Y2.84414
G01 X72.82192 Y2.84160
G01 X72.76467 Y2.82758
G01 X72.74953 Y2.82255
G01 X72.73534 Y2.81516
G01 X72.72253 Y2.80563
G01 X72.67981 Y2.76812
G01 X72.44740 Y3.00060
G01 X72.44953 Y3.00457
G01 X72.45370 Y3.01338
G01 X72.45700 Y3.02263
G01 X72.50539 Y3.18214
G01 X72.50780 Y3.19161
G01 X72.50925 Y3.20137
G01 X72.52556 Y3.36713
G01 X72.52556 Y3.38679
G01 X72.50925 Y3.55257
G01 X72.50780 Y3.56232
G01 X72.50539 Y3.57180
G01 X72.45700 Y3.73129
G01 X72.44953 Y3.74934
G01 X72.44740 Y3.75336
G01 X72.67981 Y3.98579
G01 X72.72253 Y3.94833
G01 X72.73534 Y3.93878
G01 X72.74953 Y3.93141
G01 X72.76467 Y3.92633
G01 X72.82192 Y3.91236
G01 X72.83777 Y3.90982
G01 X72.85372 Y3.90982
G01 X72.86950 Y3.91236
G01 X72.92683 Y3.92633
G01 X72.94196 Y3.93141
G01 X72.95611 Y3.93878
G01 X72.96899 Y3.94835
G01 X73.01326 Y3.98722
G01 X73.02177 Y3.99565
G01 X73.02919 Y4.00502
G01 X73.15444 Y4.18384
G01 X73.30915 Y4.33852
G01 X73.48753 Y4.46341
G01 X73.49695 Y4.47093
G01 X73.50539 Y4.47947
G01 X73.54425 Y4.52379
G01 X73.55377 Y4.53657
G01 X73.56117 Y4.55071
G01 X73.56619 Y4.56593
G01 X73.58024 Y4.62318
G01 X73.58276 Y4.63893
G01 X73.58276 Y4.65496
G01 X73.58024 Y4.67070
G01 X73.56619 Y4.72803
G01 X73.56117 Y4.74315
G01 X73.55377 Y4.75732
G01 X73.54425 Y4.77015
G01 X73.50536 Y4.81444
G01 X73.49693 Y4.82295
G01 X73.48756 Y4.83045
G01 X73.30915 Y4.95534
G01 X73.15444 Y5.11010
G01 X73.02919 Y5.28889
G01 X73.02177 Y5.29831
G01 X73.01326 Y5.30675
G01 X72.96899 Y5.34561
G01 X72.95611 Y5.35511
G01 X72.94196 Y5.36255
G01 X72.92683 Y5.36758
G01 X72.86950 Y5.38160
G01 X72.85372 Y5.38409
G01 X72.83777 Y5.38409
G01 X72.82192 Y5.38160
G01 X72.76467 Y5.36758
G01 X72.74953 Y5.36255
G01 X72.73534 Y5.35511
G01 X72.72253 Y5.34563
G01 X72.67981 Y5.30817
G01 X72.44740 Y5.54055
G01 X72.44953 Y5.54457
G01 X72.45370 Y5.55343
G01 X72.45700 Y5.56268
G01 X72.50539 Y5.72214
G01 X72.50780 Y5.73161
G01 X72.50925 Y5.74131
G01 X72.52556 Y5.90713
G01 X72.52556 Y5.92673
G01 X72.50925 Y6.09257
G01 X72.50780 Y6.10227
G01 X72.50539 Y6.11185
G01 X72.45700 Y6.27129
G01 X72.44953 Y6.28940
G01 X72.44740 Y6.29331
G01 X72.67981 Y6.52579
G01 X72.72253 Y6.48833
G01 X72.73534 Y6.47878
G01 X72.74953 Y6.47141
G01 X72.76467 Y6.46636
G01 X72.82192 Y6.45234
G01 X72.83777 Y6.44980
G01 X72.85372 Y6.44980
G01 X72.86950 Y6.45234
G01 X72.92683 Y6.46636
G01 X72.94196 Y6.47141
G01 X72.95611 Y6.47878
G01 X72.96899 Y6.48833
G01 X73.01326 Y6.52722
G01 X73.02177 Y6.53565
G01 X73.02919 Y6.54502
G01 X73.15444 Y6.72384
G01 X73.30915 Y6.87855
G01 X73.48837 Y7.00408
G01 X73.68669 Y7.09653
G01 X73.89807 Y7.15317
G01 X74.11600 Y7.17225
G01 X74.33401 Y7.15317
G01 X74.54536 Y7.09653
G01 X74.74374 Y7.00408
G01 X74.92291 Y6.87855
G01 X75.07765 Y6.72384
G01 X75.20251 Y6.54545
G01 X75.21003 Y6.53606
G01 X75.21857 Y6.52762
G01 X75.26289 Y6.48873
G01 X75.27564 Y6.47921
G01 X75.28986 Y6.47182
G01 X75.30498 Y6.46681
G01 X75.36223 Y6.45279
G01 X75.37803 Y6.45023
G01 X75.39400 Y6.45023
G01 X75.40980 Y6.45279
G01 X75.46708 Y6.46681
G01 X75.48227 Y6.47182
G01 X75.49642 Y6.47921
G01 X75.50924 Y6.48879
G01 X75.55357 Y6.52765
G01 X75.56210 Y6.53606
G01 X75.56954 Y6.54545
G01 X75.69449 Y6.72384
G01 X75.84915 Y6.87855
G01 X76.02839 Y7.00408
G01 X76.22669 Y7.09653
G01 X76.43805 Y7.15317
G01 X76.65603 Y7.17225
G01 X76.87404 Y7.15317
G01 X77.08536 Y7.09653
G01 X77.28374 Y7.00408
G01 X77.46291 Y6.87855
G01 X77.61767 Y6.72384
G01 X77.74251 Y6.54545
G01 X77.74998 Y6.53606
G01 X77.75852 Y6.52762
G01 X77.80284 Y6.48873
G01 X77.81567 Y6.47921
G01 X77.82981 Y6.47182
G01 X77.84498 Y6.46681
G01 X77.90225 Y6.45279
G01 X77.91805 Y6.45023
G01 X77.93403 Y6.45023
G01 X77.94983 Y6.45279
G01 X78.00708 Y6.46681
G01 X78.02229 Y6.47182
G01 X78.03642 Y6.47921
G01 X78.04924 Y6.48879
G01 X78.09359 Y6.52765
G01 X78.10205 Y6.53606
G01 X78.10949 Y6.54545
G01 X78.23444 Y6.72384
G01 X78.38915 Y6.87855
G01 X78.56842 Y7.00408
G01 X78.76672 Y7.09653
G01 X78.97805 Y7.15317
G01 X79.19605 Y7.17225
G01 X79.41404 Y7.15317
G01 X79.62539 Y7.09653
G01 X79.82369 Y7.00408
G01 X80.00294 Y6.87855
G01 X80.15762 Y6.72384
G01 X80.28251 Y6.54545
G01 X80.28998 Y6.53606
G01 X80.29852 Y6.52762
G01 X80.34284 Y6.48873
G01 X80.35569 Y6.47921
G01 X80.36981 Y6.47182
G01 X80.38500 Y6.46681
G01 X80.44228 Y6.45279
G01 X80.45805 Y6.45023
G01 X80.47405 Y6.45023
G01 X80.48983 Y6.45279
G01 X80.54711 Y6.46681
G01 X80.56224 Y6.47182
G01 X80.57642 Y6.47921
G01 X80.58927 Y6.48879
G01 X80.63359 Y6.52765
G01 X80.64205 Y6.53606
G01 X80.64949 Y6.54545
G01 X80.77444 Y6.72384
G01 X80.92917 Y6.87855
G01 X81.10837 Y7.00408
G01 X81.30672 Y7.09653
G01 X81.51807 Y7.15317
G01 X81.73605 Y7.17225
G01 X81.95399 Y7.15317
G01 X82.16539 Y7.09653
G01 X82.36369 Y7.00408
G01 X82.54296 Y6.87855
G01 X82.69762 Y6.72384
G01 X82.82254 Y6.54545
G01 X82.83001 Y6.53606
G01 X82.83852 Y6.52762
G01 X82.88286 Y6.48873
G01 X82.89569 Y6.47921
G01 X82.90981 Y6.47182
G01 X82.92503 Y6.46681
G01 X82.98223 Y6.45279
G01 X82.99808 Y6.45023
G01 X83.01400 Y6.45023
G01 X83.02985 Y6.45279
G01 X83.08713 Y6.46681
G01 X83.10224 Y6.47182
G01 X83.11644 Y6.47921
G01 X83.12929 Y6.48879
G01 X83.17354 Y6.52765
G01 X83.18205 Y6.53606
G01 X83.18952 Y6.54545
G01 X83.31444 Y6.72384
G01 X83.46920 Y6.87855
G01 X83.64837 Y7.00408
G01 X83.84674 Y7.09653
G01 X84.05807 Y7.15317
G01 X84.27600 Y7.17225
G01 X84.49399 Y7.15317
G01 X84.70542 Y7.09653
G01 X84.90371 Y7.00408
G01 X85.08291 Y6.87855
G01 X85.23762 Y6.72384
G01 X85.36287 Y6.54502
G01 X85.37031 Y6.53560
G01 X85.37885 Y6.52717
G01 X85.42317 Y6.48833
G01 X85.43594 Y6.47878
G01 X85.45014 Y6.47141
G01 X85.46533 Y6.46636
G01 X85.52253 Y6.45234
G01 X85.53833 Y6.44980
G01 X85.55431 Y6.44980
G01 X85.57016 Y6.45234
G01 X85.62744 Y6.46636
G01 X85.64255 Y6.47141
G01 X85.65677 Y6.47878
G01 X85.66960 Y6.48833
G01 X85.71227 Y6.52579
G01 X85.94468 Y6.29333
G01 X85.94252 Y6.28940
G01 X85.93508 Y6.27129
G01 X85.88664 Y6.11185
G01 X85.88428 Y6.10227
G01 X85.88283 Y6.09257
G01 X85.86653 Y5.92673
G01 X85.86604 Y5.91693
G01 X85.86653 Y5.90713
G01 X85.88283 Y5.74131
G01 X85.88428 Y5.73161
G01 X85.88664 Y5.72214
G01 X85.93508 Y5.56268
G01 X85.94252 Y5.54457
G01 X85.94468 Y5.54053
G01 X85.71227 Y5.30814
G01 X85.66960 Y5.34561
G01 X85.65677 Y5.35511
G01 X85.64255 Y5.36255
G01 X85.62744 Y5.36758
G01 X85.57016 Y5.38160
G01 X85.55431 Y5.38409
G01 X85.53833 Y5.38409
G01 X85.52253 Y5.38160
G01 X85.46533 Y5.36758
G01 X85.45014 Y5.36255
G01 X85.43594 Y5.35511
G01 X85.42317 Y5.34563
G01 X85.37885 Y5.30677
G01 X85.37031 Y5.29834
G01 X85.36287 Y5.28886
G01 X85.23762 Y5.11010
G01 X85.08291 Y4.95534
G01 X84.90450 Y4.83045
G01 X84.89510 Y4.82295
G01 X84.88667 Y4.81442
G01 X84.84781 Y4.77009
G01 X84.83831 Y4.75729
G01 X84.83094 Y4.74312
G01 X84.82586 Y4.72801
G01 X84.81184 Y4.67070
G01 X84.80930 Y4.65496
G01 X84.80930 Y4.63893
G01 X84.81184 Y4.62318
G01 X84.82586 Y4.56593
G01 X84.83094 Y4.55071
G01 X84.83831 Y4.53657
G01 X84.84781 Y4.52379
G01 X84.88667 Y4.47947
G01 X84.89510 Y4.47093
G01 X84.90453 Y4.46341
G01 X85.08291 Y4.33852
G01 X85.23762 Y4.18384
G01 X85.36256 Y4.00545
G01 X85.37001 Y3.99600
G01 X85.37854 Y3.98757
G01 X85.42286 Y3.94871
G01 X85.43564 Y3.93924
G01 X85.44984 Y3.93179
G01 X85.46498 Y3.92679
G01 X85.52223 Y3.91274
G01 X85.53803 Y3.91025
G01 X85.55400 Y3.91025
G01 X85.56980 Y3.91274
G01 X85.62708 Y3.92679
G01 X85.64224 Y3.93179
G01 X85.65647 Y3.93924
G01 X85.66924 Y3.94873
G01 X85.71354 Y3.98760
G01 X85.72208 Y3.99603
G01 X85.72952 Y4.00545
G01 X85.85446 Y4.18384
G01 X86.00915 Y4.33852
G01 X86.18799 Y4.46377
G01 X86.19741 Y4.47119
G01 X86.20584 Y4.47972
G01 X86.24468 Y4.52404
G01 X86.25421 Y4.53685
G01 X86.26165 Y4.55107
G01 X86.26663 Y4.56618
G01 X86.28067 Y4.62343
G01 X86.28321 Y4.63928
G01 X86.28321 Y4.65521
G01 X86.28067 Y4.67106
G01 X86.26663 Y4.72829
G01 X86.26165 Y4.74350
G01 X86.25421 Y4.75767
G01 X86.24468 Y4.77050
G01 X86.20722 Y4.81315
G01 X86.43963 Y5.04556
G01 X86.44364 Y5.04345
G01 X86.45248 Y5.03926
G01 X86.46170 Y5.03596
G01 X86.62116 Y4.98762
G01 X86.64039 Y4.98376
G01 X86.80620 Y4.96743
G01 X86.82581 Y4.96743
G01 X86.99164 Y4.98376
G01 X87.01087 Y4.98762
G01 X87.17033 Y5.03596
G01 X87.17955 Y5.03926
G01 X87.18847 Y5.04345
G01 X87.19241 Y5.04558
G01 X87.42487 Y4.81315
G01 X87.38745 Y4.77050
G01 X87.37785 Y4.75767
G01 X87.37046 Y4.74350
G01 X87.36546 Y4.72829
G01 X87.35143 Y4.67106
G01 X87.34887 Y4.65521
G01 X87.34887 Y4.63928
G01 X87.35143 Y4.62343
G01 X87.36546 Y4.56618
G01 X87.37046 Y4.55107
G01 X87.37785 Y4.53685
G01 X87.38738 Y4.52404
G01 X87.42624 Y4.47972
G01 X87.43467 Y4.47119
G01 X87.44409 Y4.46377
G01 X87.62291 Y4.33852
G01 X87.77762 Y4.18384
G01 X87.90251 Y4.00545
G01 X87.91001 Y3.99600
G01 X87.91854 Y3.98757
G01 X87.96286 Y3.94871
G01 X87.97567 Y3.93924
G01 X87.98984 Y3.93179
G01 X88.00498 Y3.92679
G01 X88.06225 Y3.91274
G01 X88.07805 Y3.91025
G01 X88.09403 Y3.91025
G01 X88.10983 Y3.91274
G01 X88.16708 Y3.92679
G01 X88.18224 Y3.93179
G01 X88.19642 Y3.93924
G01 X88.20927 Y3.94873
G01 X88.25354 Y3.98760
G01 X88.26208 Y3.99603
G01 X88.26952 Y4.00545
G01 X88.39446 Y4.18384
G01 X88.54915 Y4.33852
G01 X88.72753 Y4.46341
G01 X88.73695 Y4.47093
G01 X88.74539 Y4.47947
G01 X88.78427 Y4.52379
G01 X88.79377 Y4.53657
G01 X88.80119 Y4.55071
G01 X88.80619 Y4.56593
G01 X88.82022 Y4.62318
G01 X88.82276 Y4.63893
G01 X88.82276 Y4.65496
G01 X88.82022 Y4.67070
G01 X88.80619 Y4.72803
G01 X88.80119 Y4.74315
G01 X88.79377 Y4.75732
G01 X88.78422 Y4.77015
G01 X88.74539 Y4.81444
G01 X88.73695 Y4.82295
G01 X88.72758 Y4.83045
G01 X88.54915 Y4.95534
G01 X88.39446 Y5.11010
G01 X88.26919 Y5.28889
G01 X88.26177 Y5.29831
G01 X88.25324 Y5.30675
G01 X88.20896 Y5.34561
G01 X88.19611 Y5.35511
G01 X88.18194 Y5.36255
G01 X88.16680 Y5.36758
G01 X88.10952 Y5.38160
G01 X88.09370 Y5.38409
G01 X88.07775 Y5.38409
G01 X88.06192 Y5.38160
G01 X88.00470 Y5.36758
G01 X87.98953 Y5.36255
G01 X87.97536 Y5.35511
G01 X87.96253 Y5.34563
G01 X87.91981 Y5.30817
G01 X87.68740 Y5.54055
G01 X87.68951 Y5.54457
G01 X87.69700 Y5.56268
G01 X87.74536 Y5.72214
G01 X87.74775 Y5.73161
G01 X87.74922 Y5.74131
G01 X87.76556 Y5.90713
G01 X87.76556 Y5.92673
G01 X87.74922 Y6.09257
G01 X87.74775 Y6.10227
G01 X87.74536 Y6.11185
G01 X87.69700 Y6.27129
G01 X87.68951 Y6.28940
G01 X87.68740 Y6.29331
G01 X87.91981 Y6.52579
G01 X87.96253 Y6.48833
G01 X87.97536 Y6.47878
G01 X87.98953 Y6.47141
G01 X88.00470 Y6.46636
G01 X88.06192 Y6.45234
G01 X88.07775 Y6.44980
G01 X88.09370 Y6.44980
G01 X88.10952 Y6.45234
G01 X88.16680 Y6.46636
G01 X88.18194 Y6.47141
G01 X88.19611 Y6.47878
G01 X88.20896 Y6.48833
G01 X88.25324 Y6.52722
G01 X88.26177 Y6.53565
G01 X88.26919 Y6.54502
G01 X88.39446 Y6.72384
G01 X88.54915 Y6.87855
G01 X88.72837 Y7.00408
G01 X88.92672 Y7.09653
G01 X89.13805 Y7.15317
G01 X89.35600 Y7.17225
G01 X89.57401 Y7.15317
G01 X89.78539 Y7.09653
G01 X89.98371 Y7.00408
G01 X90.16294 Y6.87855
G01 X90.31765 Y6.72384
G01 X90.44254 Y6.54545
G01 X90.44998 Y6.53606
G01 X90.45852 Y6.52762
G01 X90.50284 Y6.48873
G01 X90.51564 Y6.47921
G01 X90.52981 Y6.47182
G01 X90.54500 Y6.46681
G01 X90.60223 Y6.45279
G01 X90.61803 Y6.45023
G01 X90.63400 Y6.45023
G01 X90.64980 Y6.45279
G01 X90.70711 Y6.46681
G01 X90.72227 Y6.47182
G01 X90.73644 Y6.47921
G01 X90.74927 Y6.48879
G01 X90.79357 Y6.52765
G01 X90.80205 Y6.53606
G01 X90.80949 Y6.54545
G01 X90.93444 Y6.72384
G01 X91.08917 Y6.87855
G01 X91.26839 Y7.00408
G01 X91.46669 Y7.09653
G01 X91.67807 Y7.15317
G01 X91.89603 Y7.17225
G01 X92.11401 Y7.15317
G01 X92.32536 Y7.09653
G01 X92.52369 Y7.00408
G01 X92.70291 Y6.87855
G01 X92.85762 Y6.72384
G01 X92.98254 Y6.54545
G01 X92.99001 Y6.53606
G01 X92.99854 Y6.52762
G01 X93.04286 Y6.48873
G01 X93.05567 Y6.47921
G01 X93.06984 Y6.47182
G01 X93.08498 Y6.46681
G01 X93.14225 Y6.45279
G01 X93.15803 Y6.45023
G01 X93.17403 Y6.45023
G01 X93.18980 Y6.45279
G01 X93.24708 Y6.46681
G01 X93.26224 Y6.47182
G01 X93.27644 Y6.47921
G01 X93.28924 Y6.48879
G01 X93.33357 Y6.52765
G01 X93.34205 Y6.53606
G01 X93.34952 Y6.54545
G01 X93.47446 Y6.72384
G01 X93.62915 Y6.87855
G01 X93.80837 Y7.00408
G01 X94.00669 Y7.09653
G01 X94.21805 Y7.15317
G01 X94.43608 Y7.17225
G01 X94.65404 Y7.15317
G01 X94.86542 Y7.09653
G01 X95.06374 Y7.00408
G01 X95.24291 Y6.87855
G01 X95.39767 Y6.72384
G01 X95.52317 Y6.54456
G01 X95.61566 Y6.34627
G01 X95.67225 Y6.13489
G01 X95.69130 Y5.91690
G01 X95.67225 Y5.69900
G01 X95.61566 Y5.48759
G01 X95.52317 Y5.28932
G01 X95.39767 Y5.11010
G01 X95.24291 Y4.95534
G01 X95.06450 Y4.83045
G01 X95.05515 Y4.82295
G01 X95.04672 Y4.81442
G01 X95.00786 Y4.77009
G01 X94.99828 Y4.75729
G01 X94.99094 Y4.74312
G01 X94.98591 Y4.72801
G01 X94.97189 Y4.67070
G01 X94.96930 Y4.65496
G01 X94.96930 Y4.63893
G01 X94.97189 Y4.62318
G01 X94.98591 Y4.56593
G01 X94.99094 Y4.55071
G01 X94.99828 Y4.53657
G01 X95.00786 Y4.52379
G01 X95.04672 Y4.47947
G01 X95.05515 Y4.47093
G01 X95.06453 Y4.46341
G01 X95.24291 Y4.33852
G01 X95.39767 Y4.18384
G01 X95.52317 Y4.00454
G01 X95.61566 Y3.80627
G01 X95.67225 Y3.59489
G01 X95.69130 Y3.37696
G01 X95.59130 Y3.37696
G01 X95.59097 Y3.37696
G01 X95.57341 Y3.17642
G01 X95.57375 Y3.17632
G01 X95.57341 Y3.17642
G01 X95.52127 Y2.98199
G01 X95.52168 Y2.98186
G01 X95.52127 Y2.98199
G01 X95.43618 Y2.79946
G01 X95.43656 Y2.79933
G01 X95.43618 Y2.79946
G01 X95.32079 Y2.63456
G01 X95.32104 Y2.63436
G01 X95.32079 Y2.63456
G01 X95.17844 Y2.49222
G01 X95.17865 Y2.49199
G01 X95.17844 Y2.49222
G01 X95.01355 Y2.37681
G01 X95.01370 Y2.37647
G01 X95.01355 Y2.37681
G01 X94.83110 Y2.29174
G01 X94.83118 Y2.29138
G01 X94.83110 Y2.29174
G01 X94.63656 Y2.23962
G01 X94.63664 Y2.23926
G01 X94.63656 Y2.23962
G01 X94.43608 Y2.22209
G01 X94.43608 Y2.22171
G01 X94.43608 Y2.22209
G01 X94.23547 Y2.23962
G01 X94.23544 Y2.23926
G01 X94.23547 Y2.23962
G01 X94.04103 Y2.29174
G01 X94.04091 Y2.29138
G01 X94.04103 Y2.29174
G01 X93.85856 Y2.37681
G01 X93.85838 Y2.37647
G01 X93.85856 Y2.37681
G01 X93.69366 Y2.49222
G01 X93.69343 Y2.49199
G01 X93.69366 Y2.49222
G01 X93.55132 Y2.63456
G01 X93.55109 Y2.63439
G01 X93.55132 Y2.63456
G01 X93.43141 Y2.80581
G01 X93.41655 Y2.82458
G01 X93.39948 Y2.84145
G01 X93.35521 Y2.88036
G01 X93.32955 Y2.89946
G01 X93.30116 Y2.91424
G01 X93.27075 Y2.92423
G01 X93.21350 Y2.93827
G01 X93.18201 Y2.94330
G01 X93.15005 Y2.94330
G01 X93.11856 Y2.93827
G01 X93.06130 Y2.92423
G01 X93.03095 Y2.91424
G01 X93.00255 Y2.89949
G01 X92.97690 Y2.88039
G01 X92.93258 Y2.84147
G01 X92.91556 Y2.82466
G01 X92.90062 Y2.80579
G01 X92.78074 Y2.63456
G01 X92.78102 Y2.63439
G01 X92.78074 Y2.63456
G01 X92.63839 Y2.49222
G01 X92.63862 Y2.49199
G01 X92.63839 Y2.49222
G01 X92.47352 Y2.37681
G01 X92.47368 Y2.37647
G01 X92.47352 Y2.37681
G01 X92.29107 Y2.29174
G01 X92.29118 Y2.29138
G01 X92.29107 Y2.29174
G01 X92.09656 Y2.23962
G01 X92.09666 Y2.23926
G01 X92.09656 Y2.23962
G01 X91.89603 Y2.22209
G01 X91.89603 Y2.22171
G01 X91.89603 Y2.22209
G01 X91.69547 Y2.23962
G01 X91.69542 Y2.23926
G01 X91.69547 Y2.23962
G01 X91.50106 Y2.29174
G01 X91.50091 Y2.29138
G01 X91.50106 Y2.29174
G01 X91.31856 Y2.37681
G01 X91.31841 Y2.37647
G01 X91.31856 Y2.37681
G01 X91.15366 Y2.49222
G01 X91.15346 Y2.49199
G01 X91.15366 Y2.49222
G01 X91.01132 Y2.63456
G01 X91.01107 Y2.63439
G01 X91.01132 Y2.63456
G01 X90.89143 Y2.80581
G01 X90.87652 Y2.82458
G01 X90.85951 Y2.84145
G01 X90.81518 Y2.88036
G01 X90.78953 Y2.89946
G01 X90.76116 Y2.91424
G01 X90.73075 Y2.92423
G01 X90.67348 Y2.93827
G01 X90.64200 Y2.94330
G01 X90.61008 Y2.94330
G01 X90.57856 Y2.93827
G01 X90.52128 Y2.92423
G01 X90.49093 Y2.91424
G01 X90.46258 Y2.89949
G01 X90.43690 Y2.88039
G01 X90.39260 Y2.84147
G01 X90.37556 Y2.82466
G01 X90.36060 Y2.80579
G01 X90.24071 Y2.63456
G01 X90.24099 Y2.63439
G01 X90.24071 Y2.63456
G01 X90.09842 Y2.49222
G01 X90.09865 Y2.49199
G01 X90.09842 Y2.49222
G01 X89.93352 Y2.37681
G01 X89.93370 Y2.37647
G01 X89.93352 Y2.37681
G01 X89.75105 Y2.29174
G01 X89.75120 Y2.29138
G01 X89.75105 Y2.29174
G01 X89.55659 Y2.23962
G01 X89.55664 Y2.23926
G01 X89.55659 Y2.23962
G01 X89.35600 Y2.22209
G01 X89.35600 Y2.22171
G01 X89.35600 Y2.22209
G01 X89.15550 Y2.23962
G01 X89.15544 Y2.23926
G01 X89.15550 Y2.23962
G01 X88.96103 Y2.29174
G01 X88.96088 Y2.29138
G01 X88.96103 Y2.29174
G01 X88.77858 Y2.37681
G01 X88.77838 Y2.37647
G01 X88.77858 Y2.37681
G01 X88.61369 Y2.49222
G01 X88.61343 Y2.49199
G01 X88.61369 Y2.49222
G01 X88.47135 Y2.63456
G01 X88.47109 Y2.63439
G01 X88.47135 Y2.63456
G01 X88.35141 Y2.80581
G01 X88.33655 Y2.82458
G01 X88.31948 Y2.84145
G01 X88.27521 Y2.88036
G01 X88.24953 Y2.89946
G01 X88.22113 Y2.91424
G01 X88.19078 Y2.92423
G01 X88.13350 Y2.93827
G01 X88.10198 Y2.94330
G01 X88.07005 Y2.94330
G01 X88.03853 Y2.93827
G01 X87.98130 Y2.92423
G01 X87.95095 Y2.91424
G01 X87.92255 Y2.89949
G01 X87.89693 Y2.88039
G01 X87.85260 Y2.84147
G01 X87.83553 Y2.82466
G01 X87.82062 Y2.80579
G01 X87.70074 Y2.63456
G01 X87.70099 Y2.63439
G01 X87.70074 Y2.63456
G01 X87.55839 Y2.49222
G01 X87.55865 Y2.49199
G01 X87.55839 Y2.49222
G01 X87.39350 Y2.37681
G01 X87.39370 Y2.37647
G01 X87.39350 Y2.37681
G01 X87.21105 Y2.29174
G01 X87.21120 Y2.29138
G01 X87.21105 Y2.29174
G01 X87.01656 Y2.23962
G01 X87.01664 Y2.23926
G01 X87.01656 Y2.23962
G01 X86.81600 Y2.22209
G01 X86.81600 Y2.22171
G01 X86.81600 Y2.22209
G01 X86.61547 Y2.23962
G01 X86.61547 Y2.23926
G01 X86.61547 Y2.23962
G01 X86.42108 Y2.29174
G01 X86.42091 Y2.29138
G01 X86.42108 Y2.29174
G01 X86.23858 Y2.37681
G01 X86.23838 Y2.37647
G01 X86.23858 Y2.37681
G01 X86.07366 Y2.49222
G01 X86.07343 Y2.49199
G01 X86.07366 Y2.49222
G01 X85.93135 Y2.63456
G01 X85.93107 Y2.63439
G01 X85.93135 Y2.63456
G01 X85.81141 Y2.80581
G01 X85.79652 Y2.82458
G01 X85.77953 Y2.84145
G01 X85.73521 Y2.88036
G01 X85.70953 Y2.89946
G01 X85.68118 Y2.91424
G01 X85.65078 Y2.92423
G01 X85.59350 Y2.93827
G01 X85.56203 Y2.94330
G01 X85.53005 Y2.94330
G01 X85.49858 Y2.93827
G01 X85.44130 Y2.92423
G01 X85.41093 Y2.91424
G01 X85.38258 Y2.89949
G01 X85.35690 Y2.88039
G01 X85.31258 Y2.84147
G01 X85.29558 Y2.82466
G01 X85.28060 Y2.80579
G01 X85.16074 Y2.63456
G01 X85.16104 Y2.63439
G01 X85.16074 Y2.63456
G01 X85.01844 Y2.49222
G01 X85.01865 Y2.49199
G01 X85.01844 Y2.49222
G01 X84.85350 Y2.37681
G01 X84.85370 Y2.37647
G01 X84.85350 Y2.37681
G01 X84.67110 Y2.29174
G01 X84.67120 Y2.29138
G01 X84.67110 Y2.29174
G01 X84.47656 Y2.23962
G01 X84.47664 Y2.23926
G01 X84.47656 Y2.23962
G01 X84.27600 Y2.22209
G01 X84.27600 Y2.22171
G01 X84.27600 Y2.22209
G01 X84.07547 Y2.23962
G01 X84.07544 Y2.23926
G01 X84.07547 Y2.23962
G01 X83.88108 Y2.29174
G01 X83.88088 Y2.29138
G01 X83.88108 Y2.29174
G01 X83.69856 Y2.37681
G01 X83.69838 Y2.37647
G01 X83.69856 Y2.37681
G01 X83.53371 Y2.49222
G01 X83.53343 Y2.49199
G01 X83.53371 Y2.49222
G01 X83.39132 Y2.63456
G01 X83.39107 Y2.63439
G01 X83.39132 Y2.63456
G01 X83.27141 Y2.80581
G01 X83.25652 Y2.82458
G01 X83.23953 Y2.84145
G01 X83.19521 Y2.88036
G01 X83.16953 Y2.89946
G01 X83.14116 Y2.91424
G01 X83.11075 Y2.92423
G01 X83.05350 Y2.93827
G01 X83.02200 Y2.94330
G01 X82.99005 Y2.94330
G01 X82.95856 Y2.93827
G01 X82.90128 Y2.92423
G01 X82.87093 Y2.91424
G01 X82.84255 Y2.89949
G01 X82.81695 Y2.88039
G01 X82.77263 Y2.84147
G01 X82.75556 Y2.82466
G01 X82.74065 Y2.80579
G01 X82.62071 Y2.63456
G01 X82.62102 Y2.63439
G01 X82.62071 Y2.63456
G01 X82.47842 Y2.49222
G01 X82.47862 Y2.49199
G01 X82.47842 Y2.49222
G01 X82.31350 Y2.37681
G01 X82.31368 Y2.37647
G01 X82.31350 Y2.37681
G01 X82.13107 Y2.29174
G01 X82.13118 Y2.29138
G01 X82.13107 Y2.29174
G01 X81.93661 Y2.23962
G01 X81.93664 Y2.23926
G01 X81.93661 Y2.23962
G01 X81.73605 Y2.22209
G01 X81.73605 Y2.22171
G01 X81.73605 Y2.22209
G01 X81.53552 Y2.23962
G01 X81.53542 Y2.23926
G01 X81.53552 Y2.23962
G01 X81.34106 Y2.29174
G01 X81.34088 Y2.29138
G01 X81.34106 Y2.29174
G01 X81.15856 Y2.37681
G01 X81.15838 Y2.37647
G01 X81.15856 Y2.37681
G01 X80.99371 Y2.49222
G01 X80.99343 Y2.49199
G01 X80.99371 Y2.49222
G01 X80.85132 Y2.63456
G01 X80.85112 Y2.63439
G01 X80.85132 Y2.63456
G01 X80.73141 Y2.80581
G01 X80.71657 Y2.82458
G01 X80.69951 Y2.84145
G01 X80.65518 Y2.88036
G01 X80.62958 Y2.89946
G01 X80.60113 Y2.91424
G01 X80.57075 Y2.92423
G01 X80.51348 Y2.93827
G01 X80.48198 Y2.94330
G01 X80.45005 Y2.94330
G01 X80.41853 Y2.93827
G01 X80.36128 Y2.92423
G01 X80.33098 Y2.91424
G01 X80.30255 Y2.89949
G01 X80.27693 Y2.88039
G01 X80.23260 Y2.84147
G01 X80.21553 Y2.82466
G01 X80.20065 Y2.80579
G01 X80.08071 Y2.63456
G01 X80.08099 Y2.63439
G01 X80.08071 Y2.63456
G01 X79.93842 Y2.49222
G01 X79.93862 Y2.49199
G01 X79.93842 Y2.49222
G01 X79.77355 Y2.37681
G01 X79.77368 Y2.37647
G01 X79.77355 Y2.37681
G01 X79.59105 Y2.29174
G01 X79.59118 Y2.29138
G01 X79.59105 Y2.29174
G01 X79.39659 Y2.23962
G01 X79.39669 Y2.23926
G01 X79.39659 Y2.23962
G01 X79.19605 Y2.22209
G01 X79.19605 Y2.22171
G01 X79.19605 Y2.22209
G01 X78.99550 Y2.23962
G01 X78.99542 Y2.23926
G01 X78.99550 Y2.23962
G01 X78.80103 Y2.29174
G01 X78.80093 Y2.29138
G01 X78.80103 Y2.29174
G01 X78.61856 Y2.37681
G01 X78.61843 Y2.37647
G01 X78.61856 Y2.37681
G01 X78.45369 Y2.49222
G01 X78.45348 Y2.49199
G01 X78.45369 Y2.49222
G01 X78.31132 Y2.63456
G01 X78.31109 Y2.63439
G01 X78.31132 Y2.63456
G01 X78.19146 Y2.80581
G01 X78.17655 Y2.82458
G01 X78.15948 Y2.84145
G01 X78.11518 Y2.88036
G01 X78.08955 Y2.89946
G01 X78.06113 Y2.91424
G01 X78.03075 Y2.92423
G01 X77.97348 Y2.93827
G01 X77.94198 Y2.94330
G01 X77.91010 Y2.94330
G01 X77.87853 Y2.93827
G01 X77.82128 Y2.92423
G01 X77.79095 Y2.91424
G01 X77.76260 Y2.89949
G01 X77.73693 Y2.88039
G01 X77.69258 Y2.84147
G01 X77.67553 Y2.82466
G01 X77.66062 Y2.80579
G01 X77.54071 Y2.63456
G01 X77.54099 Y2.63439
G01 X77.54071 Y2.63456
G01 X77.39839 Y2.49222
G01 X77.39867 Y2.49199
G01 X77.39839 Y2.49222
G01 X77.23355 Y2.37681
G01 X77.23373 Y2.37647
G01 X77.23355 Y2.37681
G01 X77.05105 Y2.29174
G01 X77.05123 Y2.29138
G01 X77.05105 Y2.29174
G01 X76.85656 Y2.23962
G01 X76.85666 Y2.23926
G01 X76.85656 Y2.23962
G01 X76.65603 Y2.22209
G01 X76.65603 Y2.22171
G01 X76.65603 Y2.22209
G01 X76.45547 Y2.23962
G01 X76.45547 Y2.23926
G01 X76.45547 Y2.23962
G01 X76.26103 Y2.29174
G01 X76.26091 Y2.29138
G01 X76.26103 Y2.29174
G01 X76.07861 Y2.37681
G01 X76.07841 Y2.37647
G01 X76.07861 Y2.37681
G01 X75.91366 Y2.49222
G01 X75.91346 Y2.49199
G01 X75.91366 Y2.49222
G01 X75.77137 Y2.63456
G01 X75.77107 Y2.63439
G01 X75.77137 Y2.63456
G01 X75.65143 Y2.80581
G01 X75.63652 Y2.82458
G01 X75.61948 Y2.84145
G01 X75.57523 Y2.88036
G01 X75.54955 Y2.89946
G01 X75.52113 Y2.91424
G01 X75.49080 Y2.92423
G01 X75.43353 Y2.93827
G01 X75.40198 Y2.94330
G01 X75.37008 Y2.94330
G01 X75.33853 Y2.93827
G01 X75.28133 Y2.92423
G01 X75.25093 Y2.91424
G01 X75.22258 Y2.89949
G01 X75.19690 Y2.88039
G01 X75.15258 Y2.84147
G01 X75.13553 Y2.82466
G01 X75.12060 Y2.80579
G01 X75.00076 Y2.63456
G01 X75.00099 Y2.63439
G01 X75.00076 Y2.63456
G01 X74.85839 Y2.49222
G01 X74.85867 Y2.49199
G01 X74.85839 Y2.49222
G01 X74.69352 Y2.37681
G01 X74.69373 Y2.37647
G01 X74.69352 Y2.37681
G01 X74.51110 Y2.29174
G01 X74.51118 Y2.29138
G01 X74.51110 Y2.29174
G01 X74.31659 Y2.23962
G01 X74.31666 Y2.23926
G01 X74.31659 Y2.23962
G01 X74.11600 Y2.22209
G01 X74.11600 Y2.22171
G01 X74.11600 Y2.22209
G01 X73.91547 Y2.23962
G01 X73.91542 Y2.23926
G01 X73.91547 Y2.23962
G01 X73.72106 Y2.29174
G01 X73.72091 Y2.29138
G01 X73.72106 Y2.29174
G01 X73.53856 Y2.37681
G01 X73.53841 Y2.37647
G01 X73.53856 Y2.37681
G01 X73.37366 Y2.49222
G01 X73.37346 Y2.49199
G01 X73.37366 Y2.49222
G01 X73.23135 Y2.63456
G01 X73.23107 Y2.63439
G01 X73.23135 Y2.63456
G01 X73.11110 Y2.80624
G01 X73.09622 Y2.82506
G01 X73.07923 Y2.84193
G01 X73.03488 Y2.88079
G01 X73.00930 Y2.89987
G01 X72.98090 Y2.91465
G01 X72.95055 Y2.92466
G01 X72.89330 Y2.93868
G01 X72.86170 Y2.94381
G01 X72.82975 Y2.94381
G01 X72.79815 Y2.93868
G01 X72.74090 Y2.92466
G01 X72.71060 Y2.91465
G01 X72.68702 Y2.90236
G01 X72.68309 Y2.88836
G01 X72.68702 Y2.90236
G01 X72.56272 Y3.02669
G01 X72.54687 Y3.02260
G01 X72.56272 Y3.02669
G01 X72.60110 Y3.15305
G01 X72.60585 Y3.17208
G01 X72.60872 Y3.19156
G01 X72.62505 Y3.35732
G01 X72.62505 Y3.39659
G01 X72.60872 Y3.56238
G01 X72.60585 Y3.58183
G01 X72.60110 Y3.60088
G01 X72.56272 Y3.72727
G01 X72.54687 Y3.73131
G01 X72.56272 Y3.72727
G01 X72.68702 Y3.85153
G01 X72.68309 Y3.86550
G01 X72.68702 Y3.85153
G01 X72.71060 Y3.83931
G01 X72.74090 Y3.82925
G01 X72.79815 Y3.81523
G01 X72.82975 Y3.81015
G01 X72.86170 Y3.81015
G01 X72.89330 Y3.81523
G01 X72.95055 Y3.82925
G01 X72.98090 Y3.83931
G01 X73.00930 Y3.85409
G01 X73.03488 Y3.87317
G01 X73.07923 Y3.91198
G01 X73.09622 Y3.92890
G01 X73.11110 Y3.94767
G01 X73.23135 Y4.11927
G01 X73.23107 Y4.11950
G01 X73.23135 Y4.11927
G01 X73.37366 Y4.26164
G01 X73.37346 Y4.26189
G01 X73.37366 Y4.26164
G01 X73.54493 Y4.38150
G01 X73.56371 Y4.39644
G01 X73.58057 Y4.41348
G01 X73.61943 Y4.45780
G01 X73.63851 Y4.48348
G01 X73.65332 Y4.51183
G01 X73.66332 Y4.54216
G01 X73.67737 Y4.59936
G01 X73.68245 Y4.63098
G01 X73.68245 Y4.66291
G01 X73.67737 Y4.69448
G01 X73.66332 Y4.75176
G01 X73.65332 Y4.78208
G01 X73.63851 Y4.81051
G01 X73.61943 Y4.83613
G01 X73.58057 Y4.88043
G01 X73.56371 Y4.89748
G01 X73.54493 Y4.91231
G01 X73.37366 Y5.03222
G01 X73.37346 Y5.03202
G01 X73.37366 Y5.03222
G01 X73.23135 Y5.17456
G01 X73.23107 Y5.17439
G01 X73.23135 Y5.17456
G01 X73.11110 Y5.34629
G01 X73.09622 Y5.36501
G01 X73.07923 Y5.38188
G01 X73.03488 Y5.42074
G01 X73.00930 Y5.43982
G01 X72.98090 Y5.45460
G01 X72.95055 Y5.46471
G01 X72.89330 Y5.47873
G01 X72.86170 Y5.48381
G01 X72.82975 Y5.48381
G01 X72.79815 Y5.47873
G01 X72.74090 Y5.46471
G01 X72.71060 Y5.45460
G01 X72.68702 Y5.44238
G01 X72.68309 Y5.42836
G01 X72.68702 Y5.44238
G01 X72.56272 Y5.56664
G01 X72.54687 Y5.56265
G01 X72.56272 Y5.56664
G01 X72.60110 Y5.69311
G01 X72.60585 Y5.71213
G01 X72.60872 Y5.73151
G01 X72.62505 Y5.89732
G01 X72.62505 Y5.93654
G01 X72.60872 Y6.10238
G01 X72.60585 Y6.12183
G01 X72.60110 Y6.14088
G01 X72.56272 Y6.26722
G01 X72.54687 Y6.27131
G01 X72.56272 Y6.26722
G01 X72.68702 Y6.39155
G01 X72.68309 Y6.40552
G01 X72.68702 Y6.39155
G01 X72.71060 Y6.37929
G01 X72.74090 Y6.36923
G01 X72.79815 Y6.35521
G01 X72.82975 Y6.35015
G01 X72.86170 Y6.35015
G01 X72.89330 Y6.35521
G01 X72.95055 Y6.36923
G01 X72.98090 Y6.37929
G01 X73.00930 Y6.39409
G01 X73.03488 Y6.41317
G01 X73.07923 Y6.45201
G01 X73.09622 Y6.46887
G01 X73.11110 Y6.48764
G01 X73.23135 Y6.65932
G01 X73.23107 Y6.65955
G01 X73.23135 Y6.65932
G01 X73.37366 Y6.80166
G01 X73.37346 Y6.80194
G01 X73.37366 Y6.80166
G01 X73.53856 Y6.91713
G01 X73.53841 Y6.91744
G01 X73.53856 Y6.91713
G01 X73.72106 Y7.00220
G01 X73.72091 Y7.00255
G01 X73.72106 Y7.00220
G01 X73.91547 Y7.05432
G01 X73.91542 Y7.05467
G01 X73.91547 Y7.05432
G01 X74.11600 Y7.07187
G01 X74.11600 Y7.07222
G01 X74.11600 Y7.07187
G01 X74.31659 Y7.05432
G01 X74.31666 Y7.05467
G01 X74.31659 Y7.05432
G01 X74.51102 Y7.00220
G01 X74.51115 Y7.00255
G01 X74.51102 Y7.00220
G01 X74.69352 Y6.91713
G01 X74.69373 Y6.91744
G01 X74.69352 Y6.91713
G01 X74.85839 Y6.80166
G01 X74.85867 Y6.80194
G01 X74.85839 Y6.80166
G01 X75.00076 Y6.65932
G01 X75.00099 Y6.65955
G01 X75.00076 Y6.65932
G01 X75.12060 Y6.48810
G01 X75.13553 Y6.46930
G01 X75.15258 Y6.45244
G01 X75.19690 Y6.41355
G01 X75.22258 Y6.39448
G01 X75.25093 Y6.37972
G01 X75.28123 Y6.36969
G01 X75.33850 Y6.35561
G01 X75.37008 Y6.35056
G01 X75.40206 Y6.35056
G01 X75.43363 Y6.35561
G01 X75.49090 Y6.36969
G01 X75.52121 Y6.37972
G01 X75.54955 Y6.39453
G01 X75.57523 Y6.41360
G01 X75.61948 Y6.45244
G01 X75.63652 Y6.46930
G01 X75.65143 Y6.48810
G01 X75.77137 Y6.65932
G01 X75.77107 Y6.65955
G01 X75.77137 Y6.65932
G01 X75.91366 Y6.80166
G01 X75.91346 Y6.80194
G01 X75.91366 Y6.80166
G01 X76.07861 Y6.91713
G01 X76.07841 Y6.91744
G01 X76.07861 Y6.91713
G01 X76.26103 Y7.00220
G01 X76.26091 Y7.00255
G01 X76.26103 Y7.00220
G01 X76.45547 Y7.05432
G01 X76.45547 Y7.05467
G01 X76.45547 Y7.05432
G01 X76.65603 Y7.07187
G01 X76.65603 Y7.07222
G01 X76.65603 Y7.07187
G01 X76.85656 Y7.05432
G01 X76.85666 Y7.05467
G01 X76.85656 Y7.05432
G01 X77.05105 Y7.00220
G01 X77.05115 Y7.00255
G01 X77.05105 Y7.00220
G01 X77.23355 Y6.91713
G01 X77.23373 Y6.91744
G01 X77.23355 Y6.91713
G01 X77.39839 Y6.80166
G01 X77.39867 Y6.80194
G01 X77.39839 Y6.80166
G01 X77.54071 Y6.65932
G01 X77.54099 Y6.65955
G01 X77.54071 Y6.65932
G01 X77.66062 Y6.48810
G01 X77.67553 Y6.46930
G01 X77.69258 Y6.45244
G01 X77.73693 Y6.41355
G01 X77.76253 Y6.39448
G01 X77.79087 Y6.37972
G01 X77.82125 Y6.36969
G01 X77.87845 Y6.35561
G01 X77.91003 Y6.35056
G01 X77.94200 Y6.35056
G01 X77.97358 Y6.35561
G01 X78.03085 Y6.36969
G01 X78.06121 Y6.37972
G01 X78.08955 Y6.39453
G01 X78.11518 Y6.41360
G01 X78.15948 Y6.45244
G01 X78.17655 Y6.46930
G01 X78.19146 Y6.48810
G01 X78.31132 Y6.65932
G01 X78.31109 Y6.65955
G01 X78.31132 Y6.65932
G01 X78.45369 Y6.80166
G01 X78.45348 Y6.80194
G01 X78.45369 Y6.80166
G01 X78.61856 Y6.91713
G01 X78.61843 Y6.91744
G01 X78.61856 Y6.91713
G01 X78.80103 Y7.00220
G01 X78.80093 Y7.00255
G01 X78.80103 Y7.00220
G01 X78.99550 Y7.05432
G01 X78.99542 Y7.05467
G01 X78.99550 Y7.05432
G01 X79.19605 Y7.07187
G01 X79.19605 Y7.07222
G01 X79.19605 Y7.07187
G01 X79.39659 Y7.05432
G01 X79.39669 Y7.05467
G01 X79.39659 Y7.05432
G01 X79.59105 Y7.00220
G01 X79.59115 Y7.00255
G01 X79.59105 Y7.00220
G01 X79.77355 Y6.91713
G01 X79.77368 Y6.91744
G01 X79.77355 Y6.91713
G01 X79.93842 Y6.80166
G01 X79.93862 Y6.80194
G01 X79.93842 Y6.80166
G01 X80.08071 Y6.65932
G01 X80.08099 Y6.65955
G01 X80.08071 Y6.65932
G01 X80.20065 Y6.48810
G01 X80.21553 Y6.46930
G01 X80.23260 Y6.45244
G01 X80.27693 Y6.41355
G01 X80.30253 Y6.39448
G01 X80.33087 Y6.37972
G01 X80.36120 Y6.36969
G01 X80.41845 Y6.35561
G01 X80.45003 Y6.35056
G01 X80.48201 Y6.35056
G01 X80.51358 Y6.35561
G01 X80.57085 Y6.36969
G01 X80.60123 Y6.37972
G01 X80.62958 Y6.39453
G01 X80.65518 Y6.41360
G01 X80.69951 Y6.45244
G01 X80.71657 Y6.46930
G01 X80.73141 Y6.48810
G01 X80.85132 Y6.65932
G01 X80.85112 Y6.65955
G01 X80.85132 Y6.65932
G01 X80.99371 Y6.80166
G01 X80.99343 Y6.80194
G01 X80.99371 Y6.80166
G01 X81.15856 Y6.91713
G01 X81.15838 Y6.91744
G01 X81.15856 Y6.91713
G01 X81.34106 Y7.00220
G01 X81.34096 Y7.00255
G01 X81.34106 Y7.00220
G01 X81.53552 Y7.05432
G01 X81.53542 Y7.05467
G01 X81.53552 Y7.05432
G01 X81.73605 Y7.07187
G01 X81.73605 Y7.07222
G01 X81.73605 Y7.07187
G01 X81.93661 Y7.05432
G01 X81.93664 Y7.05467
G01 X81.93661 Y7.05432
G01 X82.13107 Y7.00220
G01 X82.13118 Y7.00255
G01 X82.13107 Y7.00220
G01 X82.31350 Y6.91713
G01 X82.31368 Y6.91744
G01 X82.31350 Y6.91713
G01 X82.47842 Y6.80166
G01 X82.47862 Y6.80194
G01 X82.47842 Y6.80166
G01 X82.62071 Y6.65932
G01 X82.62102 Y6.65955
G01 X82.62071 Y6.65932
G01 X82.74065 Y6.48810
G01 X82.75556 Y6.46930
G01 X82.77263 Y6.45244
G01 X82.81695 Y6.41355
G01 X82.84255 Y6.39448
G01 X82.87090 Y6.37972
G01 X82.90120 Y6.36969
G01 X82.95845 Y6.35561
G01 X82.99005 Y6.35056
G01 X83.02200 Y6.35056
G01 X83.05358 Y6.35561
G01 X83.11085 Y6.36969
G01 X83.14118 Y6.37972
G01 X83.16960 Y6.39453
G01 X83.19521 Y6.41360
G01 X83.23953 Y6.45244
G01 X83.25652 Y6.46930
G01 X83.27141 Y6.48810
G01 X83.39132 Y6.65932
G01 X83.39107 Y6.65955
G01 X83.39132 Y6.65932
G01 X83.53371 Y6.80166
G01 X83.53343 Y6.80194
G01 X83.53371 Y6.80166
G01 X83.69856 Y6.91713
G01 X83.69838 Y6.91744
G01 X83.69856 Y6.91713
G01 X83.88108 Y7.00220
G01 X83.88091 Y7.00255
G01 X83.88108 Y7.00220
G01 X84.07547 Y7.05432
G01 X84.07544 Y7.05467
G01 X84.07547 Y7.05432
G01 X84.27600 Y7.07187
G01 X84.27600 Y7.07222
G01 X84.27600 Y7.07187
G01 X84.47656 Y7.05432
G01 X84.47664 Y7.05467
G01 X84.47656 Y7.05432
G01 X84.67102 Y7.00220
G01 X84.67120 Y7.00255
G01 X84.67102 Y7.00220
G01 X84.85350 Y6.91713
G01 X84.85370 Y6.91744
G01 X84.85350 Y6.91713
G01 X85.01844 Y6.80166
G01 X85.01865 Y6.80194
G01 X85.01844 Y6.80166
G01 X85.16074 Y6.65932
G01 X85.16104 Y6.65955
G01 X85.16074 Y6.65932
G01 X85.28098 Y6.48764
G01 X85.29589 Y6.46887
G01 X85.31293 Y6.45201
G01 X85.35720 Y6.41312
G01 X85.38286 Y6.39404
G01 X85.41121 Y6.37929
G01 X85.44151 Y6.36923
G01 X85.49878 Y6.35521
G01 X85.53036 Y6.35015
G01 X85.56234 Y6.35015
G01 X85.59391 Y6.35521
G01 X85.65118 Y6.36923
G01 X85.68149 Y6.37929
G01 X85.70503 Y6.39155
G01 X85.70902 Y6.40552
G01 X85.70503 Y6.39155
G01 X85.82937 Y6.26725
G01 X85.84516 Y6.27134
G01 X85.82937 Y6.26725
G01 X85.79101 Y6.14088
G01 X85.78621 Y6.12183
G01 X85.78337 Y6.10238
G01 X85.76698 Y5.93654
G01 X85.76602 Y5.91693
G01 X85.76698 Y5.89732
G01 X85.78337 Y5.73151
G01 X85.78621 Y5.71213
G01 X85.79101 Y5.69311
G01 X85.82937 Y5.56661
G01 X85.84524 Y5.56263
G01 X85.82937 Y5.56661
G01 X85.70503 Y5.44238
G01 X85.70902 Y5.42836
G01 X85.70503 Y5.44238
G01 X85.68149 Y5.45460
G01 X85.65118 Y5.46471
G01 X85.59391 Y5.47873
G01 X85.56234 Y5.48381
G01 X85.53036 Y5.48381
G01 X85.49878 Y5.47873
G01 X85.44151 Y5.46471
G01 X85.41121 Y5.45460
G01 X85.38286 Y5.43984
G01 X85.35720 Y5.42077
G01 X85.31293 Y5.38190
G01 X85.29589 Y5.36504
G01 X85.28090 Y5.34627
G01 X85.16074 Y5.17456
G01 X85.16104 Y5.17439
G01 X85.16074 Y5.17456
G01 X85.01844 Y5.03222
G01 X85.01865 Y5.03202
G01 X85.01844 Y5.03222
G01 X84.84715 Y4.91231
G01 X84.82840 Y4.89745
G01 X84.81154 Y4.88041
G01 X84.77262 Y4.83608
G01 X84.75357 Y4.81046
G01 X84.73879 Y4.78206
G01 X84.72876 Y4.75173
G01 X84.71474 Y4.69448
G01 X84.70963 Y4.66291
G01 X84.70963 Y4.63098
G01 X84.71474 Y4.59936
G01 X84.72876 Y4.54216
G01 X84.73879 Y4.51183
G01 X84.75357 Y4.48348
G01 X84.77262 Y4.45780
G01 X84.81154 Y4.41348
G01 X84.82840 Y4.39644
G01 X84.84722 Y4.38150
G01 X85.01857 Y4.26184
G01 X85.16074 Y4.11927
G01 X85.16104 Y4.11950
G01 X85.16074 Y4.11927
G01 X85.28060 Y3.94805
G01 X85.29558 Y3.92930
G01 X85.31258 Y3.91244
G01 X85.35690 Y3.87353
G01 X85.38258 Y3.85445
G01 X85.41090 Y3.83969
G01 X85.44120 Y3.82963
G01 X85.49848 Y3.81561
G01 X85.53005 Y3.81053
G01 X85.56203 Y3.81053
G01 X85.59360 Y3.81561
G01 X85.65088 Y3.82963
G01 X85.68118 Y3.83969
G01 X85.70955 Y3.85448
G01 X85.73521 Y3.87360
G01 X85.77953 Y3.91246
G01 X85.79652 Y3.92933
G01 X85.81141 Y3.94805
G01 X85.93135 Y4.11927
G01 X85.93107 Y4.11950
G01 X85.93135 Y4.11927
G01 X86.07366 Y4.26164
G01 X86.07343 Y4.26189
G01 X86.07366 Y4.26164
G01 X86.24537 Y4.38186
G01 X86.26419 Y4.39679
G01 X86.28105 Y4.41383
G01 X86.31989 Y4.45816
G01 X86.33894 Y4.48373
G01 X86.35372 Y4.51208
G01 X86.36376 Y4.54241
G01 X86.37778 Y4.59971
G01 X86.38286 Y4.63123
G01 X86.38286 Y4.66326
G01 X86.37778 Y4.69483
G01 X86.36376 Y4.75211
G01 X86.35372 Y4.78244
G01 X86.34145 Y4.80593
G01 X86.32746 Y4.80995
G01 X86.34145 Y4.80593
G01 X86.46571 Y4.93029
G01 X86.46170 Y4.94553
G01 X86.46571 Y4.93029
G01 X86.59213 Y4.89189
G01 X86.63058 Y4.88424
G01 X86.79642 Y4.86791
G01 X86.83561 Y4.86791
G01 X87.00145 Y4.88424
G01 X87.03990 Y4.89189
G01 X87.16632 Y4.93029
G01 X87.17033 Y4.94553
G01 X87.16632 Y4.93029
G01 X87.29065 Y4.80593
G01 X87.30460 Y4.80995
G01 X87.29065 Y4.80593
G01 X87.27838 Y4.78244
G01 X87.26830 Y4.75211
G01 X87.25428 Y4.69483
G01 X87.24920 Y4.66326
G01 X87.24920 Y4.63123
G01 X87.25428 Y4.59971
G01 X87.26830 Y4.54241
G01 X87.27838 Y4.51208
G01 X87.29312 Y4.48373
G01 X87.31219 Y4.45816
G01 X87.35108 Y4.41383
G01 X87.36794 Y4.39679
G01 X87.38677 Y4.38186
G01 X87.55839 Y4.26164
G01 X87.55865 Y4.26189
G01 X87.55839 Y4.26164
G01 X87.70074 Y4.11927
G01 X87.70094 Y4.11947
G01 X87.70074 Y4.11927
G01 X87.82062 Y3.94805
G01 X87.83553 Y3.92930
G01 X87.85260 Y3.91244
G01 X87.89693 Y3.87353
G01 X87.92255 Y3.85445
G01 X87.95090 Y3.83969
G01 X87.98120 Y3.82963
G01 X88.03848 Y3.81561
G01 X88.07005 Y3.81053
G01 X88.10203 Y3.81053
G01 X88.13360 Y3.81561
G01 X88.19088 Y3.82963
G01 X88.22118 Y3.83969
G01 X88.24955 Y3.85448
G01 X88.27521 Y3.87360
G01 X88.31948 Y3.91246
G01 X88.33655 Y3.92933
G01 X88.35141 Y3.94805
G01 X88.47135 Y4.11927
G01 X88.47114 Y4.11945
G01 X88.47135 Y4.11927
G01 X88.61369 Y4.26164
G01 X88.61343 Y4.26189
G01 X88.61369 Y4.26164
G01 X88.78491 Y4.38150
G01 X88.80373 Y4.39644
G01 X88.82060 Y4.41348
G01 X88.85943 Y4.45780
G01 X88.87851 Y4.48348
G01 X88.89327 Y4.51183
G01 X88.90332 Y4.54216
G01 X88.91734 Y4.59936
G01 X88.92245 Y4.63098
G01 X88.92245 Y4.66291
G01 X88.91734 Y4.69448
G01 X88.90332 Y4.75176
G01 X88.89327 Y4.78208
G01 X88.87851 Y4.81051
G01 X88.85943 Y4.83613
G01 X88.82055 Y4.88043
G01 X88.80368 Y4.89748
G01 X88.78491 Y4.91231
G01 X88.61369 Y5.03222
G01 X88.61348 Y5.03207
G01 X88.61369 Y5.03222
G01 X88.47135 Y5.17456
G01 X88.47109 Y5.17439
G01 X88.47135 Y5.17456
G01 X88.35110 Y5.34629
G01 X88.33622 Y5.36501
G01 X88.31920 Y5.38188
G01 X88.27488 Y5.42074
G01 X88.24927 Y5.43982
G01 X88.22088 Y5.45460
G01 X88.19057 Y5.46471
G01 X88.13330 Y5.47873
G01 X88.10173 Y5.48381
G01 X88.06972 Y5.48381
G01 X88.03817 Y5.47873
G01 X87.98092 Y5.46471
G01 X87.95057 Y5.45460
G01 X87.92702 Y5.44238
G01 X87.92306 Y5.42836
G01 X87.92702 Y5.44238
G01 X87.80272 Y5.56664
G01 X87.78684 Y5.56265
G01 X87.80272 Y5.56664
G01 X87.84107 Y5.69311
G01 X87.84587 Y5.71213
G01 X87.84872 Y5.73151
G01 X87.86505 Y5.89732
G01 X87.86505 Y5.93654
G01 X87.84872 Y6.10238
G01 X87.84587 Y6.12183
G01 X87.84107 Y6.14088
G01 X87.80272 Y6.26722
G01 X87.78689 Y6.27131
G01 X87.80272 Y6.26722
G01 X87.92702 Y6.39155
G01 X87.92306 Y6.40552
G01 X87.92702 Y6.39155
G01 X87.95057 Y6.37929
G01 X87.98092 Y6.36923
G01 X88.03817 Y6.35521
G01 X88.06972 Y6.35015
G01 X88.10173 Y6.35015
G01 X88.13330 Y6.35521
G01 X88.19057 Y6.36923
G01 X88.22088 Y6.37929
G01 X88.24927 Y6.39409
G01 X88.27488 Y6.41317
G01 X88.31920 Y6.45201
G01 X88.33622 Y6.46887
G01 X88.35110 Y6.48764
G01 X88.47135 Y6.65932
G01 X88.47109 Y6.65955
G01 X88.47135 Y6.65932
G01 X88.61369 Y6.80166
G01 X88.61343 Y6.80194
G01 X88.61369 Y6.80166
G01 X88.77858 Y6.91713
G01 X88.77838 Y6.91744
G01 X88.77858 Y6.91713
G01 X88.96103 Y7.00220
G01 X88.96093 Y7.00255
G01 X88.96103 Y7.00220
G01 X89.15550 Y7.05432
G01 X89.15544 Y7.05467
G01 X89.15550 Y7.05432
G01 X89.35600 Y7.07187
G01 X89.35600 Y7.07222
G01 X89.35600 Y7.07187
G01 X89.55659 Y7.05432
G01 X89.55664 Y7.05467
G01 X89.55659 Y7.05432
G01 X89.75102 Y7.00220
G01 X89.75115 Y7.00255
G01 X89.75102 Y7.00220
G01 X89.93352 Y6.91713
G01 X89.93370 Y6.91744
G01 X89.93352 Y6.91713
G01 X90.09842 Y6.80166
G01 X90.09865 Y6.80194
G01 X90.09842 Y6.80166
G01 X90.24071 Y6.65932
G01 X90.24099 Y6.65955
G01 X90.24071 Y6.65932
G01 X90.36060 Y6.48810
G01 X90.37556 Y6.46930
G01 X90.39260 Y6.45244
G01 X90.43690 Y6.41355
G01 X90.46253 Y6.39448
G01 X90.49088 Y6.37972
G01 X90.52123 Y6.36969
G01 X90.57845 Y6.35561
G01 X90.61003 Y6.35056
G01 X90.64200 Y6.35056
G01 X90.67358 Y6.35561
G01 X90.73085 Y6.36969
G01 X90.76123 Y6.37972
G01 X90.78958 Y6.39453
G01 X90.81518 Y6.41360
G01 X90.85951 Y6.45244
G01 X90.87652 Y6.46930
G01 X90.89143 Y6.48810
G01 X91.01132 Y6.65932
G01 X91.01107 Y6.65955
G01 X91.01132 Y6.65932
G01 X91.15366 Y6.80166
G01 X91.15346 Y6.80194
G01 X91.15366 Y6.80166
G01 X91.31856 Y6.91713
G01 X91.31841 Y6.91744
G01 X91.31856 Y6.91713
G01 X91.50106 Y7.00220
G01 X91.50091 Y7.00255
G01 X91.50106 Y7.00220
G01 X91.69547 Y7.05432
G01 X91.69542 Y7.05467
G01 X91.69547 Y7.05432
G01 X91.89603 Y7.07187
G01 X91.89603 Y7.07222
G01 X91.89603 Y7.07187
G01 X92.09656 Y7.05432
G01 X92.09666 Y7.05467
G01 X92.09656 Y7.05432
G01 X92.29102 Y7.00220
G01 X92.29118 Y7.00255
G01 X92.29102 Y7.00220
G01 X92.47352 Y6.91713
G01 X92.47368 Y6.91744
G01 X92.47352 Y6.91713
G01 X92.63839 Y6.80166
G01 X92.63862 Y6.80194
G01 X92.63839 Y6.80166
G01 X92.78074 Y6.65932
G01 X92.78102 Y6.65955
G01 X92.78074 Y6.65932
G01 X92.90062 Y6.48810
G01 X92.91556 Y6.46930
G01 X92.93258 Y6.45244
G01 X92.97690 Y6.41355
G01 X93.00255 Y6.39448
G01 X93.03090 Y6.37972
G01 X93.06120 Y6.36969
G01 X93.11848 Y6.35561
G01 X93.15005 Y6.35056
G01 X93.18201 Y6.35056
G01 X93.21360 Y6.35561
G01 X93.27085 Y6.36969
G01 X93.30121 Y6.37972
G01 X93.32955 Y6.39453
G01 X93.35521 Y6.41360
G01 X93.39948 Y6.45244
G01 X93.41655 Y6.46930
G01 X93.43141 Y6.48810
G01 X93.55132 Y6.65932
G01 X93.55109 Y6.65955
G01 X93.55132 Y6.65932
G01 X93.69366 Y6.80166
G01 X93.69343 Y6.80194
G01 X93.69366 Y6.80166
G01 X93.85856 Y6.91713
G01 X93.85838 Y6.91744
G01 X93.85856 Y6.91713
G01 X94.04103 Y7.00220
G01 X94.04091 Y7.00255
G01 X94.04103 Y7.00220
G01 X94.23547 Y7.05432
G01 X94.23544 Y7.05467
G01 X94.23547 Y7.05432
G01 X94.43608 Y7.07187
G01 X94.43608 Y7.07222
G01 X94.43608 Y7.07187
G01 X94.63656 Y7.05432
G01 X94.63664 Y7.05467
G01 X94.63656 Y7.05432
G01 X94.83107 Y7.00220
G01 X94.83115 Y7.00255
G01 X94.83107 Y7.00220
G01 X95.01355 Y6.91713
G01 X95.01370 Y6.91744
G01 X95.01355 Y6.91713
G01 X95.17844 Y6.80166
G01 X95.17865 Y6.80194
G01 X95.17844 Y6.80166
G01 X95.32076 Y6.65932
G01 X95.32104 Y6.65955
G01 X95.32076 Y6.65932
G01 X95.43618 Y6.49437
G01 X95.43656 Y6.49460
G01 X95.43618 Y6.49437
G01 X95.52127 Y6.31198
G01 X95.52168 Y6.31210
G01 X95.52127 Y6.31198
G01 X95.57341 Y6.11751
G01 X95.57375 Y6.11759
G01 X95.57341 Y6.11751
G01 X95.59097 Y5.91690
G01 X95.59130 Y5.91690
G01 X95.59097 Y5.91690
G01 X95.57341 Y5.71642
G01 X95.57375 Y5.71637
G01 X95.57341 Y5.71642
G01 X95.52127 Y5.52199
G01 X95.52168 Y5.52186
G01 X95.52127 Y5.52199
G01 X95.43618 Y5.33946
G01 X95.43656 Y5.33933
G01 X95.43618 Y5.33946
G01 X95.32079 Y5.17456
G01 X95.32104 Y5.17436
G01 X95.32079 Y5.17456
G01 X95.17844 Y5.03222
G01 X95.17865 Y5.03202
G01 X95.17844 Y5.03222
G01 X95.00720 Y4.91231
G01 X94.98835 Y4.89745
G01 X94.97149 Y4.88041
G01 X94.93262 Y4.83608
G01 X94.91360 Y4.81046
G01 X94.89879 Y4.78206
G01 X94.88878 Y4.75173
G01 X94.87476 Y4.69448
G01 X94.86968 Y4.66291
G01 X94.86968 Y4.63098
G01 X94.87476 Y4.59936
G01 X94.88878 Y4.54216
G01 X94.89879 Y4.51183
G01 X94.91360 Y4.48348
G01 X94.93262 Y4.45780
G01 X94.97149 Y4.41348
G01 X94.98835 Y4.39644
G01 X95.00722 Y4.38150
G01 X95.17844 Y4.26164
G01 X95.17865 Y4.26189
G01 X95.17844 Y4.26164
G01 X95.32076 Y4.11927
G01 X95.32104 Y4.11952
G01 X95.32076 Y4.11927
G01 X95.43618 Y3.95435
G01 X95.43656 Y3.95455
G01 X95.43618 Y3.95435
G01 X95.52127 Y3.77193
G01 X95.52168 Y3.77210
G01 X95.52127 Y3.77193
G01 X95.57341 Y3.57746
G01 X95.57375 Y3.57759
G01 X95.57341 Y3.57746
G01 X95.59097 Y3.37696
G01 X95.48510 Y3.37696
G01 X95.38601 Y3.37696
G01 X95.38553 Y3.38679
G01 X95.36920 Y3.55257
G01 X95.36541 Y3.57180
G01 X95.31700 Y3.73129
G01 X95.30956 Y3.74934
G01 X95.23095 Y3.89636
G01 X95.22592 Y3.90477
G01 X95.22013 Y3.91267
G01 X95.11441 Y4.04147
G01 X95.10776 Y4.04873
G01 X95.10049 Y4.05529
G01 X94.97169 Y4.16098
G01 X94.95538 Y4.17192
G01 X94.80849 Y4.25044
G01 X94.79955 Y4.25463
G01 X94.79033 Y4.25798
G01 X94.63092 Y4.30629
G01 X94.61169 Y4.31018
G01 X94.44581 Y4.32648
G01 X94.43605 Y4.32699
G01 X94.42625 Y4.32648
G01 X94.26039 Y4.31018
G01 X94.24116 Y4.30629
G01 X94.08175 Y4.25798
G01 X94.07250 Y4.25463
G01 X94.06359 Y4.25044
G01 X93.91670 Y4.17192
G01 X93.90039 Y4.16098
G01 X93.77159 Y4.05529
G01 X93.76430 Y4.04873
G01 X93.75767 Y4.04147
G01 X93.65196 Y3.91267
G01 X93.64106 Y3.89636
G01 X93.56252 Y3.74934
G01 X93.55836 Y3.74053
G01 X93.55505 Y3.73129
G01 X93.50667 Y3.57180
G01 X93.50283 Y3.55257
G01 X93.48650 Y3.38679
G01 X93.48602 Y3.37696
G01 X93.48650 Y3.36713
G01 X93.50283 Y3.20137
G01 X93.50667 Y3.18214
G01 X93.55505 Y3.02263
G01 X93.56252 Y3.00457
G01 X93.64106 Y2.85760
G01 X93.65196 Y2.84132
G01 X93.75767 Y2.71247
G01 X93.76430 Y2.70523
G01 X93.77159 Y2.69862
G01 X93.90039 Y2.59288
G01 X93.91670 Y2.58199
G01 X94.06359 Y2.50345
G01 X94.07250 Y2.49926
G01 X94.08175 Y2.49596
G01 X94.24116 Y2.44762
G01 X94.26039 Y2.44381
G01 X94.42625 Y2.42748
G01 X94.43605 Y2.42694
G01 X94.44581 Y2.42748
G01 X94.61169 Y2.44381
G01 X94.63092 Y2.44762
G01 X94.79033 Y2.49596
G01 X94.80849 Y2.50345
G01 X94.95538 Y2.58199
G01 X94.96381 Y2.58709
G01 X94.97169 Y2.59288
G01 X95.10049 Y2.69862
G01 X95.10776 Y2.70523
G01 X95.11441 Y2.71247
G01 X95.22013 Y2.84132
G01 X95.22592 Y2.84914
G01 X95.23095 Y2.85760
G01 X95.30956 Y3.00457
G01 X95.31700 Y3.02263
G01 X95.36541 Y3.18214
G01 X95.36920 Y3.20137
G01 X95.38553 Y3.36713
G01 X95.38601 Y3.37696
G01 X95.48510 Y3.35732
G01 X95.46872 Y3.19156
G01 X95.46585 Y3.17208
G01 X95.46112 Y3.15305
G01 X95.41271 Y2.99364
G01 X95.39775 Y2.95737
G01 X95.31914 Y2.81043
G01 X95.29737 Y2.77787
G01 X95.19165 Y2.64902
G01 X95.18307 Y2.63954
G01 X95.17347 Y2.62989
G01 X95.16394 Y2.62136
G01 X95.03514 Y2.51564
G01 X95.02361 Y2.50708
G01 X95.01652 Y2.50220
G01 X95.00252 Y2.49385
G01 X94.85564 Y2.41526
G01 X94.81934 Y2.40030
G01 X94.65990 Y2.35189
G01 X94.64085 Y2.34716
G01 X94.62150 Y2.34429
G01 X94.45561 Y2.32791
G01 X94.43605 Y2.32700
G01 X94.41647 Y2.32791
G01 X94.25058 Y2.34429
G01 X94.23123 Y2.34716
G01 X94.21218 Y2.35189
G01 X94.05272 Y2.40030
G01 X94.01645 Y2.41526
G01 X93.86956 Y2.49385
G01 X93.85574 Y2.50205
G01 X93.84817 Y2.50726
G01 X93.83694 Y2.51564
G01 X93.70814 Y2.62136
G01 X93.69895 Y2.62964
G01 X93.68871 Y2.63982
G01 X93.68043 Y2.64902
G01 X93.57466 Y2.77787
G01 X93.55290 Y2.81043
G01 X93.47436 Y2.95737
G01 X93.46598 Y2.97518
G01 X93.45935 Y2.99364
G01 X93.41096 Y3.15305
G01 X93.40334 Y3.19156
G01 X93.38698 Y3.35732
G01 X93.38604 Y3.37696
G01 X93.38698 Y3.39659
G01 X93.40334 Y3.56238
G01 X93.41096 Y3.60088
G01 X93.45935 Y3.76032
G01 X93.47436 Y3.79649
G01 X93.55290 Y3.94350
G01 X93.57466 Y3.97609
G01 X93.68043 Y4.10492
G01 X93.69356 Y4.11940
G01 X93.70814 Y4.13263
G01 X93.83694 Y4.23835
G01 X93.86956 Y4.26011
G01 X94.01645 Y4.33862
G01 X94.03425 Y4.34701
G01 X94.05272 Y4.35366
G01 X94.21218 Y4.40200
G01 X94.25058 Y4.40967
G01 X94.41647 Y4.42598
G01 X94.45561 Y4.42598
G01 X94.62150 Y4.40967
G01 X94.64085 Y4.40682
G01 X94.65990 Y4.40200
G01 X94.81934 Y4.35366
G01 X94.85564 Y4.33862
G01 X95.00252 Y4.26011
G01 X95.03514 Y4.23835
G01 X95.16394 Y4.13263
G01 X95.17306 Y4.12430
G01 X95.18342 Y4.11404
G01 X95.19165 Y4.10492
G01 X95.29737 Y3.97609
G01 X95.31914 Y3.94350
G01 X95.39775 Y3.79649
G01 X95.41271 Y3.76032
G01 X95.46112 Y3.60088
G01 X95.46585 Y3.58183
G01 X95.46872 Y3.56238
G01 X95.48510 Y3.39659
G01 X95.48510 Y3.37696
G01 X95.48510 Y3.35732
G04 P0 ( dwell for no time -- G64 should not smooth over this point )
G00 Z5.00000 ( retract )

G00 X95.48601 Y5.91693 ( rapid move to begin. )
G01 F150.00000
( Mill infeed pass 1/1 )
G01 Z-0.05000
G04 P0 ( dwell for no time -- G64 should not smooth over this point )
G01 F300.00000
G01 X95.48601 Y5.91693
G01 X95.48510 Y5.93654
G01 X95.46872 Y6.10238
G01 X95.46585 Y6.12183
G01 X95.46112 Y6.14088
G01 X95.41271 Y6.30029
G01 X95.39775 Y6.33649
G01 X95.31914 Y6.48348
G01 X95.31111 Y6.49696
G01 X95.30544 Y6.50524
G01 X95.29737 Y6.51609
G01 X95.19165 Y6.64489
G01 X95.18342 Y6.65401
G01 X95.17306 Y6.66432
G01 X95.16394 Y6.67261
G01 X95.03514 Y6.77832
G01 X95.00252 Y6.80009
G01 X94.85564 Y6.87865
G01 X94.81934 Y6.89364
G01 X94.65990 Y6.94205
G01 X94.64085 Y6.94680
G01 X94.62150 Y6.94969
G01 X94.45561 Y6.96603
G01 X94.43605 Y6.96699
G01 X94.41647 Y6.96603
G01 X94.25058 Y6.94969
G01 X94.21218 Y6.94205
G01 X94.05272 Y6.89364
G01 X94.01645 Y6.87865
G01 X93.86956 Y6.80009
G01 X93.83694 Y6.77832
G01 X93.70814 Y6.67261
G01 X93.69925 Y6.66460
G01 X93.68843 Y6.65373
G01 X93.68043 Y6.64489
G01 X93.57466 Y6.51609
G01 X93.55290 Y6.48348
G01 X93.47436 Y6.33649
G01 X93.45935 Y6.30029
G01 X93.41096 Y6.14088
G01 X93.40334 Y6.10238
G01 X93.38698 Y5.93654
G01 X93.38604 Y5.91693
G01 X93.38698 Y5.89732
G01 X93.40334 Y5.73151
G01 X93.41096 Y5.69311
G01 X93.45935 Y5.53359
G01 X93.47436 Y5.49737
G01 X93.55290 Y5.35048
G01 X93.57466 Y5.31782
G01 X93.68043 Y5.18907
G01 X93.69356 Y5.17451
G01 X93.70814 Y5.16131
G01 X93.83694 Y5.05559
G01 X93.86956 Y5.03380
G01 X94.01645 Y4.95529
G01 X94.03425 Y4.94685
G01 X94.05272 Y4.94030
G01 X94.21218 Y4.89189
G01 X94.23123 Y4.88711
G01 X94.25058 Y4.88424
G01 X94.41647 Y4.86791
G01 X94.43605 Y4.86700
G01 X94.45561 Y4.86791
G01 X94.62150 Y4.88424
G01 X94.64085 Y4.88711
G01 X94.65990 Y4.89189
G01 X94.81934 Y4.94030
G01 X94.85564 Y4.95529
G01 X95.00252 Y5.03380
G01 X95.03514 Y5.05559
G01 X95.16394 Y5.16131
G01 X95.17347 Y5.16989
G01 X95.18307 Y5.17954
G01 X95.19165 Y5.18907
G01 X95.29737 Y5.31782
G01 X95.31914 Y5.35048
G01 X95.39775 Y5.49737
G01 X95.41271 Y5.53359
G01 X95.46112 Y5.69311
G01 X95.46585 Y5.71213
G01 X95.46872 Y5.73151
G01 X95.48510 Y5.89732
G01 X95.48601 Y5.91693
G01 X95.38601 Y5.91693
G01 X95.38553 Y5.90713
G01 X95.36920 Y5.74131
G01 X95.36541 Y5.72214
G01 X95.31700 Y5.56268
G01 X95.30956 Y5.54457
G01 X95.23095 Y5.39755
G01 X95.22592 Y5.38919
G01 X95.22013 Y5.38127
G01 X95.11441 Y5.25252
G01 X95.10776 Y5.24518
G01 X95.10049 Y5.23865
G01 X94.97169 Y5.13293
G01 X94.96381 Y5.12709
G01 X94.95538 Y5.12204
G01 X94.80849 Y5.04345
G01 X94.79033 Y5.03596
G01 X94.63092 Y4.98762
G01 X94.61169 Y4.98376
G01 X94.44581 Y4.96743
G01 X94.43605 Y4.96700
G01 X94.42625 Y4.96743
G01 X94.26039 Y4.98376
G01 X94.24116 Y4.98762
G01 X94.08175 Y5.03596
G01 X94.07250 Y5.03926
G01 X94.06359 Y5.04345
G01 X93.91670 Y5.12204
G01 X93.90039 Y5.13293
G01 X93.77159 Y5.23865
G01 X93.76430 Y5.24518
G01 X93.75767 Y5.25252
G01 X93.65196 Y5.38127
G01 X93.64106 Y5.39755
G01 X93.56252 Y5.54457
G01 X93.55836 Y5.55343
G01 X93.55505 Y5.56268
G01 X93.50667 Y5.72214
G01 X93.50283 Y5.74131
G01 X93.48650 Y5.90713
G01 X93.48602 Y5.91693
G01 X93.48650 Y5.92673
G01 X93.50283 Y6.09257
G01 X93.50667 Y6.11185
G01 X93.55505 Y6.27129
G01 X93.55836 Y6.28053
G01 X93.56252 Y6.28940
G01 X93.64106 Y6.43636
G01 X93.65196 Y6.45264
G01 X93.75767 Y6.58144
G01 X93.76430 Y6.58871
G01 X93.77159 Y6.59529
G01 X93.90039 Y6.70100
G01 X93.91670 Y6.71192
G01 X94.06359 Y6.79049
G01 X94.08175 Y6.79798
G01 X94.24116 Y6.84632
G01 X94.25074 Y6.84873
G01 X94.26039 Y6.85015
G01 X94.42625 Y6.86648
G01 X94.43605 Y6.86697
G01 X94.44581 Y6.86648
G01 X94.61169 Y6.85015
G01 X94.62135 Y6.84873
G01 X94.63092 Y6.84632
G01 X94.79033 Y6.79798
G01 X94.80849 Y6.79049
G01 X94.95538 Y6.71192
G01 X94.97169 Y6.70100
G01 X95.10049 Y6.59529
G01 X95.11441 Y6.58144
G01 X95.22013 Y6.45264
G01 X95.22592 Y6.44474
G01 X95.23095 Y6.43636
G01 X95.30956 Y6.28940
G01 X95.31700 Y6.27129
G01 X95.36541 Y6.11185
G01 X95.36920 Y6.09257
G01 X95.38553 Y5.92673
G01 X95.38601 Y5.91693
G04 P0 ( dwell for no time -- G64 should not smooth over this point )
G00 Z5.00000 ( retract )

G00 X97.60412 Y10.06145 ( rapid move to begin. )
G01 F150.00000
( Mill infeed pass 1/1 )
G01 Z-0.05000
G04 P0 ( dwell for no time -- G64 should not smooth over this point )
G01 F300.00000
G01 X97.60412 Y10.06145
G01 X97.57593 Y10.30557
G01 X97.51075 Y10.54255
G01 X97.41029 Y10.76678
G01 X97.27669 Y10.97310
G01 X97.11316 Y11.15654
G01 X96.92353 Y11.31291
G01 X96.71233 Y11.43848
G01 X96.48436 Y11.53038
G01 X96.24512 Y11.58636
G01 X96.06137 Y11.60043
G01 X95.87720 Y11.60043
G01 X95.63427 Y11.56297
G01 X95.40001 Y11.48880
G01 X95.17977 Y11.37973
G01 X94.97872 Y11.23838
G01 X94.80164 Y11.06795
G01 X94.65272 Y10.87250
G01 X94.53527 Y10.65660
G01 X94.45221 Y10.42530
G01 X94.40540 Y10.18408
G01 X94.39605 Y9.93846
G01 X94.42424 Y9.69432
G01 X94.48932 Y9.45739
G01 X94.58988 Y9.23313
G01 X94.72343 Y9.02683
G01 X94.88693 Y8.84339
G01 X95.07651 Y8.68703
G01 X95.28782 Y8.56140
G01 X95.51571 Y8.46958
G01 X95.75503 Y8.41357
G01 X95.93867 Y8.39945
G01 X96.12294 Y8.39945
G01 X96.36579 Y8.43697
G01 X96.60006 Y8.51111
G01 X96.82038 Y8.62020
G01 X97.02132 Y8.76153
G01 X97.19846 Y8.93196
G01 X97.34743 Y9.12744
G01 X97.46483 Y9.34334
G01 X97.54786 Y9.57463
G01 X97.59465 Y9.81588
G01 X97.60412 Y10.06145
G01 X97.50415 Y10.05761
G01 X97.50384 Y10.05761
G01 X97.49500 Y9.82736
G01 X97.49531 Y9.82736
G01 X97.49500 Y9.82736
G01 X97.45116 Y9.60120
G01 X97.45149 Y9.60112
G01 X97.45116 Y9.60120
G01 X97.37326 Y9.38433
G01 X97.37359 Y9.38423
G01 X97.37326 Y9.38433
G01 X97.26325 Y9.18192
G01 X97.26345 Y9.18177
G01 X97.26325 Y9.18192
G01 X97.12353 Y8.99869
G01 X97.12375 Y8.99848
G01 X97.12353 Y8.99869
G01 X96.95751 Y8.83895
G01 X96.95771 Y8.83869
G01 X96.95751 Y8.83895
G01 X96.76907 Y8.70641
G01 X96.76922 Y8.70615
G01 X96.76907 Y8.70641
G01 X96.56257 Y8.60412
G01 X96.56269 Y8.60387
G01 X96.56257 Y8.60412
G01 X96.34298 Y8.53463
G01 X96.34306 Y8.53435
G01 X96.34298 Y8.53463
G01 X96.11527 Y8.49948
G01 X96.11530 Y8.49899
G01 X96.11527 Y8.49948
G01 X95.94255 Y8.49948
G01 X95.77029 Y8.51268
G01 X95.77024 Y8.51223
G01 X95.77029 Y8.51268
G01 X95.54596 Y8.56518
G01 X95.54591 Y8.56493
G01 X95.54596 Y8.56518
G01 X95.33232 Y8.65129
G01 X95.33217 Y8.65104
G01 X95.33232 Y8.65129
G01 X95.13425 Y8.76907
G01 X95.13410 Y8.76882
G01 X95.13425 Y8.76907
G01 X94.95653 Y8.91563
G01 X94.95632 Y8.91543
G01 X94.95653 Y8.91563
G01 X94.80319 Y9.08764
G01 X94.80296 Y9.08748
G01 X94.80319 Y9.08764
G01 X94.67799 Y9.28103
G01 X94.67768 Y9.28088
G01 X94.67799 Y9.28103
G01 X94.58370 Y9.49127
G01 X94.58348 Y9.49117
G01 X94.58370 Y9.49127
G01 X94.52264 Y9.71344
G01 X94.52236 Y9.71339
G01 X94.52264 Y9.71344
G01 X94.49628 Y9.94232
G01 X94.49597 Y9.94232
G01 X94.49628 Y9.94232
G01 X94.50504 Y10.17255
G01 X94.50474 Y10.17260
G01 X94.50504 Y10.17255
G01 X94.54896 Y10.39873
G01 X94.54863 Y10.39884
G01 X94.54896 Y10.39873
G01 X94.62678 Y10.61560
G01 X94.62655 Y10.61570
G01 X94.62678 Y10.61560
G01 X94.73684 Y10.81801
G01 X94.73664 Y10.81816
G01 X94.73684 Y10.81801
G01 X94.87652 Y11.00120
G01 X94.87631 Y11.00140
G01 X94.87652 Y11.00120
G01 X95.04258 Y11.16101
G01 X95.04240 Y11.16124
G01 X95.04258 Y11.16101
G01 X95.23097 Y11.29355
G01 X95.23082 Y11.29378
G01 X95.23097 Y11.29355
G01 X95.43745 Y11.39579
G01 X95.43737 Y11.39607
G01 X95.43745 Y11.39579
G01 X95.65718 Y11.46531
G01 X95.65711 Y11.46556
G01 X95.65718 Y11.46531
G01 X95.88487 Y11.50046
G01 X95.88484 Y11.50094
G01 X95.88487 Y11.50046
G01 X96.05759 Y11.50046
G01 X96.22975 Y11.48723
G01 X96.22983 Y11.48771
G01 X96.22975 Y11.48723
G01 X96.45411 Y11.43475
G01 X96.45419 Y11.43500
G01 X96.45411 Y11.43475
G01 X96.66777 Y11.34862
G01 X96.66795 Y11.34890
G01 X96.66777 Y11.34862
G01 X96.86582 Y11.23089
G01 X96.86605 Y11.23112
G01 X96.86582 Y11.23089
G01 X97.04362 Y11.08428
G01 X97.04377 Y11.08451
G01 X97.04362 Y11.08428
G01 X97.19693 Y10.91227
G01 X97.19711 Y10.91245
G01 X97.19693 Y10.91227
G01 X97.32215 Y10.71888
G01 X97.32243 Y10.71903
G01 X97.32215 Y10.71888
G01 X97.41636 Y10.50867
G01 X97.41664 Y10.50877
G01 X97.41636 Y10.50867
G01 X97.47748 Y10.28649
G01 X97.47770 Y10.28654
G01 X97.47748 Y10.28649
G01 X97.50384 Y10.05761
G04 P0 ( dwell for no time -- G64 should not smooth over this point )
G00 Z5.00000 ( retract )

G00 X92.94505 Y5.89732 ( rapid move to begin. )
G01 F150.00000
( Mill infeed pass 1/1 )
G01 Z-0.05000
G04 P0 ( dwell for no time -- G64 should not smooth over this point )
G01 F300.00000
G01 X92.94505 Y5.89732
G01 X92.94505 Y5.93654
G01 X92.92872 Y6.10238
G01 X92.92587 Y6.12183
G01 X92.92107 Y6.14088
G01 X92.87271 Y6.30029
G01 X92.85770 Y6.33649
G01 X92.77916 Y6.48348
G01 X92.77101 Y6.49707
G01 X92.76552 Y6.50514
G01 X92.75739 Y6.51609
G01 X92.65168 Y6.64489
G01 X92.64337 Y6.65401
G01 X92.63309 Y6.66432
G01 X92.62397 Y6.67261
G01 X92.49516 Y6.77832
G01 X92.48422 Y6.78645
G01 X92.47609 Y6.79196
G01 X92.46255 Y6.80009
G01 X92.31559 Y6.87865
G01 X92.27937 Y6.89364
G01 X92.11990 Y6.94205
G01 X92.10088 Y6.94680
G01 X92.08147 Y6.94969
G01 X91.91564 Y6.96603
G01 X91.89603 Y6.96699
G01 X91.87645 Y6.96603
G01 X91.71058 Y6.94969
G01 X91.69120 Y6.94680
G01 X91.67213 Y6.94205
G01 X91.51267 Y6.89364
G01 X91.47645 Y6.87865
G01 X91.32953 Y6.80009
G01 X91.29689 Y6.77832
G01 X91.16812 Y6.67261
G01 X91.15920 Y6.66450
G01 X91.14846 Y6.65378
G01 X91.14038 Y6.64489
G01 X91.03466 Y6.51609
G01 X91.01287 Y6.48348
G01 X90.93433 Y6.33649
G01 X90.92595 Y6.31876
G01 X90.91932 Y6.30029
G01 X90.87099 Y6.14088
G01 X90.86334 Y6.10238
G01 X90.84701 Y5.93654
G01 X90.84701 Y5.89732
G01 X90.86334 Y5.73151
G01 X90.86619 Y5.71213
G01 X90.87099 Y5.69311
G01 X90.91932 Y5.53359
G01 X90.93433 Y5.49737
G01 X91.01287 Y5.35048
G01 X91.02298 Y5.33364
G01 X91.03466 Y5.31782
G01 X91.14038 Y5.18907
G01 X91.16812 Y5.16131
G01 X91.29689 Y5.05559
G01 X91.32953 Y5.03380
G01 X91.47645 Y4.95529
G01 X91.51267 Y4.94030
G01 X91.67213 Y4.89189
G01 X91.69120 Y4.88711
G01 X91.71058 Y4.88424
G01 X91.87645 Y4.86791
G01 X91.89603 Y4.86700
G01 X91.91564 Y4.86791
G01 X92.08147 Y4.88424
G01 X92.11990 Y4.89189
G01 X92.27937 Y4.94030
G01 X92.29786 Y4.94685
G01 X92.31559 Y4.95529
G01 X92.46255 Y5.03380
G01 X92.49516 Y5.05559
G01 X92.62397 Y5.16131
G01 X92.63847 Y5.17451
G01 X92.65168 Y5.18907
G01 X92.75739 Y5.31782
G01 X92.76905 Y5.33364
G01 X92.77916 Y5.35048
G01 X92.85770 Y5.49737
G01 X92.86123 Y5.50586
G01 X92.87271 Y5.53359
G01 X92.92107 Y5.69311
G01 X92.92587 Y5.71213
G01 X92.92872 Y5.73151
G01 X92.94505 Y5.89732
G01 X92.84556 Y5.90713
G01 X92.82922 Y5.74131
G01 X92.82775 Y5.73161
G01 X92.82539 Y5.72214
G01 X92.77700 Y5.56268
G01 X92.76951 Y5.54457
G01 X92.69095 Y5.39755
G01 X92.68594 Y5.38919
G01 X92.68010 Y5.38127
G01 X92.57439 Y5.25252
G01 X92.56052 Y5.23865
G01 X92.43171 Y5.13293
G01 X92.42381 Y5.12709
G01 X92.41538 Y5.12204
G01 X92.26847 Y5.04345
G01 X92.25033 Y5.03596
G01 X92.09087 Y4.98762
G01 X92.08137 Y4.98518
G01 X92.07169 Y4.98376
G01 X91.90583 Y4.96743
G01 X91.88622 Y4.96743
G01 X91.72039 Y4.98376
G01 X91.71068 Y4.98518
G01 X91.70116 Y4.98762
G01 X91.54170 Y5.03596
G01 X91.52361 Y5.04345
G01 X91.37665 Y5.12204
G01 X91.36034 Y5.13293
G01 X91.23156 Y5.23865
G01 X91.21770 Y5.25252
G01 X91.11198 Y5.38127
G01 X91.10614 Y5.38919
G01 X91.10108 Y5.39755
G01 X91.02255 Y5.54457
G01 X91.01503 Y5.56268
G01 X90.96664 Y5.72214
G01 X90.96428 Y5.73161
G01 X90.96286 Y5.74131
G01 X90.94650 Y5.90713
G01 X90.94650 Y5.92673
G01 X90.96286 Y6.09257
G01 X90.96664 Y6.11185
G01 X91.01503 Y6.27129
G01 X91.01833 Y6.28053
G01 X91.02255 Y6.28940
G01 X91.10108 Y6.43636
G01 X91.11198 Y6.45264
G01 X91.21770 Y6.58144
G01 X91.22427 Y6.58871
G01 X91.23156 Y6.59529
G01 X91.36034 Y6.70100
G01 X91.37665 Y6.71192
G01 X91.52361 Y6.79049
G01 X91.54170 Y6.79798
G01 X91.70116 Y6.84632
G01 X91.72039 Y6.85015
G01 X91.88622 Y6.86648
G01 X91.89603 Y6.86697
G01 X91.90583 Y6.86648
G01 X92.07169 Y6.85015
G01 X92.09087 Y6.84632
G01 X92.25033 Y6.79798
G01 X92.26847 Y6.79049
G01 X92.41538 Y6.71192
G01 X92.42381 Y6.70687
G01 X92.43171 Y6.70100
G01 X92.56052 Y6.59529
G01 X92.57439 Y6.58144
G01 X92.68010 Y6.45264
G01 X92.69095 Y6.43636
G01 X92.76951 Y6.28940
G01 X92.77700 Y6.27129
G01 X92.82539 Y6.11185
G01 X92.82775 Y6.10227
G01 X92.82922 Y6.09257
G01 X92.84556 Y5.92673
G01 X92.84556 Y5.90713
G01 X92.86123 Y5.50586
G01 X92.94253 Y3.42232
G01 X92.94505 Y3.35732
G01 X92.92872 Y3.19156
G01 X92.92587 Y3.17208
G01 X92.92107 Y3.15305
G01 X92.87271 Y2.99364
G01 X92.85770 Y2.95737
G01 X92.77916 Y2.81043
G01 X92.77088 Y2.79662
G01 X92.76578 Y2.78920
G01 X92.75739 Y2.77787
G01 X92.65168 Y2.64902
G01 X92.64309 Y2.63954
G01 X92.63344 Y2.62989
G01 X92.62397 Y2.62136
G01 X92.49516 Y2.51564
G01 X92.46255 Y2.49385
G01 X92.31559 Y2.41526
G01 X92.29786 Y2.40685
G01 X92.27937 Y2.40030
G01 X92.11990 Y2.35189
G01 X92.08147 Y2.34429
G01 X91.91564 Y2.32791
G01 X91.89603 Y2.32700
G01 X91.87645 Y2.32791
G01 X91.71058 Y2.34429
G01 X91.69120 Y2.34716
G01 X91.67213 Y2.35189
G01 X91.51267 Y2.40030
G01 X91.47645 Y2.41526
G01 X91.32953 Y2.49385
G01 X91.31571 Y2.50208
G01 X91.30822 Y2.50723
G01 X91.29689 Y2.51564
G01 X91.16812 Y2.62136
G01 X91.14038 Y2.64902
G01 X91.03466 Y2.77787
G01 X91.02656 Y2.78879
G01 X91.02102 Y2.79692
G01 X91.01287 Y2.81043
G01 X90.93433 Y2.95737
G01 X90.91932 Y2.99364
G01 X90.87099 Y3.15305
G01 X90.86619 Y3.17208
G01 X90.86334 Y3.19156
G01 X90.84701 Y3.35732
G01 X90.84701 Y3.39659
G01 X90.86334 Y3.56238
G01 X90.87099 Y3.60088
G01 X90.91932 Y3.76032
G01 X90.92595 Y3.77876
G01 X90.93433 Y3.79649
G01 X91.01287 Y3.94350
G01 X91.02298 Y3.96034
G01 X91.03466 Y3.97609
G01 X91.14038 Y4.10492
G01 X91.15356 Y4.11940
G01 X91.16812 Y4.13263
G01 X91.29689 Y4.23835
G01 X91.32953 Y4.26011
G01 X91.47645 Y4.33862
G01 X91.51267 Y4.35366
G01 X91.67213 Y4.40200
G01 X91.69120 Y4.40682
G01 X91.71058 Y4.40967
G01 X91.87645 Y4.42598
G01 X91.89603 Y4.42699
G01 X91.91564 Y4.42598
G01 X92.08147 Y4.40967
G01 X92.10088 Y4.40682
G01 X92.11990 Y4.40200
G01 X92.27937 Y4.35366
G01 X92.31559 Y4.33862
G01 X92.46255 Y4.26011
G01 X92.47936 Y4.25003
G01 X92.49516 Y4.23835
G01 X92.62397 Y4.13263
G01 X92.65168 Y4.10492
G01 X92.75739 Y3.97609
G01 X92.76905 Y3.96034
G01 X92.77916 Y3.94350
G01 X92.85770 Y3.79649
G01 X92.87271 Y3.76032
G01 X92.92107 Y3.60088
G01 X92.92587 Y3.58183
G01 X92.92872 Y3.56238
G01 X92.94253 Y3.42232
G01 X92.94505 Y3.39659
G01 X92.94505 Y3.35732
G01 X92.84556 Y3.36713
G01 X92.82922 Y3.20137
G01 X92.82775 Y3.19161
G01 X92.82539 Y3.18214
G01 X92.77700 Y3.02263
G01 X92.76951 Y3.00457
G01 X92.69095 Y2.85760
G01 X92.68594 Y2.84914
G01 X92.68010 Y2.84132
G01 X92.57439 Y2.71247
G01 X92.56052 Y2.69862
G01 X92.43171 Y2.59288
G01 X92.42381 Y2.58709
G01 X92.41538 Y2.58199
G01 X92.26847 Y2.50345
G01 X92.25033 Y2.49596
G01 X92.09087 Y2.44762
G01 X92.08137 Y2.44521
G01 X92.07169 Y2.44381
G01 X91.90583 Y2.42748
G01 X91.88622 Y2.42748
G01 X91.72039 Y2.44381
G01 X91.71068 Y2.44521
G01 X91.70116 Y2.44762
G01 X91.54170 Y2.49596
G01 X91.52361 Y2.50345
G01 X91.37665 Y2.58199
G01 X91.36822 Y2.58709
G01 X91.36034 Y2.59288
G01 X91.23156 Y2.69862
G01 X91.21770 Y2.71247
G01 X91.11198 Y2.84132
G01 X91.10614 Y2.84914
G01 X91.10108 Y2.85760
G01 X91.02255 Y3.00457
G01 X91.01503 Y3.02263
G01 X90.96664 Y3.18214
G01 X90.96428 Y3.19161
G01 X90.96286 Y3.20137
G01 X90.94650 Y3.36713
G01 X90.94650 Y3.38679
G01 X90.96286 Y3.55257
G01 X90.96664 Y3.57180
G01 X91.01503 Y3.73129
G01 X91.01833 Y3.74053
G01 X91.02255 Y3.74934
G01 X91.10108 Y3.89636
G01 X91.11198 Y3.91267
G01 X91.21770 Y4.04147
G01 X91.23156 Y4.05529
G01 X91.36034 Y4.16098
G01 X91.37665 Y4.17192
G01 X91.52361 Y4.25044
G01 X91.54170 Y4.25798
G01 X91.70116 Y4.30629
G01 X91.71068 Y4.30873
G01 X91.72039 Y4.31018
G01 X91.88622 Y4.32648
G01 X91.90583 Y4.32648
G01 X92.07169 Y4.31018
G01 X92.08137 Y4.30873
G01 X92.09087 Y4.30629
G01 X92.25033 Y4.25798
G01 X92.26847 Y4.25044
G01 X92.41538 Y4.17192
G01 X92.42381 Y4.16690
G01 X92.43171 Y4.16098
G01 X92.56052 Y4.05529
G01 X92.57439 Y4.04147
G01 X92.68010 Y3.91267
G01 X92.68594 Y3.90477
G01 X92.69095 Y3.89636
G01 X92.76951 Y3.74934
G01 X92.77700 Y3.73129
G01 X92.82539 Y3.57180
G01 X92.82775 Y3.56232
G01 X92.82922 Y3.55257
G01 X92.84556 Y3.38679
G01 X92.84556 Y3.36713
G04 P0 ( dwell for no time -- G64 should not smooth over this point )
G00 Z5.00000 ( retract )

G00 X90.30553 Y3.36713 ( rapid move to begin. )
G01 F150.00000
( Mill infeed pass 1/1 )
G01 Z-0.05000
G04 P0 ( dwell for no time -- G64 should not smooth over this point )
G01 F300.00000
G01 X90.30553 Y3.36713
G01 X90.30553 Y3.38679
G01 X90.28920 Y3.55257
G01 X90.28778 Y3.56232
G01 X90.28541 Y3.57180
G01 X90.23703 Y3.73129
G01 X90.22953 Y3.74934
G01 X90.15097 Y3.89636
G01 X90.14592 Y3.90477
G01 X90.14010 Y3.91267
G01 X90.03439 Y4.04147
G01 X90.02049 Y4.05529
G01 X89.89169 Y4.16098
G01 X89.88384 Y4.16690
G01 X89.87541 Y4.17192
G01 X89.72847 Y4.25044
G01 X89.71036 Y4.25798
G01 X89.55090 Y4.30629
G01 X89.54135 Y4.30873
G01 X89.53164 Y4.31018
G01 X89.36581 Y4.32648
G01 X89.34620 Y4.32648
G01 X89.18041 Y4.31018
G01 X89.17071 Y4.30873
G01 X89.16119 Y4.30629
G01 X89.00170 Y4.25798
G01 X88.98359 Y4.25044
G01 X88.83665 Y4.17192
G01 X88.82037 Y4.16098
G01 X88.69154 Y4.05529
G01 X88.67767 Y4.04147
G01 X88.57196 Y3.91267
G01 X88.56108 Y3.89636
G01 X88.48252 Y3.74934
G01 X88.47836 Y3.74053
G01 X88.47503 Y3.73129
G01 X88.42667 Y3.57180
G01 X88.42286 Y3.55257
G01 X88.40653 Y3.38679
G01 X88.40653 Y3.36713
G01 X88.42286 Y3.20137
G01 X88.42428 Y3.19161
G01 X88.42667 Y3.18214
G01 X88.47503 Y3.02263
G01 X88.48252 Y3.00457
G01 X88.56108 Y2.85760
G01 X88.56611 Y2.84914
G01 X88.57196 Y2.84132
G01 X88.67767 Y2.71247
G01 X88.69154 Y2.69862
G01 X88.82037 Y2.59288
G01 X88.82822 Y2.58709
G01 X88.83665 Y2.58199
G01 X88.98359 Y2.50345
G01 X89.00170 Y2.49596
G01 X89.16119 Y2.44762
G01 X89.17071 Y2.44521
G01 X89.18041 Y2.44381
G01 X89.34620 Y2.42748
G01 X89.36581 Y2.42748
G01 X89.53164 Y2.44381
G01 X89.54135 Y2.44521
G01 X89.55090 Y2.44762
G01 X89.71036 Y2.49596
G01 X89.72847 Y2.50345
G01 X89.87541 Y2.58199
G01 X89.88384 Y2.58709
G01 X89.89169 Y2.59288
G01 X90.02049 Y2.69862
G01 X90.03439 Y2.71247
G01 X90.14010 Y2.84132
G01 X90.14592 Y2.84914
G01 X90.15097 Y2.85760
G01 X90.22953 Y3.00457
G01 X90.23703 Y3.02263
G01 X90.28541 Y3.18214
G01 X90.28778 Y3.19161
G01 X90.28920 Y3.20137
G01 X90.30553 Y3.36713
G01 X90.40507 Y3.35732
G01 X90.40507 Y3.39659
G01 X90.40256 Y3.42235
G01 X90.38874 Y3.56238
G01 X90.38585 Y3.58183
G01 X90.38110 Y3.60088
G01 X90.33273 Y3.76032
G01 X90.31770 Y3.79649
G01 X90.23914 Y3.94350
G01 X90.22908 Y3.96034
G01 X90.21737 Y3.97609
G01 X90.11165 Y4.10492
G01 X90.08394 Y4.13263
G01 X89.95514 Y4.23835
G01 X89.93939 Y4.25003
G01 X89.92252 Y4.26011
G01 X89.77559 Y4.33862
G01 X89.73934 Y4.35366
G01 X89.57993 Y4.40200
G01 X89.56085 Y4.40682
G01 X89.54145 Y4.40967
G01 X89.37561 Y4.42598
G01 X89.35600 Y4.42699
G01 X89.33644 Y4.42598
G01 X89.17061 Y4.40967
G01 X89.15118 Y4.40682
G01 X89.13215 Y4.40200
G01 X88.97267 Y4.35366
G01 X88.93647 Y4.33862
G01 X88.78956 Y4.26011
G01 X88.75692 Y4.23835
G01 X88.62809 Y4.13263
G01 X88.61917 Y4.12448
G01 X88.60848 Y4.11376
G01 X88.60040 Y4.10492
G01 X88.49469 Y3.97609
G01 X88.48684 Y3.96552
G01 X88.48085 Y3.95681
G01 X88.47287 Y3.94350
G01 X88.39436 Y3.79649
G01 X88.38598 Y3.77876
G01 X88.37935 Y3.76032
G01 X88.33096 Y3.60088
G01 X88.32332 Y3.56238
G01 X88.30698 Y3.39659
G01 X88.30698 Y3.35732
G01 X88.32332 Y3.19156
G01 X88.32621 Y3.17208
G01 X88.33096 Y3.15305
G01 X88.37935 Y2.99364
G01 X88.39436 Y2.95737
G01 X88.47287 Y2.81043
G01 X88.48100 Y2.79692
G01 X88.48659 Y2.78879
G01 X88.49469 Y2.77787
G01 X88.60040 Y2.64902
G01 X88.62809 Y2.62136
G01 X88.75692 Y2.51564
G01 X88.76820 Y2.50723
G01 X88.77574 Y2.50208
G01 X88.78956 Y2.49385
G01 X88.93647 Y2.41526
G01 X88.97267 Y2.40030
G01 X89.13215 Y2.35189
G01 X89.15118 Y2.34716
G01 X89.17061 Y2.34429
G01 X89.33644 Y2.32791
G01 X89.35600 Y2.32700
G01 X89.37561 Y2.32791
G01 X89.54145 Y2.34429
G01 X89.57993 Y2.35189
G01 X89.73934 Y2.40030
G01 X89.75783 Y2.40685
G01 X89.77559 Y2.41526
G01 X89.92252 Y2.49385
G01 X89.95514 Y2.51564
G01 X90.08394 Y2.62136
G01 X90.09342 Y2.62989
G01 X90.10307 Y2.63954
G01 X90.11165 Y2.64902
G01 X90.21737 Y2.77787
G01 X90.22575 Y2.78920
G01 X90.23091 Y2.79662
G01 X90.23914 Y2.81043
G01 X90.31770 Y2.95737
G01 X90.33273 Y2.99364
G01 X90.38110 Y3.15305
G01 X90.38585 Y3.17208
G01 X90.38874 Y3.19156
G01 X90.40507 Y3.35732
G01 X90.40256 Y3.42235
G01 X90.32120 Y5.50578
G01 X90.30553 Y5.90713
G01 X90.30553 Y5.92673
G01 X90.28920 Y6.09257
G01 X90.28778 Y6.10227
G01 X90.28541 Y6.11185
G01 X90.23703 Y6.27129
G01 X90.22953 Y6.28940
G01 X90.15097 Y6.43636
G01 X90.14010 Y6.45264
G01 X90.03439 Y6.58144
G01 X90.02049 Y6.59529
G01 X89.89169 Y6.70100
G01 X89.88384 Y6.70687
G01 X89.87541 Y6.71192
G01 X89.72847 Y6.79049
G01 X89.71036 Y6.79798
G01 X89.55090 Y6.84632
G01 X89.53164 Y6.85015
G01 X89.36581 Y6.86648
G01 X89.35600 Y6.86697
G01 X89.34620 Y6.86648
G01 X89.18041 Y6.85015
G01 X89.16119 Y6.84632
G01 X89.00170 Y6.79798
G01 X88.98359 Y6.79049
G01 X88.83665 Y6.71192
G01 X88.82037 Y6.70100
G01 X88.69154 Y6.59529
G01 X88.68425 Y6.58871
G01 X88.67767 Y6.58144
G01 X88.57196 Y6.45264
G01 X88.56108 Y6.43636
G01 X88.48252 Y6.28940
G01 X88.47836 Y6.28053
G01 X88.47503 Y6.27129
G01 X88.42667 Y6.11185
G01 X88.42286 Y6.09257
G01 X88.40653 Y5.92673
G01 X88.40653 Y5.90713
G01 X88.42286 Y5.74131
G01 X88.42428 Y5.73161
G01 X88.42667 Y5.72214
G01 X88.47503 Y5.56268
G01 X88.48252 Y5.54457
G01 X88.56108 Y5.39755
G01 X88.56611 Y5.38919
G01 X88.57196 Y5.38127
G01 X88.67767 Y5.25252
G01 X88.69154 Y5.23865
G01 X88.82037 Y5.13293
G01 X88.83665 Y5.12204
G01 X88.98359 Y5.04345
G01 X89.00170 Y5.03596
G01 X89.16119 Y4.98762
G01 X89.17071 Y4.98518
G01 X89.18041 Y4.98376
G01 X89.34620 Y4.96743
G01 X89.36581 Y4.96743
G01 X89.53164 Y4.98376
G01 X89.54135 Y4.98518
G01 X89.55090 Y4.98762
G01 X89.71036 Y5.03596
G01 X89.72847 Y5.04345
G01 X89.87541 Y5.12204
G01 X89.88384 Y5.12709
G01 X89.89169 Y5.13293
G01 X90.02049 Y5.23865
G01 X90.03439 Y5.25252
G01 X90.14010 Y5.38127
G01 X90.14592 Y5.38919
G01 X90.15097 Y5.39755
G01 X90.22953 Y5.54457
G01 X90.23703 Y5.56268
G01 X90.28541 Y5.72214
G01 X90.28778 Y5.73161
G01 X90.28920 Y5.74131
G01 X90.30553 Y5.90713
G01 X90.40507 Y5.89732
G01 X90.38874 Y5.73151
G01 X90.38585 Y5.71213
G01 X90.38110 Y5.69311
G01 X90.33273 Y5.53359
G01 X90.32120 Y5.50578
G01 X90.31770 Y5.49737
G01 X90.23914 Y5.35048
G01 X90.22908 Y5.33364
G01 X90.21737 Y5.31782
G01 X90.11165 Y5.18907
G01 X90.09847 Y5.17451
G01 X90.08394 Y5.16131
G01 X89.95514 Y5.05559
G01 X89.92252 Y5.03380
G01 X89.77559 Y4.95529
G01 X89.75783 Y4.94685
G01 X89.73934 Y4.94030
G01 X89.57993 Y4.89189
G01 X89.54145 Y4.88424
G01 X89.37561 Y4.86791
G01 X89.35600 Y4.86700
G01 X89.33644 Y4.86791
G01 X89.17061 Y4.88424
G01 X89.15118 Y4.88711
G01 X89.13215 Y4.89189
G01 X88.97267 Y4.94030
G01 X88.93647 Y4.95529
G01 X88.78956 Y5.03380
G01 X88.75692 Y5.05559
G01 X88.62809 Y5.16131
G01 X88.60040 Y5.18907
G01 X88.49469 Y5.31782
G01 X88.48659 Y5.32882
G01 X88.48100 Y5.33687
G01 X88.47287 Y5.35048
G01 X88.39436 Y5.49737
G01 X88.37935 Y5.53359
G01 X88.33096 Y5.69311
G01 X88.32621 Y5.71213
G01 X88.32332 Y5.73151
G01 X88.30698 Y5.89732
G01 X88.30698 Y5.93654
G01 X88.32332 Y6.10238
G01 X88.33096 Y6.14088
G01 X88.37935 Y6.30029
G01 X88.38598 Y6.31876
G01 X88.39436 Y6.33649
G01 X88.47287 Y6.48348
G01 X88.49469 Y6.51609
G01 X88.60040 Y6.64489
G01 X88.60848 Y6.65378
G01 X88.61917 Y6.66450
G01 X88.62809 Y6.67261
G01 X88.75692 Y6.77832
G01 X88.78956 Y6.80009
G01 X88.93647 Y6.87865
G01 X88.97267 Y6.89364
G01 X89.13215 Y6.94205
G01 X89.15118 Y6.94680
G01 X89.17061 Y6.94969
G01 X89.33644 Y6.96603
G01 X89.35600 Y6.96699
G01 X89.37561 Y6.96603
G01 X89.54145 Y6.94969
G01 X89.56085 Y6.94680
G01 X89.57993 Y6.94205
G01 X89.73934 Y6.89364
G01 X89.77559 Y6.87865
G01 X89.92252 Y6.80009
G01 X89.93611 Y6.79196
G01 X89.94419 Y6.78645
G01 X89.95514 Y6.77832
G01 X90.08394 Y6.67261
G01 X90.09306 Y6.66432
G01 X90.10337 Y6.65401
G01 X90.11165 Y6.64489
G01 X90.21737 Y6.51609
G01 X90.22550 Y6.50514
G01 X90.23101 Y6.49707
G01 X90.23914 Y6.48348
G01 X90.31770 Y6.33649
G01 X90.33273 Y6.30029
G01 X90.38110 Y6.14088
G01 X90.38585 Y6.12183
G01 X90.38874 Y6.10238
G01 X90.40507 Y5.93654
G01 X90.40507 Y5.89732
G04 P0 ( dwell for no time -- G64 should not smooth over this point )
G00 Z5.00000 ( retract )

G00 X87.41910 Y7.01500 ( rapid move to begin. )
G01 F150.00000
( Mill infeed pass 1/1 )
G01 Z-0.05000
G04 P0 ( dwell for no time -- G64 should not smooth over this point )
G01 F300.00000
G01 X87.41910 Y7.01500
G01 X87.24524 Y7.09605
G01 X87.03391 Y7.15269
G01 X86.81603 Y7.17172
G01 X86.59820 Y7.15269
G01 X86.38687 Y7.09605
G01 X86.21301 Y7.01500
G01 X86.43963 Y6.78833
G01 X86.44364 Y6.79049
G01 X86.45248 Y6.79465
G01 X86.46170 Y6.79798
G01 X86.62116 Y6.84632
G01 X86.63068 Y6.84873
G01 X86.64039 Y6.85015
G01 X86.80620 Y6.86648
G01 X86.82581 Y6.86648
G01 X86.99164 Y6.85015
G01 X87.00135 Y6.84873
G01 X87.01087 Y6.84632
G01 X87.17033 Y6.79798
G01 X87.18847 Y6.79049
G01 X87.19248 Y6.78833
G01 X87.41910 Y7.01500
G01 X87.33960 Y7.00799
G01 X87.24740 Y6.98470
G01 X87.21085 Y7.00171
G01 X87.01649 Y7.05383
G01 X87.01659 Y7.05432
G01 X87.01649 Y7.05383
G01 X86.81603 Y7.07133
G01 X86.81603 Y7.07174
G01 X86.81603 Y7.07133
G01 X86.61557 Y7.05383
G01 X86.61547 Y7.05432
G01 X86.61557 Y7.05383
G01 X86.42121 Y7.00171
G01 X86.38471 Y6.98470
G01 X86.29246 Y7.00799
G01 X86.38471 Y6.98470
G01 X86.46571 Y6.90369
G01 X86.46170 Y6.88840
G01 X86.46571 Y6.90369
G01 X86.59213 Y6.94205
G01 X86.63058 Y6.94969
G01 X86.79642 Y6.96603
G01 X86.81600 Y6.96699
G01 X86.83561 Y6.96603
G01 X87.00145 Y6.94969
G01 X87.03990 Y6.94205
G01 X87.16640 Y6.90369
G01 X87.17041 Y6.88835
G01 X87.16640 Y6.90369
G01 X87.24740 Y6.98470
G04 P0 ( dwell for no time -- G64 should not smooth over this point )
G00 Z5.00000 ( retract )

G00 X85.32601 Y5.91693 ( rapid move to begin. )
G01 F150.00000
( Mill infeed pass 1/1 )
G01 Z-0.05000
G04 P0 ( dwell for no time -- G64 should not smooth over this point )
G01 F300.00000
G01 X85.32601 Y5.91693
G01 X85.32510 Y5.93654
G01 X85.30872 Y6.10238
G01 X85.30587 Y6.12183
G01 X85.30107 Y6.14088
G01 X85.25273 Y6.30029
G01 X85.23772 Y6.33649
G01 X85.15916 Y6.48348
G01 X85.15106 Y6.49702
G01 X85.14544 Y6.50519
G01 X85.13739 Y6.51609
G01 X85.03168 Y6.64489
G01 X85.02337 Y6.65401
G01 X85.01306 Y6.66432
G01 X85.00394 Y6.67261
G01 X84.87516 Y6.77832
G01 X84.84252 Y6.80009
G01 X84.69561 Y6.87865
G01 X84.65934 Y6.89364
G01 X84.49990 Y6.94205
G01 X84.46145 Y6.94969
G01 X84.29561 Y6.96603
G01 X84.27600 Y6.96699
G01 X84.25647 Y6.96603
G01 X84.09063 Y6.94969
G01 X84.05213 Y6.94205
G01 X83.89267 Y6.89364
G01 X83.85645 Y6.87865
G01 X83.70956 Y6.80009
G01 X83.67689 Y6.77832
G01 X83.54814 Y6.67261
G01 X83.53923 Y6.66450
G01 X83.52846 Y6.65378
G01 X83.52038 Y6.64489
G01 X83.41466 Y6.51609
G01 X83.39290 Y6.48348
G01 X83.31433 Y6.33649
G01 X83.29935 Y6.30029
G01 X83.25099 Y6.14088
G01 X83.24619 Y6.12183
G01 X83.24334 Y6.10238
G01 X83.22698 Y5.93654
G01 X83.22602 Y5.91693
G01 X83.22698 Y5.89732
G01 X83.24334 Y5.73151
G01 X83.24619 Y5.71213
G01 X83.25099 Y5.69311
G01 X83.29935 Y5.53359
G01 X83.31433 Y5.49737
G01 X83.39290 Y5.35048
G01 X83.41466 Y5.31782
G01 X83.52038 Y5.18907
G01 X83.53356 Y5.17451
G01 X83.54814 Y5.16131
G01 X83.67689 Y5.05559
G01 X83.70956 Y5.03380
G01 X83.85645 Y4.95529
G01 X83.87420 Y4.94685
G01 X83.89267 Y4.94030
G01 X84.05213 Y4.89189
G01 X84.09063 Y4.88424
G01 X84.25647 Y4.86791
G01 X84.29561 Y4.86791
G01 X84.46145 Y4.88424
G01 X84.49990 Y4.89189
G01 X84.65934 Y4.94030
G01 X84.67786 Y4.94685
G01 X84.69561 Y4.95529
G01 X84.84252 Y5.03380
G01 X84.87516 Y5.05559
G01 X85.00394 Y5.16131
G01 X85.01344 Y5.16989
G01 X85.02307 Y5.17954
G01 X85.03168 Y5.18907
G01 X85.13739 Y5.31782
G01 X85.15916 Y5.35048
G01 X85.23772 Y5.49737
G01 X85.25273 Y5.53359
G01 X85.30107 Y5.69311
G01 X85.30587 Y5.71213
G01 X85.30872 Y5.73151
G01 X85.32510 Y5.89732
G01 X85.32601 Y5.91693
G01 X85.22606 Y5.91693
G01 X85.22556 Y5.90713
G01 X85.20920 Y5.74131
G01 X85.20775 Y5.73161
G01 X85.20536 Y5.72214
G01 X85.15703 Y5.56268
G01 X85.14956 Y5.54457
G01 X85.07095 Y5.39755
G01 X85.06592 Y5.38919
G01 X85.06013 Y5.38127
G01 X84.95441 Y5.25252
G01 X84.94776 Y5.24518
G01 X84.94049 Y5.23865
G01 X84.81171 Y5.13293
G01 X84.79538 Y5.12204
G01 X84.64844 Y5.04345
G01 X84.63955 Y5.03926
G01 X84.63033 Y5.03596
G01 X84.47087 Y4.98762
G01 X84.45164 Y4.98376
G01 X84.28581 Y4.96743
G01 X84.26620 Y4.96743
G01 X84.10044 Y4.98376
G01 X84.08116 Y4.98762
G01 X83.92170 Y5.03596
G01 X83.91245 Y5.03926
G01 X83.90364 Y5.04345
G01 X83.75665 Y5.12204
G01 X83.74034 Y5.13293
G01 X83.61159 Y5.23865
G01 X83.60425 Y5.24518
G01 X83.59767 Y5.25252
G01 X83.49196 Y5.38127
G01 X83.48616 Y5.38919
G01 X83.48106 Y5.39755
G01 X83.40252 Y5.54457
G01 X83.39505 Y5.56268
G01 X83.34664 Y5.72214
G01 X83.34425 Y5.73161
G01 X83.34288 Y5.74131
G01 X83.32650 Y5.90713
G01 X83.32602 Y5.91693
G01 X83.32650 Y5.92673
G01 X83.34288 Y6.09257
G01 X83.34425 Y6.10227
G01 X83.34664 Y6.11185
G01 X83.39505 Y6.27129
G01 X83.39838 Y6.28053
G01 X83.40252 Y6.28940
G01 X83.48106 Y6.43636
G01 X83.49196 Y6.45264
G01 X83.59767 Y6.58144
G01 X83.60425 Y6.58871
G01 X83.61159 Y6.59529
G01 X83.74034 Y6.70100
G01 X83.75665 Y6.71192
G01 X83.90364 Y6.79049
G01 X83.91245 Y6.79465
G01 X83.92170 Y6.79798
G01 X84.08116 Y6.84632
G01 X84.09074 Y6.84873
G01 X84.10044 Y6.85015
G01 X84.26620 Y6.86648
G01 X84.28581 Y6.86648
G01 X84.45164 Y6.85015
G01 X84.46135 Y6.84873
G01 X84.47087 Y6.84632
G01 X84.63033 Y6.79798
G01 X84.63955 Y6.79465
G01 X84.64844 Y6.79049
G01 X84.79538 Y6.71192
G01 X84.81171 Y6.70100
G01 X84.94049 Y6.59529
G01 X84.94776 Y6.58871
G01 X84.95441 Y6.58144
G01 X85.06013 Y6.45264
G01 X85.07095 Y6.43636
G01 X85.14956 Y6.28940
G01 X85.15703 Y6.27129
G01 X85.20536 Y6.11185
G01 X85.20775 Y6.10227
G01 X85.20920 Y6.09257
G01 X85.22556 Y5.92673
G01 X85.22606 Y5.91693
G04 P0 ( dwell for no time -- G64 should not smooth over this point )
G00 Z5.00000 ( retract )

G00 X87.86505 Y3.35732 ( rapid move to begin. )
G01 F150.00000
( Mill infeed pass 1/1 )
G01 Z-0.05000
G04 P0 ( dwell for no time -- G64 should not smooth over this point )
G01 F300.00000
G01 X87.86505 Y3.35732
G01 X87.84872 Y3.19156
G01 X87.84587 Y3.17208
G01 X87.84107 Y3.15305
G01 X87.79273 Y2.99364
G01 X87.77772 Y2.95737
G01 X87.69916 Y2.81043
G01 X87.69088 Y2.79662
G01 X87.68578 Y2.78920
G01 X87.67739 Y2.77787
G01 X87.57168 Y2.64902
G01 X87.56309 Y2.63954
G01 X87.55344 Y2.62989
G01 X87.54397 Y2.62136
G01 X87.41516 Y2.51564
G01 X87.38255 Y2.49385
G01 X87.23564 Y2.41526
G01 X87.21788 Y2.40685
G01 X87.19934 Y2.40030
G01 X87.03990 Y2.35189
G01 X87.00145 Y2.34429
G01 X86.83561 Y2.32791
G01 X86.79642 Y2.32791
G01 X86.63058 Y2.34429
G01 X86.59213 Y2.35189
G01 X86.43267 Y2.40030
G01 X86.41423 Y2.40685
G01 X86.39647 Y2.41526
G01 X86.24951 Y2.49385
G01 X86.21692 Y2.51564
G01 X86.08809 Y2.62136
G01 X86.07884 Y2.62974
G01 X86.06876 Y2.63977
G01 X86.06040 Y2.64902
G01 X85.95469 Y2.77787
G01 X85.93292 Y2.81043
G01 X85.85436 Y2.95737
G01 X85.83937 Y2.99364
G01 X85.79101 Y3.15305
G01 X85.78621 Y3.17208
G01 X85.78337 Y3.19156
G01 X85.76698 Y3.35732
G01 X85.76602 Y3.37696
G01 X85.76698 Y3.39659
G01 X85.78337 Y3.56238
G01 X85.78621 Y3.58183
G01 X85.79101 Y3.60088
G01 X85.83937 Y3.76032
G01 X85.85436 Y3.79649
G01 X85.93292 Y3.94350
G01 X85.95469 Y3.97609
G01 X86.06040 Y4.10492
G01 X86.06846 Y4.11376
G01 X86.07923 Y4.12448
G01 X86.08809 Y4.13263
G01 X86.21692 Y4.23835
G01 X86.24951 Y4.26011
G01 X86.39647 Y4.33862
G01 X86.41423 Y4.34701
G01 X86.43267 Y4.35366
G01 X86.59213 Y4.40200
G01 X86.63058 Y4.40967
G01 X86.79642 Y4.42598
G01 X86.83561 Y4.42598
G01 X87.00145 Y4.40967
G01 X87.03990 Y4.40200
G01 X87.19934 Y4.35366
G01 X87.21788 Y4.34701
G01 X87.23564 Y4.33862
G01 X87.38255 Y4.26011
G01 X87.41516 Y4.23835
G01 X87.54397 Y4.13263
G01 X87.55306 Y4.12430
G01 X87.56340 Y4.11404
G01 X87.57168 Y4.10492
G01 X87.67739 Y3.97609
G01 X87.68550 Y3.96509
G01 X87.69103 Y3.95707
G01 X87.69916 Y3.94350
G01 X87.77772 Y3.79649
G01 X87.79273 Y3.76032
G01 X87.84107 Y3.60088
G01 X87.84587 Y3.58183
G01 X87.84872 Y3.56238
G01 X87.86505 Y3.39659
G01 X87.86505 Y3.35732
G01 X87.76556 Y3.36713
G01 X87.74922 Y3.20137
G01 X87.74775 Y3.19161
G01 X87.74536 Y3.18214
G01 X87.69700 Y3.02263
G01 X87.68951 Y3.00457
G01 X87.61095 Y2.85760
G01 X87.60592 Y2.84914
G01 X87.60008 Y2.84132
G01 X87.49436 Y2.71247
G01 X87.48052 Y2.69862
G01 X87.35171 Y2.59288
G01 X87.34381 Y2.58709
G01 X87.33538 Y2.58199
G01 X87.18847 Y2.50345
G01 X87.17955 Y2.49926
G01 X87.17033 Y2.49596
G01 X87.01087 Y2.44762
G01 X86.99164 Y2.44381
G01 X86.82581 Y2.42748
G01 X86.80620 Y2.42748
G01 X86.64039 Y2.44381
G01 X86.62116 Y2.44762
G01 X86.46170 Y2.49596
G01 X86.45248 Y2.49926
G01 X86.44364 Y2.50345
G01 X86.29665 Y2.58199
G01 X86.28037 Y2.59288
G01 X86.15154 Y2.69862
G01 X86.14425 Y2.70523
G01 X86.13767 Y2.71247
G01 X86.03196 Y2.84132
G01 X86.02108 Y2.85760
G01 X85.94252 Y3.00457
G01 X85.93508 Y3.02263
G01 X85.88664 Y3.18214
G01 X85.88428 Y3.19161
G01 X85.88283 Y3.20137
G01 X85.86653 Y3.36713
G01 X85.86604 Y3.37696
G01 X85.86653 Y3.38679
G01 X85.88283 Y3.55257
G01 X85.88428 Y3.56232
G01 X85.88664 Y3.57180
G01 X85.93508 Y3.73129
G01 X85.93833 Y3.74053
G01 X85.94252 Y3.74934
G01 X86.02108 Y3.89636
G01 X86.03196 Y3.91267
G01 X86.13767 Y4.04147
G01 X86.14425 Y4.04873
G01 X86.15154 Y4.05529
G01 X86.28037 Y4.16098
G01 X86.29665 Y4.17192
G01 X86.44364 Y4.25044
G01 X86.45248 Y4.25463
G01 X86.46170 Y4.25798
G01 X86.62116 Y4.30629
G01 X86.64039 Y4.31018
G01 X86.80620 Y4.32648
G01 X86.82581 Y4.32648
G01 X86.99164 Y4.31018
G01 X87.01087 Y4.30629
G01 X87.17033 Y4.25798
G01 X87.17955 Y4.25463
G01 X87.18847 Y4.25044
G01 X87.33538 Y4.17192
G01 X87.34381 Y4.16690
G01 X87.35171 Y4.16098
G01 X87.48052 Y4.05529
G01 X87.49436 Y4.04147
G01 X87.60008 Y3.91267
G01 X87.60592 Y3.90477
G01 X87.61095 Y3.89636
G01 X87.68951 Y3.74934
G01 X87.69700 Y3.73129
G01 X87.74536 Y3.57180
G01 X87.74775 Y3.56232
G01 X87.74922 Y3.55257
G01 X87.76556 Y3.38679
G01 X87.76556 Y3.36713
G04 P0 ( dwell for no time -- G64 should not smooth over this point )
G00 Z5.00000 ( retract )

G00 X85.32601 Y3.37696 ( rapid move to begin. )
G01 F150.00000
( Mill infeed pass 1/1 )
G01 Z-0.05000
G04 P0 ( dwell for no time -- G64 should not smooth over this point )
G01 F300.00000
G01 X85.32601 Y3.37696
G01 X85.32510 Y3.39659
G01 X85.30872 Y3.56238
G01 X85.30587 Y3.58183
G01 X85.30107 Y3.60088
G01 X85.25273 Y3.76032
G01 X85.23772 Y3.79649
G01 X85.15916 Y3.94350
G01 X85.13739 Y3.97609
G01 X85.03168 Y4.10492
G01 X85.02337 Y4.11404
G01 X85.01306 Y4.12430
G01 X85.00394 Y4.13263
G01 X84.87516 Y4.23835
G01 X84.84252 Y4.26011
G01 X84.69561 Y4.33862
G01 X84.67786 Y4.34701
G01 X84.65934 Y4.35366
G01 X84.49990 Y4.40200
G01 X84.46145 Y4.40967
G01 X84.29561 Y4.42598
G01 X84.25647 Y4.42598
G01 X84.09063 Y4.40967
G01 X84.05213 Y4.40200
G01 X83.89267 Y4.35366
G01 X83.87420 Y4.34701
G01 X83.85645 Y4.33862
G01 X83.70956 Y4.26011
G01 X83.67689 Y4.23835
G01 X83.54814 Y4.13263
G01 X83.53356 Y4.11940
G01 X83.52038 Y4.10492
G01 X83.41466 Y3.97609
G01 X83.39290 Y3.94350
G01 X83.31433 Y3.79649
G01 X83.29935 Y3.76032
G01 X83.25099 Y3.60088
G01 X83.24619 Y3.58183
G01 X83.24334 Y3.56238
G01 X83.22698 Y3.39659
G01 X83.22602 Y3.37696
G01 X83.22698 Y3.35732
G01 X83.24334 Y3.19156
G01 X83.24619 Y3.17208
G01 X83.25099 Y3.15305
G01 X83.29935 Y2.99364
G01 X83.31433 Y2.95737
G01 X83.39290 Y2.81043
G01 X83.41466 Y2.77787
G01 X83.52038 Y2.64902
G01 X83.52881 Y2.63977
G01 X83.53882 Y2.62974
G01 X83.54814 Y2.62136
G01 X83.67689 Y2.51564
G01 X83.70956 Y2.49385
G01 X83.85645 Y2.41526
G01 X83.87420 Y2.40685
G01 X83.89267 Y2.40030
G01 X84.05213 Y2.35189
G01 X84.09063 Y2.34429
G01 X84.25647 Y2.32791
G01 X84.29561 Y2.32791
G01 X84.46145 Y2.34429
G01 X84.49990 Y2.35189
G01 X84.65934 Y2.40030
G01 X84.67786 Y2.40685
G01 X84.69561 Y2.41526
G01 X84.84252 Y2.49385
G01 X84.87516 Y2.51564
G01 X85.00394 Y2.62136
G01 X85.01344 Y2.62989
G01 X85.02307 Y2.63954
G01 X85.03168 Y2.64902
G01 X85.13739 Y2.77787
G01 X85.15916 Y2.81043
G01 X85.23772 Y2.95737
G01 X85.25273 Y2.99364
G01 X85.30107 Y3.15305
G01 X85.30587 Y3.17208
G01 X85.30872 Y3.19156
G01 X85.32510 Y3.35732
G01 X85.32601 Y3.37696
G01 X85.22606 Y3.37696
G01 X85.22556 Y3.36713
G01 X85.20920 Y3.20137
G01 X85.20775 Y3.19161
G01 X85.20536 Y3.18214
G01 X85.15703 Y3.02263
G01 X85.14956 Y3.00457
G01 X85.07095 Y2.85760
G01 X85.06013 Y2.84132
G01 X84.95441 Y2.71247
G01 X84.94776 Y2.70523
G01 X84.94049 Y2.69862
G01 X84.81171 Y2.59288
G01 X84.79538 Y2.58199
G01 X84.64844 Y2.50345
G01 X84.63955 Y2.49926
G01 X84.63033 Y2.49596
G01 X84.47087 Y2.44762
G01 X84.45164 Y2.44381
G01 X84.28581 Y2.42748
G01 X84.26620 Y2.42748
G01 X84.10044 Y2.44381
G01 X84.08116 Y2.44762
G01 X83.92170 Y2.49596
G01 X83.91245 Y2.49926
G01 X83.90364 Y2.50345
G01 X83.75665 Y2.58199
G01 X83.74034 Y2.59288
G01 X83.61159 Y2.69862
G01 X83.60425 Y2.70523
G01 X83.59767 Y2.71247
G01 X83.49196 Y2.84132
G01 X83.48106 Y2.85760
G01 X83.40252 Y3.00457
G01 X83.39505 Y3.02263
G01 X83.34664 Y3.18214
G01 X83.34425 Y3.19161
G01 X83.34288 Y3.20137
G01 X83.32650 Y3.36713
G01 X83.32602 Y3.37696
G01 X83.32650 Y3.38679
G01 X83.34288 Y3.55257
G01 X83.34425 Y3.56232
G01 X83.34664 Y3.57180
G01 X83.39505 Y3.73129
G01 X83.39838 Y3.74053
G01 X83.40252 Y3.74934
G01 X83.48106 Y3.89636
G01 X83.49196 Y3.91267
G01 X83.59767 Y4.04147
G01 X83.60425 Y4.04873
G01 X83.61159 Y4.05529
G01 X83.74034 Y4.16098
G01 X83.75665 Y4.17192
G01 X83.90364 Y4.25044
G01 X83.91245 Y4.25463
G01 X83.92170 Y4.25798
G01 X84.08116 Y4.30629
G01 X84.10044 Y4.31018
G01 X84.26620 Y4.32648
G01 X84.28581 Y4.32648
G01 X84.45164 Y4.31018
G01 X84.47087 Y4.30629
G01 X84.63033 Y4.25798
G01 X84.63955 Y4.25463
G01 X84.64844 Y4.25044
G01 X84.79538 Y4.17192
G01 X84.81171 Y4.16098
G01 X84.94049 Y4.05529
G01 X84.94776 Y4.04873
G01 X84.95441 Y4.04147
G01 X85.06013 Y3.91267
G01 X85.06592 Y3.90477
G01 X85.07095 Y3.89636
G01 X85.14956 Y3.74934
G01 X85.15703 Y3.73129
G01 X85.20536 Y3.57180
G01 X85.20775 Y3.56232
G01 X85.20920 Y3.55257
G01 X85.22556 Y3.38679
G01 X85.22606 Y3.37696
G04 P0 ( dwell for no time -- G64 should not smooth over this point )
G00 Z5.00000 ( retract )

G00 X82.78606 Y3.37696 ( rapid move to begin. )
G01 F150.00000
( Mill infeed pass 1/1 )
G01 Z-0.05000
G04 P0 ( dwell for no time -- G64 should not smooth over this point )
G01 F300.00000
G01 X82.78606 Y3.37696
G01 X82.78507 Y3.35732
G01 X82.76872 Y3.19156
G01 X82.76587 Y3.17208
G01 X82.76107 Y3.15305
G01 X82.71271 Y2.99364
G01 X82.69770 Y2.95737
G01 X82.61916 Y2.81043
G01 X82.59739 Y2.77787
G01 X82.49168 Y2.64902
G01 X82.48307 Y2.63954
G01 X82.47342 Y2.62989
G01 X82.46394 Y2.62136
G01 X82.33516 Y2.51564
G01 X82.30252 Y2.49385
G01 X82.15559 Y2.41526
G01 X82.13783 Y2.40685
G01 X82.11934 Y2.40030
G01 X81.95995 Y2.35189
G01 X81.92150 Y2.34429
G01 X81.75561 Y2.32791
G01 X81.71644 Y2.32791
G01 X81.55061 Y2.34429
G01 X81.51218 Y2.35189
G01 X81.35272 Y2.40030
G01 X81.33420 Y2.40685
G01 X81.31645 Y2.41526
G01 X81.16953 Y2.49385
G01 X81.13689 Y2.51564
G01 X81.00812 Y2.62136
G01 X80.99882 Y2.62974
G01 X80.98879 Y2.63977
G01 X80.98038 Y2.64902
G01 X80.87466 Y2.77787
G01 X80.85287 Y2.81043
G01 X80.77433 Y2.95737
G01 X80.75932 Y2.99364
G01 X80.71099 Y3.15305
G01 X80.70619 Y3.17208
G01 X80.70332 Y3.19156
G01 X80.68698 Y3.35732
G01 X80.68607 Y3.37696
G01 X80.68698 Y3.39659
G01 X80.70332 Y3.56238
G01 X80.70619 Y3.58183
G01 X80.71099 Y3.60088
G01 X80.75932 Y3.76032
G01 X80.77433 Y3.79649
G01 X80.85287 Y3.94350
G01 X80.87466 Y3.97609
G01 X80.98038 Y4.10492
G01 X80.99361 Y4.11940
G01 X81.00812 Y4.13263
G01 X81.13689 Y4.23835
G01 X81.16953 Y4.26011
G01 X81.31645 Y4.33862
G01 X81.33420 Y4.34701
G01 X81.35272 Y4.35366
G01 X81.51218 Y4.40200
G01 X81.55061 Y4.40967
G01 X81.71644 Y4.42598
G01 X81.75561 Y4.42598
G01 X81.92150 Y4.40967
G01 X81.95995 Y4.40200
G01 X82.11934 Y4.35366
G01 X82.13783 Y4.34701
G01 X82.15559 Y4.33862
G01 X82.30252 Y4.26011
G01 X82.33516 Y4.23835
G01 X82.46394 Y4.13263
G01 X82.47852 Y4.11940
G01 X82.49168 Y4.10492
G01 X82.59739 Y3.97609
G01 X82.61916 Y3.94350
G01 X82.69770 Y3.79649
G01 X82.71271 Y3.76032
G01 X82.76107 Y3.60088
G01 X82.76587 Y3.58183
G01 X82.76872 Y3.56238
G01 X82.78507 Y3.39659
G01 X82.78606 Y3.37696
G01 X82.68604 Y3.37696
G01 X82.68556 Y3.38679
G01 X82.66920 Y3.55257
G01 X82.66780 Y3.56232
G01 X82.66536 Y3.57180
G01 X82.61700 Y3.73129
G01 X82.60953 Y3.74934
G01 X82.53100 Y3.89636
G01 X82.52592 Y3.90477
G01 X82.52010 Y3.91267
G01 X82.41439 Y4.04147
G01 X82.40776 Y4.04873
G01 X82.40049 Y4.05529
G01 X82.27171 Y4.16098
G01 X82.25543 Y4.17192
G01 X82.10844 Y4.25044
G01 X82.09960 Y4.25463
G01 X82.09038 Y4.25798
G01 X81.93092 Y4.30629
G01 X81.91169 Y4.31018
G01 X81.74581 Y4.32648
G01 X81.72625 Y4.32648
G01 X81.56044 Y4.31018
G01 X81.54121 Y4.30629
G01 X81.38175 Y4.25798
G01 X81.37245 Y4.25463
G01 X81.36361 Y4.25044
G01 X81.21670 Y4.17192
G01 X81.20034 Y4.16098
G01 X81.07156 Y4.05529
G01 X81.06430 Y4.04873
G01 X81.05767 Y4.04147
G01 X80.95196 Y3.91267
G01 X80.94106 Y3.89636
G01 X80.86252 Y3.74934
G01 X80.85838 Y3.74053
G01 X80.85503 Y3.73129
G01 X80.80669 Y3.57180
G01 X80.80425 Y3.56232
G01 X80.80286 Y3.55257
G01 X80.78650 Y3.38679
G01 X80.78602 Y3.37696
G01 X80.78650 Y3.36713
G01 X80.80286 Y3.20137
G01 X80.80425 Y3.19161
G01 X80.80669 Y3.18214
G01 X80.85503 Y3.02263
G01 X80.86252 Y3.00457
G01 X80.94106 Y2.85760
G01 X80.95196 Y2.84132
G01 X81.05767 Y2.71247
G01 X81.06430 Y2.70523
G01 X81.07156 Y2.69862
G01 X81.20034 Y2.59288
G01 X81.21670 Y2.58199
G01 X81.36361 Y2.50345
G01 X81.37245 Y2.49926
G01 X81.38175 Y2.49596
G01 X81.54121 Y2.44762
G01 X81.56044 Y2.44381
G01 X81.72625 Y2.42748
G01 X81.74581 Y2.42748
G01 X81.91169 Y2.44381
G01 X81.93092 Y2.44762
G01 X82.09038 Y2.49596
G01 X82.09960 Y2.49926
G01 X82.10844 Y2.50345
G01 X82.25543 Y2.58199
G01 X82.27171 Y2.59288
G01 X82.40049 Y2.69862
G01 X82.40776 Y2.70523
G01 X82.41439 Y2.71247
G01 X82.52010 Y2.84132
G01 X82.53100 Y2.85760
G01 X82.60953 Y3.00457
G01 X82.61700 Y3.02263
G01 X82.66536 Y3.18214
G01 X82.66780 Y3.19161
G01 X82.66920 Y3.20137
G01 X82.68556 Y3.36713
G01 X82.68604 Y3.37696
G01 X82.78606 Y3.37696
G01 X82.78606 Y5.91693
G01 X82.78507 Y5.93654
G01 X82.76872 Y6.10238
G01 X82.76587 Y6.12183
G01 X82.76107 Y6.14088
G01 X82.71271 Y6.30029
G01 X82.69770 Y6.33649
G01 X82.61916 Y6.48348
G01 X82.61101 Y6.49707
G01 X82.60552 Y6.50514
G01 X82.59739 Y6.51609
G01 X82.49168 Y6.64489
G01 X82.48342 Y6.65401
G01 X82.47306 Y6.66432
G01 X82.46394 Y6.67261
G01 X82.33516 Y6.77832
G01 X82.30252 Y6.80009
G01 X82.15559 Y6.87865
G01 X82.11934 Y6.89364
G01 X81.95995 Y6.94205
G01 X81.92150 Y6.94969
G01 X81.75561 Y6.96603
G01 X81.73605 Y6.96699
G01 X81.71644 Y6.96603
G01 X81.55061 Y6.94969
G01 X81.51218 Y6.94205
G01 X81.35272 Y6.89364
G01 X81.31645 Y6.87865
G01 X81.16953 Y6.80009
G01 X81.13689 Y6.77832
G01 X81.00812 Y6.67261
G01 X80.99920 Y6.66450
G01 X80.98851 Y6.65378
G01 X80.98038 Y6.64489
G01 X80.87466 Y6.51609
G01 X80.85287 Y6.48348
G01 X80.77433 Y6.33649
G01 X80.75932 Y6.30029
G01 X80.71099 Y6.14088
G01 X80.70619 Y6.12183
G01 X80.70332 Y6.10238
G01 X80.68698 Y5.93654
G01 X80.68607 Y5.91693
G01 X80.68698 Y5.89732
G01 X80.70332 Y5.73151
G01 X80.70619 Y5.71213
G01 X80.71099 Y5.69311
G01 X80.75932 Y5.53359
G01 X80.77433 Y5.49737
G01 X80.85287 Y5.35048
G01 X80.87466 Y5.31782
G01 X80.98038 Y5.18907
G01 X80.99361 Y5.17451
G01 X81.00812 Y5.16131
G01 X81.13689 Y5.05559
G01 X81.16953 Y5.03380
G01 X81.31645 Y4.95529
G01 X81.33420 Y4.94685
G01 X81.35272 Y4.94030
G01 X81.51218 Y4.89189
G01 X81.55061 Y4.88424
G01 X81.71644 Y4.86791
G01 X81.75561 Y4.86791
G01 X81.92150 Y4.88424
G01 X81.95995 Y4.89189
G01 X82.11934 Y4.94030
G01 X82.13783 Y4.94685
G01 X82.15559 Y4.95529
G01 X82.30252 Y5.03380
G01 X82.33516 Y5.05559
G01 X82.46394 Y5.16131
G01 X82.47852 Y5.17451
G01 X82.49168 Y5.18907
G01 X82.59739 Y5.31782
G01 X82.61916 Y5.35048
G01 X82.69770 Y5.49737
G01 X82.71271 Y5.53359
G01 X82.76107 Y5.69311
G01 X82.76587 Y5.71213
G01 X82.76872 Y5.73151
G01 X82.78507 Y5.89732
G01 X82.78606 Y5.91693
G01 X82.68604 Y5.91693
G01 X82.68556 Y5.92673
G01 X82.66920 Y6.09257
G01 X82.66780 Y6.10227
G01 X82.66536 Y6.11185
G01 X82.61700 Y6.27129
G01 X82.60953 Y6.28940
G01 X82.53100 Y6.43636
G01 X82.52010 Y6.45264
G01 X82.41439 Y6.58144
G01 X82.40776 Y6.58871
G01 X82.40049 Y6.59529
G01 X82.27171 Y6.70100
G01 X82.25543 Y6.71192
G01 X82.10844 Y6.79049
G01 X82.09960 Y6.79465
G01 X82.09038 Y6.79798
G01 X81.93092 Y6.84632
G01 X81.92135 Y6.84873
G01 X81.91169 Y6.85015
G01 X81.74581 Y6.86648
G01 X81.72625 Y6.86648
G01 X81.56044 Y6.85015
G01 X81.55071 Y6.84873
G01 X81.54121 Y6.84632
G01 X81.38175 Y6.79798
G01 X81.37245 Y6.79465
G01 X81.36361 Y6.79049
G01 X81.21670 Y6.71192
G01 X81.20034 Y6.70100
G01 X81.07156 Y6.59529
G01 X81.06430 Y6.58871
G01 X81.05767 Y6.58144
G01 X80.95196 Y6.45264
G01 X80.94106 Y6.43636
G01 X80.86252 Y6.28940
G01 X80.85838 Y6.28053
G01 X80.85503 Y6.27129
G01 X80.80669 Y6.11185
G01 X80.80425 Y6.10227
G01 X80.80286 Y6.09257
G01 X80.78650 Y5.92673
G01 X80.78602 Y5.91693
G01 X80.78650 Y5.90713
