( pcb2gcode 2.5.0 )
( Software-independent Gcode )

( This file uses 2 drill bit sizes. )
( Bit sizes: [0.39878mm] [1.00076mm] )

G94       (Millimeters per minute feed rate.)
G21       (Units == Millimeters.)
G91.1     (Incremental arc distance mode.)
G90       (Absolute coordinates.)
G00 S10000     (RPM spindle speed.)

G00 Z30.00000 (Retract)
T1
M5      (Spindle stop.)
G04 P1.00000
(MSG, Change tool bit to drill size 0.39878mm)
M6      (Tool change.)
M0      (Temporary machine stop.)
M3      (Spindle on clockwise.)
G0 Z5.00000
G04 P1.00000

G81 R5.00000 Z-2.50000 F1000.00000 X11.66622 Y21.03374
X18.36420 Y16.61414
X20.77720 Y20.04314
X29.66720 Y29.06014
X25.98420 Y25.12314
X32.33420 Y18.64614
X36.81222 Y22.81174
X41.09720 Y21.18614
X48.71720 Y14.83614
X49.98720 Y17.37614
X47.44720 Y27.66314
X52.78120 Y42.77614
X57.48020 Y46.84014
X63.95720 Y40.23614
X66.49720 Y37.69614
X69.03720 Y35.15614
X80.50022 Y23.06574
X86.94420 Y30.20314
X88.84920 Y33.88614
X75.51420 Y48.94834
X72.84720 Y45.44314
X74.11720 Y41.37914
X77.16520 Y38.96614
X71.32320 Y36.42614
X67.76720 Y44.04614
X62.81420 Y47.85614
X58.49620 Y51.66614
X60.14720 Y55.47614
X61.54420 Y58.01614
X55.19420 Y52.80914
X53.79720 Y54.33314
X51.25720 Y50.39614
X45.44822 Y48.71974
X36.81222 Y48.71974
X24.87422 Y48.71974
X11.92022 Y48.97374
X14.42720 Y32.48914
G80

G00 Z30.00000 (Retract)
T2
M5      (Spindle stop.)
G04 P1.00000
(MSG, Change tool bit to drill size 1.00076mm)
M6      (Tool change.)
M0      (Temporary machine stop.)
M3      (Spindle on clockwise.)
G0 Z5.00000
G04 P1.00000

G81 R5.00000 Z-2.50000 F1000.00000 X5.56514 Y3.37820
X5.56514 Y5.91820
X8.10514 Y5.91820
X10.64514 Y5.91820
X8.10514 Y3.37820
X10.64514 Y3.37820
X13.18514 Y5.91820
X13.18514 Y3.37820
X15.72514 Y3.37820
X18.26514 Y3.37820
X15.72514 Y5.91820
X18.26514 Y5.91820
X20.80514 Y5.91820
X23.34514 Y5.91820
X25.88514 Y5.91820
X20.80514 Y3.37820
X23.34514 Y3.37820
X25.88514 Y3.37820
X28.42514 Y5.91820
X28.42514 Y3.37820
X30.96514 Y5.91820
X33.50514 Y5.91820
X30.96514 Y3.37820
X33.50514 Y3.37820
X36.04514 Y5.91820
X38.58514 Y5.91820
X36.04514 Y3.37820
X38.58514 Y3.37820
X41.12514 Y5.91820
X41.12514 Y3.37820
X43.66514 Y5.91820
X46.20514 Y5.91820
X43.66514 Y3.37820
X46.20514 Y3.37820
X48.74514 Y5.91820
X51.28514 Y5.91820
X48.74514 Y3.37820
X51.28514 Y3.37820
X53.82514 Y5.91820
X53.82514 Y3.37820
X56.36514 Y5.91820
X56.36514 Y3.37820
X58.90514 Y5.91820
X61.44514 Y5.91820
X58.90514 Y3.37820
X61.44514 Y3.37820
X63.98514 Y5.91820
X63.98514 Y3.37820
X66.52514 Y5.91820
X66.52514 Y3.37820
X69.06514 Y5.91820
X69.06514 Y3.37820
X71.60514 Y5.91820
X74.14514 Y5.91820
X71.60514 Y3.37820
X74.14514 Y3.37820
X76.68514 Y5.91820
X76.68514 Y3.37820
X79.22514 Y5.91820
X79.22514 Y3.37820
X81.76514 Y5.91820
X81.76514 Y3.37820
X84.30514 Y5.91820
X86.84514 Y5.91820
X84.30514 Y3.37820
X86.84514 Y3.37820
X89.38514 Y5.91820
X89.38514 Y3.37820
X91.92514 Y5.91820
X91.92514 Y3.37820
X94.46514 Y3.37820
X94.46514 Y5.91820
X91.37396 Y14.78026
X93.91396 Y14.78026
X93.91396 Y17.32026
X93.91396 Y19.86026
X93.91396 Y22.40026
X93.91396 Y24.94026
X93.91396 Y27.48026
X93.91396 Y30.02026
X93.91396 Y32.56026
X93.91396 Y35.10026
X93.91396 Y37.64026
X93.91396 Y40.18026
X93.91396 Y42.72026
X93.91396 Y45.26026
X93.91396 Y47.80026
X93.91396 Y50.34026
X93.91396 Y52.88026
X93.91396 Y55.42026
X91.37396 Y55.42026
X91.37396 Y52.88026
X91.37396 Y50.34026
X91.37396 Y47.80026
X91.37396 Y45.26026
X91.37396 Y42.72026
X91.37396 Y40.18026
X91.37396 Y37.64026
X91.37396 Y35.10026
X91.37396 Y32.56026
X91.37396 Y30.02026
X91.37396 Y27.48026
X91.37396 Y24.94026
X91.37396 Y22.40026
X91.37396 Y19.86026
X91.37396 Y17.32026
X46.20514 Y64.33820
X43.66514 Y64.33820
X41.12514 Y66.87820
X38.58514 Y66.87820
X36.04514 Y66.87820
X33.50514 Y66.87820
X30.96514 Y66.87820
X28.42514 Y66.87820
X25.88514 Y66.87820
X23.34514 Y66.87820
X20.80514 Y66.87820
X18.26514 Y66.87820
X15.72514 Y66.87820
X13.18514 Y66.87820
X10.64514 Y66.87820
X8.10514 Y66.87820
X5.56514 Y66.87820
X5.56514 Y64.33820
X8.10514 Y64.33820
X10.64514 Y64.33820
X13.18514 Y64.33820
X15.72514 Y64.33820
X18.26514 Y64.33820
X20.80514 Y64.33820
X23.34514 Y64.33820
X25.88514 Y64.33820
X28.42514 Y64.33820
X30.96514 Y64.33820
X33.50514 Y64.33820
X36.04514 Y64.33820
X38.58514 Y64.33820
X41.12514 Y64.33820
X43.66514 Y66.87820
X46.20514 Y66.87820
X48.74514 Y66.87820
X51.28514 Y66.87820
X48.74514 Y64.33820
X51.28514 Y64.33820
X53.82514 Y66.87820
X53.82514 Y64.33820
X56.36514 Y66.87820
X56.36514 Y64.33820
X58.90514 Y66.87820
X61.44514 Y66.87820
X58.90514 Y64.33820
X61.44514 Y64.33820
X63.98514 Y66.87820
X63.98514 Y64.33820
X66.52514 Y66.87820
X66.52514 Y64.33820
X69.06514 Y66.87820
X69.06514 Y64.33820
X71.60514 Y66.87820
X74.14514 Y66.87820
X71.60514 Y64.33820
X74.14514 Y64.33820
X76.68514 Y66.87820
X76.68514 Y64.33820
X79.22514 Y66.87820
X79.22514 Y64.33820
X81.76514 Y66.87820
X81.76514 Y64.33820
X84.30514 Y66.87820
X86.84514 Y66.87820
X84.30514 Y64.33820
X86.84514 Y64.33820
X89.38514 Y66.87820
X89.38514 Y64.33820
X91.92514 Y66.87820
X91.92514 Y64.33820
X94.46514 Y66.87820
X94.46514 Y64.33820
G80

G00 Z30.000 ( All done -- retract )

M5      (Spindle off.)
G04 P1.000000
M9      (Coolant off.)
M2      (Program end.)

