( pcb2gcode 2.5.0 )
( Software-independent Gcode )

( This file uses 2 drill bit sizes. )
( Bit sizes: [0.4mm] [1mm] )

G94       (Millimeters per minute feed rate.)
G21       (Units == Millimeters.)
G91.1     (Incremental arc distance mode.)
G90       (Absolute coordinates.)
G00 S10000     (RPM spindle speed.)

G00 Z10.00000 (Retract)
T1
M5      (Spindle stop.)
G04 P1.00000
(MSG, Change tool bit to drill size 0.4mm)
M6      (Tool change.)
M0      (Temporary machine stop.)
M3      (Spindle on clockwise.)
G0 Z5.00000
G04 P1.00000

G81 R5.00000 Z-2.50000 F1000.00000 X18.36500 Y16.61300
X20.77800 Y20.04200
X14.42800 Y32.48800
X29.66800 Y29.05900
X25.98500 Y25.12200
X32.33500 Y18.64500
X41.09800 Y21.18500
X48.71800 Y14.83500
X49.98800 Y17.37500
X47.44800 Y27.66200
X52.78200 Y42.77500
X57.48100 Y46.83900
X51.25800 Y50.39500
X53.79800 Y54.33200
X55.19500 Y52.80800
X61.54500 Y58.01500
X60.14800 Y55.47500
X58.49700 Y51.66500
X62.81500 Y47.85500
X67.76800 Y44.04500
X63.95800 Y40.23500
X66.49800 Y37.69500
X69.03800 Y35.15500
X71.32400 Y36.42500
X74.11800 Y41.37800
X72.84800 Y45.44200
X75.51500 Y48.94800
X77.16600 Y38.96500
X86.94500 Y30.20200
X88.85000 Y33.88500
G80

G00 Z10.00000 (Retract)
T2
M5      (Spindle stop.)
G04 P1.00000
(MSG, Change tool bit to drill size 1mm)
M6      (Tool change.)
M0      (Temporary machine stop.)
M3      (Spindle on clockwise.)
G0 Z5.00000
G04 P1.00000

G81 R5.00000 Z-2.50000 F1000.00000 X5.56400 Y3.37700
X8.10400 Y3.37700
X5.56400 Y5.91700
X8.10400 Y5.91700
X10.64400 Y5.91700
X13.18400 Y5.91700
X10.64400 Y3.37700
X13.18400 Y3.37700
X15.72400 Y5.91700
X15.72400 Y3.37700
X18.26400 Y3.37700
X18.26400 Y5.91700
X20.80400 Y5.91700
X20.80400 Y3.37700
X23.34400 Y3.37700
X23.34400 Y5.91700
X25.88400 Y5.91700
X28.42400 Y5.91700
X25.88400 Y3.37700
X28.42400 Y3.37700
X30.96400 Y5.91700
X33.50400 Y5.91700
X30.96400 Y3.37700
X33.50400 Y3.37700
X36.04400 Y5.91700
X36.04400 Y3.37700
X38.58400 Y5.91700
X41.12400 Y5.91700
X38.58400 Y3.37700
X41.12400 Y3.37700
X43.66400 Y5.91700
X43.66400 Y3.37700
X46.20400 Y3.37700
X46.20400 Y5.91700
X48.74400 Y5.91700
X51.28400 Y5.91700
X48.74400 Y3.37700
X51.28400 Y3.37700
X53.82400 Y5.91700
X53.82400 Y3.37700
X56.36400 Y5.91700
X56.36400 Y3.37700
X58.90400 Y5.91700
X58.90400 Y3.37700
X61.44400 Y5.91700
X61.44400 Y3.37700
X63.98400 Y5.91700
X63.98400 Y3.37700
X66.52400 Y5.91700
X69.06400 Y5.91700
X66.52400 Y3.37700
X69.06400 Y3.37700
X71.60400 Y5.91700
X71.60400 Y3.37700
X74.14400 Y5.91700
X76.68400 Y5.91700
X74.14400 Y3.37700
X76.68400 Y3.37700
X79.22400 Y5.91700
X81.76400 Y5.91700
X79.22400 Y3.37700
X81.76400 Y3.37700
X84.30400 Y5.91700
X86.84400 Y5.91700
X84.30400 Y3.37700
X86.84400 Y3.37700
X89.38400 Y5.91700
X89.38400 Y3.37700
X91.92400 Y3.37700
X94.46400 Y3.37700
X94.46400 Y5.91700
X91.92400 Y5.91700
X91.37400 Y14.77900
X93.91400 Y14.77900
X93.91400 Y17.31900
X91.37400 Y17.31900
X91.37400 Y19.85900
X93.91400 Y19.85900
X93.91400 Y22.39900
X91.37400 Y22.39900
X91.37400 Y24.93900
X93.91400 Y24.93900
X93.91400 Y27.47900
X91.37400 Y27.47900
X91.37400 Y30.01900
X93.91400 Y30.01900
X93.91400 Y32.55900
X91.37400 Y32.55900
X91.37400 Y35.09900
X93.91400 Y35.09900
X91.37400 Y37.63900
X93.91400 Y37.63900
X93.91400 Y40.17900
X91.37400 Y40.17900
X91.37400 Y42.71900
X93.91400 Y42.71900
X93.91400 Y45.25900
X91.37400 Y45.25900
X91.37400 Y47.79900
X93.91400 Y47.79900
X93.91400 Y50.33900
X91.37400 Y50.33900
X91.37400 Y52.87900
X93.91400 Y52.87900
X93.91400 Y55.41900
X91.37400 Y55.41900
X94.46400 Y64.33700
X94.46400 Y66.87700
X91.92400 Y64.33700
X91.92400 Y66.87700
X89.38400 Y64.33700
X89.38400 Y66.87700
X86.84400 Y64.33700
X86.84400 Y66.87700
X84.30400 Y64.33700
X84.30400 Y66.87700
X81.76400 Y64.33700
X81.76400 Y66.87700
X79.22400 Y64.33700
X79.22400 Y66.87700
X76.68400 Y64.33700
X76.68400 Y66.87700
X74.14400 Y64.33700
X74.14400 Y66.87700
X71.60400 Y64.33700
X71.60400 Y66.87700
X69.06400 Y66.87700
X69.06400 Y64.33700
X66.52400 Y66.87700
X66.52400 Y64.33700
X63.98400 Y66.87700
X63.98400 Y64.33700
X61.44400 Y66.87700
X61.44400 Y64.33700
X58.90400 Y66.87700
X58.90400 Y64.33700
X56.36400 Y66.87700
X56.36400 Y64.33700
X53.82400 Y66.87700
X53.82400 Y64.33700
X51.28400 Y66.87700
X51.28400 Y64.33700
X48.74400 Y66.87700
X48.74400 Y64.33700
X46.20400 Y66.87700
X46.20400 Y64.33700
X43.66400 Y66.87700
X43.66400 Y64.33700
X41.12400 Y66.87700
X41.12400 Y64.33700
X38.58400 Y66.87700
X38.58400 Y64.33700
X36.04400 Y66.87700
X36.04400 Y64.33700
X33.50400 Y66.87700
X33.50400 Y64.33700
X30.96400 Y66.87700
X30.96400 Y64.33700
X28.42400 Y66.87700
X28.42400 Y64.33700
X25.88400 Y66.87700
X25.88400 Y64.33700
X23.34400 Y66.87700
X23.34400 Y64.33700
X20.80400 Y66.87700
X20.80400 Y64.33700
X18.26400 Y66.87700
X18.26400 Y64.33700
X15.72400 Y66.87700
X15.72400 Y64.33700
X13.18400 Y66.87700
X13.18400 Y64.33700
X10.64400 Y66.87700
X10.64400 Y64.33700
X8.10400 Y66.87700
X8.10400 Y64.33700
X5.56400 Y66.87700
X5.56400 Y64.33700
G80

G00 Z10.000 ( All done -- retract )

M5      (Spindle off.)
G04 P1.000000
M9      (Coolant off.)
M2      (Program end.)

