( pcb2gcode 2.5.0 )
( Software-independent Gcode )

G94 ( Millimeters per minute feed rate. )
G21 ( Units == Millimeters. )

G90 ( Absolute coordinates. )
G00 S10000 ( RPM spindle speed. )
G64 P0.01000 ( set maximum deviation from commanded toolpath )
G01 F600.00000 ( Feedrate. )


G00 Z10.00000 (Retract to tool change height)
T1
M5      (Spindle stop.)
G04 P1.00000 (Wait for spindle to stop)
(MSG, Change tool bit to mill diameter 0.20000mm)
M6      (Tool change.)
M0      (Temporary machine stop.)
M3 ( Spindle on clockwise. )
G04 P1.00000 (Wait for spindle to get up to speed)
G04 P0 ( dwell for no time -- G64 should not smooth over this point )
G00 Z5.00000 ( retract )

G00 X0.00000 Y0.05621 ( rapid move to begin. )
G01 F300.00000
( Mill infeed pass 1/1 )
G01 Z-0.05000
G04 P0 ( dwell for no time -- G64 should not smooth over this point )
G01 F600.00000
G01 X0.00000 Y0.05621
G01 X0.00000 Y69.94365
G01 X0.00490 Y69.94959
G01 X0.05032 Y69.99496
G01 X0.05629 Y69.99996
G01 X99.94367 Y69.99996
G01 X99.94958 Y69.99496
G01 X99.99500 Y69.94959
G01 X99.99993 Y69.94365
G01 X99.99993 Y0.05621
G01 X99.99500 Y0.05032
G01 X99.94958 Y0.00490
G01 X99.94369 Y0.00000
G01 X0.05621 Y0.00000
G01 X0.05032 Y0.00490
G01 X0.00490 Y0.05032
G01 X0.00000 Y0.05621
G01 X0.00046 Y0.32446
G01 X0.00046 Y69.67548
G01 X0.00218 Y69.70154
G01 X0.00726 Y69.72722
G01 X0.02385 Y69.78919
G01 X0.03581 Y69.82193
G01 X0.05324 Y69.85218
G01 X0.07564 Y69.87883
G01 X0.12106 Y69.92427
G01 X0.14775 Y69.94670
G01 X0.17795 Y69.96412
G01 X0.21069 Y69.97601
G01 X0.27272 Y69.99262
G01 X0.29837 Y69.99770
G01 X0.32446 Y69.99948
G01 X99.67544 Y69.99948
G01 X99.70158 Y69.99770
G01 X99.72723 Y69.99262
G01 X99.78923 Y69.97601
G01 X99.82200 Y69.96412
G01 X99.85218 Y69.94670
G01 X99.87890 Y69.92427
G01 X99.92423 Y69.87883
G01 X99.94669 Y69.85218
G01 X99.96411 Y69.82193
G01 X99.97605 Y69.78919
G01 X99.99266 Y69.72722
G01 X99.99777 Y69.70154
G01 X99.99944 Y69.67548
G01 X99.99944 Y0.32446
G01 X99.99777 Y0.29837
G01 X99.99266 Y0.27272
G01 X99.97605 Y0.21069
G01 X99.96411 Y0.17795
G01 X99.94669 Y0.14775
G01 X99.92423 Y0.12106
G01 X99.87890 Y0.07564
G01 X99.85218 Y0.05324
G01 X99.82200 Y0.03581
G01 X99.78923 Y0.02385
G01 X99.72723 Y0.00726
G01 X99.70158 Y0.00218
G01 X99.67544 Y0.00046
G01 X0.32446 Y0.00046
G01 X0.29837 Y0.00218
G01 X0.27272 Y0.00726
G01 X0.21069 Y0.02385
G01 X0.17795 Y0.03581
G01 X0.14775 Y0.05324
G01 X0.12106 Y0.07564
G01 X0.07564 Y0.12106
G01 X0.05324 Y0.14775
G01 X0.03581 Y0.17795
G01 X0.02385 Y0.21069
G01 X0.00726 Y0.27272
G01 X0.00218 Y0.29837
G01 X0.00046 Y0.32446
G01 X0.10046 Y0.32446
G01 X0.10132 Y0.31140
G01 X0.10384 Y0.29860
G01 X0.12045 Y0.23660
G01 X0.12639 Y0.22022
G01 X0.13515 Y0.20511
G01 X0.14633 Y0.19177
G01 X0.19177 Y0.14633
G01 X0.20511 Y0.13515
G01 X0.22022 Y0.12639
G01 X0.23660 Y0.12045
G01 X0.29860 Y0.10384
G01 X0.31140 Y0.10132
G01 X0.32446 Y0.10046
G01 X99.67544 Y0.10046
G01 X99.68852 Y0.10132
G01 X99.70135 Y0.10384
G01 X99.76333 Y0.12045
G01 X99.77971 Y0.12639
G01 X99.79480 Y0.13515
G01 X99.80818 Y0.14633
G01 X99.85355 Y0.19177
G01 X99.86477 Y0.20511
G01 X99.87349 Y0.22022
G01 X99.87945 Y0.23660
G01 X99.89607 Y0.29860
G01 X99.89858 Y0.31140
G01 X99.89947 Y0.32446
G01 X99.89947 Y69.67548
G01 X99.89858 Y69.68848
G01 X99.89607 Y69.70131
G01 X99.87945 Y69.76334
G01 X99.87349 Y69.77972
G01 X99.86477 Y69.79483
G01 X99.85355 Y69.80814
G01 X99.80818 Y69.85356
G01 X99.79480 Y69.86478
G01 X99.77971 Y69.87349
G01 X99.76333 Y69.87941
G01 X99.70135 Y69.89602
G01 X99.68852 Y69.89862
G01 X99.67544 Y69.89948
G01 X0.32446 Y69.89948
G01 X0.31140 Y69.89862
G01 X0.29860 Y69.89602
G01 X0.23660 Y69.87941
G01 X0.22022 Y69.87349
G01 X0.20511 Y69.86478
G01 X0.19177 Y69.85356
G01 X0.14633 Y69.80814
G01 X0.13515 Y69.79483
G01 X0.12639 Y69.77972
G01 X0.12045 Y69.76334
G01 X0.10384 Y69.70131
G01 X0.10132 Y69.68848
G01 X0.10046 Y69.67548
G01 X0.10046 Y0.32446
G04 P0 ( dwell for no time -- G64 should not smooth over this point )
G00 Z5.00000 ( retract )

G00 X4.40903 Y3.37696 ( rapid move to begin. )
G01 F300.00000
( Mill infeed pass 1/1 )
G01 Z-0.05000
G04 P0 ( dwell for no time -- G64 should not smooth over this point )
G01 F600.00000
G01 X4.40903 Y3.37696
G01 X4.42659 Y3.57746
G01 X4.42625 Y3.57759
G01 X4.42659 Y3.57746
G01 X4.47873 Y3.77193
G01 X4.47832 Y3.77210
G01 X4.47873 Y3.77193
G01 X4.56382 Y3.95435
G01 X4.56344 Y3.95455
G01 X4.56382 Y3.95435
G01 X4.67924 Y4.11927
G01 X4.67896 Y4.11952
G01 X4.67924 Y4.11927
G01 X4.82155 Y4.26164
G01 X4.82135 Y4.26189
G01 X4.82155 Y4.26164
G01 X4.99278 Y4.38150
G01 X5.01165 Y4.39644
G01 X5.02851 Y4.41348
G01 X5.06738 Y4.45780
G01 X5.08640 Y4.48348
G01 X5.10121 Y4.51183
G01 X5.11122 Y4.54216
G01 X5.12524 Y4.59936
G01 X5.13032 Y4.63098
G01 X5.13032 Y4.66291
G01 X5.12524 Y4.69448
G01 X5.11122 Y4.75173
G01 X5.10121 Y4.78206
G01 X5.08640 Y4.81046
G01 X5.06738 Y4.83608
G01 X5.02851 Y4.88041
G01 X5.01165 Y4.89745
G01 X4.99280 Y4.91231
G01 X4.82155 Y5.03222
G01 X4.82135 Y5.03202
G01 X4.82155 Y5.03222
G01 X4.67921 Y5.17456
G01 X4.67896 Y5.17436
G01 X4.67921 Y5.17456
G01 X4.56382 Y5.33946
G01 X4.56344 Y5.33933
G01 X4.56382 Y5.33946
G01 X4.47873 Y5.52199
G01 X4.47832 Y5.52186
G01 X4.47873 Y5.52199
G01 X4.42659 Y5.71642
G01 X4.42625 Y5.71637
G01 X4.42659 Y5.71642
G01 X4.40903 Y5.91690
G01 X4.40870 Y5.91690
G01 X4.40903 Y5.91690
G01 X4.42659 Y6.11751
G01 X4.42625 Y6.11759
G01 X4.42659 Y6.11751
G01 X4.47873 Y6.31198
G01 X4.47832 Y6.31210
G01 X4.47873 Y6.31198
G01 X4.56382 Y6.49437
G01 X4.56344 Y6.49460
G01 X4.56382 Y6.49437
G01 X4.67924 Y6.65932
G01 X4.67896 Y6.65955
G01 X4.67924 Y6.65932
G01 X4.82155 Y6.80166
G01 X4.82135 Y6.80194
G01 X4.82155 Y6.80166
G01 X4.90197 Y6.85795
G01 X4.98645 Y6.91713
G01 X4.98630 Y6.91744
G01 X4.98645 Y6.91713
G01 X5.16893 Y7.00220
G01 X5.16885 Y7.00255
G01 X5.16893 Y7.00220
G01 X5.36344 Y7.05432
G01 X5.36336 Y7.05467
G01 X5.36344 Y7.05432
G01 X5.56392 Y7.07187
G01 X5.56392 Y7.07222
G01 X5.56392 Y7.07187
G01 X5.76453 Y7.05432
G01 X5.76456 Y7.05467
G01 X5.76453 Y7.05432
G01 X5.95897 Y7.00220
G01 X5.95909 Y7.00255
G01 X5.95897 Y7.00220
G01 X6.14144 Y6.91713
G01 X6.14162 Y6.91744
G01 X6.14144 Y6.91713
G01 X6.30634 Y6.80166
G01 X6.30657 Y6.80194
G01 X6.30634 Y6.80166
G01 X6.44868 Y6.65932
G01 X6.44891 Y6.65955
G01 X6.44868 Y6.65932
G01 X6.56859 Y6.48810
G01 X6.58345 Y6.46930
G01 X6.60052 Y6.45244
G01 X6.64479 Y6.41360
G01 X6.67045 Y6.39453
G01 X6.69879 Y6.37972
G01 X6.72915 Y6.36969
G01 X6.78640 Y6.35561
G01 X6.81799 Y6.35056
G01 X6.84995 Y6.35056
G01 X6.88152 Y6.35561
G01 X6.93880 Y6.36969
G01 X6.96910 Y6.37972
G01 X6.99745 Y6.39448
G01 X7.02310 Y6.41355
G01 X7.06742 Y6.45244
G01 X7.08444 Y6.46930
G01 X7.09938 Y6.48810
G01 X7.21926 Y6.65932
G01 X7.21898 Y6.65955
G01 X7.21926 Y6.65932
G01 X7.36161 Y6.80166
G01 X7.36138 Y6.80194
G01 X7.36161 Y6.80166
G01 X7.52648 Y6.91713
G01 X7.52632 Y6.91744
G01 X7.52648 Y6.91713
G01 X7.70898 Y7.00220
G01 X7.70882 Y7.00255
G01 X7.70898 Y7.00220
G01 X7.90344 Y7.05432
G01 X7.90334 Y7.05467
G01 X7.90344 Y7.05432
G01 X8.10397 Y7.07187
G01 X8.10397 Y7.07222
G01 X8.10397 Y7.07187
G01 X8.30453 Y7.05432
G01 X8.30458 Y7.05467
G01 X8.30453 Y7.05432
G01 X8.49894 Y7.00220
G01 X8.49909 Y7.00255
G01 X8.49894 Y7.00220
G01 X8.68144 Y6.91713
G01 X8.68159 Y6.91744
G01 X8.68144 Y6.91713
G01 X8.84634 Y6.80166
G01 X8.84654 Y6.80194
G01 X8.84634 Y6.80166
G01 X8.98868 Y6.65932
G01 X8.98893 Y6.65955
G01 X8.98868 Y6.65932
G01 X9.10857 Y6.48810
G01 X9.12348 Y6.46930
G01 X9.14049 Y6.45244
G01 X9.18482 Y6.41360
G01 X9.21042 Y6.39453
G01 X9.23877 Y6.37972
G01 X9.26915 Y6.36969
G01 X9.32642 Y6.35561
G01 X9.35799 Y6.35056
G01 X9.38997 Y6.35056
G01 X9.42155 Y6.35561
G01 X9.47877 Y6.36969
G01 X9.50912 Y6.37972
G01 X9.53747 Y6.39448
G01 X9.56310 Y6.41355
G01 X9.60740 Y6.45244
G01 X9.62444 Y6.46930
G01 X9.63940 Y6.48810
G01 X9.75929 Y6.65932
G01 X9.75901 Y6.65955
G01 X9.75929 Y6.65932
G01 X9.90158 Y6.80166
G01 X9.90135 Y6.80194
G01 X9.90158 Y6.80166
G01 X10.06648 Y6.91713
G01 X10.06630 Y6.91744
G01 X10.06648 Y6.91713
G01 X10.24898 Y7.00220
G01 X10.24885 Y7.00255
G01 X10.24898 Y7.00220
G01 X10.44341 Y7.05432
G01 X10.44336 Y7.05467
G01 X10.44341 Y7.05432
G01 X10.64400 Y7.07187
G01 X10.64400 Y7.07222
G01 X10.64400 Y7.07187
G01 X10.84450 Y7.05432
G01 X10.84456 Y7.05467
G01 X10.84450 Y7.05432
G01 X11.03897 Y7.00220
G01 X11.03907 Y7.00255
G01 X11.03897 Y7.00220
G01 X11.22142 Y6.91713
G01 X11.22162 Y6.91744
G01 X11.22142 Y6.91713
G01 X11.38631 Y6.80166
G01 X11.38657 Y6.80194
G01 X11.38631 Y6.80166
G01 X11.52865 Y6.65932
G01 X11.52891 Y6.65955
G01 X11.52865 Y6.65932
G01 X11.64890 Y6.48764
G01 X11.66378 Y6.46887
G01 X11.68080 Y6.45201
G01 X11.72512 Y6.41317
G01 X11.75073 Y6.39409
G01 X11.77912 Y6.37929
G01 X11.80943 Y6.36923
G01 X11.86670 Y6.35521
G01 X11.89827 Y6.35015
G01 X11.93028 Y6.35015
G01 X11.96183 Y6.35521
G01 X12.01908 Y6.36923
G01 X12.04943 Y6.37929
G01 X12.07298 Y6.39155
G01 X12.07694 Y6.40552
G01 X12.07298 Y6.39155
G01 X12.19728 Y6.26722
G01 X12.21311 Y6.27131
G01 X12.19728 Y6.26722
G01 X12.15893 Y6.14088
G01 X12.15413 Y6.12183
G01 X12.15128 Y6.10238
G01 X12.13495 Y5.93654
G01 X12.13495 Y5.89732
G01 X12.15128 Y5.73151
G01 X12.15413 Y5.71213
G01 X12.15893 Y5.69311
G01 X12.19728 Y5.56664
G01 X12.21316 Y5.56265
G01 X12.19728 Y5.56664
G01 X12.07298 Y5.44238
G01 X12.07694 Y5.42836
G01 X12.07298 Y5.44238
G01 X12.04943 Y5.45460
G01 X12.01908 Y5.46471
G01 X11.96183 Y5.47873
G01 X11.93028 Y5.48381
G01 X11.89827 Y5.48381
G01 X11.86670 Y5.47873
G01 X11.80943 Y5.46471
G01 X11.77912 Y5.45460
G01 X11.75073 Y5.43982
G01 X11.72512 Y5.42074
G01 X11.68080 Y5.38188
G01 X11.66378 Y5.36501
G01 X11.64890 Y5.34629
G01 X11.52865 Y5.17456
G01 X11.52891 Y5.17439
G01 X11.52865 Y5.17456
G01 X11.38631 Y5.03222
G01 X11.38652 Y5.03207
G01 X11.38631 Y5.03222
G01 X11.21509 Y4.91231
G01 X11.19632 Y4.89748
G01 X11.17945 Y4.88043
G01 X11.14057 Y4.83613
G01 X11.12149 Y4.81051
G01 X11.10673 Y4.78208
G01 X11.09668 Y4.75176
G01 X11.08265 Y4.69448
G01 X11.07755 Y4.66291
G01 X11.07755 Y4.63098
G01 X11.08265 Y4.59936
G01 X11.09668 Y4.54216
G01 X11.10673 Y4.51183
G01 X11.12149 Y4.48348
G01 X11.14057 Y4.45780
G01 X11.17940 Y4.41348
G01 X11.19627 Y4.39644
G01 X11.21509 Y4.38150
G01 X11.38631 Y4.26164
G01 X11.38657 Y4.26189
G01 X11.38631 Y4.26164
G01 X11.52865 Y4.11927
G01 X11.52886 Y4.11945
G01 X11.52865 Y4.11927
G01 X11.64859 Y3.94805
G01 X11.66345 Y3.92933
G01 X11.68052 Y3.91246
G01 X11.72479 Y3.87360
G01 X11.75045 Y3.85448
G01 X11.77882 Y3.83969
G01 X11.80912 Y3.82963
G01 X11.86640 Y3.81561
G01 X11.89797 Y3.81053
G01 X11.92995 Y3.81053
G01 X11.96152 Y3.81561
G01 X12.01880 Y3.82963
G01 X12.04910 Y3.83969
G01 X12.07745 Y3.85445
G01 X12.10307 Y3.87353
G01 X12.14740 Y3.91244
G01 X12.16447 Y3.92930
G01 X12.17938 Y3.94805
G01 X12.29926 Y4.11927
G01 X12.29906 Y4.11947
G01 X12.29926 Y4.11927
G01 X12.44161 Y4.26164
G01 X12.44135 Y4.26189
G01 X12.44161 Y4.26164
G01 X12.61323 Y4.38186
G01 X12.63205 Y4.39679
G01 X12.64892 Y4.41383
G01 X12.68781 Y4.45816
G01 X12.70688 Y4.48373
G01 X12.72162 Y4.51208
G01 X12.73170 Y4.54241
G01 X12.74572 Y4.59971
G01 X12.75080 Y4.63123
G01 X12.75080 Y4.66326
G01 X12.74572 Y4.69483
G01 X12.73170 Y4.75211
G01 X12.72162 Y4.78244
G01 X12.70935 Y4.80593
G01 X12.69540 Y4.80995
G01 X12.70935 Y4.80593
G01 X12.83368 Y4.93029
G01 X12.82967 Y4.94553
G01 X12.83368 Y4.93029
G01 X12.96010 Y4.89189
G01 X12.99855 Y4.88424
G01 X13.16439 Y4.86791
G01 X13.20358 Y4.86791
G01 X13.36942 Y4.88424
G01 X13.40787 Y4.89189
G01 X13.53429 Y4.93029
G01 X13.53830 Y4.94553
G01 X13.53429 Y4.93029
G01 X13.65855 Y4.80593
G01 X13.67254 Y4.80995
G01 X13.65855 Y4.80593
G01 X13.64628 Y4.78244
G01 X13.63624 Y4.75211
G01 X13.62222 Y4.69483
G01 X13.61714 Y4.66326
G01 X13.61714 Y4.63123
G01 X13.62222 Y4.59971
G01 X13.63624 Y4.54241
G01 X13.64628 Y4.51208
G01 X13.66106 Y4.48373
G01 X13.68011 Y4.45816
G01 X13.71895 Y4.41383
G01 X13.73581 Y4.39679
G01 X13.75463 Y4.38186
G01 X13.92634 Y4.26164
G01 X13.92657 Y4.26189
G01 X13.92634 Y4.26164
G01 X14.06865 Y4.11927
G01 X14.06893 Y4.11950
G01 X14.06865 Y4.11927
G01 X14.18859 Y3.94805
G01 X14.20348 Y3.92933
G01 X14.22047 Y3.91246
G01 X14.26479 Y3.87360
G01 X14.29045 Y3.85448
G01 X14.31882 Y3.83969
G01 X14.34912 Y3.82963
G01 X14.40640 Y3.81561
G01 X14.43797 Y3.81053
G01 X14.46995 Y3.81053
G01 X14.50152 Y3.81561
G01 X14.55880 Y3.82963
G01 X14.58910 Y3.83969
G01 X14.61742 Y3.85445
G01 X14.64310 Y3.87353
G01 X14.68742 Y3.91244
G01 X14.70442 Y3.92930
G01 X14.71940 Y3.94805
G01 X14.83926 Y4.11927
G01 X14.83896 Y4.11950
G01 X14.83926 Y4.11927
G01 X14.98143 Y4.26184
G01 X15.15278 Y4.38150
G01 X15.17160 Y4.39644
G01 X15.18846 Y4.41348
G01 X15.22738 Y4.45780
G01 X15.24643 Y4.48348
G01 X15.26121 Y4.51183
G01 X15.27124 Y4.54216
G01 X15.28526 Y4.59936
G01 X15.29037 Y4.63098
G01 X15.29037 Y4.66291
G01 X15.28526 Y4.69448
G01 X15.27124 Y4.75173
G01 X15.26121 Y4.78206
G01 X15.24643 Y4.81046
G01 X15.22738 Y4.83608
G01 X15.18846 Y4.88041
G01 X15.17160 Y4.89745
G01 X15.15285 Y4.91231
G01 X14.98156 Y5.03222
G01 X14.98135 Y5.03202
G01 X14.98156 Y5.03222
G01 X14.83926 Y5.17456
G01 X14.83896 Y5.17439
G01 X14.83926 Y5.17456
G01 X14.71910 Y5.34627
G01 X14.70411 Y5.36504
G01 X14.68707 Y5.38190
G01 X14.64280 Y5.42077
G01 X14.61714 Y5.43984
G01 X14.58879 Y5.45460
G01 X14.55849 Y5.46471
G01 X14.50122 Y5.47873
G01 X14.46964 Y5.48381
G01 X14.43766 Y5.48381
G01 X14.40609 Y5.47873
G01 X14.34882 Y5.46471
G01 X14.31851 Y5.45460
G01 X14.29497 Y5.44238
G01 X14.29098 Y5.42836
G01 X14.29497 Y5.44238
G01 X14.17063 Y5.56661
G01 X14.15476 Y5.56263
G01 X14.17063 Y5.56661
G01 X14.20899 Y5.69311
G01 X14.21379 Y5.71213
G01 X14.21663 Y5.73151
G01 X14.23302 Y5.89732
G01 X14.23398 Y5.91693
G01 X14.23302 Y5.93654
G01 X14.21663 Y6.10238
G01 X14.21379 Y6.12183
G01 X14.20899 Y6.14088
G01 X14.17063 Y6.26725
G01 X14.15484 Y6.27134
G01 X14.17063 Y6.26725
G01 X14.29497 Y6.39155
G01 X14.29098 Y6.40552
G01 X14.29497 Y6.39155
G01 X14.31851 Y6.37929
G01 X14.34882 Y6.36923
G01 X14.40609 Y6.35521
G01 X14.43766 Y6.35015
G01 X14.46964 Y6.35015
G01 X14.50122 Y6.35521
G01 X14.55849 Y6.36923
G01 X14.58879 Y6.37929
G01 X14.61714 Y6.39404
G01 X14.64280 Y6.41312
G01 X14.68707 Y6.45201
G01 X14.70411 Y6.46887
G01 X14.71902 Y6.48764
G01 X14.83926 Y6.65932
G01 X14.83896 Y6.65955
G01 X14.83926 Y6.65932
G01 X14.98156 Y6.80166
G01 X14.98135 Y6.80194
G01 X14.98156 Y6.80166
G01 X15.14650 Y6.91713
G01 X15.14630 Y6.91744
G01 X15.14650 Y6.91713
G01 X15.32898 Y7.00220
G01 X15.32880 Y7.00255
G01 X15.32898 Y7.00220
G01 X15.52344 Y7.05432
G01 X15.52336 Y7.05467
G01 X15.52344 Y7.05432
G01 X15.72400 Y7.07187
G01 X15.72400 Y7.07222
G01 X15.72400 Y7.07187
G01 X15.92453 Y7.05432
G01 X15.92456 Y7.05467
G01 X15.92453 Y7.05432
G01 X16.11892 Y7.00220
G01 X16.11909 Y7.00255
G01 X16.11892 Y7.00220
G01 X16.30144 Y6.91713
G01 X16.30162 Y6.91744
G01 X16.30144 Y6.91713
G01 X16.46629 Y6.80166
G01 X16.46657 Y6.80194
G01 X16.46629 Y6.80166
G01 X16.60868 Y6.65932
G01 X16.60893 Y6.65955
G01 X16.60868 Y6.65932
G01 X16.72859 Y6.48810
G01 X16.74348 Y6.46930
G01 X16.76047 Y6.45244
G01 X16.80479 Y6.41360
G01 X16.83040 Y6.39453
G01 X16.85882 Y6.37972
G01 X16.88915 Y6.36969
G01 X16.94642 Y6.35561
G01 X16.97799 Y6.35056
G01 X17.00995 Y6.35056
G01 X17.04155 Y6.35561
G01 X17.09880 Y6.36969
G01 X17.12910 Y6.37972
G01 X17.15745 Y6.39448
G01 X17.18305 Y6.41355
G01 X17.22737 Y6.45244
G01 X17.24444 Y6.46930
G01 X17.25935 Y6.48810
G01 X17.37929 Y6.65932
G01 X17.37898 Y6.65955
G01 X17.37929 Y6.65932
G01 X17.52158 Y6.80166
G01 X17.52138 Y6.80194
G01 X17.52158 Y6.80166
G01 X17.68650 Y6.91713
G01 X17.68632 Y6.91744
G01 X17.68650 Y6.91713
G01 X17.86893 Y7.00220
G01 X17.86882 Y7.00255
G01 X17.86893 Y7.00220
G01 X18.06339 Y7.05432
G01 X18.06336 Y7.05467
G01 X18.06339 Y7.05432
G01 X18.26395 Y7.07187
G01 X18.26395 Y7.07222
G01 X18.26395 Y7.07187
G01 X18.46448 Y7.05432
G01 X18.46458 Y7.05467
G01 X18.46448 Y7.05432
G01 X18.65894 Y7.00220
G01 X18.65904 Y7.00255
G01 X18.65894 Y7.00220
G01 X18.84144 Y6.91713
G01 X18.84162 Y6.91744
G01 X18.84144 Y6.91713
G01 X19.00629 Y6.80166
G01 X19.00657 Y6.80194
G01 X19.00629 Y6.80166
G01 X19.14868 Y6.65932
G01 X19.14888 Y6.65955
G01 X19.14868 Y6.65932
G01 X19.26859 Y6.48810
G01 X19.28343 Y6.46930
G01 X19.30049 Y6.45244
G01 X19.34482 Y6.41360
G01 X19.37042 Y6.39453
G01 X19.39877 Y6.37972
G01 X19.42915 Y6.36969
G01 X19.48642 Y6.35561
G01 X19.51799 Y6.35056
G01 X19.54997 Y6.35056
G01 X19.58155 Y6.35561
G01 X19.63880 Y6.36969
G01 X19.66913 Y6.37972
G01 X19.69747 Y6.39448
G01 X19.72307 Y6.41355
G01 X19.76740 Y6.45244
G01 X19.78447 Y6.46930
G01 X19.79935 Y6.48810
G01 X19.91929 Y6.65932
G01 X19.91901 Y6.65955
G01 X19.91929 Y6.65932
G01 X20.06158 Y6.80166
G01 X20.06138 Y6.80194
G01 X20.06158 Y6.80166
G01 X20.14200 Y6.85795
G01 X20.22645 Y6.91713
G01 X20.22632 Y6.91744
G01 X20.22645 Y6.91713
G01 X20.40895 Y7.00220
G01 X20.40885 Y7.00255
G01 X20.40895 Y7.00220
G01 X20.60341 Y7.05432
G01 X20.60331 Y7.05467
G01 X20.60341 Y7.05432
G01 X20.80395 Y7.07187
G01 X20.80395 Y7.07222
G01 X20.80395 Y7.07187
G01 X21.00450 Y7.05432
G01 X21.00458 Y7.05467
G01 X21.00450 Y7.05432
G01 X21.19897 Y7.00220
G01 X21.19907 Y7.00255
G01 X21.19897 Y7.00220
G01 X21.38144 Y6.91713
G01 X21.38157 Y6.91744
G01 X21.38144 Y6.91713
G01 X21.54631 Y6.80166
G01 X21.54652 Y6.80194
G01 X21.54631 Y6.80166
G01 X21.68868 Y6.65932
G01 X21.68891 Y6.65955
G01 X21.68868 Y6.65932
G01 X21.80854 Y6.48810
G01 X21.82345 Y6.46930
G01 X21.84052 Y6.45244
G01 X21.88482 Y6.41360
G01 X21.91045 Y6.39453
G01 X21.93879 Y6.37972
G01 X21.96915 Y6.36969
G01 X22.02642 Y6.35561
G01 X22.05799 Y6.35056
G01 X22.08997 Y6.35056
G01 X22.12155 Y6.35561
G01 X22.17875 Y6.36969
G01 X22.20913 Y6.37972
G01 X22.23747 Y6.39448
G01 X22.26307 Y6.41355
G01 X22.30742 Y6.45244
G01 X22.32447 Y6.46930
G01 X22.33938 Y6.48810
G01 X22.45929 Y6.65932
G01 X22.45901 Y6.65955
G01 X22.45929 Y6.65932
G01 X22.60161 Y6.80166
G01 X22.60133 Y6.80194
G01 X22.60161 Y6.80166
G01 X22.76645 Y6.91713
G01 X22.76627 Y6.91744
G01 X22.76645 Y6.91713
G01 X22.94895 Y7.00220
G01 X22.94885 Y7.00255
G01 X22.94895 Y7.00220
G01 X23.14344 Y7.05432
G01 X23.14334 Y7.05467
G01 X23.14344 Y7.05432
G01 X23.34397 Y7.07187
G01 X23.34397 Y7.07222
G01 X23.34397 Y7.07187
G01 X23.54453 Y7.05432
G01 X23.54453 Y7.05467
G01 X23.54453 Y7.05432
G01 X23.73897 Y7.00220
G01 X23.73909 Y7.00255
G01 X23.73897 Y7.00220
G01 X23.92139 Y6.91713
G01 X23.92159 Y6.91744
G01 X23.92139 Y6.91713
G01 X24.08634 Y6.80166
G01 X24.08654 Y6.80194
G01 X24.08634 Y6.80166
G01 X24.22863 Y6.65932
G01 X24.22893 Y6.65955
G01 X24.22863 Y6.65932
G01 X24.34857 Y6.48810
G01 X24.36348 Y6.46930
G01 X24.38052 Y6.45244
G01 X24.42477 Y6.41360
G01 X24.45045 Y6.39453
G01 X24.47879 Y6.37972
G01 X24.50909 Y6.36969
G01 X24.56637 Y6.35561
G01 X24.59794 Y6.35056
G01 X24.62992 Y6.35056
G01 X24.66149 Y6.35561
G01 X24.71877 Y6.36969
G01 X24.74907 Y6.37972
G01 X24.77742 Y6.39448
G01 X24.80310 Y6.41355
G01 X24.84742 Y6.45244
G01 X24.86447 Y6.46930
G01 X24.87940 Y6.48810
G01 X24.99924 Y6.65932
G01 X24.99891 Y6.65965
G01 X24.99924 Y6.65932
G01 X25.14161 Y6.80166
G01 X25.24529 Y6.87428
G01 X25.26408 Y6.88919
G01 X25.28095 Y6.90623
G01 X25.31981 Y6.95053
G01 X25.33884 Y6.97616
G01 X25.35365 Y7.00451
G01 X25.36373 Y7.03486
G01 X25.37775 Y7.09209
G01 X25.38199 Y7.11571
G01 X25.38346 Y7.13969
G01 X25.38346 Y24.10366
G01 X25.38247 Y24.12322
G01 X25.37963 Y24.14270
G01 X25.37013 Y24.19010
G01 X25.35875 Y24.22764
G01 X25.34031 Y24.26218
G01 X25.31344 Y24.30239
G01 X25.30178 Y24.31816
G01 X25.28854 Y24.33274
G01 X25.17704 Y24.44399
G01 X25.07170 Y24.59472
G01 X25.07143 Y24.59452
G01 X25.07170 Y24.59472
G01 X24.99403 Y24.76132
G01 X24.99365 Y24.76114
G01 X24.99403 Y24.76132
G01 X24.94648 Y24.93884
G01 X24.94608 Y24.93874
G01 X24.94648 Y24.93884
G01 X24.93048 Y25.12192
G01 X24.93010 Y25.12192
G01 X24.93048 Y25.12192
G01 X24.94648 Y25.30508
G01 X24.94608 Y25.30511
G01 X24.94648 Y25.30508
G01 X24.99403 Y25.48260
G01 X24.99365 Y25.48273
G01 X24.99403 Y25.48260
G01 X25.07170 Y25.64920
G01 X25.07143 Y25.64940
G01 X25.07170 Y25.64920
G01 X25.17714 Y25.79980
G01 X25.17684 Y25.80002
G01 X25.17714 Y25.79980
G01 X25.30714 Y25.92979
G01 X25.30688 Y25.93007
G01 X25.30714 Y25.92979
G01 X25.45771 Y26.03518
G01 X25.45751 Y26.03551
G01 X25.45771 Y26.03518
G01 X25.62431 Y26.11290
G01 X25.62418 Y26.11326
G01 X25.62431 Y26.11290
G01 X25.80185 Y26.16043
G01 X25.80178 Y26.16083
G01 X25.80185 Y26.16043
G01 X25.98499 Y26.17645
G01 X25.98499 Y26.17686
G01 X25.98499 Y26.17645
G01 X26.16810 Y26.16043
G01 X26.16817 Y26.16083
G01 X26.16810 Y26.16043
G01 X26.34564 Y26.11290
G01 X26.34572 Y26.11326
G01 X26.34564 Y26.11290
G01 X26.51219 Y26.03518
G01 X26.51239 Y26.03551
G01 X26.51219 Y26.03518
G01 X26.66281 Y25.92979
G01 X26.66301 Y25.93007
G01 X26.66281 Y25.92979
G01 X26.79278 Y25.79980
G01 X26.79306 Y25.80002
G01 X26.79278 Y25.79980
G01 X26.89817 Y25.64920
G01 X26.89850 Y25.64940
G01 X26.89817 Y25.64920
G01 X26.97589 Y25.48260
G01 X26.97625 Y25.48273
G01 X26.97589 Y25.48260
G01 X27.02347 Y25.30508
G01 X27.02382 Y25.30511
G01 X27.02347 Y25.30508
G01 X27.03944 Y25.12192
G01 X27.03985 Y25.12192
G01 X27.03944 Y25.12192
G01 X27.02347 Y24.93884
G01 X27.02382 Y24.93874
G01 X27.02347 Y24.93884
G01 X26.97589 Y24.76132
G01 X26.97625 Y24.76114
G01 X26.97589 Y24.76132
G01 X26.89817 Y24.59472
G01 X26.89850 Y24.59452
G01 X26.89817 Y24.59472
G01 X26.79278 Y24.44415
G01 X26.79306 Y24.44389
G01 X26.79278 Y24.44415
G01 X26.66281 Y24.31415
G01 X26.66301 Y24.31385
G01 X26.66281 Y24.31415
G01 X26.52260 Y24.21598
G01 X26.50381 Y24.20107
G01 X26.48694 Y24.18400
G01 X26.44808 Y24.13968
G01 X26.42903 Y24.11410
G01 X26.41427 Y24.08575
G01 X26.40421 Y24.05543
G01 X26.39014 Y23.99817
G01 X26.38590 Y23.97455
G01 X26.38445 Y23.95063
G01 X26.38445 Y7.13969
G01 X26.38590 Y7.11571
G01 X26.39014 Y7.09209
G01 X26.40421 Y7.03486
G01 X26.41427 Y7.00451
G01 X26.42903 Y6.97616
G01 X26.44813 Y6.95053
G01 X26.48694 Y6.90623
G01 X26.50381 Y6.88919
G01 X26.52260 Y6.87428
G01 X26.62634 Y6.80166
G01 X26.76865 Y6.65932
G01 X26.76906 Y6.65970
G01 X26.76865 Y6.65932
G01 X26.88890 Y6.48764
G01 X26.90378 Y6.46887
G01 X26.92077 Y6.45201
G01 X26.96512 Y6.41317
G01 X26.99070 Y6.39409
G01 X27.01910 Y6.37929
G01 X27.04945 Y6.36923
G01 X27.10670 Y6.35521
G01 X27.13830 Y6.35015
G01 X27.17025 Y6.35015
G01 X27.20185 Y6.35521
G01 X27.25910 Y6.36923
G01 X27.28940 Y6.37929
G01 X27.31298 Y6.39155
G01 X27.31691 Y6.40552
G01 X27.31298 Y6.39155
G01 X27.43728 Y6.26722
G01 X27.45313 Y6.27131
G01 X27.43728 Y6.26722
G01 X27.39890 Y6.14088
G01 X27.39415 Y6.12183
G01 X27.39128 Y6.10238
G01 X27.37495 Y5.93654
G01 X27.37495 Y5.89732
G01 X27.39128 Y5.73151
G01 X27.39415 Y5.71213
G01 X27.39890 Y5.69311
G01 X27.43728 Y5.56664
G01 X27.45313 Y5.56265
G01 X27.43728 Y5.56664
G01 X27.31298 Y5.44238
G01 X27.31691 Y5.42836
G01 X27.31298 Y5.44238
G01 X27.28940 Y5.45460
G01 X27.25910 Y5.46471
G01 X27.20185 Y5.47873
G01 X27.17025 Y5.48381
G01 X27.13830 Y5.48381
G01 X27.10670 Y5.47873
G01 X27.04945 Y5.46471
G01 X27.01910 Y5.45460
G01 X26.99070 Y5.43982
G01 X26.96512 Y5.42074
G01 X26.92077 Y5.38188
G01 X26.90378 Y5.36501
G01 X26.88890 Y5.34629
G01 X26.76865 Y5.17456
G01 X26.76893 Y5.17439
G01 X26.76865 Y5.17456
G01 X26.62634 Y5.03222
G01 X26.62654 Y5.03202
G01 X26.62634 Y5.03222
G01 X26.45507 Y4.91231
G01 X26.43629 Y4.89748
G01 X26.41943 Y4.88043
G01 X26.38057 Y4.83613
G01 X26.36149 Y4.81051
G01 X26.34668 Y4.78208
G01 X26.33668 Y4.75176
G01 X26.32263 Y4.69448
G01 X26.31755 Y4.66291
G01 X26.31755 Y4.63098
G01 X26.32263 Y4.59936
G01 X26.33668 Y4.54216
G01 X26.34668 Y4.51183
G01 X26.36149 Y4.48348
G01 X26.38057 Y4.45780
G01 X26.41943 Y4.41348
G01 X26.43629 Y4.39644
G01 X26.45507 Y4.38150
G01 X26.62634 Y4.26164
G01 X26.62654 Y4.26189
G01 X26.62634 Y4.26164
G01 X26.76865 Y4.11927
G01 X26.76893 Y4.11950
G01 X26.76865 Y4.11927
G01 X26.88890 Y3.94767
G01 X26.90378 Y3.92890
G01 X26.92077 Y3.91198
G01 X26.96512 Y3.87317
G01 X26.99070 Y3.85409
G01 X27.01910 Y3.83931
G01 X27.04945 Y3.82925
G01 X27.10670 Y3.81523
G01 X27.13830 Y3.81015
G01 X27.17025 Y3.81015
G01 X27.20185 Y3.81523
G01 X27.25910 Y3.82925
G01 X27.28940 Y3.83931
G01 X27.31298 Y3.85153
G01 X27.31691 Y3.86550
G01 X27.31298 Y3.85153
G01 X27.43728 Y3.72727
G01 X27.45313 Y3.73131
G01 X27.43728 Y3.72727
G01 X27.39890 Y3.60088
G01 X27.39415 Y3.58183
G01 X27.39128 Y3.56238
G01 X27.37495 Y3.39659
G01 X27.37495 Y3.35732
G01 X27.39128 Y3.19156
G01 X27.39415 Y3.17208
G01 X27.39890 Y3.15305
G01 X27.43728 Y3.02669
G01 X27.45313 Y3.02260
G01 X27.43728 Y3.02669
G01 X27.31298 Y2.90236
G01 X27.31691 Y2.88836
G01 X27.31298 Y2.90236
G01 X27.28940 Y2.91465
G01 X27.25910 Y2.92466
G01 X27.20185 Y2.93868
G01 X27.17025 Y2.94381
G01 X27.13830 Y2.94381
G01 X27.10670 Y2.93868
G01 X27.04945 Y2.92466
G01 X27.01910 Y2.91465
G01 X26.99070 Y2.89987
G01 X26.96512 Y2.88079
G01 X26.92077 Y2.84193
G01 X26.90378 Y2.82506
G01 X26.88890 Y2.80624
G01 X26.76865 Y2.63456
G01 X26.76893 Y2.63439
G01 X26.76865 Y2.63456
G01 X26.62634 Y2.49222
G01 X26.62654 Y2.49199
G01 X26.62634 Y2.49222
G01 X26.46144 Y2.37681
G01 X26.46159 Y2.37647
G01 X26.46144 Y2.37681
G01 X26.27894 Y2.29174
G01 X26.27909 Y2.29138
G01 X26.27894 Y2.29174
G01 X26.08453 Y2.23962
G01 X26.08458 Y2.23926
G01 X26.08453 Y2.23962
G01 X25.88400 Y2.22209
G01 X25.88400 Y2.22171
G01 X25.88400 Y2.22209
G01 X25.68341 Y2.23962
G01 X25.68334 Y2.23926
G01 X25.68341 Y2.23962
G01 X25.48890 Y2.29174
G01 X25.48882 Y2.29138
G01 X25.48890 Y2.29174
G01 X25.30648 Y2.37681
G01 X25.30627 Y2.37647
G01 X25.30648 Y2.37681
G01 X25.14161 Y2.49222
G01 X25.14133 Y2.49199
G01 X25.14161 Y2.49222
G01 X24.99924 Y2.63456
G01 X24.99901 Y2.63439
G01 X24.99924 Y2.63456
G01 X24.87940 Y2.80579
G01 X24.86447 Y2.82466
G01 X24.84742 Y2.84147
G01 X24.80310 Y2.88039
G01 X24.77742 Y2.89949
G01 X24.74907 Y2.91424
G01 X24.71867 Y2.92423
G01 X24.66147 Y2.93827
G01 X24.62992 Y2.94330
G01 X24.59802 Y2.94330
G01 X24.56647 Y2.93827
G01 X24.50920 Y2.92423
G01 X24.47887 Y2.91424
G01 X24.45045 Y2.89946
G01 X24.42477 Y2.88036
G01 X24.38052 Y2.84145
G01 X24.36348 Y2.82458
G01 X24.34857 Y2.80581
G01 X24.22863 Y2.63456
G01 X24.22893 Y2.63439
G01 X24.22863 Y2.63456
G01 X24.08634 Y2.49222
G01 X24.08654 Y2.49199
G01 X24.08634 Y2.49222
G01 X23.92139 Y2.37681
G01 X23.92159 Y2.37647
G01 X23.92139 Y2.37681
G01 X23.73897 Y2.29174
G01 X23.73909 Y2.29138
G01 X23.73897 Y2.29174
G01 X23.54453 Y2.23962
G01 X23.54453 Y2.23926
G01 X23.54453 Y2.23962
G01 X23.34397 Y2.22209
G01 X23.34397 Y2.22171
G01 X23.34397 Y2.22209
G01 X23.14344 Y2.23962
G01 X23.14334 Y2.23926
G01 X23.14344 Y2.23962
G01 X22.94895 Y2.29174
G01 X22.94877 Y2.29138
G01 X22.94895 Y2.29174
G01 X22.76645 Y2.37681
G01 X22.76627 Y2.37647
G01 X22.76645 Y2.37681
G01 X22.60161 Y2.49222
G01 X22.60133 Y2.49199
G01 X22.60161 Y2.49222
G01 X22.45929 Y2.63456
G01 X22.45901 Y2.63439
G01 X22.45929 Y2.63456
G01 X22.33938 Y2.80579
G01 X22.32447 Y2.82466
G01 X22.30742 Y2.84147
G01 X22.26307 Y2.88039
G01 X22.23740 Y2.89949
G01 X22.20905 Y2.91424
G01 X22.17872 Y2.92423
G01 X22.12147 Y2.93827
G01 X22.08990 Y2.94330
G01 X22.05802 Y2.94330
G01 X22.02652 Y2.93827
G01 X21.96925 Y2.92423
G01 X21.93887 Y2.91424
G01 X21.91045 Y2.89946
G01 X21.88482 Y2.88036
G01 X21.84052 Y2.84145
G01 X21.82345 Y2.82458
G01 X21.80854 Y2.80581
G01 X21.68868 Y2.63456
G01 X21.68891 Y2.63439
G01 X21.68868 Y2.63456
G01 X21.54631 Y2.49222
G01 X21.54652 Y2.49199
G01 X21.54631 Y2.49222
G01 X21.38144 Y2.37681
G01 X21.38157 Y2.37647
G01 X21.38144 Y2.37681
G01 X21.19897 Y2.29174
G01 X21.19907 Y2.29138
G01 X21.19897 Y2.29174
G01 X21.00450 Y2.23962
G01 X21.00458 Y2.23926
G01 X21.00450 Y2.23962
G01 X20.80395 Y2.22209
G01 X20.80395 Y2.22171
G01 X20.80395 Y2.22209
G01 X20.60341 Y2.23962
G01 X20.60331 Y2.23926
G01 X20.60341 Y2.23962
G01 X20.40895 Y2.29174
G01 X20.40882 Y2.29138
G01 X20.40895 Y2.29174
G01 X20.22645 Y2.37681
G01 X20.22632 Y2.37647
G01 X20.22645 Y2.37681
G01 X20.06158 Y2.49222
G01 X20.06138 Y2.49199
G01 X20.06158 Y2.49222
G01 X19.91929 Y2.63456
G01 X19.91901 Y2.63439
G01 X19.91929 Y2.63456
G01 X19.79935 Y2.80579
G01 X19.78447 Y2.82466
G01 X19.76740 Y2.84147
G01 X19.72307 Y2.88039
G01 X19.69745 Y2.89949
G01 X19.66902 Y2.91424
G01 X19.63872 Y2.92423
G01 X19.58147 Y2.93827
G01 X19.54995 Y2.94330
G01 X19.51802 Y2.94330
G01 X19.48652 Y2.93827
G01 X19.42925 Y2.92423
G01 X19.39887 Y2.91424
G01 X19.37042 Y2.89946
G01 X19.34482 Y2.88036
G01 X19.30049 Y2.84145
G01 X19.28343 Y2.82458
G01 X19.26859 Y2.80581
G01 X19.14868 Y2.63456
G01 X19.14888 Y2.63439
G01 X19.14868 Y2.63456
G01 X19.00629 Y2.49222
G01 X19.00657 Y2.49199
G01 X19.00629 Y2.49222
G01 X18.84144 Y2.37681
G01 X18.84162 Y2.37647
G01 X18.84144 Y2.37681
G01 X18.65894 Y2.29174
G01 X18.65912 Y2.29138
G01 X18.65894 Y2.29174
G01 X18.46448 Y2.23962
G01 X18.46458 Y2.23926
G01 X18.46448 Y2.23962
G01 X18.26395 Y2.22209
G01 X18.26395 Y2.22171
G01 X18.26395 Y2.22209
G01 X18.06339 Y2.23962
G01 X18.06336 Y2.23926
G01 X18.06339 Y2.23962
G01 X17.86893 Y2.29174
G01 X17.86882 Y2.29138
G01 X17.86893 Y2.29174
G01 X17.68650 Y2.37681
G01 X17.68632 Y2.37647
G01 X17.68650 Y2.37681
G01 X17.52158 Y2.49222
G01 X17.52138 Y2.49199
G01 X17.52158 Y2.49222
G01 X17.37929 Y2.63456
G01 X17.37898 Y2.63439
G01 X17.37929 Y2.63456
G01 X17.25935 Y2.80579
G01 X17.24444 Y2.82466
G01 X17.22737 Y2.84147
G01 X17.18305 Y2.88039
G01 X17.15745 Y2.89949
G01 X17.12907 Y2.91424
G01 X17.09872 Y2.92423
G01 X17.04144 Y2.93827
G01 X17.00995 Y2.94330
G01 X16.97799 Y2.94330
G01 X16.94650 Y2.93827
G01 X16.88925 Y2.92423
G01 X16.85884 Y2.91424
G01 X16.83047 Y2.89946
G01 X16.80479 Y2.88036
G01 X16.76047 Y2.84145
G01 X16.74348 Y2.82458
G01 X16.72859 Y2.80581
G01 X16.60868 Y2.63456
G01 X16.60893 Y2.63439
G01 X16.60868 Y2.63456
G01 X16.46629 Y2.49222
G01 X16.46657 Y2.49199
G01 X16.46629 Y2.49222
G01 X16.30144 Y2.37681
G01 X16.30162 Y2.37647
G01 X16.30144 Y2.37681
G01 X16.11892 Y2.29174
G01 X16.11912 Y2.29138
G01 X16.11892 Y2.29174
G01 X15.92453 Y2.23962
G01 X15.92456 Y2.23926
G01 X15.92453 Y2.23962
G01 X15.72400 Y2.22209
G01 X15.72400 Y2.22171
G01 X15.72400 Y2.22209
G01 X15.52344 Y2.23962
G01 X15.52336 Y2.23926
G01 X15.52344 Y2.23962
G01 X15.32890 Y2.29174
G01 X15.32880 Y2.29138
G01 X15.32890 Y2.29174
G01 X15.14650 Y2.37681
G01 X15.14630 Y2.37647
G01 X15.14650 Y2.37681
G01 X14.98156 Y2.49222
G01 X14.98135 Y2.49199
G01 X14.98156 Y2.49222
G01 X14.83926 Y2.63456
G01 X14.83896 Y2.63439
G01 X14.83926 Y2.63456
G01 X14.71940 Y2.80579
G01 X14.70442 Y2.82466
G01 X14.68742 Y2.84147
G01 X14.64310 Y2.88039
G01 X14.61742 Y2.89949
G01 X14.58907 Y2.91424
G01 X14.55870 Y2.92423
G01 X14.50142 Y2.93827
G01 X14.46995 Y2.94330
G01 X14.43797 Y2.94330
G01 X14.40650 Y2.93827
G01 X14.34922 Y2.92423
G01 X14.31882 Y2.91424
G01 X14.29047 Y2.89946
G01 X14.26479 Y2.88036
G01 X14.22047 Y2.84145
G01 X14.20348 Y2.82458
G01 X14.18859 Y2.80581
G01 X14.06865 Y2.63456
G01 X14.06893 Y2.63439
G01 X14.06865 Y2.63456
G01 X13.92634 Y2.49222
G01 X13.92657 Y2.49199
G01 X13.92634 Y2.49222
G01 X13.76142 Y2.37681
G01 X13.76162 Y2.37647
G01 X13.76142 Y2.37681
G01 X13.57892 Y2.29174
G01 X13.57909 Y2.29138
G01 X13.57892 Y2.29174
G01 X13.38453 Y2.23962
G01 X13.38453 Y2.23926
G01 X13.38453 Y2.23962
G01 X13.18400 Y2.22209
G01 X13.18400 Y2.22171
G01 X13.18400 Y2.22209
G01 X12.98344 Y2.23962
G01 X12.98336 Y2.23926
G01 X12.98344 Y2.23962
G01 X12.78895 Y2.29174
G01 X12.78880 Y2.29138
G01 X12.78895 Y2.29174
G01 X12.60650 Y2.37681
G01 X12.60630 Y2.37647
G01 X12.60650 Y2.37681
G01 X12.44161 Y2.49222
G01 X12.44135 Y2.49199
G01 X12.44161 Y2.49222
G01 X12.29926 Y2.63456
G01 X12.29901 Y2.63439
G01 X12.29926 Y2.63456
G01 X12.17938 Y2.80579
G01 X12.16447 Y2.82466
G01 X12.14740 Y2.84147
G01 X12.10307 Y2.88039
G01 X12.07745 Y2.89949
G01 X12.04905 Y2.91424
G01 X12.01870 Y2.92423
G01 X11.96147 Y2.93827
G01 X11.92995 Y2.94330
G01 X11.89802 Y2.94330
G01 X11.86650 Y2.93827
G01 X11.80922 Y2.92423
G01 X11.77887 Y2.91424
G01 X11.75047 Y2.89946
G01 X11.72479 Y2.88036
G01 X11.68052 Y2.84145
G01 X11.66345 Y2.82458
G01 X11.64859 Y2.80581
G01 X11.52865 Y2.63456
G01 X11.52891 Y2.63439
G01 X11.52865 Y2.63456
G01 X11.38631 Y2.49222
G01 X11.38657 Y2.49199
G01 X11.38631 Y2.49222
G01 X11.22142 Y2.37681
G01 X11.22162 Y2.37647
G01 X11.22142 Y2.37681
G01 X11.03897 Y2.29174
G01 X11.03912 Y2.29138
G01 X11.03897 Y2.29174
G01 X10.84450 Y2.23962
G01 X10.84456 Y2.23926
G01 X10.84450 Y2.23962
G01 X10.64400 Y2.22209
G01 X10.64400 Y2.22171
G01 X10.64400 Y2.22209
G01 X10.44341 Y2.23962
G01 X10.44336 Y2.23926
G01 X10.44341 Y2.23962
G01 X10.24895 Y2.29174
G01 X10.24880 Y2.29138
G01 X10.24895 Y2.29174
G01 X10.06648 Y2.37681
G01 X10.06630 Y2.37647
G01 X10.06648 Y2.37681
G01 X9.90158 Y2.49222
G01 X9.90135 Y2.49199
G01 X9.90158 Y2.49222
G01 X9.75929 Y2.63456
G01 X9.75901 Y2.63439
G01 X9.75929 Y2.63456
G01 X9.63940 Y2.80579
G01 X9.62444 Y2.82466
G01 X9.60740 Y2.84147
G01 X9.56310 Y2.88039
G01 X9.53742 Y2.89949
G01 X9.50907 Y2.91424
G01 X9.47872 Y2.92423
G01 X9.42144 Y2.93827
G01 X9.38992 Y2.94330
G01 X9.35799 Y2.94330
G01 X9.32652 Y2.93827
G01 X9.26925 Y2.92423
G01 X9.23884 Y2.91424
G01 X9.21047 Y2.89946
G01 X9.18482 Y2.88036
G01 X9.14049 Y2.84145
G01 X9.12348 Y2.82458
G01 X9.10857 Y2.80581
G01 X8.98868 Y2.63456
G01 X8.98893 Y2.63439
G01 X8.98868 Y2.63456
G01 X8.84634 Y2.49222
G01 X8.84654 Y2.49199
G01 X8.84634 Y2.49222
G01 X8.68144 Y2.37681
G01 X8.68159 Y2.37647
G01 X8.68144 Y2.37681
G01 X8.49894 Y2.29174
G01 X8.49909 Y2.29138
G01 X8.49894 Y2.29174
G01 X8.30453 Y2.23962
G01 X8.30458 Y2.23926
G01 X8.30453 Y2.23962
G01 X8.10397 Y2.22209
G01 X8.10397 Y2.22171
G01 X8.10397 Y2.22209
G01 X7.90344 Y2.23962
G01 X7.90334 Y2.23926
G01 X7.90344 Y2.23962
G01 X7.70893 Y2.29174
G01 X7.70882 Y2.29138
G01 X7.70893 Y2.29174
G01 X7.52648 Y2.37681
G01 X7.52632 Y2.37647
G01 X7.52648 Y2.37681
G01 X7.36161 Y2.49222
G01 X7.36138 Y2.49199
G01 X7.36161 Y2.49222
G01 X7.21926 Y2.63456
G01 X7.21898 Y2.63439
G01 X7.21926 Y2.63456
G01 X7.09938 Y2.80579
G01 X7.08444 Y2.82466
G01 X7.06742 Y2.84147
G01 X7.02310 Y2.88039
G01 X6.99745 Y2.89949
G01 X6.96905 Y2.91424
G01 X6.93870 Y2.92423
G01 X6.88144 Y2.93827
G01 X6.84995 Y2.94330
G01 X6.81799 Y2.94330
G01 X6.78650 Y2.93827
G01 X6.72925 Y2.92423
G01 X6.69884 Y2.91424
G01 X6.67045 Y2.89946
G01 X6.64479 Y2.88036
G01 X6.60052 Y2.84145
G01 X6.58345 Y2.82458
G01 X6.56859 Y2.80581
G01 X6.44868 Y2.63456
G01 X6.44891 Y2.63439
G01 X6.44868 Y2.63456
G01 X6.30634 Y2.49222
G01 X6.30657 Y2.49199
G01 X6.30634 Y2.49222
G01 X6.14144 Y2.37681
G01 X6.14162 Y2.37647
G01 X6.14144 Y2.37681
G01 X5.95897 Y2.29174
G01 X5.95909 Y2.29138
G01 X5.95897 Y2.29174
G01 X5.76453 Y2.23962
G01 X5.76456 Y2.23926
G01 X5.76453 Y2.23962
G01 X5.56392 Y2.22209
G01 X5.56392 Y2.22171
G01 X5.56392 Y2.22209
G01 X5.36344 Y2.23962
G01 X5.36336 Y2.23926
G01 X5.36344 Y2.23962
G01 X5.16890 Y2.29174
G01 X5.16882 Y2.29138
G01 X5.16890 Y2.29174
G01 X4.98645 Y2.37681
G01 X4.98630 Y2.37647
G01 X4.98645 Y2.37681
G01 X4.82155 Y2.49222
G01 X4.82135 Y2.49199
G01 X4.82155 Y2.49222
G01 X4.67921 Y2.63456
G01 X4.67896 Y2.63436
G01 X4.67921 Y2.63456
G01 X4.56382 Y2.79946
G01 X4.56344 Y2.79933
G01 X4.56382 Y2.79946
G01 X4.47873 Y2.98199
G01 X4.47832 Y2.98186
G01 X4.47873 Y2.98199
G01 X4.42659 Y3.17642
G01 X4.42625 Y3.17632
G01 X4.42659 Y3.17642
G01 X4.40906 Y3.37647
G01 X4.40903 Y3.37696
G01 X4.40870 Y3.37696
G01 X4.30870 Y3.37696
G01 X4.32775 Y3.15895
G01 X4.38434 Y2.94759
G01 X4.47683 Y2.74932
G01 X4.60233 Y2.57005
G01 X4.75709 Y2.41534
G01 X4.93626 Y2.28981
G01 X5.13458 Y2.19740
G01 X5.34596 Y2.14071
G01 X5.56392 Y2.12166
G01 X5.78195 Y2.14071
G01 X5.99331 Y2.19740
G01 X6.19163 Y2.28981
G01 X6.37085 Y2.41534
G01 X6.52554 Y2.57005
G01 X6.65048 Y2.74846
G01 X6.65795 Y2.75786
G01 X6.66643 Y2.76631
G01 X6.71076 Y2.80513
G01 X6.72356 Y2.81468
G01 X6.73776 Y2.82207
G01 X6.75297 Y2.82715
G01 X6.81025 Y2.84109
G01 X6.82597 Y2.84363
G01 X6.84197 Y2.84363
G01 X6.85770 Y2.84109
G01 X6.91497 Y2.82715
G01 X6.93016 Y2.82207
G01 X6.94433 Y2.81470
G01 X6.95714 Y2.80515
G01 X7.00146 Y2.76631
G01 X7.00999 Y2.75786
G01 X7.01746 Y2.74843
G01 X7.14238 Y2.57005
G01 X7.29709 Y2.41534
G01 X7.47631 Y2.28981
G01 X7.67464 Y2.19740
G01 X7.88599 Y2.14071
G01 X8.10397 Y2.12166
G01 X8.32193 Y2.14071
G01 X8.53331 Y2.19740
G01 X8.73161 Y2.28981
G01 X8.91083 Y2.41534
G01 X9.06556 Y2.57005
G01 X9.19051 Y2.74846
G01 X9.19795 Y2.75786
G01 X9.20643 Y2.76631
G01 X9.25073 Y2.80513
G01 X9.26356 Y2.81468
G01 X9.27778 Y2.82207
G01 X9.29295 Y2.82715
G01 X9.35025 Y2.84109
G01 X9.36600 Y2.84363
G01 X9.38197 Y2.84363
G01 X9.39772 Y2.84109
G01 X9.45495 Y2.82715
G01 X9.47014 Y2.82207
G01 X9.48431 Y2.81470
G01 X9.49716 Y2.80515
G01 X9.54148 Y2.76631
G01 X9.55002 Y2.75786
G01 X9.55746 Y2.74843
G01 X9.68235 Y2.57005
G01 X9.83706 Y2.41534
G01 X10.01629 Y2.28981
G01 X10.21461 Y2.19740
G01 X10.42599 Y2.14071
G01 X10.64400 Y2.12166
G01 X10.86195 Y2.14071
G01 X11.07328 Y2.19740
G01 X11.27163 Y2.28981
G01 X11.45085 Y2.41534
G01 X11.60554 Y2.57005
G01 X11.73048 Y2.74846
G01 X11.73792 Y2.75786
G01 X11.74646 Y2.76631
G01 X11.79073 Y2.80513
G01 X11.80358 Y2.81468
G01 X11.81776 Y2.82207
G01 X11.83295 Y2.82715
G01 X11.89022 Y2.84109
G01 X11.90597 Y2.84363
G01 X11.92195 Y2.84363
G01 X11.93770 Y2.84109
G01 X11.99497 Y2.82715
G01 X12.01016 Y2.82207
G01 X12.02433 Y2.81470
G01 X12.03714 Y2.80515
G01 X12.08146 Y2.76631
G01 X12.08999 Y2.75786
G01 X12.09749 Y2.74843
G01 X12.22238 Y2.57005
G01 X12.37709 Y2.41534
G01 X12.55629 Y2.28981
G01 X12.75464 Y2.19740
G01 X12.96599 Y2.14071
G01 X13.18400 Y2.12166
G01 X13.40190 Y2.14071
G01 X13.61331 Y2.19740
G01 X13.81163 Y2.28981
G01 X13.99085 Y2.41534
G01 X14.14554 Y2.57005
G01 X14.27048 Y2.74846
G01 X14.27792 Y2.75786
G01 X14.28646 Y2.76631
G01 X14.33076 Y2.80513
G01 X14.34353 Y2.81468
G01 X14.35776 Y2.82207
G01 X14.37295 Y2.82715
G01 X14.43022 Y2.84109
G01 X14.44600 Y2.84363
G01 X14.46197 Y2.84363
G01 X14.47770 Y2.84109
G01 X14.53495 Y2.82715
G01 X14.55016 Y2.82207
G01 X14.56428 Y2.81470
G01 X14.57714 Y2.80515
G01 X14.62146 Y2.76631
G01 X14.62999 Y2.75786
G01 X14.63744 Y2.74843
G01 X14.76238 Y2.57005
G01 X14.91709 Y2.41534
G01 X15.09629 Y2.28981
G01 X15.29458 Y2.19740
G01 X15.50601 Y2.14071
G01 X15.72400 Y2.12166
G01 X15.94193 Y2.14071
G01 X16.15326 Y2.19740
G01 X16.35163 Y2.28981
G01 X16.53080 Y2.41534
G01 X16.68556 Y2.57005
G01 X16.81048 Y2.74846
G01 X16.81795 Y2.75786
G01 X16.82646 Y2.76631
G01 X16.87071 Y2.80513
G01 X16.88356 Y2.81468
G01 X16.89778 Y2.82207
G01 X16.91297 Y2.82715
G01 X16.97025 Y2.84109
G01 X16.98600 Y2.84363
G01 X17.00192 Y2.84363
G01 X17.01770 Y2.84109
G01 X17.07497 Y2.82715
G01 X17.09016 Y2.82207
G01 X17.10431 Y2.81470
G01 X17.11714 Y2.80515
G01 X17.16148 Y2.76631
G01 X17.16999 Y2.75786
G01 X17.17746 Y2.74843
G01 X17.30238 Y2.57005
G01 X17.45704 Y2.41534
G01 X17.63631 Y2.28981
G01 X17.83461 Y2.19740
G01 X18.04601 Y2.14071
G01 X18.26395 Y2.12166
G01 X18.48193 Y2.14071
G01 X18.69328 Y2.19740
G01 X18.89163 Y2.28981
G01 X19.07083 Y2.41534
G01 X19.22556 Y2.57005
G01 X19.35051 Y2.74846
G01 X19.35795 Y2.75786
G01 X19.36641 Y2.76631
G01 X19.41073 Y2.80513
G01 X19.42358 Y2.81468
G01 X19.43778 Y2.82207
G01 X19.45297 Y2.82715
G01 X19.51025 Y2.84109
G01 X19.52595 Y2.84363
G01 X19.54195 Y2.84363
G01 X19.55772 Y2.84109
G01 X19.61497 Y2.82715
G01 X19.63016 Y2.82207
G01 X19.64431 Y2.81470
G01 X19.65716 Y2.80515
G01 X19.70148 Y2.76631
G01 X19.71002 Y2.75786
G01 X19.71749 Y2.74843
G01 X19.84238 Y2.57005
G01 X19.99706 Y2.41534
G01 X20.17631 Y2.28981
G01 X20.37461 Y2.19740
G01 X20.58596 Y2.14071
G01 X20.80395 Y2.12166
G01 X21.02195 Y2.14071
G01 X21.23328 Y2.19740
G01 X21.43158 Y2.28981
G01 X21.61085 Y2.41534
G01 X21.76556 Y2.57005
G01 X21.89051 Y2.74846
G01 X21.89795 Y2.75786
G01 X21.90641 Y2.76631
G01 X21.95076 Y2.80513
G01 X21.96358 Y2.81468
G01 X21.97778 Y2.82207
G01 X21.99292 Y2.82715
G01 X22.05025 Y2.84109
G01 X22.06597 Y2.84363
G01 X22.08195 Y2.84363
G01 X22.09772 Y2.84109
G01 X22.15492 Y2.82715
G01 X22.17011 Y2.82207
G01 X22.18433 Y2.81470
G01 X22.19716 Y2.80515
G01 X22.24148 Y2.76631
G01 X22.25002 Y2.75786
G01 X22.25749 Y2.74843
G01 X22.38233 Y2.57005
G01 X22.53709 Y2.41534
G01 X22.71626 Y2.28981
G01 X22.91464 Y2.19740
G01 X23.12596 Y2.14071
G01 X23.34397 Y2.12166
G01 X23.56195 Y2.14071
G01 X23.77331 Y2.19740
G01 X23.97161 Y2.28981
G01 X24.15085 Y2.41534
G01 X24.30551 Y2.57005
G01 X24.43046 Y2.74846
G01 X24.43790 Y2.75786
G01 X24.44643 Y2.76631
G01 X24.49076 Y2.80513
G01 X24.50358 Y2.81468
G01 X24.51773 Y2.82207
G01 X24.53292 Y2.82715
G01 X24.59020 Y2.84109
G01 X24.60600 Y2.84363
G01 X24.62197 Y2.84363
G01 X24.63767 Y2.84109
G01 X24.69495 Y2.82715
G01 X24.71014 Y2.82207
G01 X24.72433 Y2.81470
G01 X24.73711 Y2.80515
G01 X24.78143 Y2.76631
G01 X24.78997 Y2.75786
G01 X24.79749 Y2.74843
G01 X24.92235 Y2.57005
G01 X25.07709 Y2.41534
G01 X25.25626 Y2.28981
G01 X25.45464 Y2.19740
G01 X25.66599 Y2.14071
G01 X25.88400 Y2.12166
G01 X26.10193 Y2.14071
G01 X26.31331 Y2.19740
G01 X26.51163 Y2.28981
G01 X26.69085 Y2.41534
G01 X26.84556 Y2.57005
G01 X26.97081 Y2.74894
G01 X26.97823 Y2.75826
G01 X26.98674 Y2.76669
G01 X27.03101 Y2.80556
G01 X27.04389 Y2.81516
G01 X27.05804 Y2.82255
G01 X27.07317 Y2.82758
G01 X27.13050 Y2.84160
G01 X27.14628 Y2.84414
G01 X27.16223 Y2.84414
G01 X27.17808 Y2.84160
G01 X27.23533 Y2.82758
G01 X27.25047 Y2.82255
G01 X27.26466 Y2.81516
G01 X27.27747 Y2.80563
G01 X27.32019 Y2.76812
G01 X27.55260 Y3.00060
G01 X27.55047 Y3.00457
G01 X27.54630 Y3.01338
G01 X27.54300 Y3.02263
G01 X27.49461 Y3.18214
G01 X27.49220 Y3.19161
G01 X27.49075 Y3.20137
G01 X27.47444 Y3.36713
G01 X27.47444 Y3.38679
G01 X27.49075 Y3.55257
G01 X27.49220 Y3.56232
G01 X27.49461 Y3.57180
G01 X27.54300 Y3.73129
G01 X27.55047 Y3.74934
G01 X27.55260 Y3.75336
G01 X27.32019 Y3.98579
G01 X27.27747 Y3.94833
G01 X27.26466 Y3.93878
G01 X27.25047 Y3.93141
G01 X27.23533 Y3.92633
G01 X27.17808 Y3.91236
G01 X27.16223 Y3.90982
G01 X27.14628 Y3.90982
G01 X27.13050 Y3.91236
G01 X27.07317 Y3.92633
G01 X27.05804 Y3.93141
G01 X27.04389 Y3.93878
G01 X27.03101 Y3.94835
G01 X26.98674 Y3.98722
G01 X26.97823 Y3.99565
G01 X26.97081 Y4.00502
G01 X26.84556 Y4.18384
G01 X26.69085 Y4.33852
G01 X26.51247 Y4.46341
G01 X26.50305 Y4.47093
G01 X26.49461 Y4.47947
G01 X26.45575 Y4.52379
G01 X26.44623 Y4.53657
G01 X26.43883 Y4.55071
G01 X26.43381 Y4.56593
G01 X26.41976 Y4.62318
G01 X26.41724 Y4.63893
G01 X26.41724 Y4.65496
G01 X26.41976 Y4.67070
G01 X26.43381 Y4.72803
G01 X26.43883 Y4.74315
G01 X26.44623 Y4.75732
G01 X26.45575 Y4.77015
G01 X26.49464 Y4.81444
G01 X26.50307 Y4.82295
G01 X26.51244 Y4.83045
G01 X26.69085 Y4.95534
G01 X26.84556 Y5.11010
G01 X26.97081 Y5.28889
G01 X26.97823 Y5.29831
G01 X26.98674 Y5.30675
G01 X27.03101 Y5.34561
G01 X27.04389 Y5.35511
G01 X27.05804 Y5.36255
G01 X27.07317 Y5.36758
G01 X27.13050 Y5.38160
G01 X27.14628 Y5.38409
G01 X27.16223 Y5.38409
G01 X27.17808 Y5.38160
G01 X27.23533 Y5.36758
G01 X27.25047 Y5.36255
G01 X27.26466 Y5.35511
G01 X27.27747 Y5.34563
G01 X27.32019 Y5.30817
G01 X27.55260 Y5.54055
G01 X27.55047 Y5.54457
G01 X27.54630 Y5.55343
G01 X27.54300 Y5.56268
G01 X27.49461 Y5.72214
G01 X27.49220 Y5.73161
G01 X27.49075 Y5.74131
G01 X27.47444 Y5.90713
G01 X27.47444 Y5.92673
G01 X27.49075 Y6.09257
G01 X27.49220 Y6.10227
G01 X27.49461 Y6.11185
G01 X27.54300 Y6.27129
G01 X27.55047 Y6.28940
G01 X27.55260 Y6.29331
G01 X27.32019 Y6.52579
G01 X27.27747 Y6.48833
G01 X27.26466 Y6.47878
G01 X27.25047 Y6.47141
G01 X27.23533 Y6.46636
G01 X27.17808 Y6.45234
G01 X27.16223 Y6.44980
G01 X27.14628 Y6.44980
G01 X27.13050 Y6.45234
G01 X27.07317 Y6.46636
G01 X27.05804 Y6.47141
G01 X27.04389 Y6.47878
G01 X27.03101 Y6.48833
G01 X26.98674 Y6.52722
G01 X26.97823 Y6.53565
G01 X26.97081 Y6.54502
G01 X26.84556 Y6.72384
G01 X26.69085 Y6.87855
G01 X26.57998 Y6.95622
G01 X26.57058 Y6.96366
G01 X26.56215 Y6.97215
G01 X26.52329 Y7.01647
G01 X26.51376 Y7.02927
G01 X26.50635 Y7.04345
G01 X26.50134 Y7.05863
G01 X26.48730 Y7.11586
G01 X26.48516 Y7.12767
G01 X26.48443 Y7.13969
G01 X26.48443 Y23.95063
G01 X26.48516 Y23.96259
G01 X26.48730 Y23.97435
G01 X26.50134 Y24.03163
G01 X26.50635 Y24.04681
G01 X26.51376 Y24.06094
G01 X26.52329 Y24.07379
G01 X26.56215 Y24.11811
G01 X26.57058 Y24.12665
G01 X26.57998 Y24.13409
G01 X26.72730 Y24.23726
G01 X26.86964 Y24.37963
G01 X26.98514 Y24.54450
G01 X27.07023 Y24.72698
G01 X27.12232 Y24.92144
G01 X27.13982 Y25.12192
G01 X27.12232 Y25.32245
G01 X27.07023 Y25.51694
G01 X26.98514 Y25.69936
G01 X26.86964 Y25.86431
G01 X26.72730 Y26.00665
G01 X26.56235 Y26.12215
G01 X26.37993 Y26.20724
G01 X26.18552 Y26.25928
G01 X25.98499 Y26.27683
G01 X25.78438 Y26.25928
G01 X25.58997 Y26.20724
G01 X25.40752 Y26.12215
G01 X25.24262 Y26.00665
G01 X25.10025 Y25.86431
G01 X24.98481 Y25.69936
G01 X24.89970 Y25.51694
G01 X24.84763 Y25.32245
G01 X24.83007 Y25.12192
G01 X24.84763 Y24.92144
G01 X24.89970 Y24.72698
G01 X24.98481 Y24.54450
G01 X25.10025 Y24.37963
G01 X25.21783 Y24.26198
G01 X25.22441 Y24.25471
G01 X25.23028 Y24.24687
G01 X25.25715 Y24.20663
G01 X25.26637 Y24.18931
G01 X25.27206 Y24.17059
G01 X25.28156 Y24.12312
G01 X25.28301 Y24.11341
G01 X25.28344 Y24.10366
G01 X25.28344 Y7.13969
G01 X25.28275 Y7.12767
G01 X25.28059 Y7.11586
G01 X25.26657 Y7.05863
G01 X25.26154 Y7.04345
G01 X25.25418 Y7.02927
G01 X25.24460 Y7.01647
G01 X25.20577 Y6.97215
G01 X25.19733 Y6.96366
G01 X25.18791 Y6.95622
G01 X25.07709 Y6.87855
G01 X24.92235 Y6.72384
G01 X24.79749 Y6.54545
G01 X24.78997 Y6.53606
G01 X24.78143 Y6.52762
G01 X24.73711 Y6.48873
G01 X24.72436 Y6.47921
G01 X24.71014 Y6.47182
G01 X24.69502 Y6.46681
G01 X24.63777 Y6.45279
G01 X24.62197 Y6.45023
G01 X24.60600 Y6.45023
G01 X24.59020 Y6.45279
G01 X24.53292 Y6.46681
G01 X24.51773 Y6.47182
G01 X24.50358 Y6.47921
G01 X24.49076 Y6.48879
G01 X24.44643 Y6.52765
G01 X24.43790 Y6.53606
G01 X24.43046 Y6.54545
G01 X24.30551 Y6.72384
G01 X24.15085 Y6.87855
G01 X23.97161 Y7.00408
G01 X23.77331 Y7.09653
G01 X23.56195 Y7.15317
G01 X23.34397 Y7.17225
G01 X23.12596 Y7.15317
G01 X22.91464 Y7.09653
G01 X22.71626 Y7.00408
G01 X22.53709 Y6.87855
G01 X22.38233 Y6.72384
G01 X22.25749 Y6.54545
G01 X22.25002 Y6.53606
G01 X22.24148 Y6.52762
G01 X22.19716 Y6.48873
G01 X22.18433 Y6.47921
G01 X22.17019 Y6.47182
G01 X22.15502 Y6.46681
G01 X22.09775 Y6.45279
G01 X22.08195 Y6.45023
G01 X22.06597 Y6.45023
G01 X22.05017 Y6.45279
G01 X21.99292 Y6.46681
G01 X21.97771 Y6.47182
G01 X21.96358 Y6.47921
G01 X21.95076 Y6.48879
G01 X21.90641 Y6.52765
G01 X21.89795 Y6.53606
G01 X21.89051 Y6.54545
G01 X21.76556 Y6.72384
G01 X21.61085 Y6.87855
G01 X21.43158 Y7.00408
G01 X21.23328 Y7.09653
G01 X21.02195 Y7.15317
G01 X20.80395 Y7.17225
G01 X20.58596 Y7.15317
G01 X20.37461 Y7.09653
G01 X20.17631 Y7.00408
G01 X19.99706 Y6.87855
G01 X19.84238 Y6.72384
G01 X19.71749 Y6.54545
G01 X19.71002 Y6.53606
G01 X19.70148 Y6.52762
G01 X19.65716 Y6.48873
G01 X19.64431 Y6.47921
G01 X19.63019 Y6.47182
G01 X19.61500 Y6.46681
G01 X19.55772 Y6.45279
G01 X19.54195 Y6.45023
G01 X19.52595 Y6.45023
G01 X19.51017 Y6.45279
G01 X19.45289 Y6.46681
G01 X19.43776 Y6.47182
G01 X19.42358 Y6.47921
G01 X19.41073 Y6.48879
G01 X19.36641 Y6.52765
G01 X19.35795 Y6.53606
G01 X19.35051 Y6.54545
G01 X19.22556 Y6.72384
G01 X19.07083 Y6.87855
G01 X18.89163 Y7.00408
G01 X18.69328 Y7.09653
G01 X18.48193 Y7.15317
G01 X18.26395 Y7.17225
G01 X18.04601 Y7.15317
G01 X17.83461 Y7.09653
G01 X17.63631 Y7.00408
G01 X17.45704 Y6.87855
G01 X17.30238 Y6.72384
G01 X17.17746 Y6.54545
G01 X17.16999 Y6.53606
G01 X17.16148 Y6.52762
G01 X17.11714 Y6.48873
G01 X17.10431 Y6.47921
G01 X17.09019 Y6.47182
G01 X17.07497 Y6.46681
G01 X17.01777 Y6.45279
G01 X17.00192 Y6.45023
G01 X16.98600 Y6.45023
G01 X16.97015 Y6.45279
G01 X16.91287 Y6.46681
G01 X16.89776 Y6.47182
G01 X16.88356 Y6.47921
G01 X16.87071 Y6.48879
G01 X16.82646 Y6.52765
G01 X16.81795 Y6.53606
G01 X16.81048 Y6.54545
G01 X16.68556 Y6.72384
G01 X16.53080 Y6.87855
G01 X16.35163 Y7.00408
G01 X16.15326 Y7.09653
G01 X15.94193 Y7.15317
G01 X15.72400 Y7.17225
G01 X15.50601 Y7.15317
G01 X15.29458 Y7.09653
G01 X15.09629 Y7.00408
G01 X14.91709 Y6.87855
G01 X14.76238 Y6.72384
G01 X14.63713 Y6.54502
G01 X14.62969 Y6.53560
G01 X14.62115 Y6.52717
G01 X14.57683 Y6.48833
G01 X14.56406 Y6.47878
G01 X14.54986 Y6.47141
G01 X14.53467 Y6.46636
G01 X14.47747 Y6.45234
G01 X14.46167 Y6.44980
G01 X14.44569 Y6.44980
G01 X14.42984 Y6.45234
G01 X14.37256 Y6.46636
G01 X14.35745 Y6.47141
G01 X14.34323 Y6.47878
G01 X14.33040 Y6.48833
G01 X14.28773 Y6.52579
G01 X14.05532 Y6.29333
G01 X14.05748 Y6.28940
G01 X14.06492 Y6.27129
G01 X14.11336 Y6.11185
G01 X14.11572 Y6.10227
G01 X14.11717 Y6.09257
G01 X14.13347 Y5.92673
G01 X14.13396 Y5.91693
G01 X14.13347 Y5.90713
G01 X14.11717 Y5.74131
G01 X14.11572 Y5.73161
G01 X14.11336 Y5.72214
G01 X14.06492 Y5.56268
G01 X14.05748 Y5.54457
G01 X14.05532 Y5.54053
G01 X14.28773 Y5.30814
G01 X14.33040 Y5.34561
G01 X14.34323 Y5.35511
G01 X14.35745 Y5.36255
G01 X14.37256 Y5.36758
G01 X14.42984 Y5.38160
G01 X14.44569 Y5.38409
G01 X14.46167 Y5.38409
G01 X14.47747 Y5.38160
G01 X14.53467 Y5.36758
G01 X14.54986 Y5.36255
G01 X14.56406 Y5.35511
G01 X14.57683 Y5.34563
G01 X14.62115 Y5.30677
G01 X14.62969 Y5.29834
G01 X14.63713 Y5.28886
G01 X14.76238 Y5.11010
G01 X14.91709 Y4.95534
G01 X15.09550 Y4.83045
G01 X15.10490 Y4.82295
G01 X15.11333 Y4.81442
G01 X15.15219 Y4.77009
G01 X15.16169 Y4.75729
G01 X15.16906 Y4.74312
G01 X15.17414 Y4.72801
G01 X15.18816 Y4.67070
G01 X15.19070 Y4.65496
G01 X15.19070 Y4.63893
G01 X15.18816 Y4.62318
G01 X15.17414 Y4.56593
G01 X15.16906 Y4.55071
G01 X15.16169 Y4.53657
G01 X15.15219 Y4.52379
G01 X15.11333 Y4.47947
G01 X15.10490 Y4.47093
G01 X15.09547 Y4.46341
G01 X14.91709 Y4.33852
G01 X14.76238 Y4.18384
G01 X14.63744 Y4.00545
G01 X14.62999 Y3.99600
G01 X14.62146 Y3.98757
G01 X14.57714 Y3.94871
G01 X14.56436 Y3.93924
G01 X14.55016 Y3.93179
G01 X14.53502 Y3.92679
G01 X14.47777 Y3.91274
G01 X14.46197 Y3.91025
G01 X14.44600 Y3.91025
G01 X14.43020 Y3.91274
G01 X14.37292 Y3.92679
G01 X14.35776 Y3.93179
G01 X14.34353 Y3.93924
G01 X14.33076 Y3.94873
G01 X14.28646 Y3.98760
G01 X14.27792 Y3.99603
G01 X14.27048 Y4.00545
G01 X14.14554 Y4.18384
G01 X13.99085 Y4.33852
G01 X13.81201 Y4.46377
G01 X13.80259 Y4.47119
G01 X13.79416 Y4.47972
G01 X13.75532 Y4.52404
G01 X13.74579 Y4.53685
G01 X13.73835 Y4.55107
G01 X13.73337 Y4.56618
G01 X13.71933 Y4.62343
G01 X13.71679 Y4.63928
G01 X13.71679 Y4.65521
G01 X13.71933 Y4.67106
G01 X13.73337 Y4.72829
G01 X13.73835 Y4.74350
G01 X13.74579 Y4.75767
G01 X13.75532 Y4.77050
G01 X13.79278 Y4.81315
G01 X13.56037 Y5.04556
G01 X13.55636 Y5.04345
G01 X13.54752 Y5.03926
G01 X13.53830 Y5.03596
G01 X13.37884 Y4.98762
G01 X13.35961 Y4.98376
G01 X13.19380 Y4.96743
G01 X13.17419 Y4.96743
G01 X13.00836 Y4.98376
G01 X12.98913 Y4.98762
G01 X12.82967 Y5.03596
G01 X12.82045 Y5.03926
G01 X12.81153 Y5.04345
G01 X12.80759 Y5.04558
G01 X12.57513 Y4.81315
G01 X12.61255 Y4.77050
G01 X12.62215 Y4.75767
G01 X12.62954 Y4.74350
G01 X12.63454 Y4.72829
G01 X12.64856 Y4.67106
G01 X12.65113 Y4.65521
G01 X12.65113 Y4.63928
G01 X12.64856 Y4.62343
G01 X12.63454 Y4.56618
G01 X12.62954 Y4.55107
G01 X12.62215 Y4.53685
G01 X12.61262 Y4.52404
G01 X12.57376 Y4.47972
G01 X12.56533 Y4.47119
G01 X12.55591 Y4.46377
G01 X12.37709 Y4.33852
G01 X12.22238 Y4.18384
G01 X12.09749 Y4.00545
G01 X12.08999 Y3.99600
G01 X12.08146 Y3.98757
G01 X12.03714 Y3.94871
G01 X12.02433 Y3.93924
G01 X12.01016 Y3.93179
G01 X11.99502 Y3.92679
G01 X11.93775 Y3.91274
G01 X11.92195 Y3.91025
G01 X11.90597 Y3.91025
G01 X11.89017 Y3.91274
G01 X11.83292 Y3.92679
G01 X11.81776 Y3.93179
G01 X11.80358 Y3.93924
G01 X11.79073 Y3.94873
G01 X11.74646 Y3.98760
G01 X11.73792 Y3.99603
G01 X11.73048 Y4.00545
G01 X11.60554 Y4.18384
G01 X11.45085 Y4.33852
G01 X11.27247 Y4.46341
G01 X11.26305 Y4.47093
G01 X11.25461 Y4.47947
G01 X11.21573 Y4.52379
G01 X11.20623 Y4.53657
G01 X11.19881 Y4.55071
G01 X11.19381 Y4.56593
G01 X11.17978 Y4.62318
G01 X11.17724 Y4.63893
G01 X11.17724 Y4.65496
G01 X11.17978 Y4.67070
G01 X11.19381 Y4.72803
G01 X11.19881 Y4.74315
G01 X11.20623 Y4.75732
G01 X11.21578 Y4.77015
G01 X11.25461 Y4.81444
G01 X11.26305 Y4.82295
G01 X11.27242 Y4.83045
G01 X11.45085 Y4.95534
G01 X11.60554 Y5.11010
G01 X11.73081 Y5.28889
G01 X11.73823 Y5.29831
G01 X11.74676 Y5.30675
G01 X11.79104 Y5.34561
G01 X11.80389 Y5.35511
G01 X11.81806 Y5.36255
G01 X11.83320 Y5.36758
G01 X11.89048 Y5.38160
G01 X11.90630 Y5.38409
G01 X11.92225 Y5.38409
G01 X11.93808 Y5.38160
G01 X11.99530 Y5.36758
G01 X12.01047 Y5.36255
G01 X12.02464 Y5.35511
G01 X12.03747 Y5.34563
G01 X12.08019 Y5.30817
G01 X12.31260 Y5.54055
G01 X12.31049 Y5.54457
G01 X12.30300 Y5.56268
G01 X12.25464 Y5.72214
G01 X12.25225 Y5.73161
G01 X12.25078 Y5.74131
G01 X12.23444 Y5.90713
G01 X12.23444 Y5.92673
G01 X12.25078 Y6.09257
G01 X12.25225 Y6.10227
G01 X12.25464 Y6.11185
G01 X12.30300 Y6.27129
G01 X12.31049 Y6.28940
G01 X12.31260 Y6.29331
G01 X12.08019 Y6.52579
G01 X12.03747 Y6.48833
G01 X12.02464 Y6.47878
G01 X12.01047 Y6.47141
G01 X11.99530 Y6.46636
G01 X11.93808 Y6.45234
G01 X11.92225 Y6.44980
G01 X11.90630 Y6.44980
G01 X11.89048 Y6.45234
G01 X11.83320 Y6.46636
G01 X11.81806 Y6.47141
G01 X11.80389 Y6.47878
G01 X11.79104 Y6.48833
G01 X11.74676 Y6.52722
G01 X11.73823 Y6.53565
G01 X11.73081 Y6.54502
G01 X11.60554 Y6.72384
G01 X11.45085 Y6.87855
G01 X11.27163 Y7.00408
G01 X11.07328 Y7.09653
G01 X10.86195 Y7.15317
G01 X10.64400 Y7.17225
G01 X10.42599 Y7.15317
G01 X10.21461 Y7.09653
G01 X10.01629 Y7.00408
G01 X9.83706 Y6.87855
G01 X9.68235 Y6.72384
G01 X9.55746 Y6.54545
G01 X9.55002 Y6.53606
G01 X9.54148 Y6.52762
G01 X9.49716 Y6.48873
G01 X9.48436 Y6.47921
G01 X9.47019 Y6.47182
G01 X9.45500 Y6.46681
G01 X9.39777 Y6.45279
G01 X9.38197 Y6.45023
G01 X9.36600 Y6.45023
G01 X9.35020 Y6.45279
G01 X9.29289 Y6.46681
G01 X9.27773 Y6.47182
G01 X9.26356 Y6.47921
G01 X9.25073 Y6.48879
G01 X9.20643 Y6.52765
G01 X9.19795 Y6.53606
G01 X9.19051 Y6.54545
G01 X9.06556 Y6.72384
G01 X8.91083 Y6.87855
G01 X8.73161 Y7.00408
G01 X8.53331 Y7.09653
G01 X8.32193 Y7.15317
G01 X8.10397 Y7.17225
G01 X7.88599 Y7.15317
G01 X7.67464 Y7.09653
G01 X7.47631 Y7.00408
G01 X7.29709 Y6.87855
G01 X7.14238 Y6.72384
G01 X7.01746 Y6.54545
G01 X7.00999 Y6.53606
G01 X7.00146 Y6.52762
G01 X6.95714 Y6.48873
G01 X6.94433 Y6.47921
G01 X6.93016 Y6.47182
G01 X6.91502 Y6.46681
G01 X6.85775 Y6.45279
G01 X6.84197 Y6.45023
G01 X6.82597 Y6.45023
G01 X6.81020 Y6.45279
G01 X6.75292 Y6.46681
G01 X6.73776 Y6.47182
G01 X6.72356 Y6.47921
G01 X6.71076 Y6.48879
G01 X6.66643 Y6.52765
G01 X6.65795 Y6.53606
G01 X6.65048 Y6.54545
G01 X6.52554 Y6.72384
G01 X6.37085 Y6.87855
G01 X6.19163 Y7.00408
G01 X5.99331 Y7.09653
G01 X5.78195 Y7.15317
G01 X5.56392 Y7.17225
G01 X5.34596 Y7.15317
G01 X5.13458 Y7.09653
G01 X4.93626 Y7.00408
G01 X4.75709 Y6.87855
G01 X4.60233 Y6.72384
G01 X4.47683 Y6.54456
G01 X4.38434 Y6.34627
G01 X4.32775 Y6.13489
G01 X4.30870 Y5.91690
G01 X4.32775 Y5.69900
G01 X4.38434 Y5.48759
G01 X4.47683 Y5.28932
G01 X4.60233 Y5.11010
G01 X4.75709 Y4.95534
G01 X4.93550 Y4.83045
G01 X4.94485 Y4.82295
G01 X4.95328 Y4.81442
G01 X4.99214 Y4.77009
G01 X5.00172 Y4.75729
G01 X5.00906 Y4.74312
G01 X5.01409 Y4.72801
G01 X5.02811 Y4.67070
G01 X5.03070 Y4.65496
G01 X5.03070 Y4.63893
G01 X5.02811 Y4.62318
G01 X5.01409 Y4.56593
G01 X5.00906 Y4.55071
G01 X5.00172 Y4.53657
G01 X4.99214 Y4.52379
G01 X4.95328 Y4.47947
G01 X4.94485 Y4.47093
G01 X4.93547 Y4.46341
G01 X4.75709 Y4.33852
G01 X4.60233 Y4.18384
G01 X4.47683 Y4.00454
G01 X4.38434 Y3.80627
G01 X4.32775 Y3.59489
G01 X4.30870 Y3.37696
G01 X4.40870 Y3.37696
G01 X4.40906 Y3.37647
G01 X4.41175 Y3.37350
G01 X4.41175 Y3.38038
G01 X4.41338 Y3.40505
G01 X4.41348 Y3.40629
G01 X4.41320 Y3.40629
G01 X4.41348 Y3.40629
G01 X4.42897 Y3.57292
G01 X4.43012 Y3.57970
G01 X4.42971 Y3.57975
G01 X4.43012 Y3.57970
G01 X4.44122 Y3.62709
G01 X4.44182 Y3.62941
G01 X4.48112 Y3.76730
G01 X4.48084 Y3.76743
G01 X4.48112 Y3.76730
G01 X4.48252 Y3.77144
G01 X4.49085 Y3.79324
G01 X4.49184 Y3.79552
G01 X4.51170 Y3.84066
G01 X4.51269 Y3.84289
G01 X4.56611 Y3.94957
G01 X4.56824 Y3.95343
G01 X4.56783 Y3.95359
G01 X4.56824 Y3.95343
G01 X4.59301 Y3.99379
G01 X4.59435 Y3.99588
G01 X4.62211 Y4.03649
G01 X4.62354 Y4.03845
G01 X4.68119 Y4.11442
G01 X4.68399 Y4.11782
G01 X4.68373 Y4.11803
G01 X4.68399 Y4.11782
G01 X4.73194 Y4.17071
G01 X4.73367 Y4.17251
G01 X4.76844 Y4.20728
G01 X4.77017 Y4.20891
G01 X4.82305 Y4.25686
G01 X4.82643 Y4.25966
G01 X4.82623 Y4.25999
G01 X4.82643 Y4.25966
G01 X4.90240 Y4.31731
G01 X4.90446 Y4.31874
G01 X4.94502 Y4.34652
G01 X4.94708 Y4.34787
G01 X4.99684 Y4.37845
G01 X5.04548 Y4.41249
G01 X5.08005 Y4.43997
G01 X5.08058 Y4.44040
G01 X5.09189 Y4.44914
G01 X5.09234 Y4.44952
G01 X5.12417 Y4.47340
G01 X5.20535 Y4.54640
G01 X5.21871 Y4.56052
G01 X5.22242 Y4.57556
G01 X5.23006 Y4.62298
G01 X5.23006 Y4.67096
G01 X5.22242 Y4.71833
G01 X5.21871 Y4.73339
G01 X5.20535 Y4.74749
G01 X5.12422 Y4.82046
G01 X5.09234 Y4.84441
G01 X5.09189 Y4.84475
G01 X5.08058 Y4.85353
G01 X5.08005 Y4.85389
G01 X5.04548 Y4.88135
G01 X4.99684 Y4.91548
G01 X4.94708 Y4.94602
G01 X4.94502 Y4.94736
G01 X4.90446 Y4.97510
G01 X4.90240 Y4.97652
G01 X4.82641 Y5.03423
G01 X4.82305 Y5.03702
G01 X4.82270 Y5.03652
G01 X4.82305 Y5.03702
G01 X4.77017 Y5.08498
G01 X4.76844 Y5.08660
G01 X4.73367 Y5.12143
G01 X4.73194 Y5.12315
G01 X4.68399 Y5.17606
G01 X4.68119 Y5.17944
G01 X4.62354 Y5.25544
G01 X4.62298 Y5.25496
G01 X4.62354 Y5.25544
G01 X4.62211 Y5.25744
G01 X4.59435 Y5.29801
G01 X4.59301 Y5.30007
G01 X4.56824 Y5.34045
G01 X4.56611 Y5.34431
G01 X4.51269 Y5.45104
G01 X4.51170 Y5.45325
G01 X4.49184 Y5.49839
G01 X4.49125 Y5.49816
G01 X4.49184 Y5.49839
G01 X4.49085 Y5.50073
G01 X4.48252 Y5.52252
G01 X4.48112 Y5.52666
G01 X4.44180 Y5.66445
G01 X4.44119 Y5.66682
G01 X4.43012 Y5.71424
G01 X4.42897 Y5.72094
G01 X4.42859 Y5.72087
G01 X4.42897 Y5.72094
G01 X4.41348 Y5.88764
G01 X4.41338 Y5.88881
G01 X4.41175 Y5.91350
G01 X4.41129 Y5.91350
G01 X4.41175 Y5.91350
G01 X4.41175 Y5.92033
G01 X4.41338 Y5.94500
G01 X4.41348 Y5.94629
G01 X4.42897 Y6.11289
G01 X4.42859 Y6.11297
G01 X4.42897 Y6.11289
G01 X4.43012 Y6.11970
G01 X4.44122 Y6.16707
G01 X4.44182 Y6.16941
G01 X4.48112 Y6.30730
G01 X4.48252 Y6.31144
G01 X4.49085 Y6.33324
G01 X4.49184 Y6.33552
G01 X4.49143 Y6.33560
G01 X4.49184 Y6.33552
G01 X4.51170 Y6.38066
G01 X4.51269 Y6.38287
G01 X4.56611 Y6.48960
G01 X4.56822 Y6.49338
G01 X4.56789 Y6.49359
G01 X4.56822 Y6.49338
G01 X4.59301 Y6.53385
G01 X4.59435 Y6.53590
G01 X4.62211 Y6.57649
G01 X4.62354 Y6.57845
G01 X4.68119 Y6.65447
G01 X4.68081 Y6.65485
G01 X4.68119 Y6.65447
G01 X4.68399 Y6.65785
G01 X4.73194 Y6.71071
G01 X4.73367 Y6.71251
G01 X4.76844 Y6.74728
G01 X4.77017 Y6.74896
G01 X4.82305 Y6.79691
G01 X4.82643 Y6.79971
G01 X4.90240 Y6.85736
G01 X4.90197 Y6.85795
G01 X4.90240 Y6.85736
G01 X4.90446 Y6.85879
G01 X4.94502 Y6.88657
G01 X4.94708 Y6.88790
G01 X4.98749 Y6.91271
G01 X4.99125 Y6.91482
G01 X5.09808 Y6.96819
G01 X5.10029 Y6.96925
G01 X5.14541 Y6.98906
G01 X5.14513 Y6.98965
G01 X5.14541 Y6.98906
G01 X5.14767 Y6.99000
G01 X5.16951 Y6.99839
G01 X5.17362 Y6.99976
G01 X5.31142 Y7.03913
G01 X5.31381 Y7.03971
G01 X5.36125 Y7.05084
G01 X5.36796 Y7.05193
G01 X5.36786 Y7.05246
G01 X5.36796 Y7.05193
G01 X5.53466 Y7.06742
G01 X5.53590 Y7.06752
G01 X5.56057 Y7.06918
G01 X5.56735 Y7.06918
G01 X5.59204 Y7.06752
G01 X5.59326 Y7.06742
G01 X5.59326 Y7.06775
G01 X5.59326 Y7.06742
G01 X5.75991 Y7.05193
G01 X5.76666 Y7.05084
G01 X5.76671 Y7.05119
G01 X5.76666 Y7.05084
G01 X5.81409 Y7.03971
G01 X5.81647 Y7.03913
G01 X5.95427 Y6.99976
G01 X5.95439 Y7.00009
G01 X5.95427 Y6.99976
G01 X5.95841 Y6.99839
G01 X5.98025 Y6.99000
G01 X5.98249 Y6.98906
G01 X6.02757 Y6.96925
G01 X6.02978 Y6.96819
G01 X6.13661 Y6.91482
G01 X6.14040 Y6.91271
G01 X6.14058 Y6.91302
G01 X6.14040 Y6.91271
G01 X6.18076 Y6.88790
G01 X6.18282 Y6.88657
G01 X6.22346 Y6.85879
G01 X6.22549 Y6.85731
G01 X6.30146 Y6.79971
G01 X6.30169 Y6.79999
G01 X6.30146 Y6.79971
G01 X6.30476 Y6.79694
G01 X6.35772 Y6.74896
G01 X6.35952 Y6.74723
G01 X6.39430 Y6.71246
G01 X6.39600 Y6.71071
G01 X6.44390 Y6.65780
G01 X6.44670 Y6.65447
G01 X6.44700 Y6.65470
G01 X6.44670 Y6.65447
G01 X6.50433 Y6.57845
G01 X6.50575 Y6.57644
G01 X6.53354 Y6.53590
G01 X6.53486 Y6.53385
G01 X6.56547 Y6.48406
G01 X6.59950 Y6.43552
G01 X6.62696 Y6.40090
G01 X6.62739 Y6.40037
G01 X6.63608 Y6.38914
G01 X6.63646 Y6.38861
G01 X6.66044 Y6.35673
G01 X6.73341 Y6.27558
G01 X6.74748 Y6.26222
G01 X6.76262 Y6.25853
G01 X6.80999 Y6.25089
G01 X6.85795 Y6.25089
G01 X6.90532 Y6.25853
G01 X6.92041 Y6.26222
G01 X6.93453 Y6.27560
G01 X7.00745 Y6.35673
G01 X7.03143 Y6.38856
G01 X7.03181 Y6.38909
G01 X7.04055 Y6.40037
G01 X7.04093 Y6.40090
G01 X7.06839 Y6.43547
G01 X7.10248 Y6.48411
G01 X7.13303 Y6.53385
G01 X7.13440 Y6.53590
G01 X7.16214 Y6.57649
G01 X7.16356 Y6.57850
G01 X7.22125 Y6.65447
G01 X7.22104 Y6.65465
G01 X7.22125 Y6.65447
G01 X7.22404 Y6.65780
G01 X7.27199 Y6.71071
G01 X7.27365 Y6.71251
G01 X7.30842 Y6.74728
G01 X7.30816 Y6.74754
G01 X7.30842 Y6.74728
G01 X7.31022 Y6.74896
G01 X7.36308 Y6.79691
G01 X7.36648 Y6.79971
G01 X7.44243 Y6.85736
G01 X7.44444 Y6.85879
G01 X7.48508 Y6.88657
G01 X7.48713 Y6.88790
G01 X7.52749 Y6.91271
G01 X7.53128 Y6.91482
G01 X7.53102 Y6.91528
G01 X7.53128 Y6.91482
G01 X7.63806 Y6.96819
G01 X7.64027 Y6.96925
G01 X7.68538 Y6.98906
G01 X7.68764 Y6.99000
G01 X7.70951 Y6.99839
G01 X7.70936 Y6.99872
G01 X7.70951 Y6.99839
G01 X7.71362 Y6.99976
G01 X7.85147 Y7.03913
G01 X7.85381 Y7.03971
G01 X7.90123 Y7.05084
G01 X7.90118 Y7.05119
G01 X7.90123 Y7.05084
G01 X7.90799 Y7.05193
G01 X8.07466 Y7.06742
G01 X8.07588 Y7.06752
G01 X8.10054 Y7.06918
G01 X8.10054 Y7.06958
G01 X8.10054 Y7.06918
G01 X8.10740 Y7.06918
G01 X8.13206 Y7.06752
G01 X8.13331 Y7.06742
G01 X8.29996 Y7.05193
G01 X8.30001 Y7.05236
G01 X8.29996 Y7.05193
G01 X8.30669 Y7.05084
G01 X8.35414 Y7.03971
G01 X8.35645 Y7.03913
G01 X8.49429 Y6.99976
G01 X8.49846 Y6.99839
G01 X8.52028 Y6.99000
G01 X8.52043 Y6.99049
G01 X8.52028 Y6.99000
G01 X8.52254 Y6.98906
G01 X8.56760 Y6.96925
G01 X8.56983 Y6.96819
G01 X8.67664 Y6.91482
G01 X8.68042 Y6.91271
G01 X8.72081 Y6.88790
G01 X8.72287 Y6.88657
G01 X8.72302 Y6.88688
G01 X8.72287 Y6.88657
G01 X8.76348 Y6.85879
G01 X8.76549 Y6.85736
G01 X8.84149 Y6.79971
G01 X8.84481 Y6.79694
G01 X8.84502 Y6.79714
G01 X8.84481 Y6.79694
G01 X8.89772 Y6.74896
G01 X8.89950 Y6.74723
G01 X8.93430 Y6.71246
G01 X8.93597 Y6.71071
G01 X8.98393 Y6.65780
G01 X8.98418 Y6.65808
G01 X8.98393 Y6.65780
G01 X8.98667 Y6.65447
G01 X9.04438 Y6.57845
G01 X9.04580 Y6.57644
G01 X9.07357 Y6.53590
G01 X9.07489 Y6.53385
G01 X9.10544 Y6.48406
G01 X9.13950 Y6.43552
G01 X9.16696 Y6.40090
G01 X9.16737 Y6.40037
G01 X9.17608 Y6.38914
G01 X9.17644 Y6.38861
G01 X9.20046 Y6.35673
G01 X9.27341 Y6.27558
G01 X9.28748 Y6.26222
G01 X9.30265 Y6.25853
G01 X9.35002 Y6.25089
G01 X9.39797 Y6.25089
G01 X9.44529 Y6.25853
G01 X9.46043 Y6.26222
G01 X9.47456 Y6.27560
G01 X9.54748 Y6.35673
G01 X9.57141 Y6.38856
G01 X9.57179 Y6.38909
G01 X9.58052 Y6.40037
G01 X9.58096 Y6.40090
G01 X9.60841 Y6.43547
G01 X9.64250 Y6.48411
G01 X9.67301 Y6.53385
G01 X9.67438 Y6.53590
G01 X9.70216 Y6.57649
G01 X9.70359 Y6.57850
G01 X9.76125 Y6.65447
G01 X9.76102 Y6.65465
G01 X9.76125 Y6.65447
G01 X9.76404 Y6.65780
G01 X9.81199 Y6.71071
G01 X9.81367 Y6.71251
G01 X9.84844 Y6.74728
G01 X9.85020 Y6.74896
G01 X9.84999 Y6.74919
G01 X9.85020 Y6.74896
G01 X9.90310 Y6.79691
G01 X9.90648 Y6.79971
G01 X9.98245 Y6.85736
G01 X9.98446 Y6.85879
G01 X10.02505 Y6.88657
G01 X10.02711 Y6.88790
G01 X10.02683 Y6.88835
G01 X10.02711 Y6.88790
G01 X10.06747 Y6.91271
G01 X10.07130 Y6.91482
G01 X10.17808 Y6.96819
G01 X10.18029 Y6.96925
G01 X10.22541 Y6.98906
G01 X10.22767 Y6.99000
G01 X10.24948 Y6.99839
G01 X10.24933 Y6.99882
G01 X10.24948 Y6.99839
G01 X10.25360 Y6.99976
G01 X10.39147 Y7.03913
G01 X10.39378 Y7.03971
G01 X10.44125 Y7.05084
G01 X10.44115 Y7.05129
G01 X10.44125 Y7.05084
G01 X10.44801 Y7.05193
G01 X10.61463 Y7.06742
G01 X10.61590 Y7.06752
G01 X10.64057 Y7.06918
G01 X10.64738 Y7.06918
G01 X10.67209 Y7.06752
G01 X10.67328 Y7.06742
G01 X10.67328 Y7.06791
G01 X10.67328 Y7.06742
G01 X10.83993 Y7.05193
G01 X10.84671 Y7.05084
G01 X10.89411 Y7.03971
G01 X10.89647 Y7.03913
G01 X10.89652 Y7.03946
G01 X10.89647 Y7.03913
G01 X11.03429 Y6.99976
G01 X11.03843 Y6.99839
G01 X11.06025 Y6.99000
G01 X11.06038 Y6.99028
G01 X11.06025 Y6.99000
G01 X11.06254 Y6.98906
G01 X11.10760 Y6.96925
G01 X11.10981 Y6.96819
G01 X11.21661 Y6.91482
G01 X11.21677 Y6.91512
G01 X11.21661 Y6.91482
G01 X11.22042 Y6.91271
G01 X11.26079 Y6.88790
G01 X11.26221 Y6.88703
G01 X11.29015 Y6.86854
G01 X11.29218 Y6.86712
G01 X11.30488 Y6.85780
G01 X11.30546 Y6.85736
G01 X11.38146 Y6.79971
G01 X11.38484 Y6.79691
G01 X11.43775 Y6.74896
G01 X11.43952 Y6.74723
G01 X11.47427 Y6.71246
G01 X11.47600 Y6.71071
G01 X11.47628 Y6.71093
G01 X11.47600 Y6.71071
G01 X11.52390 Y6.65780
G01 X11.52670 Y6.65447
G01 X11.58436 Y6.57845
G01 X11.58578 Y6.57644
G01 X11.61354 Y6.53590
G01 X11.61486 Y6.53385
G01 X11.64575 Y6.48363
G01 X11.67983 Y6.43499
G01 X11.70694 Y6.40085
G01 X11.70734 Y6.40032
G01 X11.71641 Y6.38856
G01 X11.71679 Y6.38802
G01 X11.74039 Y6.35668
G01 X11.81369 Y6.27499
G01 X11.82761 Y6.26181
G01 X11.84295 Y6.25805
G01 X11.89032 Y6.25041
G01 X11.93828 Y6.25041
G01 X11.98565 Y6.25805
G01 X12.04288 Y6.27210
G01 X12.04900 Y6.27416
G01 X12.05291 Y6.28741
G01 X12.04900 Y6.27416
G01 X12.08415 Y6.23895
G01 X12.09871 Y6.24294
G01 X12.08415 Y6.23895
G01 X12.06322 Y6.16989
G01 X12.05606 Y6.14129
G01 X12.05174 Y6.11218
G01 X12.03541 Y5.94639
G01 X12.03541 Y5.88759
G01 X12.05174 Y5.72171
G01 X12.05606 Y5.69262
G01 X12.06322 Y5.66402
G01 X12.08420 Y5.59496
G01 X12.09975 Y5.59097
G01 X12.08420 Y5.59496
G01 X12.04900 Y5.55981
G01 X12.05291 Y5.54655
G01 X12.04900 Y5.55981
G01 X12.04288 Y5.56179
G01 X11.98565 Y5.57581
G01 X11.93828 Y5.58345
G01 X11.89032 Y5.58345
G01 X11.84295 Y5.57581
G01 X11.82761 Y5.57210
G01 X11.81369 Y5.55887
G01 X11.74039 Y5.47723
G01 X11.71674 Y5.44584
G01 X11.71636 Y5.44525
G01 X11.70734 Y5.43364
G01 X11.70694 Y5.43311
G01 X11.67978 Y5.39882
G01 X11.64575 Y5.35026
G01 X11.61491 Y5.30007
G01 X11.61354 Y5.29801
G01 X11.58578 Y5.25747
G01 X11.58436 Y5.25546
G01 X11.52670 Y5.17944
G01 X11.52390 Y5.17606
G01 X11.47600 Y5.12318
G01 X11.47628 Y5.12298
G01 X11.47600 Y5.12318
G01 X11.47427 Y5.12145
G01 X11.43952 Y5.08663
G01 X11.43775 Y5.08498
G01 X11.38484 Y5.03702
G01 X11.38146 Y5.03423
G01 X11.38166 Y5.03403
G01 X11.38146 Y5.03423
G01 X11.30546 Y4.97655
G01 X11.30351 Y4.97510
G01 X11.26284 Y4.94736
G01 X11.26079 Y4.94602
G01 X11.21108 Y4.91548
G01 X11.16254 Y4.88140
G01 X11.12782 Y4.85386
G01 X11.12731 Y4.85353
G01 X11.11613 Y4.84482
G01 X11.11560 Y4.84449
G01 X11.08372 Y4.82049
G01 X11.00257 Y4.74749
G01 X10.98923 Y4.73339
G01 X10.98553 Y4.71830
G01 X10.97783 Y4.67093
G01 X10.97783 Y4.62298
G01 X10.98553 Y4.57556
G01 X10.98923 Y4.56052
G01 X11.00257 Y4.54640
G01 X11.08377 Y4.47340
G01 X11.11555 Y4.44952
G01 X11.11603 Y4.44914
G01 X11.12731 Y4.44040
G01 X11.12782 Y4.43997
G01 X11.16244 Y4.41249
G01 X11.21108 Y4.37845
G01 X11.26079 Y4.34787
G01 X11.26284 Y4.34652
G01 X11.30351 Y4.31874
G01 X11.30546 Y4.31731
G01 X11.38146 Y4.25966
G01 X11.38161 Y4.25991
G01 X11.38146 Y4.25966
G01 X11.38484 Y4.25686
G01 X11.43775 Y4.20891
G01 X11.43952 Y4.20726
G01 X11.47427 Y4.17248
G01 X11.47453 Y4.17269
G01 X11.47427 Y4.17248
G01 X11.47600 Y4.17071
G01 X11.52390 Y4.11782
G01 X11.52670 Y4.11442
G01 X11.58436 Y4.03842
G01 X11.58578 Y4.03647
G01 X11.61354 Y3.99588
G01 X11.61486 Y3.99379
G01 X11.64544 Y3.94409
G01 X11.67948 Y3.89555
G01 X11.70699 Y3.86090
G01 X11.70739 Y3.86039
G01 X11.71605 Y3.84914
G01 X11.71646 Y3.84858
G01 X11.74044 Y3.81673
G01 X11.81339 Y3.73558
G01 X11.82751 Y3.72224
G01 X11.84262 Y3.71853
G01 X11.88999 Y3.71089
G01 X11.93797 Y3.71089
G01 X11.98535 Y3.71853
G01 X12.00041 Y3.72224
G01 X12.01453 Y3.73560
G01 X12.08748 Y3.81673
G01 X12.11141 Y3.84856
G01 X12.11181 Y3.84909
G01 X12.12050 Y3.86039
G01 X12.12093 Y3.86090
G01 X12.14839 Y3.89550
G01 X12.18248 Y3.94411
G01 X12.21306 Y3.99379
G01 X12.21438 Y3.99588
G01 X12.24214 Y4.03649
G01 X12.24356 Y4.03845
G01 X12.30122 Y4.11442
G01 X12.30102 Y4.11460
G01 X12.30122 Y4.11442
G01 X12.30401 Y4.11782
G01 X12.35197 Y4.17071
G01 X12.35365 Y4.17251
G01 X12.38844 Y4.20728
G01 X12.38822 Y4.20746
G01 X12.38844 Y4.20728
G01 X12.39022 Y4.20891
G01 X12.44308 Y4.25686
G01 X12.44646 Y4.25966
G01 X12.52245 Y4.31731
G01 X12.52444 Y4.31874
G01 X12.56508 Y4.34652
G01 X12.56713 Y4.34787
G01 X12.61730 Y4.37868
G01 X12.66594 Y4.41277
G01 X12.70010 Y4.43995
G01 X12.70064 Y4.44035
G01 X12.71237 Y4.44937
G01 X12.71288 Y4.44983
G01 X12.74425 Y4.47330
G01 X12.82586 Y4.54663
G01 X12.83909 Y4.56057
G01 X12.84282 Y4.57591
G01 X12.85047 Y4.62326
G01 X12.85047 Y4.67119
G01 X12.84282 Y4.71856
G01 X12.82880 Y4.77583
G01 X12.82675 Y4.78193
G01 X12.81537 Y4.78569
G01 X12.82675 Y4.78193
G01 X12.86195 Y4.81714
G01 X12.85801 Y4.83174
G01 X12.86195 Y4.81714
G01 X12.93106 Y4.79618
G01 X12.98875 Y4.78472
G01 X13.15458 Y4.76844
G01 X13.18400 Y4.76700
G01 X13.21338 Y4.76844
G01 X13.37922 Y4.78472
G01 X13.43690 Y4.79618
G01 X13.50594 Y4.81714
G01 X13.50996 Y4.83174
G01 X13.50594 Y4.81714
G01 X13.54115 Y4.78196
G01 X13.55438 Y4.78592
G01 X13.54115 Y4.78196
G01 X13.53909 Y4.77583
G01 X13.52507 Y4.71856
G01 X13.51742 Y4.67119
G01 X13.51742 Y4.62326
G01 X13.52507 Y4.57591
G01 X13.52880 Y4.56057
G01 X13.54204 Y4.54663
G01 X13.62370 Y4.47330
G01 X13.65501 Y4.44983
G01 X13.65557 Y4.44937
G01 X13.66726 Y4.44038
G01 X13.66777 Y4.43997
G01 X13.70198 Y4.41277
G01 X13.75062 Y4.37868
G01 X13.80081 Y4.34787
G01 X13.80287 Y4.34652
G01 X13.84348 Y4.31874
G01 X13.84546 Y4.31731
G01 X13.92146 Y4.25966
G01 X13.92479 Y4.25686
G01 X13.97775 Y4.20891
G01 X13.97950 Y4.20726
G01 X13.97978 Y4.20751
G01 X13.97950 Y4.20726
G01 X14.01430 Y4.17248
G01 X14.01600 Y4.17071
G01 X14.06393 Y4.11782
G01 X14.06670 Y4.11442
G01 X14.12436 Y4.03842
G01 X14.12580 Y4.03647
G01 X14.15357 Y3.99588
G01 X14.15486 Y3.99379
G01 X14.18544 Y3.94409
G01 X14.21948 Y3.89555
G01 X14.24694 Y3.86090
G01 X14.24739 Y3.86039
G01 X14.25605 Y3.84914
G01 X14.25646 Y3.84858
G01 X14.28046 Y3.81673
G01 X14.35341 Y3.73558
G01 X14.36746 Y3.72224
G01 X14.38265 Y3.71853
G01 X14.43002 Y3.71089
G01 X14.47797 Y3.71089
G01 X14.52535 Y3.71853
G01 X14.54043 Y3.72224
G01 X14.55456 Y3.73560
G01 X14.62743 Y3.81673
G01 X14.65143 Y3.84856
G01 X14.65176 Y3.84909
G01 X14.66055 Y3.86039
G01 X14.66096 Y3.86090
G01 X14.68841 Y3.89550
G01 X14.72245 Y3.94411
G01 X14.75306 Y3.99379
G01 X14.75440 Y3.99588
G01 X14.78216 Y4.03649
G01 X14.78356 Y4.03845
G01 X14.84122 Y4.11442
G01 X14.84102 Y4.11460
G01 X14.84122 Y4.11442
G01 X14.84404 Y4.11782
G01 X14.89199 Y4.17071
G01 X14.89367 Y4.17251
G01 X14.92839 Y4.20728
G01 X14.93017 Y4.20891
G01 X14.92997 Y4.20919
G01 X14.93017 Y4.20891
G01 X14.98310 Y4.25686
G01 X14.98646 Y4.25966
G01 X15.06245 Y4.31731
G01 X15.06441 Y4.31874
G01 X15.10502 Y4.34652
G01 X15.10708 Y4.34787
G01 X15.15679 Y4.37845
G01 X15.20543 Y4.41249
G01 X15.24005 Y4.43997
G01 X15.24056 Y4.44040
G01 X15.25189 Y4.44914
G01 X15.25240 Y4.44952
G01 X15.28417 Y4.47340
G01 X15.36535 Y4.54640
G01 X15.37871 Y4.56052
G01 X15.38242 Y4.57556
G01 X15.39006 Y4.62298
G01 X15.39006 Y4.67096
G01 X15.38242 Y4.71833
G01 X15.37871 Y4.73339
G01 X15.36535 Y4.74749
G01 X15.28420 Y4.82046
G01 X15.25240 Y4.84441
G01 X15.25189 Y4.84475
G01 X15.24056 Y4.85353
G01 X15.24005 Y4.85389
G01 X15.20543 Y4.88135
G01 X15.15679 Y4.91548
G01 X15.10708 Y4.94602
G01 X15.10502 Y4.94736
G01 X15.06441 Y4.97510
G01 X15.06245 Y4.97652
G01 X14.98625 Y5.03405
G01 X14.98310 Y5.03702
G01 X14.93017 Y5.08498
G01 X14.92839 Y5.08660
G01 X14.89367 Y5.12143
G01 X14.89199 Y5.12315
G01 X14.89172 Y5.12295
G01 X14.89199 Y5.12315
G01 X14.84404 Y5.17606
G01 X14.84122 Y5.17944
G01 X14.78356 Y5.25546
G01 X14.78216 Y5.25744
G01 X14.75433 Y5.29801
G01 X14.75306 Y5.30007
G01 X14.72217 Y5.35023
G01 X14.68813 Y5.39887
G01 X14.66098 Y5.43311
G01 X14.66058 Y5.43364
G01 X14.65153 Y5.44533
G01 X14.65108 Y5.44591
G01 X14.62753 Y5.47723
G01 X14.55428 Y5.55884
G01 X14.54033 Y5.57210
G01 X14.52504 Y5.57581
G01 X14.47767 Y5.58345
G01 X14.42971 Y5.58345
G01 X14.38234 Y5.57581
G01 X14.32507 Y5.56179
G01 X14.31892 Y5.55981
G01 X14.31498 Y5.54655
G01 X14.31892 Y5.55981
G01 X14.28372 Y5.59493
G01 X14.26820 Y5.59097
G01 X14.28372 Y5.59493
G01 X14.30470 Y5.66402
G01 X14.31186 Y5.69262
G01 X14.31618 Y5.72171
G01 X14.33253 Y5.88759
G01 X14.33393 Y5.91693
G01 X14.33253 Y5.94639
G01 X14.31618 Y6.11218
G01 X14.31186 Y6.14129
G01 X14.30470 Y6.16989
G01 X14.28379 Y6.23895
G01 X14.26820 Y6.24299
G01 X14.28379 Y6.23895
G01 X14.31892 Y6.27416
G01 X14.31498 Y6.28741
G01 X14.31892 Y6.27416
G01 X14.32507 Y6.27210
G01 X14.38234 Y6.25805
G01 X14.42971 Y6.25041
G01 X14.47767 Y6.25041
G01 X14.52504 Y6.25805
G01 X14.54033 Y6.26181
G01 X14.55428 Y6.27502
G01 X14.62753 Y6.35668
G01 X14.65108 Y6.38797
G01 X14.65146 Y6.38851
G01 X14.66058 Y6.40032
G01 X14.66098 Y6.40085
G01 X14.68803 Y6.43494
G01 X14.72217 Y6.48363
G01 X14.75306 Y6.53385
G01 X14.75440 Y6.53590
G01 X14.78216 Y6.57649
G01 X14.78356 Y6.57845
G01 X14.84122 Y6.65447
G01 X14.84102 Y6.65465
G01 X14.84122 Y6.65447
G01 X14.84404 Y6.65780
G01 X14.89199 Y6.71071
G01 X14.89367 Y6.71251
G01 X14.92839 Y6.74728
G01 X14.93017 Y6.74896
G01 X14.92997 Y6.74919
G01 X14.93017 Y6.74896
G01 X14.98310 Y6.79691
G01 X14.98646 Y6.79971
G01 X15.06245 Y6.85736
G01 X15.06441 Y6.85879
G01 X15.10502 Y6.88657
G01 X15.10708 Y6.88790
G01 X15.10685 Y6.88835
G01 X15.10708 Y6.88790
G01 X15.14749 Y6.91271
G01 X15.15130 Y6.91482
G01 X15.25808 Y6.96819
G01 X15.26027 Y6.96925
G01 X15.30538 Y6.98906
G01 X15.30761 Y6.99000
G01 X15.32948 Y6.99839
G01 X15.33360 Y6.99976
G01 X15.33342 Y7.00019
G01 X15.33360 Y6.99976
G01 X15.47147 Y7.03913
G01 X15.47376 Y7.03971
G01 X15.52120 Y7.05084
G01 X15.52118 Y7.05119
G01 X15.52120 Y7.05084
G01 X15.52799 Y7.05193
G01 X15.69466 Y7.06742
G01 X15.69588 Y7.06752
G01 X15.72057 Y7.06918
G01 X15.72735 Y7.06918
G01 X15.72735 Y7.06963
G01 X15.72735 Y7.06918
G01 X15.75206 Y7.06752
G01 X15.75331 Y7.06742
G01 X15.91996 Y7.05193
G01 X15.92671 Y7.05084
G01 X15.92682 Y7.05134
G01 X15.92671 Y7.05084
G01 X15.97409 Y7.03971
G01 X15.97645 Y7.03913
G01 X16.11432 Y6.99976
G01 X16.11843 Y6.99839
G01 X16.14028 Y6.99000
G01 X16.14254 Y6.98906
G01 X16.18757 Y6.96925
G01 X16.18778 Y6.96963
G01 X16.18757 Y6.96925
G01 X16.18983 Y6.96819
G01 X16.29661 Y6.91482
G01 X16.30045 Y6.91271
G01 X16.34076 Y6.88790
G01 X16.34282 Y6.88657
G01 X16.34310 Y6.88693
G01 X16.34282 Y6.88657
G01 X16.38351 Y6.85879
G01 X16.38546 Y6.85736
G01 X16.46149 Y6.79971
G01 X16.46481 Y6.79694
G01 X16.51775 Y6.74896
G01 X16.51795 Y6.74914
G01 X16.51775 Y6.74896
G01 X16.51953 Y6.74723
G01 X16.55425 Y6.71246
G01 X16.55600 Y6.71071
G01 X16.60393 Y6.65780
G01 X16.60670 Y6.65447
G01 X16.60690 Y6.65465
G01 X16.60670 Y6.65447
G01 X16.66438 Y6.57845
G01 X16.66575 Y6.57644
G01 X16.69357 Y6.53590
G01 X16.69486 Y6.53385
G01 X16.72547 Y6.48406
G01 X16.75950 Y6.43552
G01 X16.78696 Y6.40090
G01 X16.78734 Y6.40037
G01 X16.79608 Y6.38914
G01 X16.79646 Y6.38861
G01 X16.82046 Y6.35673
G01 X16.89336 Y6.27558
G01 X16.90748 Y6.26222
G01 X16.92265 Y6.25853
G01 X16.97002 Y6.25089
G01 X17.01797 Y6.25089
G01 X17.06535 Y6.25853
G01 X17.08043 Y6.26222
G01 X17.09456 Y6.27560
G01 X17.16745 Y6.35673
G01 X17.19138 Y6.38856
G01 X17.19179 Y6.38909
G01 X17.20050 Y6.40037
G01 X17.20091 Y6.40090
G01 X17.22836 Y6.43547
G01 X17.26247 Y6.48411
G01 X17.29306 Y6.53385
G01 X17.29435 Y6.53590
G01 X17.32211 Y6.57649
G01 X17.32359 Y6.57850
G01 X17.38125 Y6.65447
G01 X17.38399 Y6.65780
G01 X17.38368 Y6.65808
G01 X17.38399 Y6.65780
G01 X17.43194 Y6.71071
G01 X17.43367 Y6.71251
G01 X17.46842 Y6.74728
G01 X17.47020 Y6.74896
G01 X17.52305 Y6.79691
G01 X17.52293 Y6.79714
G01 X17.52305 Y6.79691
G01 X17.52648 Y6.79971
G01 X17.60245 Y6.85736
G01 X17.60444 Y6.85879
G01 X17.64505 Y6.88657
G01 X17.64711 Y6.88790
G01 X17.64690 Y6.88825
G01 X17.64711 Y6.88790
G01 X17.68749 Y6.91271
G01 X17.69130 Y6.91482
G01 X17.79808 Y6.96819
G01 X17.80027 Y6.96925
G01 X17.84538 Y6.98906
G01 X17.84764 Y6.99000
G01 X17.86951 Y6.99839
G01 X17.87362 Y6.99976
G01 X17.87345 Y7.00019
G01 X17.87362 Y6.99976
G01 X18.01142 Y7.03913
G01 X18.01376 Y7.03971
G01 X18.06123 Y7.05084
G01 X18.06113 Y7.05119
G01 X18.06123 Y7.05084
G01 X18.06801 Y7.05193
G01 X18.23461 Y7.06742
G01 X18.23461 Y7.06791
G01 X18.23461 Y7.06742
G01 X18.23588 Y7.06752
G01 X18.26057 Y7.06918
G01 X18.26738 Y7.06918
G01 X18.29209 Y7.06752
G01 X18.29326 Y7.06742
G01 X18.45996 Y7.05193
G01 X18.46671 Y7.05084
G01 X18.51411 Y7.03971
G01 X18.51645 Y7.03913
G01 X18.51655 Y7.03956
G01 X18.51645 Y7.03913
G01 X18.65432 Y6.99976
G01 X18.65846 Y6.99839
G01 X18.68023 Y6.99000
G01 X18.68249 Y6.98906
G01 X18.68269 Y6.98944
G01 X18.68249 Y6.98906
G01 X18.72760 Y6.96925
G01 X18.72983 Y6.96819
G01 X18.83664 Y6.91482
G01 X18.84045 Y6.91271
G01 X18.88079 Y6.88790
G01 X18.88096 Y6.88820
G01 X18.88079 Y6.88790
G01 X18.88284 Y6.88657
G01 X18.92351 Y6.85879
G01 X18.92549 Y6.85736
G01 X19.00149 Y6.79971
G01 X19.00484 Y6.79694
G01 X19.00502 Y6.79714
G01 X19.00484 Y6.79694
G01 X19.05770 Y6.74896
G01 X19.05953 Y6.74723
G01 X19.09427 Y6.71246
G01 X19.09600 Y6.71071
G01 X19.14388 Y6.65780
G01 X19.14418 Y6.65808
G01 X19.14388 Y6.65780
G01 X19.14670 Y6.65447
G01 X19.20438 Y6.57845
G01 X19.20578 Y6.57644
G01 X19.23352 Y6.53590
G01 X19.23489 Y6.53385
G01 X19.26547 Y6.48406
G01 X19.29950 Y6.43552
G01 X19.32699 Y6.40090
G01 X19.32737 Y6.40037
G01 X19.33608 Y6.38914
G01 X19.33646 Y6.38861
G01 X19.36041 Y6.35673
G01 X19.43339 Y6.27558
G01 X19.44751 Y6.26222
G01 X19.46260 Y6.25853
G01 X19.50997 Y6.25089
G01 X19.55792 Y6.25089
G01 X19.60529 Y6.25853
G01 X19.62038 Y6.26222
G01 X19.63450 Y6.27560
G01 X19.70748 Y6.35673
G01 X19.73141 Y6.38856
G01 X19.73179 Y6.38909
G01 X19.74052 Y6.40037
G01 X19.74091 Y6.40090
G01 X19.76836 Y6.43547
G01 X19.80250 Y6.48411
G01 X19.83301 Y6.53385
G01 X19.83438 Y6.53590
G01 X19.86211 Y6.57649
G01 X19.86359 Y6.57850
G01 X19.92125 Y6.65447
G01 X19.92401 Y6.65780
G01 X19.92358 Y6.65823
G01 X19.92401 Y6.65780
G01 X19.97197 Y6.71071
G01 X19.97362 Y6.71251
G01 X20.00844 Y6.74728
G01 X20.01020 Y6.74896
G01 X20.06305 Y6.79691
G01 X20.06648 Y6.79971
G01 X20.14240 Y6.85736
G01 X20.14200 Y6.85795
G01 X20.14240 Y6.85736
G01 X20.14446 Y6.85879
G01 X20.18505 Y6.88657
G01 X20.18711 Y6.88790
G01 X20.22749 Y6.91271
G01 X20.23125 Y6.91482
G01 X20.33803 Y6.96819
G01 X20.34029 Y6.96925
G01 X20.38540 Y6.98906
G01 X20.38518 Y6.98965
G01 X20.38540 Y6.98906
G01 X20.38767 Y6.99000
G01 X20.40951 Y6.99839
G01 X20.41362 Y6.99976
G01 X20.55144 Y7.03913
G01 X20.55378 Y7.03971
G01 X20.60125 Y7.05084
G01 X20.60801 Y7.05193
G01 X20.60791 Y7.05236
G01 X20.60801 Y7.05193
G01 X20.77463 Y7.06742
G01 X20.77590 Y7.06752
G01 X20.80052 Y7.06918
G01 X20.80738 Y7.06918
G01 X20.80738 Y7.06958
G01 X20.80738 Y7.06918
G01 X20.83209 Y7.06752
G01 X20.83328 Y7.06742
G01 X20.99996 Y7.05193
G01 X21.00666 Y7.05084
G01 X21.00677 Y7.05119
G01 X21.00666 Y7.05084
G01 X21.05411 Y7.03971
G01 X21.05647 Y7.03913
G01 X21.19427 Y6.99976
G01 X21.19846 Y6.99839
G01 X21.19859 Y6.99872
G01 X21.19846 Y6.99839
G01 X21.22025 Y6.99000
G01 X21.22251 Y6.98906
G01 X21.26762 Y6.96925
G01 X21.26983 Y6.96819
G01 X21.37664 Y6.91482
G01 X21.37687 Y6.91528
G01 X21.37664 Y6.91482
G01 X21.38040 Y6.91271
G01 X21.42079 Y6.88790
G01 X21.42284 Y6.88657
G01 X21.46346 Y6.85879
G01 X21.46551 Y6.85736
G01 X21.54149 Y6.79971
G01 X21.54484 Y6.79694
G01 X21.59770 Y6.74896
G01 X21.59947 Y6.74723
G01 X21.59975 Y6.74754
G01 X21.59947 Y6.74723
G01 X21.63427 Y6.71246
G01 X21.63595 Y6.71071
G01 X21.68390 Y6.65780
G01 X21.68665 Y6.65447
G01 X21.74438 Y6.57845
G01 X21.74578 Y6.57644
G01 X21.77354 Y6.53590
G01 X21.77489 Y6.53385
G01 X21.80542 Y6.48406
G01 X21.83950 Y6.43552
G01 X21.86699 Y6.40090
G01 X21.86739 Y6.40037
G01 X21.87608 Y6.38914
G01 X21.87641 Y6.38861
G01 X21.90044 Y6.35673
G01 X21.97339 Y6.27558
G01 X21.98751 Y6.26222
G01 X22.00262 Y6.25853
G01 X22.04999 Y6.25089
G01 X22.09795 Y6.25089
G01 X22.14532 Y6.25853
G01 X22.16041 Y6.26222
G01 X22.17453 Y6.27560
G01 X22.24748 Y6.35673
G01 X22.27143 Y6.38856
G01 X22.27181 Y6.38909
G01 X22.28055 Y6.40037
G01 X22.28093 Y6.40090
G01 X22.30839 Y6.43547
G01 X22.34250 Y6.48411
G01 X22.37303 Y6.53385
G01 X22.37440 Y6.53590
G01 X22.40214 Y6.57649
G01 X22.40359 Y6.57850
G01 X22.46125 Y6.65447
G01 X22.46401 Y6.65780
G01 X22.46353 Y6.65823
G01 X22.46401 Y6.65780
G01 X22.51197 Y6.71071
G01 X22.51365 Y6.71251
G01 X22.54844 Y6.74728
G01 X22.55022 Y6.74896
G01 X22.60308 Y6.79691
G01 X22.60648 Y6.79971
G01 X22.68243 Y6.85736
G01 X22.68202 Y6.85795
G01 X22.68243 Y6.85736
G01 X22.68446 Y6.85879
G01 X22.72508 Y6.88657
G01 X22.72713 Y6.88790
G01 X22.76744 Y6.91271
G01 X22.77128 Y6.91482
G01 X22.87806 Y6.96819
G01 X22.88029 Y6.96925
G01 X22.92540 Y6.98906
G01 X22.92513 Y6.98965
G01 X22.92540 Y6.98906
G01 X22.92767 Y6.99000
G01 X22.94946 Y6.99839
G01 X22.95357 Y6.99976
G01 X23.09144 Y7.03913
G01 X23.09381 Y7.03971
G01 X23.14125 Y7.05084
G01 X23.14118 Y7.05124
G01 X23.14125 Y7.05084
G01 X23.14801 Y7.05193
G01 X23.31466 Y7.06742
G01 X23.31590 Y7.06752
G01 X23.34054 Y7.06918
G01 X23.34740 Y7.06918
G01 X23.34740 Y7.06963
G01 X23.34740 Y7.06918
G01 X23.37209 Y7.06752
G01 X23.37331 Y7.06742
G01 X23.53991 Y7.05193
G01 X23.54669 Y7.05084
G01 X23.54677 Y7.05119
G01 X23.54669 Y7.05084
G01 X23.59414 Y7.03971
G01 X23.59647 Y7.03913
G01 X23.73427 Y6.99976
G01 X23.73841 Y6.99839
G01 X23.73859 Y6.99872
G01 X23.73841 Y6.99839
G01 X23.76028 Y6.99000
G01 X23.76251 Y6.98906
G01 X23.80762 Y6.96925
G01 X23.80978 Y6.96819
G01 X23.91659 Y6.91482
G01 X23.91687 Y6.91528
G01 X23.91659 Y6.91482
G01 X23.92040 Y6.91271
G01 X23.96081 Y6.88790
G01 X23.96287 Y6.88657
G01 X24.00348 Y6.85879
G01 X24.00551 Y6.85736
G01 X24.08144 Y6.79971
G01 X24.08484 Y6.79694
G01 X24.13772 Y6.74896
G01 X24.13950 Y6.74723
G01 X24.13978 Y6.74754
G01 X24.13950 Y6.74723
G01 X24.17430 Y6.71246
G01 X24.17597 Y6.71071
G01 X24.22393 Y6.65780
G01 X24.22667 Y6.65447
G01 X24.28433 Y6.57845
G01 X24.28580 Y6.57644
G01 X24.31357 Y6.53590
G01 X24.31484 Y6.53385
G01 X24.34542 Y6.48406
G01 X24.37945 Y6.43552
G01 X24.40699 Y6.40090
G01 X24.40739 Y6.40037
G01 X24.41603 Y6.38914
G01 X24.41644 Y6.38861
G01 X24.44046 Y6.35673
G01 X24.51341 Y6.27558
G01 X24.52751 Y6.26222
G01 X24.54265 Y6.25853
G01 X24.59002 Y6.25089
G01 X24.63795 Y6.25089
G01 X24.68532 Y6.25853
G01 X24.70043 Y6.26222
G01 X24.71456 Y6.27560
G01 X24.78748 Y6.35673
G01 X24.81143 Y6.38856
G01 X24.81181 Y6.38909
G01 X24.82055 Y6.40037
G01 X24.82096 Y6.40090
G01 X24.84841 Y6.43547
G01 X24.88245 Y6.48411
G01 X24.91303 Y6.53385
G01 X24.91440 Y6.53590
G01 X24.94216 Y6.57649
G01 X24.94354 Y6.57850
G01 X25.00119 Y6.65447
G01 X25.00404 Y6.65780
G01 X25.05199 Y6.71071
G01 X25.05141 Y6.71124
G01 X25.05199 Y6.71071
G01 X25.05367 Y6.71251
G01 X25.08844 Y6.74728
G01 X25.09022 Y6.74896
G01 X25.14310 Y6.79691
G01 X25.14643 Y6.79971
G01 X25.22243 Y6.85736
G01 X25.22352 Y6.85815
G01 X25.24509 Y6.87365
G01 X25.24618 Y6.87438
G01 X25.26421 Y6.88663
G01 X25.29362 Y6.90822
G01 X25.33894 Y6.94421
G01 X25.36022 Y6.96255
G01 X25.37356 Y7.02828
G01 X25.38024 Y7.08376
G01 X25.38367 Y7.14116
G01 X25.38367 Y24.10242
G01 X25.38141 Y24.14930
G01 X25.37689 Y24.19467
G01 X25.36668 Y24.25413
G01 X25.35707 Y24.26492
G01 X25.32530 Y24.30003
G01 X25.29147 Y24.33386
G01 X25.26193 Y24.36063
G01 X25.26010 Y24.36238
G01 X25.22537 Y24.39711
G01 X25.22362 Y24.39888
G01 X25.18153 Y24.44537
G01 X25.17879 Y24.44869
G01 X25.12771 Y24.51605
G01 X25.12713 Y24.51557
G01 X25.12771 Y24.51605
G01 X25.12624 Y24.51804
G01 X25.09848 Y24.55862
G01 X25.09721 Y24.56068
G01 X25.07582 Y24.59548
G01 X25.07366 Y24.59929
G01 X25.02611 Y24.69436
G01 X25.02512 Y24.69660
G01 X25.00523 Y24.74171
G01 X25.00470 Y24.74151
G01 X25.00523 Y24.74171
G01 X25.00434 Y24.74397
G01 X24.99756 Y24.76172
G01 X24.99617 Y24.76584
G01 X24.96099 Y24.88900
G01 X24.96040 Y24.89126
G01 X24.94971 Y24.93648
G01 X24.94920 Y24.93645
G01 X24.94971 Y24.93648
G01 X24.94862 Y24.94333
G01 X24.93472 Y25.09266
G01 X24.93462 Y25.09388
G01 X24.93292 Y25.11857
G01 X24.93292 Y25.12535
G01 X24.93462 Y25.15006
G01 X24.93421 Y25.15006
G01 X24.93462 Y25.15006
G01 X24.93472 Y25.15131
G01 X24.94862 Y25.30051
G01 X24.94971 Y25.30737
G01 X24.94933 Y25.30747
G01 X24.94971 Y25.30737
G01 X24.96040 Y25.35268
G01 X24.96099 Y25.35491
G01 X24.99617 Y25.47808
G01 X24.99571 Y25.47821
G01 X24.99617 Y25.47808
G01 X24.99756 Y25.48219
G01 X25.00434 Y25.49995
G01 X25.00523 Y25.50221
G01 X25.02512 Y25.54732
G01 X25.02611 Y25.54958
G01 X25.07366 Y25.64465
G01 X25.07582 Y25.64844
G01 X25.09721 Y25.68326
G01 X25.09848 Y25.68532
G01 X25.09820 Y25.68552
G01 X25.09848 Y25.68532
G01 X25.12624 Y25.72591
G01 X25.12771 Y25.72789
G01 X25.17879 Y25.79522
G01 X25.18136 Y25.79870
G01 X25.22362 Y25.84498
G01 X25.22537 Y25.84676
G01 X25.26010 Y25.88153
G01 X25.26193 Y25.88323
G01 X25.30836 Y25.92535
G01 X25.30815 Y25.92555
G01 X25.30836 Y25.92535
G01 X25.31168 Y25.92814
G01 X25.37902 Y25.97915
G01 X25.38100 Y25.98064
G01 X25.42159 Y26.00836
G01 X25.42365 Y26.00973
G01 X25.42349 Y26.00993
G01 X25.42365 Y26.00973
G01 X25.45847 Y26.03111
G01 X25.46231 Y26.03325
G01 X25.55733 Y26.08075
G01 X25.55959 Y26.08184
G01 X25.55938 Y26.08224
G01 X25.55959 Y26.08184
G01 X25.60470 Y26.10168
G01 X25.60696 Y26.10261
G01 X25.62464 Y26.10940
G01 X25.62883 Y26.11079
G01 X25.75202 Y26.14595
G01 X25.75428 Y26.14651
G01 X25.79947 Y26.15720
G01 X25.80632 Y26.15834
G01 X25.80620 Y26.15890
G01 X25.80632 Y26.15834
G01 X25.95570 Y26.17221
G01 X25.95687 Y26.17234
G01 X25.98156 Y26.17399
G01 X25.98156 Y26.17440
G01 X25.98156 Y26.17399
G01 X25.98834 Y26.17399
G01 X26.01303 Y26.17234
G01 X26.01425 Y26.17221
G01 X26.16350 Y26.15834
G01 X26.16365 Y26.15890
G01 X26.16350 Y26.15834
G01 X26.17041 Y26.15720
G01 X26.21567 Y26.14651
G01 X26.21788 Y26.14595
G01 X26.34104 Y26.11079
G01 X26.34518 Y26.10942
G01 X26.36294 Y26.10261
G01 X26.36492 Y26.10180
G01 X26.40386 Y26.08499
G01 X26.40640 Y26.08377
G01 X26.40653 Y26.08417
G01 X26.40640 Y26.08377
G01 X26.50764 Y26.03325
G01 X26.51148 Y26.03111
G01 X26.54625 Y26.00973
G01 X26.54640 Y26.00993
G01 X26.54625 Y26.00973
G01 X26.54831 Y26.00836
G01 X26.58895 Y25.98064
G01 X26.59088 Y25.97915
G01 X26.65821 Y25.92814
G01 X26.66157 Y25.92535
G01 X26.66192 Y25.92573
G01 X26.66157 Y25.92535
G01 X26.70797 Y25.88323
G01 X26.70978 Y25.88153
G01 X26.74457 Y25.84676
G01 X26.74623 Y25.84498
G01 X26.78834 Y25.79858
G01 X26.79113 Y25.79522
G01 X26.84221 Y25.72789
G01 X26.84269 Y25.72824
G01 X26.84221 Y25.72789
G01 X26.84366 Y25.72591
G01 X26.87142 Y25.68532
G01 X26.87272 Y25.68326
G01 X26.89410 Y25.64844
G01 X26.89624 Y25.64465
G01 X26.94374 Y25.54958
G01 X26.94483 Y25.54732
G01 X26.94534 Y25.54757
G01 X26.94483 Y25.54732
G01 X26.96467 Y25.50221
G01 X26.96561 Y25.49995
G01 X26.97239 Y25.48219
G01 X26.97378 Y25.47808
G01 X27.00894 Y25.35491
G01 X27.00955 Y25.35268
G01 X27.02019 Y25.30737
G01 X27.02080 Y25.30754
G01 X27.02019 Y25.30737
G01 X27.02133 Y25.30051
G01 X27.03520 Y25.15131
G01 X27.03533 Y25.15006
G01 X27.03698 Y25.12535
G01 X27.03698 Y25.11857
G01 X27.03754 Y25.11857
G01 X27.03698 Y25.11857
G01 X27.03533 Y25.09388
G01 X27.03520 Y25.09266
G01 X27.02133 Y24.94333
G01 X27.02019 Y24.93648
G01 X27.00955 Y24.89126
G01 X27.00894 Y24.88900
G01 X27.00929 Y24.88890
G01 X27.00894 Y24.88900
G01 X26.97378 Y24.76584
G01 X26.97239 Y24.76172
G01 X26.96561 Y24.74397
G01 X26.96588 Y24.74387
G01 X26.96561 Y24.74397
G01 X26.96467 Y24.74171
G01 X26.94483 Y24.69660
G01 X26.94374 Y24.69436
G01 X26.89624 Y24.59929
G01 X26.89410 Y24.59548
G01 X26.89438 Y24.59530
G01 X26.89410 Y24.59548
G01 X26.87272 Y24.56068
G01 X26.87142 Y24.55862
G01 X26.84366 Y24.51804
G01 X26.84221 Y24.51605
G01 X26.79113 Y24.44869
G01 X26.78834 Y24.44537
G01 X26.74623 Y24.39888
G01 X26.74457 Y24.39711
G01 X26.70978 Y24.36238
G01 X26.70797 Y24.36063
G01 X26.70825 Y24.36043
G01 X26.70797 Y24.36063
G01 X26.66157 Y24.31857
G01 X26.65821 Y24.31580
G01 X26.59088 Y24.26472
G01 X26.58895 Y24.26325
G01 X26.54831 Y24.23549
G01 X26.54625 Y24.23411
G01 X26.51958 Y24.21776
G01 X26.47124 Y24.18392
G01 X26.43045 Y24.15154
G01 X26.43005 Y24.15116
G01 X26.41003 Y24.13566
G01 X26.39433 Y24.06183
G01 X26.38768 Y24.00661
G01 X26.38420 Y23.94905
G01 X26.38420 Y7.14116
G01 X26.38768 Y7.08365
G01 X26.39438 Y7.02818
G01 X26.40769 Y6.96255
G01 X26.42895 Y6.94421
G01 X26.47434 Y6.90822
G01 X26.50373 Y6.88663
G01 X26.52151 Y6.87456
G01 X26.52199 Y6.87423
G01 X26.53088 Y6.86806
G01 X26.53193 Y6.86727
G01 X26.54483 Y6.85780
G01 X26.54549 Y6.85736
G01 X26.62146 Y6.79971
G01 X26.62481 Y6.79691
G01 X26.67775 Y6.74896
G01 X26.67953 Y6.74723
G01 X26.71430 Y6.71246
G01 X26.71600 Y6.71071
G01 X26.71641 Y6.71114
G01 X26.71600 Y6.71071
G01 X26.76393 Y6.65780
G01 X26.76667 Y6.65447
G01 X26.82433 Y6.57845
G01 X26.82575 Y6.57644
G01 X26.85352 Y6.53590
G01 X26.85489 Y6.53385
G01 X26.88575 Y6.48363
G01 X26.91983 Y6.43499
G01 X26.94691 Y6.40085
G01 X26.94732 Y6.40032
G01 X26.95641 Y6.38856
G01 X26.95677 Y6.38802
G01 X26.98036 Y6.35668
G01 X27.05369 Y6.27499
G01 X27.06761 Y6.26181
G01 X27.08293 Y6.25805
G01 X27.13030 Y6.25041
G01 X27.17828 Y6.25041
G01 X27.22565 Y6.25805
G01 X27.28290 Y6.27210
G01 X27.28900 Y6.27416
G01 X27.29271 Y6.28548
G01 X27.28900 Y6.27416
G01 X27.32418 Y6.23895
G01 X27.33871 Y6.24294
G01 X27.32418 Y6.23895
G01 X27.30325 Y6.16989
G01 X27.29606 Y6.14129
G01 X27.29174 Y6.11218
G01 X27.27543 Y5.94639
G01 X27.27543 Y5.88759
G01 X27.29174 Y5.72171
G01 X27.29606 Y5.69262
G01 X27.30325 Y5.66402
G01 X27.32418 Y5.59496
G01 X27.33972 Y5.59097
G01 X27.32418 Y5.59496
G01 X27.28900 Y5.55981
G01 X27.29291 Y5.54655
G01 X27.28900 Y5.55981
G01 X27.28290 Y5.56179
G01 X27.22565 Y5.57581
G01 X27.17828 Y5.58345
G01 X27.13030 Y5.58345
G01 X27.08293 Y5.57581
G01 X27.06761 Y5.57210
G01 X27.05369 Y5.55887
G01 X26.98036 Y5.47723
G01 X26.95677 Y5.44584
G01 X26.95636 Y5.44525
G01 X26.94737 Y5.43364
G01 X26.94696 Y5.43311
G01 X26.91976 Y5.39882
G01 X26.88575 Y5.35026
G01 X26.85489 Y5.30007
G01 X26.85352 Y5.29801
G01 X26.82575 Y5.25747
G01 X26.82433 Y5.25546
G01 X26.76667 Y5.17944
G01 X26.76393 Y5.17606
G01 X26.71600 Y5.12318
G01 X26.71430 Y5.12145
G01 X26.71455 Y5.12115
G01 X26.71430 Y5.12145
G01 X26.67953 Y5.08663
G01 X26.67775 Y5.08498
G01 X26.62481 Y5.03702
G01 X26.62146 Y5.03423
G01 X26.62166 Y5.03403
G01 X26.62146 Y5.03423
G01 X26.54549 Y4.97655
G01 X26.54351 Y4.97510
G01 X26.50287 Y4.94736
G01 X26.50081 Y4.94602
G01 X26.45110 Y4.91548
G01 X26.40249 Y4.88140
G01 X26.36779 Y4.85386
G01 X26.36733 Y4.85353
G01 X26.35613 Y4.84482
G01 X26.35560 Y4.84449
G01 X26.32372 Y4.82049
G01 X26.24254 Y4.74749
G01 X26.22923 Y4.73339
G01 X26.22547 Y4.71830
G01 X26.21788 Y4.67093
G01 X26.21788 Y4.62298
G01 X26.22547 Y4.57556
G01 X26.22923 Y4.56052
G01 X26.24254 Y4.54640
G01 X26.32377 Y4.47340
G01 X26.35552 Y4.44952
G01 X26.35601 Y4.44914
G01 X26.36733 Y4.44040
G01 X26.36779 Y4.43997
G01 X26.40244 Y4.41249
G01 X26.45110 Y4.37845
G01 X26.50081 Y4.34787
G01 X26.50218 Y4.34698
G01 X26.53020 Y4.32852
G01 X26.53220 Y4.32712
G01 X26.54488 Y4.31782
G01 X26.54549 Y4.31731
G01 X26.62146 Y4.25966
G01 X26.62481 Y4.25686
G01 X26.67775 Y4.20891
G01 X26.67953 Y4.20726
G01 X26.71430 Y4.17248
G01 X26.71600 Y4.17071
G01 X26.71628 Y4.17091
G01 X26.71600 Y4.17071
G01 X26.76393 Y4.11782
G01 X26.76667 Y4.11442
G01 X26.82438 Y4.03842
G01 X26.82575 Y4.03647
G01 X26.85352 Y3.99588
G01 X26.85489 Y3.99379
G01 X26.88575 Y3.94363
G01 X26.91976 Y3.89506
G01 X26.94691 Y3.86080
G01 X26.94732 Y3.86034
G01 X26.95636 Y3.84861
G01 X26.95677 Y3.84807
G01 X26.98036 Y3.81668
G01 X27.05369 Y3.73504
G01 X27.06761 Y3.72181
G01 X27.08293 Y3.71810
G01 X27.13030 Y3.71041
G01 X27.17828 Y3.71041
G01 X27.22565 Y3.71810
G01 X27.28290 Y3.73212
G01 X27.28900 Y3.73416
G01 X27.29291 Y3.74741
G01 X27.28900 Y3.73416
G01 X27.32418 Y3.69895
G01 X27.33871 Y3.70289
G01 X27.32418 Y3.69895
G01 X27.30325 Y3.62989
G01 X27.29606 Y3.60129
G01 X27.29174 Y3.57221
G01 X27.27543 Y3.40639
G01 X27.27543 Y3.34754
G01 X27.29174 Y3.18171
G01 X27.29606 Y3.15260
G01 X27.30325 Y3.12405
G01 X27.32418 Y3.05498
G01 X27.33972 Y3.05097
G01 X27.32418 Y3.05498
G01 X27.28900 Y3.01976
G01 X27.29291 Y3.00655
G01 X27.28900 Y3.01976
G01 X27.28290 Y3.02184
G01 X27.22565 Y3.03586
G01 X27.17828 Y3.04345
G01 X27.13030 Y3.04345
G01 X27.08293 Y3.03586
G01 X27.06761 Y3.03207
G01 X27.05369 Y3.01892
G01 X26.98036 Y2.93726
G01 X26.95677 Y2.90584
G01 X26.95636 Y2.90525
G01 X26.94737 Y2.89359
G01 X26.94696 Y2.89311
G01 X26.91976 Y2.85887
G01 X26.88575 Y2.81031
G01 X26.85489 Y2.76007
G01 X26.85352 Y2.75806
G01 X26.82575 Y2.71742
G01 X26.82433 Y2.71546
G01 X26.76667 Y2.63942
G01 X26.76393 Y2.63611
G01 X26.71600 Y2.58323
G01 X26.71628 Y2.58298
G01 X26.71600 Y2.58323
G01 X26.71430 Y2.58145
G01 X26.67953 Y2.54668
G01 X26.67775 Y2.54495
G01 X26.62481 Y2.49702
G01 X26.62146 Y2.49420
G01 X26.62166 Y2.49405
G01 X26.62146 Y2.49420
G01 X26.54549 Y2.43660
G01 X26.54483 Y2.43606
G01 X26.53220 Y2.42684
G01 X26.53022 Y2.42545
G01 X26.50223 Y2.40688
G01 X26.50081 Y2.40602
G01 X26.46042 Y2.38117
G01 X26.46055 Y2.38092
G01 X26.46042 Y2.38117
G01 X26.45659 Y2.37904
G01 X26.34983 Y2.32573
G01 X26.34757 Y2.32466
G01 X26.30246 Y2.30485
G01 X26.30020 Y2.30388
G01 X26.30035 Y2.30355
G01 X26.30020 Y2.30388
G01 X26.27846 Y2.29552
G01 X26.27429 Y2.29420
G01 X26.13642 Y2.25481
G01 X26.13650 Y2.25445
G01 X26.13642 Y2.25481
G01 X26.13409 Y2.25417
G01 X26.08671 Y2.24312
G01 X26.07993 Y2.24203
G01 X25.91328 Y2.22654
G01 X25.91209 Y2.22639
G01 X25.88735 Y2.22476
G01 X25.88735 Y2.22420
G01 X25.88735 Y2.22476
G01 X25.88057 Y2.22476
G01 X25.85588 Y2.22639
G01 X25.85466 Y2.22654
G01 X25.68799 Y2.24203
G01 X25.68125 Y2.24312
G01 X25.68113 Y2.24274
G01 X25.68125 Y2.24312
G01 X25.63383 Y2.25417
G01 X25.63150 Y2.25483
G01 X25.49357 Y2.29420
G01 X25.49342 Y2.29370
G01 X25.49357 Y2.29420
G01 X25.48946 Y2.29552
G01 X25.46772 Y2.30388
G01 X25.46538 Y2.30482
G01 X25.42027 Y2.32466
G01 X25.41808 Y2.32573
G01 X25.31128 Y2.37904
G01 X25.30747 Y2.38117
G01 X25.26713 Y2.40602
G01 X25.26508 Y2.40736
G01 X25.26487 Y2.40703
G01 X25.26508 Y2.40736
G01 X25.22441 Y2.43510
G01 X25.22243 Y2.43652
G01 X25.14643 Y2.49420
G01 X25.14310 Y2.49702
G01 X25.14290 Y2.49677
G01 X25.14310 Y2.49702
G01 X25.09022 Y2.54495
G01 X25.08844 Y2.54665
G01 X25.05367 Y2.58138
G01 X25.05199 Y2.58315
G01 X25.00404 Y2.63611
G01 X25.00373 Y2.63586
G01 X25.00404 Y2.63611
G01 X25.00119 Y2.63942
G01 X24.94354 Y2.71546
G01 X24.94216 Y2.71739
G01 X24.91438 Y2.75806
G01 X24.91303 Y2.76007
G01 X24.88245 Y2.80977
G01 X24.84841 Y2.85841
G01 X24.82093 Y2.89309
G01 X24.82055 Y2.89354
G01 X24.81181 Y2.90482
G01 X24.81143 Y2.90540
G01 X24.78748 Y2.93723
G01 X24.71445 Y3.01841
G01 X24.70043 Y3.03169
G01 X24.68522 Y3.03543
G01 X24.63795 Y3.04300
G01 X24.59002 Y3.04300
G01 X24.54275 Y3.03543
G01 X24.52743 Y3.03169
G01 X24.51351 Y3.01843
G01 X24.44046 Y2.93723
G01 X24.41644 Y2.90528
G01 X24.41603 Y2.90482
G01 X24.40739 Y2.89354
G01 X24.40701 Y2.89309
G01 X24.37945 Y2.85836
G01 X24.34542 Y2.80987
G01 X24.31491 Y2.76007
G01 X24.31357 Y2.75806
G01 X24.28580 Y2.71742
G01 X24.28433 Y2.71546
G01 X24.22667 Y2.63942
G01 X24.22393 Y2.63611
G01 X24.22421 Y2.63586
G01 X24.22393 Y2.63611
G01 X24.17597 Y2.58323
G01 X24.17430 Y2.58145
G01 X24.13950 Y2.54668
G01 X24.13772 Y2.54495
G01 X24.08484 Y2.49702
G01 X24.08497 Y2.49674
G01 X24.08484 Y2.49702
G01 X24.08144 Y2.49420
G01 X24.00544 Y2.43660
G01 X24.00348 Y2.43510
G01 X23.96287 Y2.40736
G01 X23.96081 Y2.40602
G01 X23.96101 Y2.40568
G01 X23.96081 Y2.40602
G01 X23.92040 Y2.38117
G01 X23.91659 Y2.37904
G01 X23.80978 Y2.32573
G01 X23.80762 Y2.32466
G01 X23.76251 Y2.30485
G01 X23.76018 Y2.30388
G01 X23.73841 Y2.29552
G01 X23.73427 Y2.29420
G01 X23.73447 Y2.29370
G01 X23.73427 Y2.29420
G01 X23.59640 Y2.25481
G01 X23.59403 Y2.25417
G01 X23.54669 Y2.24312
G01 X23.54677 Y2.24277
G01 X23.54669 Y2.24312
G01 X23.53991 Y2.24203
G01 X23.37331 Y2.22654
G01 X23.37209 Y2.22639
G01 X23.34740 Y2.22476
G01 X23.34740 Y2.22428
G01 X23.34740 Y2.22476
G01 X23.34054 Y2.22476
G01 X23.31590 Y2.22639
G01 X23.31466 Y2.22654
G01 X23.14801 Y2.24203
G01 X23.14125 Y2.24312
G01 X23.14118 Y2.24274
G01 X23.14125 Y2.24312
G01 X23.09381 Y2.25417
G01 X23.09144 Y2.25483
G01 X22.95357 Y2.29420
G01 X22.95345 Y2.29370
G01 X22.95357 Y2.29420
G01 X22.94946 Y2.29552
G01 X22.92769 Y2.30388
G01 X22.92543 Y2.30485
G01 X22.88032 Y2.32466
G01 X22.87806 Y2.32573
G01 X22.77128 Y2.37907
G01 X22.76744 Y2.38117
G01 X22.72713 Y2.40602
G01 X22.72508 Y2.40736
G01 X22.72487 Y2.40703
G01 X22.72508 Y2.40736
G01 X22.68446 Y2.43510
G01 X22.68243 Y2.43652
G01 X22.60641 Y2.49420
G01 X22.60308 Y2.49702
G01 X22.60288 Y2.49677
G01 X22.60308 Y2.49702
G01 X22.55022 Y2.54495
G01 X22.54844 Y2.54665
G01 X22.51365 Y2.58138
G01 X22.51197 Y2.58315
G01 X22.46401 Y2.63611
G01 X22.46373 Y2.63586
G01 X22.46401 Y2.63611
G01 X22.46125 Y2.63942
G01 X22.40359 Y2.71546
G01 X22.40214 Y2.71739
G01 X22.37438 Y2.75806
G01 X22.37303 Y2.76007
G01 X22.34250 Y2.80977
G01 X22.30839 Y2.85841
G01 X22.28093 Y2.89309
G01 X22.28055 Y2.89354
G01 X22.27181 Y2.90482
G01 X22.27143 Y2.90540
G01 X22.24748 Y2.93723
G01 X22.17443 Y3.01841
G01 X22.16041 Y3.03169
G01 X22.14522 Y3.03543
G01 X22.09795 Y3.04300
G01 X22.04999 Y3.04300
G01 X22.00272 Y3.03543
G01 X21.98748 Y3.03169
G01 X21.97349 Y3.01843
G01 X21.90044 Y2.93723
G01 X21.87641 Y2.90528
G01 X21.87608 Y2.90482
G01 X21.86739 Y2.89354
G01 X21.86699 Y2.89309
G01 X21.83950 Y2.85836
G01 X21.80542 Y2.80987
G01 X21.77491 Y2.76007
G01 X21.77354 Y2.75806
G01 X21.74578 Y2.71742
G01 X21.74431 Y2.71546
G01 X21.68665 Y2.63942
G01 X21.68390 Y2.63611
G01 X21.68421 Y2.63586
G01 X21.68390 Y2.63611
G01 X21.63595 Y2.58323
G01 X21.63427 Y2.58145
G01 X21.59947 Y2.54668
G01 X21.59770 Y2.54495
G01 X21.54484 Y2.49702
G01 X21.54502 Y2.49674
G01 X21.54484 Y2.49702
G01 X21.54149 Y2.49420
G01 X21.46549 Y2.43660
G01 X21.46346 Y2.43510
G01 X21.42284 Y2.40736
G01 X21.42079 Y2.40602
G01 X21.42099 Y2.40568
G01 X21.42079 Y2.40602
G01 X21.38040 Y2.38117
G01 X21.37664 Y2.37904
G01 X21.26983 Y2.32573
G01 X21.26762 Y2.32466
G01 X21.22251 Y2.30485
G01 X21.22023 Y2.30388
G01 X21.19846 Y2.29552
G01 X21.19427 Y2.29420
G01 X21.19445 Y2.29370
G01 X21.19427 Y2.29420
G01 X21.05645 Y2.25481
G01 X21.05403 Y2.25417
G01 X21.00666 Y2.24312
G01 X21.00677 Y2.24277
G01 X21.00666 Y2.24312
G01 X20.99996 Y2.24203
G01 X20.83328 Y2.22654
G01 X20.83209 Y2.22639
G01 X20.80738 Y2.22476
G01 X20.80738 Y2.22428
G01 X20.80738 Y2.22476
G01 X20.80052 Y2.22476
G01 X20.77590 Y2.22639
G01 X20.77463 Y2.22654
G01 X20.60801 Y2.24203
G01 X20.60125 Y2.24312
G01 X20.60115 Y2.24274
G01 X20.60125 Y2.24312
G01 X20.55386 Y2.25417
G01 X20.55144 Y2.25483
G01 X20.41362 Y2.29420
G01 X20.41345 Y2.29370
G01 X20.41362 Y2.29420
G01 X20.40943 Y2.29552
G01 X20.38767 Y2.30388
G01 X20.38540 Y2.30485
G01 X20.34029 Y2.32466
G01 X20.33803 Y2.32573
G01 X20.23125 Y2.37907
G01 X20.22749 Y2.38117
G01 X20.18711 Y2.40602
G01 X20.18505 Y2.40736
G01 X20.18487 Y2.40703
G01 X20.18505 Y2.40736
G01 X20.14446 Y2.43510
G01 X20.14240 Y2.43652
G01 X20.06641 Y2.49420
G01 X20.06305 Y2.49702
G01 X20.06288 Y2.49677
G01 X20.06305 Y2.49702
G01 X20.01020 Y2.54495
G01 X20.00844 Y2.54665
G01 X19.97362 Y2.58138
G01 X19.97197 Y2.58315
G01 X19.92401 Y2.63611
G01 X19.92371 Y2.63586
G01 X19.92401 Y2.63611
G01 X19.92125 Y2.63942
G01 X19.86359 Y2.71546
G01 X19.86211 Y2.71739
G01 X19.83438 Y2.75806
G01 X19.83301 Y2.76007
G01 X19.80250 Y2.80977
G01 X19.76836 Y2.85841
G01 X19.74091 Y2.89309
G01 X19.74052 Y2.89354
G01 X19.73179 Y2.90482
G01 X19.73141 Y2.90540
G01 X19.70748 Y2.93723
G01 X19.63440 Y3.01841
G01 X19.62046 Y3.03169
G01 X19.60519 Y3.03543
G01 X19.55792 Y3.04300
G01 X19.51004 Y3.04300
G01 X19.46278 Y3.03543
G01 X19.44748 Y3.03169
G01 X19.43346 Y3.01843
G01 X19.36041 Y2.93723
G01 X19.33646 Y2.90528
G01 X19.33608 Y2.90482
G01 X19.32737 Y2.89354
G01 X19.32699 Y2.89309
G01 X19.29950 Y2.85836
G01 X19.26547 Y2.80987
G01 X19.23489 Y2.76007
G01 X19.23352 Y2.75806
G01 X19.20578 Y2.71742
G01 X19.20431 Y2.71546
G01 X19.14670 Y2.63942
G01 X19.14388 Y2.63611
G01 X19.14418 Y2.63586
G01 X19.14388 Y2.63611
G01 X19.09600 Y2.58323
G01 X19.09427 Y2.58145
G01 X19.05953 Y2.54668
G01 X19.05770 Y2.54495
G01 X19.00484 Y2.49702
G01 X19.00502 Y2.49674
G01 X19.00484 Y2.49702
G01 X19.00149 Y2.49420
G01 X18.92549 Y2.43660
G01 X18.92351 Y2.43510
G01 X18.88284 Y2.40736
G01 X18.88079 Y2.40602
G01 X18.88096 Y2.40568
G01 X18.88079 Y2.40602
G01 X18.84045 Y2.38117
G01 X18.83664 Y2.37904
G01 X18.72983 Y2.32573
G01 X18.72760 Y2.32466
G01 X18.68249 Y2.30485
G01 X18.68023 Y2.30388
G01 X18.65846 Y2.29552
G01 X18.65432 Y2.29420
G01 X18.65445 Y2.29370
G01 X18.65432 Y2.29420
G01 X18.51645 Y2.25481
