( pcb2gcode 2.5.0 )
( Software-independent Gcode )

G94 ( Millimeters per minute feed rate. )
G21 ( Units == Millimeters. )

G90 ( Absolute coordinates. )
G00 S10000 ( RPM spindle speed. )
G64 P0.01000 ( set maximum deviation from commanded toolpath )
G01 F300.00000 ( Feedrate. )


G00 Z30.00000 (Retract to tool change height)
T1
M5      (Spindle stop.)
G04 P1.00000 (Wait for spindle to stop)
(MSG, Change tool bit to mill diameter 0.20000mm)
M6      (Tool change.)
M0      (Temporary machine stop.)
M3 ( Spindle on clockwise. )
G04 P1.00000 (Wait for spindle to get up to speed)
G04 P0 ( dwell for no time -- G64 should not smooth over this point )
G00 Z5.00000 ( retract )

G00 X0.00046 Y0.32446 ( rapid move to begin. )
G01 F150.00000
( Mill infeed pass 1/1 )
G01 Z-0.05000
G04 P0 ( dwell for no time -- G64 should not smooth over this point )
G01 F300.00000
G01 X0.00046 Y0.32446
G01 X0.00218 Y0.29837
G01 X0.00726 Y0.27272
G01 X0.02385 Y0.21069
G01 X0.03581 Y0.17795
G01 X0.05324 Y0.14775
G01 X0.07564 Y0.12106
G01 X0.12106 Y0.07564
G01 X0.14775 Y0.05324
G01 X0.17795 Y0.03581
G01 X0.21069 Y0.02385
G01 X0.27272 Y0.00726
G01 X0.29837 Y0.00218
G01 X0.32446 Y0.00046
G01 X99.67544 Y0.00046
G01 X99.70158 Y0.00218
G01 X99.72723 Y0.00726
G01 X99.78923 Y0.02385
G01 X99.82200 Y0.03581
G01 X99.85218 Y0.05324
G01 X99.87890 Y0.07564
G01 X99.92423 Y0.12106
G01 X99.94669 Y0.14775
G01 X99.96411 Y0.17795
G01 X99.97605 Y0.21069
G01 X99.99266 Y0.27272
G01 X99.99777 Y0.29837
G01 X99.99944 Y0.32446
G01 X99.99944 Y69.67548
G01 X99.99777 Y69.70154
G01 X99.99266 Y69.72722
G01 X99.97605 Y69.78919
G01 X99.96411 Y69.82193
G01 X99.94669 Y69.85218
G01 X99.92423 Y69.87883
G01 X99.87890 Y69.92427
G01 X99.85218 Y69.94670
G01 X99.82200 Y69.96412
G01 X99.78923 Y69.97601
G01 X99.72723 Y69.99262
G01 X99.70158 Y69.99770
G01 X99.67544 Y69.99948
G01 X0.32446 Y69.99948
G01 X0.29837 Y69.99770
G01 X0.27272 Y69.99262
G01 X0.21069 Y69.97601
G01 X0.17795 Y69.96412
G01 X0.14775 Y69.94670
G01 X0.12106 Y69.92427
G01 X0.07564 Y69.87883
G01 X0.05324 Y69.85218
G01 X0.03581 Y69.82193
G01 X0.02385 Y69.78919
G01 X0.00726 Y69.72722
G01 X0.00218 Y69.70154
G01 X0.00046 Y69.67548
G01 X0.00046 Y0.32446
G01 X0.10046 Y0.32446
G01 X0.10046 Y69.67548
G01 X0.10132 Y69.68848
G01 X0.10384 Y69.70131
G01 X0.12045 Y69.76334
G01 X0.12639 Y69.77972
G01 X0.13515 Y69.79483
G01 X0.14633 Y69.80814
G01 X0.19177 Y69.85356
G01 X0.20511 Y69.86478
G01 X0.22022 Y69.87349
G01 X0.23660 Y69.87941
G01 X0.29860 Y69.89602
G01 X0.31140 Y69.89862
G01 X0.32446 Y69.89948
G01 X99.67544 Y69.89948
G01 X99.68852 Y69.89862
G01 X99.70135 Y69.89602
G01 X99.76333 Y69.87941
G01 X99.77971 Y69.87349
G01 X99.79480 Y69.86478
G01 X99.80818 Y69.85356
G01 X99.85355 Y69.80814
G01 X99.86477 Y69.79483
G01 X99.87349 Y69.77972
G01 X99.87945 Y69.76334
G01 X99.89607 Y69.70131
G01 X99.89858 Y69.68848
G01 X99.89947 Y69.67548
G01 X99.89947 Y0.32446
G01 X99.89858 Y0.31140
G01 X99.89607 Y0.29860
G01 X99.87945 Y0.23660
G01 X99.87349 Y0.22022
G01 X99.86477 Y0.20511
G01 X99.85355 Y0.19177
G01 X99.80818 Y0.14633
G01 X99.79480 Y0.13515
G01 X99.77971 Y0.12639
G01 X99.76333 Y0.12045
G01 X99.70135 Y0.10384
G01 X99.68852 Y0.10132
G01 X99.67544 Y0.10046
G01 X0.32446 Y0.10046
G01 X0.31140 Y0.10132
G01 X0.29860 Y0.10384
G01 X0.23660 Y0.12045
G01 X0.22022 Y0.12639
G01 X0.20511 Y0.13515
G01 X0.19177 Y0.14633
G01 X0.14633 Y0.19177
G01 X0.13515 Y0.20511
G01 X0.12639 Y0.22022
G01 X0.12045 Y0.23660
G01 X0.10384 Y0.29860
G01 X0.10132 Y0.31140
G01 X0.10046 Y0.32446
G04 P0 ( dwell for no time -- G64 should not smooth over this point )
G00 Z5.00000 ( retract )

G00 X4.30870 Y3.37696 ( rapid move to begin. )
G01 F150.00000
( Mill infeed pass 1/1 )
G01 Z-0.05000
G04 P0 ( dwell for no time -- G64 should not smooth over this point )
G01 F300.00000
G01 X4.30870 Y3.37696
G01 X4.32775 Y3.15895
G01 X4.38434 Y2.94759
G01 X4.47683 Y2.74932
G01 X4.60233 Y2.57005
G01 X4.75709 Y2.41534
G01 X4.93626 Y2.28981
G01 X5.13458 Y2.19740
G01 X5.34596 Y2.14071
G01 X5.56392 Y2.12166
G01 X5.78195 Y2.14071
G01 X5.99331 Y2.19740
G01 X6.19163 Y2.28981
G01 X6.37085 Y2.41534
G01 X6.52554 Y2.57005
G01 X6.65048 Y2.74846
G01 X6.65795 Y2.75786
G01 X6.66643 Y2.76631
G01 X6.71076 Y2.80513
G01 X6.72356 Y2.81468
G01 X6.73776 Y2.82207
G01 X6.75297 Y2.82715
G01 X6.81025 Y2.84109
G01 X6.82597 Y2.84363
G01 X6.84197 Y2.84363
G01 X6.85770 Y2.84109
G01 X6.91497 Y2.82715
G01 X6.93016 Y2.82207
G01 X6.94433 Y2.81470
G01 X6.95714 Y2.80515
G01 X7.00146 Y2.76631
G01 X7.00999 Y2.75786
G01 X7.01746 Y2.74843
G01 X7.14238 Y2.57005
G01 X7.29709 Y2.41534
G01 X7.47631 Y2.28981
G01 X7.67464 Y2.19740
G01 X7.88599 Y2.14071
G01 X8.10397 Y2.12166
G01 X8.32193 Y2.14071
G01 X8.53331 Y2.19740
G01 X8.73161 Y2.28981
G01 X8.91083 Y2.41534
G01 X9.06556 Y2.57005
G01 X9.19051 Y2.74846
G01 X9.19795 Y2.75786
G01 X9.20643 Y2.76631
G01 X9.25073 Y2.80513
G01 X9.26356 Y2.81468
G01 X9.27778 Y2.82207
G01 X9.29295 Y2.82715
G01 X9.35025 Y2.84109
G01 X9.36600 Y2.84363
G01 X9.38197 Y2.84363
G01 X9.39772 Y2.84109
G01 X9.45495 Y2.82715
G01 X9.47014 Y2.82207
G01 X9.48431 Y2.81470
G01 X9.49716 Y2.80515
G01 X9.54148 Y2.76631
G01 X9.55002 Y2.75786
G01 X9.55746 Y2.74843
G01 X9.68235 Y2.57005
G01 X9.83706 Y2.41534
G01 X10.01629 Y2.28981
G01 X10.21461 Y2.19740
G01 X10.42599 Y2.14071
G01 X10.64400 Y2.12166
G01 X10.86195 Y2.14071
G01 X11.07328 Y2.19740
G01 X11.27163 Y2.28981
G01 X11.45085 Y2.41534
G01 X11.60554 Y2.57005
G01 X11.73048 Y2.74846
G01 X11.73792 Y2.75786
G01 X11.74646 Y2.76631
G01 X11.79073 Y2.80513
G01 X11.80358 Y2.81468
G01 X11.81776 Y2.82207
G01 X11.83295 Y2.82715
G01 X11.89022 Y2.84109
G01 X11.90597 Y2.84363
G01 X11.92195 Y2.84363
G01 X11.93770 Y2.84109
G01 X11.99497 Y2.82715
G01 X12.01016 Y2.82207
G01 X12.02433 Y2.81470
G01 X12.03714 Y2.80515
G01 X12.08146 Y2.76631
G01 X12.08999 Y2.75786
G01 X12.09749 Y2.74843
G01 X12.22238 Y2.57005
G01 X12.37709 Y2.41534
G01 X12.55629 Y2.28981
G01 X12.75464 Y2.19740
G01 X12.96599 Y2.14071
G01 X13.18400 Y2.12166
G01 X13.40190 Y2.14071
G01 X13.61331 Y2.19740
G01 X13.81163 Y2.28981
G01 X13.99085 Y2.41534
G01 X14.14554 Y2.57005
G01 X14.27048 Y2.74846
G01 X14.27792 Y2.75786
G01 X14.28646 Y2.76631
G01 X14.33076 Y2.80513
G01 X14.34353 Y2.81468
G01 X14.35776 Y2.82207
G01 X14.37295 Y2.82715
G01 X14.43022 Y2.84109
G01 X14.44600 Y2.84363
G01 X14.46197 Y2.84363
G01 X14.47770 Y2.84109
G01 X14.53495 Y2.82715
G01 X14.55016 Y2.82207
G01 X14.56428 Y2.81470
G01 X14.57714 Y2.80515
G01 X14.62146 Y2.76631
G01 X14.62999 Y2.75786
G01 X14.63744 Y2.74843
G01 X14.76238 Y2.57005
G01 X14.91709 Y2.41534
G01 X15.09629 Y2.28981
G01 X15.29458 Y2.19740
G01 X15.50601 Y2.14071
G01 X15.72400 Y2.12166
G01 X15.94193 Y2.14071
G01 X16.15326 Y2.19740
G01 X16.35163 Y2.28981
G01 X16.53080 Y2.41534
G01 X16.68556 Y2.57005
G01 X16.81048 Y2.74846
G01 X16.81795 Y2.75786
G01 X16.82646 Y2.76631
G01 X16.87071 Y2.80513
G01 X16.88356 Y2.81468
G01 X16.89778 Y2.82207
G01 X16.91297 Y2.82715
G01 X16.97025 Y2.84109
G01 X16.98600 Y2.84363
G01 X17.00192 Y2.84363
G01 X17.01770 Y2.84109
G01 X17.07497 Y2.82715
G01 X17.09016 Y2.82207
G01 X17.10431 Y2.81470
G01 X17.11714 Y2.80515
G01 X17.16148 Y2.76631
G01 X17.16999 Y2.75786
G01 X17.17746 Y2.74843
G01 X17.30238 Y2.57005
G01 X17.45704 Y2.41534
G01 X17.63631 Y2.28981
G01 X17.83461 Y2.19740
G01 X18.04601 Y2.14071
G01 X18.26395 Y2.12166
G01 X18.48193 Y2.14071
G01 X18.69328 Y2.19740
G01 X18.89163 Y2.28981
G01 X19.07083 Y2.41534
G01 X19.22556 Y2.57005
G01 X19.35051 Y2.74846
G01 X19.35795 Y2.75786
G01 X19.36641 Y2.76631
G01 X19.41073 Y2.80513
G01 X19.42358 Y2.81468
G01 X19.43778 Y2.82207
G01 X19.45297 Y2.82715
G01 X19.51025 Y2.84109
G01 X19.52595 Y2.84363
G01 X19.54195 Y2.84363
G01 X19.55772 Y2.84109
G01 X19.61497 Y2.82715
G01 X19.63016 Y2.82207
G01 X19.64431 Y2.81470
G01 X19.65716 Y2.80515
G01 X19.70148 Y2.76631
G01 X19.71002 Y2.75786
G01 X19.71749 Y2.74843
G01 X19.84238 Y2.57005
G01 X19.99706 Y2.41534
G01 X20.17631 Y2.28981
G01 X20.37461 Y2.19740
G01 X20.58596 Y2.14071
G01 X20.80395 Y2.12166
G01 X21.02195 Y2.14071
G01 X21.23328 Y2.19740
G01 X21.43158 Y2.28981
G01 X21.61085 Y2.41534
G01 X21.76556 Y2.57005
G01 X21.89051 Y2.74846
G01 X21.89795 Y2.75786
G01 X21.90641 Y2.76631
G01 X21.95076 Y2.80513
G01 X21.96358 Y2.81468
G01 X21.97778 Y2.82207
G01 X21.99292 Y2.82715
G01 X22.05025 Y2.84109
G01 X22.06597 Y2.84363
G01 X22.08195 Y2.84363
G01 X22.09772 Y2.84109
G01 X22.15492 Y2.82715
G01 X22.17011 Y2.82207
G01 X22.18433 Y2.81470
G01 X22.19716 Y2.80515
G01 X22.24148 Y2.76631
G01 X22.25002 Y2.75786
G01 X22.25749 Y2.74843
G01 X22.38233 Y2.57005
G01 X22.53709 Y2.41534
G01 X22.71626 Y2.28981
G01 X22.91464 Y2.19740
G01 X23.12596 Y2.14071
G01 X23.34397 Y2.12166
G01 X23.56195 Y2.14071
G01 X23.77331 Y2.19740
G01 X23.97161 Y2.28981
G01 X24.15085 Y2.41534
G01 X24.30551 Y2.57005
G01 X24.43046 Y2.74846
G01 X24.43790 Y2.75786
G01 X24.44643 Y2.76631
G01 X24.49076 Y2.80513
G01 X24.50358 Y2.81468
G01 X24.51773 Y2.82207
G01 X24.53292 Y2.82715
G01 X24.59020 Y2.84109
G01 X24.60600 Y2.84363
G01 X24.62197 Y2.84363
G01 X24.63767 Y2.84109
G01 X24.69495 Y2.82715
G01 X24.71014 Y2.82207
G01 X24.72433 Y2.81470
G01 X24.73711 Y2.80515
G01 X24.78143 Y2.76631
G01 X24.78997 Y2.75786
G01 X24.79749 Y2.74843
G01 X24.92235 Y2.57005
G01 X25.07709 Y2.41534
G01 X25.25626 Y2.28981
G01 X25.45464 Y2.19740
G01 X25.66599 Y2.14071
G01 X25.88400 Y2.12166
G01 X26.10193 Y2.14071
G01 X26.31331 Y2.19740
G01 X26.51163 Y2.28981
G01 X26.69085 Y2.41534
G01 X26.84556 Y2.57005
G01 X26.97081 Y2.74894
G01 X26.97823 Y2.75826
G01 X26.98674 Y2.76669
G01 X27.03101 Y2.80556
G01 X27.04389 Y2.81516
G01 X27.05804 Y2.82255
G01 X27.07317 Y2.82758
G01 X27.13050 Y2.84160
G01 X27.14628 Y2.84414
G01 X27.16223 Y2.84414
G01 X27.17808 Y2.84160
G01 X27.23533 Y2.82758
G01 X27.25047 Y2.82255
G01 X27.26466 Y2.81516
G01 X27.27747 Y2.80563
G01 X27.32019 Y2.76812
G01 X27.55260 Y3.00060
G01 X27.55047 Y3.00457
G01 X27.54630 Y3.01338
G01 X27.54300 Y3.02263
G01 X27.49461 Y3.18214
G01 X27.49220 Y3.19161
G01 X27.49075 Y3.20137
G01 X27.47444 Y3.36713
G01 X27.47444 Y3.38679
G01 X27.49075 Y3.55257
G01 X27.49220 Y3.56232
G01 X27.49461 Y3.57180
G01 X27.54300 Y3.73129
G01 X27.55047 Y3.74934
G01 X27.55260 Y3.75336
G01 X27.32019 Y3.98579
G01 X27.27747 Y3.94833
G01 X27.26466 Y3.93878
G01 X27.25047 Y3.93141
G01 X27.23533 Y3.92633
G01 X27.17808 Y3.91236
G01 X27.16223 Y3.90982
G01 X27.14628 Y3.90982
G01 X27.13050 Y3.91236
G01 X27.07317 Y3.92633
G01 X27.05804 Y3.93141
G01 X27.04389 Y3.93878
G01 X27.03101 Y3.94835
G01 X26.98674 Y3.98722
G01 X26.97823 Y3.99565
G01 X26.97081 Y4.00502
G01 X26.84556 Y4.18384
G01 X26.69085 Y4.33852
G01 X26.51247 Y4.46341
G01 X26.50305 Y4.47093
G01 X26.49461 Y4.47947
G01 X26.45575 Y4.52379
G01 X26.44623 Y4.53657
G01 X26.43883 Y4.55071
G01 X26.43381 Y4.56593
G01 X26.41976 Y4.62318
G01 X26.41724 Y4.63893
G01 X26.41724 Y4.65496
G01 X26.41976 Y4.67070
G01 X26.43381 Y4.72803
G01 X26.43883 Y4.74315
G01 X26.44623 Y4.75732
G01 X26.45575 Y4.77015
G01 X26.49464 Y4.81444
G01 X26.50307 Y4.82295
G01 X26.51244 Y4.83045
G01 X26.69085 Y4.95534
G01 X26.84556 Y5.11010
G01 X26.97081 Y5.28889
G01 X26.97823 Y5.29831
G01 X26.98674 Y5.30675
G01 X27.03101 Y5.34561
G01 X27.04389 Y5.35511
G01 X27.05804 Y5.36255
G01 X27.07317 Y5.36758
G01 X27.13050 Y5.38160
G01 X27.14628 Y5.38409
G01 X27.16223 Y5.38409
G01 X27.17808 Y5.38160
G01 X27.23533 Y5.36758
G01 X27.25047 Y5.36255
G01 X27.26466 Y5.35511
G01 X27.27747 Y5.34563
G01 X27.32019 Y5.30817
G01 X27.55260 Y5.54055
G01 X27.55047 Y5.54457
G01 X27.54630 Y5.55343
G01 X27.54300 Y5.56268
G01 X27.49461 Y5.72214
G01 X27.49220 Y5.73161
G01 X27.49075 Y5.74131
G01 X27.47444 Y5.90713
G01 X27.47444 Y5.92673
G01 X27.49075 Y6.09257
G01 X27.49220 Y6.10227
G01 X27.49461 Y6.11185
G01 X27.54300 Y6.27129
G01 X27.55047 Y6.28940
G01 X27.55260 Y6.29331
G01 X27.32019 Y6.52579
G01 X27.27747 Y6.48833
G01 X27.26466 Y6.47878
G01 X27.25047 Y6.47141
G01 X27.23533 Y6.46636
G01 X27.17808 Y6.45234
G01 X27.16223 Y6.44980
G01 X27.14628 Y6.44980
G01 X27.13050 Y6.45234
G01 X27.07317 Y6.46636
G01 X27.05804 Y6.47141
G01 X27.04389 Y6.47878
G01 X27.03101 Y6.48833
G01 X26.98674 Y6.52722
G01 X26.97823 Y6.53565
G01 X26.97081 Y6.54502
G01 X26.84556 Y6.72384
G01 X26.69085 Y6.87855
G01 X26.57998 Y6.95622
G01 X26.57058 Y6.96366
G01 X26.56215 Y6.97215
G01 X26.52329 Y7.01647
G01 X26.51376 Y7.02927
G01 X26.50635 Y7.04345
G01 X26.50134 Y7.05863
G01 X26.48730 Y7.11586
G01 X26.48516 Y7.12767
G01 X26.48443 Y7.13969
G01 X26.48443 Y23.95063
G01 X26.48516 Y23.96259
G01 X26.48730 Y23.97435
G01 X26.50134 Y24.03163
G01 X26.50635 Y24.04681
G01 X26.51376 Y24.06094
G01 X26.52329 Y24.07379
G01 X26.56215 Y24.11811
G01 X26.57058 Y24.12665
G01 X26.57998 Y24.13409
G01 X26.72730 Y24.23726
G01 X26.86964 Y24.37963
G01 X26.98514 Y24.54450
G01 X27.07023 Y24.72698
G01 X27.12232 Y24.92144
G01 X27.13982 Y25.12192
G01 X27.12232 Y25.32245
G01 X27.07023 Y25.51694
G01 X26.98514 Y25.69936
G01 X26.86964 Y25.86431
G01 X26.72730 Y26.00665
G01 X26.56235 Y26.12215
G01 X26.37993 Y26.20724
G01 X26.18552 Y26.25928
G01 X25.98499 Y26.27683
G01 X25.78438 Y26.25928
G01 X25.58997 Y26.20724
G01 X25.40752 Y26.12215
G01 X25.24262 Y26.00665
G01 X25.10025 Y25.86431
G01 X24.98481 Y25.69936
G01 X24.89970 Y25.51694
G01 X24.84763 Y25.32245
G01 X24.83007 Y25.12192
G01 X24.84763 Y24.92144
G01 X24.89970 Y24.72698
G01 X24.98481 Y24.54450
G01 X25.10025 Y24.37963
G01 X25.21783 Y24.26198
G01 X25.22441 Y24.25471
G01 X25.23028 Y24.24687
G01 X25.25715 Y24.20663
G01 X25.26637 Y24.18931
G01 X25.27206 Y24.17059
G01 X25.28156 Y24.12312
G01 X25.28301 Y24.11341
G01 X25.28344 Y24.10366
G01 X25.28344 Y7.13969
G01 X25.28275 Y7.12767
G01 X25.28059 Y7.11586
G01 X25.26657 Y7.05863
G01 X25.26154 Y7.04345
G01 X25.25418 Y7.02927
G01 X25.24460 Y7.01647
G01 X25.20577 Y6.97215
G01 X25.19733 Y6.96366
G01 X25.18791 Y6.95622
G01 X25.07709 Y6.87855
G01 X24.92235 Y6.72384
G01 X24.79749 Y6.54545
G01 X24.78997 Y6.53606
G01 X24.78143 Y6.52762
G01 X24.73711 Y6.48873
G01 X24.72436 Y6.47921
G01 X24.71014 Y6.47182
G01 X24.69502 Y6.46681
G01 X24.63777 Y6.45279
G01 X24.62197 Y6.45023
G01 X24.60600 Y6.45023
G01 X24.59020 Y6.45279
G01 X24.53292 Y6.46681
G01 X24.51773 Y6.47182
G01 X24.50358 Y6.47921
G01 X24.49076 Y6.48879
G01 X24.44643 Y6.52765
G01 X24.43790 Y6.53606
G01 X24.43046 Y6.54545
G01 X24.30551 Y6.72384
G01 X24.15085 Y6.87855
G01 X23.97161 Y7.00408
G01 X23.77331 Y7.09653
G01 X23.56195 Y7.15317
G01 X23.34397 Y7.17225
G01 X23.12596 Y7.15317
G01 X22.91464 Y7.09653
G01 X22.71626 Y7.00408
G01 X22.53709 Y6.87855
G01 X22.38233 Y6.72384
G01 X22.25749 Y6.54545
G01 X22.25002 Y6.53606
G01 X22.24148 Y6.52762
G01 X22.19716 Y6.48873
G01 X22.18433 Y6.47921
G01 X22.17019 Y6.47182
G01 X22.15502 Y6.46681
G01 X22.09775 Y6.45279
G01 X22.08195 Y6.45023
G01 X22.06597 Y6.45023
G01 X22.05017 Y6.45279
G01 X21.99292 Y6.46681
G01 X21.97771 Y6.47182
G01 X21.96358 Y6.47921
G01 X21.95076 Y6.48879
G01 X21.90641 Y6.52765
G01 X21.89795 Y6.53606
G01 X21.89051 Y6.54545
G01 X21.76556 Y6.72384
G01 X21.61085 Y6.87855
G01 X21.43158 Y7.00408
G01 X21.23328 Y7.09653
G01 X21.02195 Y7.15317
G01 X20.80395 Y7.17225
G01 X20.58596 Y7.15317
G01 X20.37461 Y7.09653
G01 X20.17631 Y7.00408
G01 X19.99706 Y6.87855
G01 X19.84238 Y6.72384
G01 X19.71749 Y6.54545
G01 X19.71002 Y6.53606
G01 X19.70148 Y6.52762
G01 X19.65716 Y6.48873
G01 X19.64431 Y6.47921
G01 X19.63019 Y6.47182
G01 X19.61500 Y6.46681
G01 X19.55772 Y6.45279
G01 X19.54195 Y6.45023
G01 X19.52595 Y6.45023
G01 X19.51017 Y6.45279
G01 X19.45289 Y6.46681
G01 X19.43776 Y6.47182
G01 X19.42358 Y6.47921
G01 X19.41073 Y6.48879
G01 X19.36641 Y6.52765
G01 X19.35795 Y6.53606
G01 X19.35051 Y6.54545
G01 X19.22556 Y6.72384
G01 X19.07083 Y6.87855
G01 X18.89163 Y7.00408
G01 X18.69328 Y7.09653
G01 X18.48193 Y7.15317
G01 X18.26395 Y7.17225
G01 X18.04601 Y7.15317
G01 X17.83461 Y7.09653
G01 X17.63631 Y7.00408
G01 X17.45704 Y6.87855
G01 X17.30238 Y6.72384
G01 X17.17746 Y6.54545
G01 X17.16999 Y6.53606
G01 X17.16148 Y6.52762
G01 X17.11714 Y6.48873
G01 X17.10431 Y6.47921
G01 X17.09019 Y6.47182
G01 X17.07497 Y6.46681
G01 X17.01777 Y6.45279
G01 X17.00192 Y6.45023
G01 X16.98600 Y6.45023
G01 X16.97015 Y6.45279
G01 X16.91287 Y6.46681
G01 X16.89776 Y6.47182
G01 X16.88356 Y6.47921
G01 X16.87071 Y6.48879
G01 X16.82646 Y6.52765
G01 X16.81795 Y6.53606
G01 X16.81048 Y6.54545
G01 X16.68556 Y6.72384
G01 X16.53080 Y6.87855
G01 X16.35163 Y7.00408
G01 X16.15326 Y7.09653
G01 X15.94193 Y7.15317
G01 X15.72400 Y7.17225
G01 X15.50601 Y7.15317
G01 X15.29458 Y7.09653
G01 X15.09629 Y7.00408
G01 X14.91709 Y6.87855
G01 X14.76238 Y6.72384
G01 X14.63713 Y6.54502
G01 X14.62969 Y6.53560
G01 X14.62115 Y6.52717
G01 X14.57683 Y6.48833
G01 X14.56406 Y6.47878
G01 X14.54986 Y6.47141
G01 X14.53467 Y6.46636
G01 X14.47747 Y6.45234
G01 X14.46167 Y6.44980
G01 X14.44569 Y6.44980
G01 X14.42984 Y6.45234
G01 X14.37256 Y6.46636
G01 X14.35745 Y6.47141
G01 X14.34323 Y6.47878
G01 X14.33040 Y6.48833
G01 X14.28773 Y6.52579
G01 X14.05532 Y6.29333
G01 X14.05748 Y6.28940
G01 X14.06492 Y6.27129
G01 X14.11336 Y6.11185
G01 X14.11572 Y6.10227
G01 X14.11717 Y6.09257
G01 X14.13347 Y5.92673
G01 X14.13396 Y5.91693
G01 X14.13347 Y5.90713
G01 X14.11717 Y5.74131
G01 X14.11572 Y5.73161
G01 X14.11336 Y5.72214
G01 X14.06492 Y5.56268
G01 X14.05748 Y5.54457
G01 X14.05532 Y5.54053
G01 X14.28773 Y5.30814
G01 X14.33040 Y5.34561
G01 X14.34323 Y5.35511
G01 X14.35745 Y5.36255
G01 X14.37256 Y5.36758
G01 X14.42984 Y5.38160
G01 X14.44569 Y5.38409
G01 X14.46167 Y5.38409
G01 X14.47747 Y5.38160
G01 X14.53467 Y5.36758
G01 X14.54986 Y5.36255
G01 X14.56406 Y5.35511
G01 X14.57683 Y5.34563
G01 X14.62115 Y5.30677
G01 X14.62969 Y5.29834
G01 X14.63713 Y5.28886
G01 X14.76238 Y5.11010
G01 X14.91709 Y4.95534
G01 X15.09550 Y4.83045
G01 X15.10490 Y4.82295
G01 X15.11333 Y4.81442
G01 X15.15219 Y4.77009
G01 X15.16169 Y4.75729
G01 X15.16906 Y4.74312
G01 X15.17414 Y4.72801
G01 X15.18816 Y4.67070
G01 X15.19070 Y4.65496
G01 X15.19070 Y4.63893
G01 X15.18816 Y4.62318
G01 X15.17414 Y4.56593
G01 X15.16906 Y4.55071
G01 X15.16169 Y4.53657
G01 X15.15219 Y4.52379
G01 X15.11333 Y4.47947
G01 X15.10490 Y4.47093
G01 X15.09547 Y4.46341
G01 X14.91709 Y4.33852
G01 X14.76238 Y4.18384
G01 X14.63744 Y4.00545
G01 X14.62999 Y3.99600
G01 X14.62146 Y3.98757
G01 X14.57714 Y3.94871
G01 X14.56436 Y3.93924
G01 X14.55016 Y3.93179
G01 X14.53502 Y3.92679
G01 X14.47777 Y3.91274
G01 X14.46197 Y3.91025
G01 X14.44600 Y3.91025
G01 X14.43020 Y3.91274
G01 X14.37292 Y3.92679
G01 X14.35776 Y3.93179
G01 X14.34353 Y3.93924
G01 X14.33076 Y3.94873
G01 X14.28646 Y3.98760
G01 X14.27792 Y3.99603
G01 X14.27048 Y4.00545
G01 X14.14554 Y4.18384
G01 X13.99085 Y4.33852
G01 X13.81201 Y4.46377
G01 X13.80259 Y4.47119
G01 X13.79416 Y4.47972
G01 X13.75532 Y4.52404
G01 X13.74579 Y4.53685
G01 X13.73835 Y4.55107
G01 X13.73337 Y4.56618
G01 X13.71933 Y4.62343
G01 X13.71679 Y4.63928
G01 X13.71679 Y4.65521
G01 X13.71933 Y4.67106
G01 X13.73337 Y4.72829
G01 X13.73835 Y4.74350
G01 X13.74579 Y4.75767
G01 X13.75532 Y4.77050
G01 X13.79278 Y4.81315
G01 X13.56037 Y5.04556
G01 X13.55636 Y5.04345
G01 X13.54752 Y5.03926
G01 X13.53830 Y5.03596
G01 X13.37884 Y4.98762
G01 X13.35961 Y4.98376
G01 X13.19380 Y4.96743
G01 X13.17419 Y4.96743
G01 X13.00836 Y4.98376
G01 X12.98913 Y4.98762
G01 X12.82967 Y5.03596
G01 X12.82045 Y5.03926
G01 X12.81153 Y5.04345
G01 X12.80759 Y5.04558
G01 X12.57513 Y4.81315
G01 X12.61255 Y4.77050
G01 X12.62215 Y4.75767
G01 X12.62954 Y4.74350
G01 X12.63454 Y4.72829
G01 X12.64856 Y4.67106
G01 X12.65113 Y4.65521
G01 X12.65113 Y4.63928
G01 X12.64856 Y4.62343
G01 X12.63454 Y4.56618
G01 X12.62954 Y4.55107
G01 X12.62215 Y4.53685
G01 X12.61262 Y4.52404
G01 X12.57376 Y4.47972
G01 X12.56533 Y4.47119
G01 X12.55591 Y4.46377
G01 X12.37709 Y4.33852
G01 X12.22238 Y4.18384
G01 X12.09749 Y4.00545
G01 X12.08999 Y3.99600
G01 X12.08146 Y3.98757
G01 X12.03714 Y3.94871
G01 X12.02433 Y3.93924
G01 X12.01016 Y3.93179
G01 X11.99502 Y3.92679
G01 X11.93775 Y3.91274
G01 X11.92195 Y3.91025
G01 X11.90597 Y3.91025
G01 X11.89017 Y3.91274
G01 X11.83292 Y3.92679
G01 X11.81776 Y3.93179
G01 X11.80358 Y3.93924
G01 X11.79073 Y3.94873
G01 X11.74646 Y3.98760
G01 X11.73792 Y3.99603
G01 X11.73048 Y4.00545
G01 X11.60554 Y4.18384
G01 X11.45085 Y4.33852
G01 X11.27247 Y4.46341
G01 X11.26305 Y4.47093
G01 X11.25461 Y4.47947
G01 X11.21573 Y4.52379
G01 X11.20623 Y4.53657
G01 X11.19881 Y4.55071
G01 X11.19381 Y4.56593
G01 X11.17978 Y4.62318
G01 X11.17724 Y4.63893
G01 X11.17724 Y4.65496
G01 X11.17978 Y4.67070
G01 X11.19381 Y4.72803
G01 X11.19881 Y4.74315
G01 X11.20623 Y4.75732
G01 X11.21578 Y4.77015
G01 X11.25461 Y4.81444
G01 X11.26305 Y4.82295
G01 X11.27242 Y4.83045
G01 X11.45085 Y4.95534
G01 X11.60554 Y5.11010
G01 X11.73081 Y5.28889
G01 X11.73823 Y5.29831
G01 X11.74676 Y5.30675
G01 X11.79104 Y5.34561
G01 X11.80389 Y5.35511
G01 X11.81806 Y5.36255
G01 X11.83320 Y5.36758
G01 X11.89048 Y5.38160
G01 X11.90630 Y5.38409
G01 X11.92225 Y5.38409
G01 X11.93808 Y5.38160
G01 X11.99530 Y5.36758
G01 X12.01047 Y5.36255
G01 X12.02464 Y5.35511
G01 X12.03747 Y5.34563
G01 X12.08019 Y5.30817
G01 X12.31260 Y5.54055
G01 X12.31049 Y5.54457
G01 X12.30300 Y5.56268
G01 X12.25464 Y5.72214
G01 X12.25225 Y5.73161
G01 X12.25078 Y5.74131
G01 X12.23444 Y5.90713
G01 X12.23444 Y5.92673
G01 X12.25078 Y6.09257
G01 X12.25225 Y6.10227
G01 X12.25464 Y6.11185
G01 X12.30300 Y6.27129
G01 X12.31049 Y6.28940
G01 X12.31260 Y6.29331
G01 X12.08019 Y6.52579
G01 X12.03747 Y6.48833
G01 X12.02464 Y6.47878
G01 X12.01047 Y6.47141
G01 X11.99530 Y6.46636
G01 X11.93808 Y6.45234
G01 X11.92225 Y6.44980
G01 X11.90630 Y6.44980
G01 X11.89048 Y6.45234
G01 X11.83320 Y6.46636
G01 X11.81806 Y6.47141
G01 X11.80389 Y6.47878
G01 X11.79104 Y6.48833
G01 X11.74676 Y6.52722
G01 X11.73823 Y6.53565
G01 X11.73081 Y6.54502
G01 X11.60554 Y6.72384
G01 X11.45085 Y6.87855
G01 X11.27163 Y7.00408
G01 X11.07328 Y7.09653
G01 X10.86195 Y7.15317
G01 X10.64400 Y7.17225
G01 X10.42599 Y7.15317
G01 X10.21461 Y7.09653
G01 X10.01629 Y7.00408
G01 X9.83706 Y6.87855
G01 X9.68235 Y6.72384
G01 X9.55746 Y6.54545
G01 X9.55002 Y6.53606
G01 X9.54148 Y6.52762
G01 X9.49716 Y6.48873
G01 X9.48436 Y6.47921
G01 X9.47019 Y6.47182
G01 X9.45500 Y6.46681
G01 X9.39777 Y6.45279
G01 X9.38197 Y6.45023
G01 X9.36600 Y6.45023
G01 X9.35020 Y6.45279
G01 X9.29289 Y6.46681
G01 X9.27773 Y6.47182
G01 X9.26356 Y6.47921
G01 X9.25073 Y6.48879
G01 X9.20643 Y6.52765
G01 X9.19795 Y6.53606
G01 X9.19051 Y6.54545
G01 X9.06556 Y6.72384
G01 X8.91083 Y6.87855
G01 X8.73161 Y7.00408
G01 X8.53331 Y7.09653
G01 X8.32193 Y7.15317
G01 X8.10397 Y7.17225
G01 X7.88599 Y7.15317
G01 X7.67464 Y7.09653
G01 X7.47631 Y7.00408
G01 X7.29709 Y6.87855
G01 X7.14238 Y6.72384
G01 X7.01746 Y6.54545
G01 X7.00999 Y6.53606
G01 X7.00146 Y6.52762
G01 X6.95714 Y6.48873
G01 X6.94433 Y6.47921
G01 X6.93016 Y6.47182
G01 X6.91502 Y6.46681
G01 X6.85775 Y6.45279
G01 X6.84197 Y6.45023
G01 X6.82597 Y6.45023
G01 X6.81020 Y6.45279
G01 X6.75292 Y6.46681
G01 X6.73776 Y6.47182
G01 X6.72356 Y6.47921
G01 X6.71076 Y6.48879
G01 X6.66643 Y6.52765
G01 X6.65795 Y6.53606
G01 X6.65048 Y6.54545
G01 X6.52554 Y6.72384
G01 X6.37085 Y6.87855
G01 X6.19163 Y7.00408
G01 X5.99331 Y7.09653
G01 X5.78195 Y7.15317
G01 X5.56392 Y7.17225
G01 X5.34596 Y7.15317
G01 X5.13458 Y7.09653
G01 X4.93626 Y7.00408
G01 X4.75709 Y6.87855
G01 X4.60233 Y6.72384
G01 X4.47683 Y6.54456
G01 X4.38434 Y6.34627
G01 X4.32775 Y6.13489
G01 X4.30870 Y5.91690
G01 X4.32775 Y5.69900
G01 X4.38434 Y5.48759
G01 X4.47683 Y5.28932
G01 X4.60233 Y5.11010
G01 X4.75709 Y4.95534
G01 X4.93550 Y4.83045
G01 X4.94485 Y4.82295
G01 X4.95328 Y4.81442
G01 X4.99214 Y4.77009
G01 X5.00172 Y4.75729
G01 X5.00906 Y4.74312
G01 X5.01409 Y4.72801
G01 X5.02811 Y4.67070
G01 X5.03070 Y4.65496
G01 X5.03070 Y4.63893
G01 X5.02811 Y4.62318
G01 X5.01409 Y4.56593
G01 X5.00906 Y4.55071
G01 X5.00172 Y4.53657
G01 X4.99214 Y4.52379
G01 X4.95328 Y4.47947
G01 X4.94485 Y4.47093
G01 X4.93547 Y4.46341
G01 X4.75709 Y4.33852
G01 X4.60233 Y4.18384
G01 X4.47683 Y4.00454
G01 X4.38434 Y3.80627
G01 X4.32775 Y3.59489
G01 X4.30870 Y3.37696
G01 X4.40870 Y3.37696
G01 X4.40903 Y3.37696
G01 X4.42659 Y3.17642
G01 X4.42625 Y3.17632
G01 X4.42659 Y3.17642
G01 X4.47873 Y2.98199
G01 X4.47832 Y2.98186
G01 X4.47873 Y2.98199
G01 X4.56382 Y2.79946
G01 X4.56344 Y2.79933
G01 X4.56382 Y2.79946
G01 X4.67921 Y2.63456
G01 X4.67896 Y2.63436
G01 X4.67921 Y2.63456
G01 X4.82155 Y2.49222
G01 X4.82135 Y2.49199
G01 X4.82155 Y2.49222
G01 X4.98645 Y2.37681
G01 X4.98630 Y2.37647
G01 X4.98645 Y2.37681
G01 X5.16890 Y2.29174
G01 X5.16882 Y2.29138
G01 X5.16890 Y2.29174
G01 X5.36344 Y2.23962
G01 X5.36336 Y2.23926
G01 X5.36344 Y2.23962
G01 X5.56392 Y2.22209
G01 X5.56392 Y2.22171
G01 X5.56392 Y2.22209
G01 X5.76453 Y2.23962
G01 X5.76456 Y2.23926
G01 X5.76453 Y2.23962
G01 X5.95897 Y2.29174
G01 X5.95909 Y2.29138
G01 X5.95897 Y2.29174
G01 X6.14144 Y2.37681
G01 X6.14162 Y2.37647
G01 X6.14144 Y2.37681
G01 X6.30634 Y2.49222
G01 X6.30657 Y2.49199
G01 X6.30634 Y2.49222
G01 X6.44868 Y2.63456
G01 X6.44891 Y2.63439
G01 X6.44868 Y2.63456
G01 X6.56859 Y2.80581
G01 X6.58345 Y2.82458
G01 X6.60052 Y2.84145
G01 X6.64479 Y2.88036
G01 X6.67045 Y2.89946
G01 X6.69884 Y2.91424
G01 X6.72925 Y2.92423
G01 X6.78650 Y2.93827
G01 X6.81799 Y2.94330
G01 X6.84995 Y2.94330
G01 X6.88144 Y2.93827
G01 X6.93870 Y2.92423
G01 X6.96905 Y2.91424
G01 X6.99745 Y2.89949
G01 X7.02310 Y2.88039
G01 X7.06742 Y2.84147
G01 X7.08444 Y2.82466
G01 X7.09938 Y2.80579
G01 X7.21926 Y2.63456
G01 X7.21898 Y2.63439
G01 X7.21926 Y2.63456
G01 X7.36161 Y2.49222
G01 X7.36138 Y2.49199
G01 X7.36161 Y2.49222
G01 X7.52648 Y2.37681
G01 X7.52632 Y2.37647
G01 X7.52648 Y2.37681
G01 X7.70893 Y2.29174
G01 X7.70882 Y2.29138
G01 X7.70893 Y2.29174
G01 X7.90344 Y2.23962
G01 X7.90334 Y2.23926
G01 X7.90344 Y2.23962
G01 X8.10397 Y2.22209
G01 X8.10397 Y2.22171
G01 X8.10397 Y2.22209
G01 X8.30453 Y2.23962
G01 X8.30458 Y2.23926
G01 X8.30453 Y2.23962
G01 X8.49894 Y2.29174
G01 X8.49909 Y2.29138
G01 X8.49894 Y2.29174
G01 X8.68144 Y2.37681
G01 X8.68159 Y2.37647
G01 X8.68144 Y2.37681
G01 X8.84634 Y2.49222
G01 X8.84654 Y2.49199
G01 X8.84634 Y2.49222
G01 X8.98868 Y2.63456
G01 X8.98893 Y2.63439
G01 X8.98868 Y2.63456
G01 X9.10857 Y2.80581
G01 X9.12348 Y2.82458
G01 X9.14049 Y2.84145
G01 X9.18482 Y2.88036
G01 X9.21047 Y2.89946
G01 X9.23884 Y2.91424
G01 X9.26925 Y2.92423
G01 X9.32652 Y2.93827
G01 X9.35799 Y2.94330
G01 X9.38992 Y2.94330
G01 X9.42144 Y2.93827
G01 X9.47872 Y2.92423
G01 X9.50907 Y2.91424
G01 X9.53742 Y2.89949
G01 X9.56310 Y2.88039
G01 X9.60740 Y2.84147
G01 X9.62444 Y2.82466
G01 X9.63940 Y2.80579
G01 X9.75929 Y2.63456
G01 X9.75901 Y2.63439
G01 X9.75929 Y2.63456
G01 X9.90158 Y2.49222
G01 X9.90135 Y2.49199
G01 X9.90158 Y2.49222
G01 X10.06648 Y2.37681
G01 X10.06630 Y2.37647
G01 X10.06648 Y2.37681
G01 X10.24895 Y2.29174
G01 X10.24880 Y2.29138
G01 X10.24895 Y2.29174
G01 X10.44341 Y2.23962
G01 X10.44336 Y2.23926
G01 X10.44341 Y2.23962
G01 X10.64400 Y2.22209
G01 X10.64400 Y2.22171
G01 X10.64400 Y2.22209
G01 X10.84450 Y2.23962
G01 X10.84456 Y2.23926
G01 X10.84450 Y2.23962
G01 X11.03897 Y2.29174
G01 X11.03912 Y2.29138
G01 X11.03897 Y2.29174
G01 X11.22142 Y2.37681
G01 X11.22162 Y2.37647
G01 X11.22142 Y2.37681
G01 X11.38631 Y2.49222
G01 X11.38657 Y2.49199
G01 X11.38631 Y2.49222
G01 X11.52865 Y2.63456
G01 X11.52891 Y2.63439
G01 X11.52865 Y2.63456
G01 X11.64859 Y2.80581
G01 X11.66345 Y2.82458
G01 X11.68052 Y2.84145
G01 X11.72479 Y2.88036
G01 X11.75047 Y2.89946
G01 X11.77887 Y2.91424
G01 X11.80922 Y2.92423
G01 X11.86650 Y2.93827
G01 X11.89802 Y2.94330
G01 X11.92995 Y2.94330
G01 X11.96147 Y2.93827
G01 X12.01870 Y2.92423
G01 X12.04905 Y2.91424
G01 X12.07745 Y2.89949
G01 X12.10307 Y2.88039
G01 X12.14740 Y2.84147
G01 X12.16447 Y2.82466
G01 X12.17938 Y2.80579
G01 X12.29926 Y2.63456
G01 X12.29901 Y2.63439
G01 X12.29926 Y2.63456
G01 X12.44161 Y2.49222
G01 X12.44135 Y2.49199
G01 X12.44161 Y2.49222
G01 X12.60650 Y2.37681
G01 X12.60630 Y2.37647
G01 X12.60650 Y2.37681
G01 X12.78895 Y2.29174
G01 X12.78880 Y2.29138
G01 X12.78895 Y2.29174
G01 X12.98344 Y2.23962
G01 X12.98336 Y2.23926
G01 X12.98344 Y2.23962
G01 X13.18400 Y2.22209
G01 X13.18400 Y2.22171
G01 X13.18400 Y2.22209
G01 X13.38453 Y2.23962
G01 X13.38453 Y2.23926
G01 X13.38453 Y2.23962
G01 X13.57892 Y2.29174
G01 X13.57909 Y2.29138
G01 X13.57892 Y2.29174
G01 X13.76142 Y2.37681
G01 X13.76162 Y2.37647
G01 X13.76142 Y2.37681
G01 X13.92634 Y2.49222
G01 X13.92657 Y2.49199
G01 X13.92634 Y2.49222
G01 X14.06865 Y2.63456
G01 X14.06893 Y2.63439
G01 X14.06865 Y2.63456
G01 X14.18859 Y2.80581
G01 X14.20348 Y2.82458
G01 X14.22047 Y2.84145
G01 X14.26479 Y2.88036
G01 X14.29047 Y2.89946
G01 X14.31882 Y2.91424
G01 X14.34922 Y2.92423
G01 X14.40650 Y2.93827
G01 X14.43797 Y2.94330
G01 X14.46995 Y2.94330
G01 X14.50142 Y2.93827
G01 X14.55870 Y2.92423
G01 X14.58907 Y2.91424
G01 X14.61742 Y2.89949
G01 X14.64310 Y2.88039
G01 X14.68742 Y2.84147
G01 X14.70442 Y2.82466
G01 X14.71940 Y2.80579
G01 X14.83926 Y2.63456
G01 X14.83896 Y2.63439
G01 X14.83926 Y2.63456
G01 X14.98156 Y2.49222
G01 X14.98135 Y2.49199
G01 X14.98156 Y2.49222
G01 X15.14650 Y2.37681
G01 X15.14630 Y2.37647
G01 X15.14650 Y2.37681
G01 X15.32890 Y2.29174
G01 X15.32880 Y2.29138
G01 X15.32890 Y2.29174
G01 X15.52344 Y2.23962
G01 X15.52336 Y2.23926
G01 X15.52344 Y2.23962
G01 X15.72400 Y2.22209
G01 X15.72400 Y2.22171
G01 X15.72400 Y2.22209
G01 X15.92453 Y2.23962
G01 X15.92456 Y2.23926
G01 X15.92453 Y2.23962
G01 X16.11892 Y2.29174
G01 X16.11912 Y2.29138
G01 X16.11892 Y2.29174
G01 X16.30144 Y2.37681
G01 X16.30162 Y2.37647
G01 X16.30144 Y2.37681
G01 X16.46629 Y2.49222
G01 X16.46657 Y2.49199
G01 X16.46629 Y2.49222
G01 X16.60868 Y2.63456
G01 X16.60893 Y2.63439
G01 X16.60868 Y2.63456
G01 X16.72859 Y2.80581
G01 X16.74348 Y2.82458
G01 X16.76047 Y2.84145
G01 X16.80479 Y2.88036
G01 X16.83047 Y2.89946
G01 X16.85884 Y2.91424
G01 X16.88925 Y2.92423
G01 X16.94650 Y2.93827
G01 X16.97799 Y2.94330
G01 X17.00995 Y2.94330
G01 X17.04144 Y2.93827
G01 X17.09872 Y2.92423
G01 X17.12907 Y2.91424
G01 X17.15745 Y2.89949
G01 X17.18305 Y2.88039
G01 X17.22737 Y2.84147
G01 X17.24444 Y2.82466
G01 X17.25935 Y2.80579
G01 X17.37929 Y2.63456
G01 X17.37898 Y2.63439
G01 X17.37929 Y2.63456
G01 X17.52158 Y2.49222
G01 X17.52138 Y2.49199
G01 X17.52158 Y2.49222
G01 X17.68650 Y2.37681
G01 X17.68632 Y2.37647
G01 X17.68650 Y2.37681
G01 X17.86893 Y2.29174
G01 X17.86882 Y2.29138
G01 X17.86893 Y2.29174
G01 X18.06339 Y2.23962
G01 X18.06336 Y2.23926
G01 X18.06339 Y2.23962
G01 X18.26395 Y2.22209
G01 X18.26395 Y2.22171
G01 X18.26395 Y2.22209
G01 X18.46448 Y2.23962
G01 X18.46458 Y2.23926
G01 X18.46448 Y2.23962
G01 X18.65894 Y2.29174
G01 X18.65912 Y2.29138
G01 X18.65894 Y2.29174
G01 X18.84144 Y2.37681
G01 X18.84162 Y2.37647
G01 X18.84144 Y2.37681
G01 X19.00629 Y2.49222
G01 X19.00657 Y2.49199
G01 X19.00629 Y2.49222
G01 X19.14868 Y2.63456
G01 X19.14888 Y2.63439
G01 X19.14868 Y2.63456
G01 X19.26859 Y2.80581
G01 X19.28343 Y2.82458
G01 X19.30049 Y2.84145
G01 X19.34482 Y2.88036
G01 X19.37042 Y2.89946
G01 X19.39887 Y2.91424
G01 X19.42925 Y2.92423
G01 X19.48652 Y2.93827
G01 X19.51802 Y2.94330
G01 X19.54995 Y2.94330
G01 X19.58147 Y2.93827
G01 X19.63872 Y2.92423
G01 X19.66902 Y2.91424
G01 X19.69745 Y2.89949
G01 X19.72307 Y2.88039
G01 X19.76740 Y2.84147
G01 X19.78447 Y2.82466
G01 X19.79935 Y2.80579
G01 X19.91929 Y2.63456
G01 X19.91901 Y2.63439
G01 X19.91929 Y2.63456
G01 X20.06158 Y2.49222
G01 X20.06138 Y2.49199
G01 X20.06158 Y2.49222
G01 X20.22645 Y2.37681
G01 X20.22632 Y2.37647
G01 X20.22645 Y2.37681
G01 X20.40895 Y2.29174
G01 X20.40882 Y2.29138
G01 X20.40895 Y2.29174
G01 X20.60341 Y2.23962
G01 X20.60331 Y2.23926
G01 X20.60341 Y2.23962
G01 X20.80395 Y2.22209
G01 X20.80395 Y2.22171
G01 X20.80395 Y2.22209
G01 X21.00450 Y2.23962
G01 X21.00458 Y2.23926
G01 X21.00450 Y2.23962
G01 X21.19897 Y2.29174
G01 X21.19907 Y2.29138
G01 X21.19897 Y2.29174
G01 X21.38144 Y2.37681
G01 X21.38157 Y2.37647
G01 X21.38144 Y2.37681
G01 X21.54631 Y2.49222
G01 X21.54652 Y2.49199
G01 X21.54631 Y2.49222
G01 X21.68868 Y2.63456
G01 X21.68891 Y2.63439
G01 X21.68868 Y2.63456
G01 X21.80854 Y2.80581
G01 X21.82345 Y2.82458
G01 X21.84052 Y2.84145
G01 X21.88482 Y2.88036
G01 X21.91045 Y2.89946
G01 X21.93887 Y2.91424
G01 X21.96925 Y2.92423
G01 X22.02652 Y2.93827
G01 X22.05802 Y2.94330
G01 X22.08990 Y2.94330
G01 X22.12147 Y2.93827
G01 X22.17872 Y2.92423
G01 X22.20905 Y2.91424
G01 X22.23740 Y2.89949
G01 X22.26307 Y2.88039
G01 X22.30742 Y2.84147
G01 X22.32447 Y2.82466
G01 X22.33938 Y2.80579
G01 X22.45929 Y2.63456
G01 X22.45901 Y2.63439
G01 X22.45929 Y2.63456
G01 X22.60161 Y2.49222
G01 X22.60133 Y2.49199
G01 X22.60161 Y2.49222
G01 X22.76645 Y2.37681
G01 X22.76627 Y2.37647
G01 X22.76645 Y2.37681
G01 X22.94895 Y2.29174
G01 X22.94877 Y2.29138
G01 X22.94895 Y2.29174
G01 X23.14344 Y2.23962
G01 X23.14334 Y2.23926
G01 X23.14344 Y2.23962
G01 X23.34397 Y2.22209
G01 X23.34397 Y2.22171
G01 X23.34397 Y2.22209
G01 X23.54453 Y2.23962
G01 X23.54453 Y2.23926
G01 X23.54453 Y2.23962
G01 X23.73897 Y2.29174
G01 X23.73909 Y2.29138
G01 X23.73897 Y2.29174
G01 X23.92139 Y2.37681
G01 X23.92159 Y2.37647
G01 X23.92139 Y2.37681
G01 X24.08634 Y2.49222
G01 X24.08654 Y2.49199
G01 X24.08634 Y2.49222
G01 X24.22863 Y2.63456
G01 X24.22893 Y2.63439
G01 X24.22863 Y2.63456
G01 X24.34857 Y2.80581
G01 X24.36348 Y2.82458
G01 X24.38052 Y2.84145
G01 X24.42477 Y2.88036
G01 X24.45045 Y2.89946
G01 X24.47887 Y2.91424
G01 X24.50920 Y2.92423
G01 X24.56647 Y2.93827
G01 X24.59802 Y2.94330
G01 X24.62992 Y2.94330
G01 X24.66147 Y2.93827
G01 X24.71867 Y2.92423
G01 X24.74907 Y2.91424
G01 X24.77742 Y2.89949
G01 X24.80310 Y2.88039
G01 X24.84742 Y2.84147
G01 X24.86447 Y2.82466
G01 X24.87940 Y2.80579
G01 X24.99924 Y2.63456
G01 X24.99901 Y2.63439
G01 X24.99924 Y2.63456
G01 X25.14161 Y2.49222
G01 X25.14133 Y2.49199
G01 X25.14161 Y2.49222
G01 X25.30648 Y2.37681
G01 X25.30627 Y2.37647
G01 X25.30648 Y2.37681
G01 X25.48890 Y2.29174
G01 X25.48882 Y2.29138
G01 X25.48890 Y2.29174
G01 X25.68341 Y2.23962
G01 X25.68334 Y2.23926
G01 X25.68341 Y2.23962
G01 X25.88400 Y2.22209
G01 X25.88400 Y2.22171
G01 X25.88400 Y2.22209
G01 X26.08453 Y2.23962
G01 X26.08458 Y2.23926
G01 X26.08453 Y2.23962
G01 X26.27894 Y2.29174
G01 X26.27909 Y2.29138
G01 X26.27894 Y2.29174
G01 X26.46144 Y2.37681
G01 X26.46159 Y2.37647
G01 X26.46144 Y2.37681
G01 X26.62634 Y2.49222
G01 X26.62654 Y2.49199
G01 X26.62634 Y2.49222
G01 X26.76865 Y2.63456
G01 X26.76893 Y2.63439
G01 X26.76865 Y2.63456
G01 X26.88890 Y2.80624
G01 X26.90378 Y2.82506
G01 X26.92077 Y2.84193
G01 X26.96512 Y2.88079
G01 X26.99070 Y2.89987
G01 X27.01910 Y2.91465
G01 X27.04945 Y2.92466
G01 X27.10670 Y2.93868
G01 X27.13830 Y2.94381
G01 X27.17025 Y2.94381
G01 X27.20185 Y2.93868
G01 X27.25910 Y2.92466
G01 X27.28940 Y2.91465
G01 X27.31298 Y2.90236
G01 X27.31691 Y2.88836
G01 X27.31298 Y2.90236
G01 X27.43728 Y3.02669
G01 X27.45313 Y3.02260
G01 X27.43728 Y3.02669
G01 X27.39890 Y3.15305
G01 X27.39415 Y3.17208
G01 X27.39128 Y3.19156
G01 X27.37495 Y3.35732
G01 X27.37495 Y3.39659
G01 X27.39128 Y3.56238
G01 X27.39415 Y3.58183
G01 X27.39890 Y3.60088
G01 X27.43728 Y3.72727
G01 X27.45313 Y3.73131
G01 X27.43728 Y3.72727
G01 X27.31298 Y3.85153
G01 X27.31691 Y3.86550
G01 X27.31298 Y3.85153
G01 X27.28940 Y3.83931
G01 X27.25910 Y3.82925
G01 X27.20185 Y3.81523
G01 X27.17025 Y3.81015
G01 X27.13830 Y3.81015
G01 X27.10670 Y3.81523
G01 X27.04945 Y3.82925
G01 X27.01910 Y3.83931
G01 X26.99070 Y3.85409
G01 X26.96512 Y3.87317
G01 X26.92077 Y3.91198
G01 X26.90378 Y3.92890
G01 X26.88890 Y3.94767
G01 X26.76865 Y4.11927
G01 X26.76893 Y4.11950
G01 X26.76865 Y4.11927
G01 X26.62634 Y4.26164
G01 X26.62654 Y4.26189
G01 X26.62634 Y4.26164
G01 X26.45507 Y4.38150
G01 X26.43629 Y4.39644
G01 X26.41943 Y4.41348
G01 X26.38057 Y4.45780
G01 X26.36149 Y4.48348
G01 X26.34668 Y4.51183
G01 X26.33668 Y4.54216
G01 X26.32263 Y4.59936
G01 X26.31755 Y4.63098
G01 X26.31755 Y4.66291
G01 X26.32263 Y4.69448
G01 X26.33668 Y4.75176
G01 X26.34668 Y4.78208
G01 X26.36149 Y4.81051
G01 X26.38057 Y4.83613
G01 X26.41943 Y4.88043
G01 X26.43629 Y4.89748
G01 X26.45507 Y4.91231
G01 X26.62634 Y5.03222
G01 X26.62654 Y5.03202
G01 X26.62634 Y5.03222
G01 X26.76865 Y5.17456
G01 X26.76893 Y5.17439
G01 X26.76865 Y5.17456
G01 X26.88890 Y5.34629
G01 X26.90378 Y5.36501
G01 X26.92077 Y5.38188
G01 X26.96512 Y5.42074
G01 X26.99070 Y5.43982
G01 X27.01910 Y5.45460
G01 X27.04945 Y5.46471
G01 X27.10670 Y5.47873
G01 X27.13830 Y5.48381
G01 X27.17025 Y5.48381
G01 X27.20185 Y5.47873
G01 X27.25910 Y5.46471
G01 X27.28940 Y5.45460
G01 X27.31298 Y5.44238
G01 X27.31691 Y5.42836
G01 X27.31298 Y5.44238
G01 X27.43728 Y5.56664
G01 X27.45313 Y5.56265
G01 X27.43728 Y5.56664
G01 X27.39890 Y5.69311
G01 X27.39415 Y5.71213
G01 X27.39128 Y5.73151
G01 X27.37495 Y5.89732
G01 X27.37495 Y5.93654
G01 X27.39128 Y6.10238
G01 X27.39415 Y6.12183
G01 X27.39890 Y6.14088
G01 X27.43728 Y6.26722
G01 X27.45313 Y6.27131
G01 X27.43728 Y6.26722
G01 X27.31298 Y6.39155
G01 X27.31691 Y6.40552
G01 X27.31298 Y6.39155
G01 X27.28940 Y6.37929
G01 X27.25910 Y6.36923
G01 X27.20185 Y6.35521
G01 X27.17025 Y6.35015
G01 X27.13830 Y6.35015
G01 X27.10670 Y6.35521
G01 X27.04945 Y6.36923
G01 X27.01910 Y6.37929
G01 X26.99070 Y6.39409
G01 X26.96512 Y6.41317
G01 X26.92077 Y6.45201
G01 X26.90378 Y6.46887
G01 X26.88890 Y6.48764
G01 X26.76865 Y6.65932
G01 X26.76906 Y6.65970
G01 X26.76865 Y6.65932
G01 X26.62634 Y6.80166
G01 X26.52260 Y6.87428
G01 X26.50381 Y6.88919
G01 X26.48694 Y6.90623
G01 X26.44813 Y6.95053
G01 X26.42903 Y6.97616
G01 X26.41427 Y7.00451
G01 X26.40421 Y7.03486
G01 X26.39014 Y7.09209
G01 X26.38590 Y7.11571
G01 X26.38445 Y7.13969
G01 X26.38445 Y23.95063
G01 X26.38590 Y23.97455
G01 X26.39014 Y23.99817
G01 X26.40421 Y24.05543
G01 X26.41427 Y24.08575
G01 X26.42903 Y24.11410
G01 X26.44808 Y24.13968
G01 X26.48694 Y24.18400
G01 X26.50381 Y24.20107
G01 X26.52260 Y24.21598
G01 X26.66281 Y24.31415
G01 X26.66301 Y24.31385
G01 X26.66281 Y24.31415
G01 X26.79278 Y24.44415
G01 X26.79306 Y24.44389
G01 X26.79278 Y24.44415
G01 X26.89817 Y24.59472
G01 X26.89850 Y24.59452
G01 X26.89817 Y24.59472
G01 X26.97589 Y24.76132
G01 X26.97625 Y24.76114
G01 X26.97589 Y24.76132
G01 X27.02347 Y24.93884
G01 X27.02382 Y24.93874
G01 X27.02347 Y24.93884
G01 X27.03944 Y25.12192
G01 X27.03985 Y25.12192
G01 X27.03944 Y25.12192
G01 X27.02347 Y25.30508
G01 X27.02382 Y25.30511
G01 X27.02347 Y25.30508
G01 X26.97589 Y25.48260
G01 X26.97625 Y25.48273
G01 X26.97589 Y25.48260
G01 X26.89817 Y25.64920
G01 X26.89850 Y25.64940
G01 X26.89817 Y25.64920
G01 X26.79278 Y25.79980
G01 X26.79306 Y25.80002
G01 X26.79278 Y25.79980
G01 X26.66281 Y25.92979
G01 X26.66301 Y25.93007
G01 X26.66281 Y25.92979
G01 X26.51219 Y26.03518
G01 X26.51239 Y26.03551
G01 X26.51219 Y26.03518
G01 X26.34564 Y26.11290
G01 X26.34572 Y26.11326
G01 X26.34564 Y26.11290
G01 X26.16810 Y26.16043
G01 X26.16817 Y26.16083
G01 X26.16810 Y26.16043
G01 X25.98499 Y26.17645
G01 X25.98499 Y26.17686
G01 X25.98499 Y26.17645
G01 X25.80185 Y26.16043
G01 X25.80178 Y26.16083
G01 X25.80185 Y26.16043
G01 X25.62431 Y26.11290
G01 X25.62418 Y26.11326
G01 X25.62431 Y26.11290
G01 X25.45771 Y26.03518
G01 X25.45751 Y26.03551
G01 X25.45771 Y26.03518
G01 X25.30714 Y25.92979
G01 X25.30688 Y25.93007
G01 X25.30714 Y25.92979
G01 X25.17714 Y25.79980
G01 X25.17684 Y25.80002
G01 X25.17714 Y25.79980
G01 X25.07170 Y25.64920
G01 X25.07143 Y25.64940
G01 X25.07170 Y25.64920
G01 X24.99403 Y25.48260
G01 X24.99365 Y25.48273
G01 X24.99403 Y25.48260
G01 X24.94648 Y25.30508
G01 X24.94608 Y25.30511
G01 X24.94648 Y25.30508
G01 X24.93048 Y25.12192
G01 X24.93010 Y25.12192
G01 X24.93048 Y25.12192
G01 X24.94648 Y24.93884
G01 X24.94608 Y24.93874
G01 X24.94648 Y24.93884
G01 X24.99403 Y24.76132
G01 X24.99365 Y24.76114
G01 X24.99403 Y24.76132
G01 X25.07170 Y24.59472
G01 X25.07143 Y24.59452
G01 X25.07170 Y24.59472
G01 X25.17704 Y24.44399
G01 X25.28854 Y24.33274
G01 X25.30178 Y24.31816
G01 X25.31344 Y24.30239
G01 X25.34031 Y24.26218
G01 X25.35875 Y24.22764
G01 X25.37013 Y24.19010
G01 X25.37963 Y24.14270
G01 X25.38247 Y24.12322
G01 X25.38346 Y24.10366
G01 X25.38346 Y7.13969
G01 X25.38199 Y7.11571
G01 X25.37775 Y7.09209
G01 X25.36373 Y7.03486
G01 X25.35365 Y7.00451
G01 X25.33884 Y6.97616
G01 X25.31981 Y6.95053
G01 X25.28095 Y6.90623
G01 X25.26408 Y6.88919
G01 X25.24529 Y6.87428
G01 X25.14161 Y6.80166
G01 X24.99924 Y6.65932
G01 X24.99891 Y6.65965
G01 X24.99924 Y6.65932
G01 X24.87940 Y6.48810
G01 X24.86447 Y6.46930
G01 X24.84742 Y6.45244
G01 X24.80310 Y6.41355
G01 X24.77742 Y6.39448
G01 X24.74907 Y6.37972
G01 X24.71877 Y6.36969
G01 X24.66149 Y6.35561
G01 X24.62992 Y6.35056
G01 X24.59794 Y6.35056
G01 X24.56637 Y6.35561
G01 X24.50909 Y6.36969
G01 X24.47879 Y6.37972
G01 X24.45045 Y6.39453
G01 X24.42477 Y6.41360
G01 X24.38052 Y6.45244
G01 X24.36348 Y6.46930
G01 X24.34857 Y6.48810
G01 X24.22863 Y6.65932
G01 X24.22893 Y6.65955
G01 X24.22863 Y6.65932
G01 X24.08634 Y6.80166
G01 X24.08654 Y6.80194
G01 X24.08634 Y6.80166
G01 X23.92139 Y6.91713
G01 X23.92159 Y6.91744
G01 X23.92139 Y6.91713
G01 X23.73897 Y7.00220
G01 X23.73909 Y7.00255
G01 X23.73897 Y7.00220
G01 X23.54453 Y7.05432
G01 X23.54453 Y7.05467
G01 X23.54453 Y7.05432
G01 X23.34397 Y7.07187
G01 X23.34397 Y7.07222
G01 X23.34397 Y7.07187
G01 X23.14344 Y7.05432
G01 X23.14334 Y7.05467
G01 X23.14344 Y7.05432
G01 X22.94895 Y7.00220
G01 X22.94885 Y7.00255
G01 X22.94895 Y7.00220
G01 X22.76645 Y6.91713
G01 X22.76627 Y6.91744
G01 X22.76645 Y6.91713
G01 X22.60161 Y6.80166
G01 X22.60133 Y6.80194
G01 X22.60161 Y6.80166
G01 X22.45929 Y6.65932
G01 X22.45901 Y6.65955
G01 X22.45929 Y6.65932
G01 X22.33938 Y6.48810
G01 X22.32447 Y6.46930
G01 X22.30742 Y6.45244
G01 X22.26307 Y6.41355
G01 X22.23747 Y6.39448
G01 X22.20913 Y6.37972
G01 X22.17875 Y6.36969
G01 X22.12155 Y6.35561
G01 X22.08997 Y6.35056
G01 X22.05799 Y6.35056
G01 X22.02642 Y6.35561
G01 X21.96915 Y6.36969
G01 X21.93879 Y6.37972
G01 X21.91045 Y6.39453
G01 X21.88482 Y6.41360
G01 X21.84052 Y6.45244
G01 X21.82345 Y6.46930
G01 X21.80854 Y6.48810
G01 X21.68868 Y6.65932
G01 X21.68891 Y6.65955
G01 X21.68868 Y6.65932
G01 X21.54631 Y6.80166
G01 X21.54652 Y6.80194
G01 X21.54631 Y6.80166
G01 X21.38144 Y6.91713
G01 X21.38157 Y6.91744
G01 X21.38144 Y6.91713
G01 X21.19897 Y7.00220
G01 X21.19907 Y7.00255
G01 X21.19897 Y7.00220
G01 X21.00450 Y7.05432
G01 X21.00458 Y7.05467
G01 X21.00450 Y7.05432
G01 X20.80395 Y7.07187
G01 X20.80395 Y7.07222
G01 X20.80395 Y7.07187
G01 X20.60341 Y7.05432
G01 X20.60331 Y7.05467
G01 X20.60341 Y7.05432
G01 X20.40895 Y7.00220
G01 X20.40885 Y7.00255
G01 X20.40895 Y7.00220
G01 X20.22645 Y6.91713
G01 X20.22632 Y6.91744
G01 X20.22645 Y6.91713
G01 X20.06158 Y6.80166
G01 X20.06138 Y6.80194
G01 X20.06158 Y6.80166
G01 X19.91929 Y6.65932
G01 X19.91901 Y6.65955
G01 X19.91929 Y6.65932
G01 X19.79935 Y6.48810
G01 X19.78447 Y6.46930
G01 X19.76740 Y6.45244
G01 X19.72307 Y6.41355
G01 X19.69747 Y6.39448
G01 X19.66913 Y6.37972
G01 X19.63880 Y6.36969
G01 X19.58155 Y6.35561
G01 X19.54997 Y6.35056
G01 X19.51799 Y6.35056
G01 X19.48642 Y6.35561
G01 X19.42915 Y6.36969
G01 X19.39877 Y6.37972
G01 X19.37042 Y6.39453
G01 X19.34482 Y6.41360
G01 X19.30049 Y6.45244
G01 X19.28343 Y6.46930
G01 X19.26859 Y6.48810
G01 X19.14868 Y6.65932
G01 X19.14888 Y6.65955
G01 X19.14868 Y6.65932
G01 X19.00629 Y6.80166
G01 X19.00657 Y6.80194
G01 X19.00629 Y6.80166
G01 X18.84144 Y6.91713
G01 X18.84162 Y6.91744
G01 X18.84144 Y6.91713
G01 X18.65894 Y7.00220
G01 X18.65904 Y7.00255
G01 X18.65894 Y7.00220
G01 X18.46448 Y7.05432
G01 X18.46458 Y7.05467
G01 X18.46448 Y7.05432
G01 X18.26395 Y7.07187
G01 X18.26395 Y7.07222
G01 X18.26395 Y7.07187
G01 X18.06339 Y7.05432
G01 X18.06336 Y7.05467
G01 X18.06339 Y7.05432
G01 X17.86893 Y7.00220
G01 X17.86882 Y7.00255
G01 X17.86893 Y7.00220
G01 X17.68650 Y6.91713
G01 X17.68632 Y6.91744
G01 X17.68650 Y6.91713
G01 X17.52158 Y6.80166
G01 X17.52138 Y6.80194
G01 X17.52158 Y6.80166
G01 X17.37929 Y6.65932
G01 X17.37898 Y6.65955
G01 X17.37929 Y6.65932
G01 X17.25935 Y6.48810
G01 X17.24444 Y6.46930
G01 X17.22737 Y6.45244
G01 X17.18305 Y6.41355
G01 X17.15745 Y6.39448
G01 X17.12910 Y6.37972
G01 X17.09880 Y6.36969
G01 X17.04155 Y6.35561
G01 X17.00995 Y6.35056
G01 X16.97799 Y6.35056
G01 X16.94642 Y6.35561
G01 X16.88915 Y6.36969
G01 X16.85882 Y6.37972
G01 X16.83040 Y6.39453
G01 X16.80479 Y6.41360
G01 X16.76047 Y6.45244
G01 X16.74348 Y6.46930
G01 X16.72859 Y6.48810
G01 X16.60868 Y6.65932
G01 X16.60893 Y6.65955
G01 X16.60868 Y6.65932
G01 X16.46629 Y6.80166
G01 X16.46657 Y6.80194
G01 X16.46629 Y6.80166
G01 X16.30144 Y6.91713
G01 X16.30162 Y6.91744
G01 X16.30144 Y6.91713
G01 X16.11892 Y7.00220
G01 X16.11909 Y7.00255
G01 X16.11892 Y7.00220
G01 X15.92453 Y7.05432
G01 X15.92456 Y7.05467
G01 X15.92453 Y7.05432
G01 X15.72400 Y7.07187
G01 X15.72400 Y7.07222
G01 X15.72400 Y7.07187
G01 X15.52344 Y7.05432
G01 X15.52336 Y7.05467
G01 X15.52344 Y7.05432
G01 X15.32898 Y7.00220
G01 X15.32880 Y7.00255
G01 X15.32898 Y7.00220
G01 X15.14650 Y6.91713
G01 X15.14630 Y6.91744
G01 X15.14650 Y6.91713
G01 X14.98156 Y6.80166
G01 X14.98135 Y6.80194
G01 X14.98156 Y6.80166
G01 X14.83926 Y6.65932
G01 X14.83896 Y6.65955
G01 X14.83926 Y6.65932
G01 X14.71902 Y6.48764
G01 X14.70411 Y6.46887
G01 X14.68707 Y6.45201
G01 X14.64280 Y6.41312
G01 X14.61714 Y6.39404
G01 X14.58879 Y6.37929
G01 X14.55849 Y6.36923
G01 X14.50122 Y6.35521
G01 X14.46964 Y6.35015
G01 X14.43766 Y6.35015
G01 X14.40609 Y6.35521
G01 X14.34882 Y6.36923
G01 X14.31851 Y6.37929
G01 X14.29497 Y6.39155
G01 X14.29098 Y6.40552
G01 X14.29497 Y6.39155
G01 X14.17063 Y6.26725
G01 X14.15484 Y6.27134
G01 X14.17063 Y6.26725
G01 X14.20899 Y6.14088
G01 X14.21379 Y6.12183
G01 X14.21663 Y6.10238
G01 X14.23302 Y5.93654
G01 X14.23398 Y5.91693
G01 X14.23302 Y5.89732
G01 X14.21663 Y5.73151
G01 X14.21379 Y5.71213
G01 X14.20899 Y5.69311
G01 X14.17063 Y5.56661
G01 X14.15476 Y5.56263
G01 X14.17063 Y5.56661
G01 X14.29497 Y5.44238
G01 X14.29098 Y5.42836
G01 X14.29497 Y5.44238
G01 X14.31851 Y5.45460
G01 X14.34882 Y5.46471
G01 X14.40609 Y5.47873
G01 X14.43766 Y5.48381
G01 X14.46964 Y5.48381
G01 X14.50122 Y5.47873
G01 X14.55849 Y5.46471
G01 X14.58879 Y5.45460
G01 X14.61714 Y5.43984
G01 X14.64280 Y5.42077
G01 X14.68707 Y5.38190
G01 X14.70411 Y5.36504
G01 X14.71910 Y5.34627
G01 X14.83926 Y5.17456
G01 X14.83896 Y5.17439
G01 X14.83926 Y5.17456
G01 X14.98156 Y5.03222
G01 X14.98135 Y5.03202
G01 X14.98156 Y5.03222
G01 X15.15285 Y4.91231
G01 X15.17160 Y4.89745
G01 X15.18846 Y4.88041
G01 X15.22738 Y4.83608
G01 X15.24643 Y4.81046
G01 X15.26121 Y4.78206
G01 X15.27124 Y4.75173
G01 X15.28526 Y4.69448
G01 X15.29037 Y4.66291
G01 X15.29037 Y4.63098
G01 X15.28526 Y4.59936
G01 X15.27124 Y4.54216
G01 X15.26121 Y4.51183
G01 X15.24643 Y4.48348
G01 X15.22738 Y4.45780
G01 X15.18846 Y4.41348
G01 X15.17160 Y4.39644
G01 X15.15278 Y4.38150
G01 X14.98143 Y4.26184
G01 X14.83926 Y4.11927
G01 X14.83896 Y4.11950
G01 X14.83926 Y4.11927
G01 X14.71940 Y3.94805
G01 X14.70442 Y3.92930
G01 X14.68742 Y3.91244
G01 X14.64310 Y3.87353
G01 X14.61742 Y3.85445
G01 X14.58910 Y3.83969
G01 X14.55880 Y3.82963
G01 X14.50152 Y3.81561
G01 X14.46995 Y3.81053
G01 X14.43797 Y3.81053
G01 X14.40640 Y3.81561
G01 X14.34912 Y3.82963
G01 X14.31882 Y3.83969
G01 X14.29045 Y3.85448
G01 X14.26479 Y3.87360
G01 X14.22047 Y3.91246
G01 X14.20348 Y3.92933
G01 X14.18859 Y3.94805
G01 X14.06865 Y4.11927
G01 X14.06893 Y4.11950
G01 X14.06865 Y4.11927
G01 X13.92634 Y4.26164
G01 X13.92657 Y4.26189
G01 X13.92634 Y4.26164
G01 X13.75463 Y4.38186
G01 X13.73581 Y4.39679
G01 X13.71895 Y4.41383
G01 X13.68011 Y4.45816
G01 X13.66106 Y4.48373
G01 X13.64628 Y4.51208
G01 X13.63624 Y4.54241
G01 X13.62222 Y4.59971
G01 X13.61714 Y4.63123
G01 X13.61714 Y4.66326
G01 X13.62222 Y4.69483
G01 X13.63624 Y4.75211
G01 X13.64628 Y4.78244
G01 X13.65855 Y4.80593
G01 X13.67254 Y4.80995
G01 X13.65855 Y4.80593
G01 X13.53429 Y4.93029
G01 X13.53830 Y4.94553
G01 X13.53429 Y4.93029
G01 X13.40787 Y4.89189
G01 X13.36942 Y4.88424
G01 X13.20358 Y4.86791
G01 X13.16439 Y4.86791
G01 X12.99855 Y4.88424
G01 X12.96010 Y4.89189
G01 X12.83368 Y4.93029
G01 X12.82967 Y4.94553
G01 X12.83368 Y4.93029
G01 X12.70935 Y4.80593
G01 X12.69540 Y4.80995
G01 X12.70935 Y4.80593
G01 X12.72162 Y4.78244
G01 X12.73170 Y4.75211
G01 X12.74572 Y4.69483
G01 X12.75080 Y4.66326
G01 X12.75080 Y4.63123
G01 X12.74572 Y4.59971
G01 X12.73170 Y4.54241
G01 X12.72162 Y4.51208
G01 X12.70688 Y4.48373
G01 X12.68781 Y4.45816
G01 X12.64892 Y4.41383
G01 X12.63205 Y4.39679
G01 X12.61323 Y4.38186
G01 X12.44161 Y4.26164
G01 X12.44135 Y4.26189
G01 X12.44161 Y4.26164
G01 X12.29926 Y4.11927
G01 X12.29906 Y4.11947
G01 X12.29926 Y4.11927
G01 X12.17938 Y3.94805
G01 X12.16447 Y3.92930
G01 X12.14740 Y3.91244
G01 X12.10307 Y3.87353
G01 X12.07745 Y3.85445
G01 X12.04910 Y3.83969
G01 X12.01880 Y3.82963
G01 X11.96152 Y3.81561
G01 X11.92995 Y3.81053
G01 X11.89797 Y3.81053
G01 X11.86640 Y3.81561
G01 X11.80912 Y3.82963
G01 X11.77882 Y3.83969
G01 X11.75045 Y3.85448
G01 X11.72479 Y3.87360
G01 X11.68052 Y3.91246
G01 X11.66345 Y3.92933
G01 X11.64859 Y3.94805
G01 X11.52865 Y4.11927
G01 X11.52886 Y4.11945
G01 X11.52865 Y4.11927
G01 X11.38631 Y4.26164
G01 X11.38657 Y4.26189
G01 X11.38631 Y4.26164
G01 X11.21509 Y4.38150
G01 X11.19627 Y4.39644
G01 X11.17940 Y4.41348
G01 X11.14057 Y4.45780
G01 X11.12149 Y4.48348
G01 X11.10673 Y4.51183
G01 X11.09668 Y4.54216
G01 X11.08265 Y4.59936
G01 X11.07755 Y4.63098
G01 X11.07755 Y4.66291
G01 X11.08265 Y4.69448
G01 X11.09668 Y4.75176
G01 X11.10673 Y4.78208
G01 X11.12149 Y4.81051
G01 X11.14057 Y4.83613
G01 X11.17945 Y4.88043
G01 X11.19632 Y4.89748
G01 X11.21509 Y4.91231
G01 X11.38631 Y5.03222
G01 X11.38652 Y5.03207
G01 X11.38631 Y5.03222
G01 X11.52865 Y5.17456
G01 X11.52891 Y5.17439
G01 X11.52865 Y5.17456
G01 X11.64890 Y5.34629
G01 X11.66378 Y5.36501
G01 X11.68080 Y5.38188
G01 X11.72512 Y5.42074
G01 X11.75073 Y5.43982
G01 X11.77912 Y5.45460
G01 X11.80943 Y5.46471
G01 X11.86670 Y5.47873
G01 X11.89827 Y5.48381
G01 X11.93028 Y5.48381
G01 X11.96183 Y5.47873
G01 X12.01908 Y5.46471
G01 X12.04943 Y5.45460
G01 X12.07298 Y5.44238
G01 X12.07694 Y5.42836
G01 X12.07298 Y5.44238
G01 X12.19728 Y5.56664
G01 X12.21316 Y5.56265
G01 X12.19728 Y5.56664
G01 X12.15893 Y5.69311
G01 X12.15413 Y5.71213
G01 X12.15128 Y5.73151
G01 X12.13495 Y5.89732
G01 X12.13495 Y5.93654
G01 X12.15128 Y6.10238
G01 X12.15413 Y6.12183
G01 X12.15893 Y6.14088
G01 X12.19728 Y6.26722
G01 X12.21311 Y6.27131
G01 X12.19728 Y6.26722
G01 X12.07298 Y6.39155
G01 X12.07694 Y6.40552
G01 X12.07298 Y6.39155
G01 X12.04943 Y6.37929
G01 X12.01908 Y6.36923
G01 X11.96183 Y6.35521
G01 X11.93028 Y6.35015
G01 X11.89827 Y6.35015
G01 X11.86670 Y6.35521
G01 X11.80943 Y6.36923
G01 X11.77912 Y6.37929
G01 X11.75073 Y6.39409
G01 X11.72512 Y6.41317
G01 X11.68080 Y6.45201
G01 X11.66378 Y6.46887
G01 X11.64890 Y6.48764
G01 X11.52865 Y6.65932
G01 X11.52891 Y6.65955
G01 X11.52865 Y6.65932
G01 X11.38631 Y6.80166
G01 X11.38657 Y6.80194
G01 X11.38631 Y6.80166
G01 X11.22142 Y6.91713
G01 X11.22162 Y6.91744
G01 X11.22142 Y6.91713
G01 X11.03897 Y7.00220
G01 X11.03907 Y7.00255
G01 X11.03897 Y7.00220
G01 X10.84450 Y7.05432
G01 X10.84456 Y7.05467
G01 X10.84450 Y7.05432
G01 X10.64400 Y7.07187
G01 X10.64400 Y7.07222
G01 X10.64400 Y7.07187
G01 X10.44341 Y7.05432
G01 X10.44336 Y7.05467
G01 X10.44341 Y7.05432
G01 X10.24898 Y7.00220
G01 X10.24885 Y7.00255
G01 X10.24898 Y7.00220
G01 X10.06648 Y6.91713
G01 X10.06630 Y6.91744
G01 X10.06648 Y6.91713
G01 X9.90158 Y6.80166
G01 X9.90135 Y6.80194
G01 X9.90158 Y6.80166
G01 X9.75929 Y6.65932
G01 X9.75901 Y6.65955
G01 X9.75929 Y6.65932
G01 X9.63940 Y6.48810
G01 X9.62444 Y6.46930
G01 X9.60740 Y6.45244
G01 X9.56310 Y6.41355
G01 X9.53747 Y6.39448
G01 X9.50912 Y6.37972
G01 X9.47877 Y6.36969
G01 X9.42155 Y6.35561
G01 X9.38997 Y6.35056
G01 X9.35799 Y6.35056
G01 X9.32642 Y6.35561
G01 X9.26915 Y6.36969
G01 X9.23877 Y6.37972
G01 X9.21042 Y6.39453
G01 X9.18482 Y6.41360
G01 X9.14049 Y6.45244
G01 X9.12348 Y6.46930
G01 X9.10857 Y6.48810
G01 X8.98868 Y6.65932
G01 X8.98893 Y6.65955
G01 X8.98868 Y6.65932
G01 X8.84634 Y6.80166
G01 X8.84654 Y6.80194
G01 X8.84634 Y6.80166
G01 X8.68144 Y6.91713
G01 X8.68159 Y6.91744
G01 X8.68144 Y6.91713
G01 X8.49894 Y7.00220
G01 X8.49909 Y7.00255
G01 X8.49894 Y7.00220
G01 X8.30453 Y7.05432
G01 X8.30458 Y7.05467
G01 X8.30453 Y7.05432
G01 X8.10397 Y7.07187
G01 X8.10397 Y7.07222
G01 X8.10397 Y7.07187
G01 X7.90344 Y7.05432
G01 X7.90334 Y7.05467
G01 X7.90344 Y7.05432
G01 X7.70898 Y7.00220
G01 X7.70882 Y7.00255
G01 X7.70898 Y7.00220
G01 X7.52648 Y6.91713
G01 X7.52632 Y6.91744
G01 X7.52648 Y6.91713
G01 X7.36161 Y6.80166
G01 X7.36138 Y6.80194
G01 X7.36161 Y6.80166
G01 X7.21926 Y6.65932
G01 X7.21898 Y6.65955
G01 X7.21926 Y6.65932
G01 X7.09938 Y6.48810
G01 X7.08444 Y6.46930
G01 X7.06742 Y6.45244
G01 X7.02310 Y6.41355
G01 X6.99745 Y6.39448
G01 X6.96910 Y6.37972
G01 X6.93880 Y6.36969
G01 X6.88152 Y6.35561
G01 X6.84995 Y6.35056
G01 X6.81799 Y6.35056
G01 X6.78640 Y6.35561
G01 X6.72915 Y6.36969
G01 X6.69879 Y6.37972
G01 X6.67045 Y6.39453
G01 X6.64479 Y6.41360
G01 X6.60052 Y6.45244
G01 X6.58345 Y6.46930
G01 X6.56859 Y6.48810
G01 X6.44868 Y6.65932
G01 X6.44891 Y6.65955
G01 X6.44868 Y6.65932
G01 X6.30634 Y6.80166
G01 X6.30657 Y6.80194
G01 X6.30634 Y6.80166
G01 X6.14144 Y6.91713
G01 X6.14162 Y6.91744
G01 X6.14144 Y6.91713
G01 X5.95897 Y7.00220
G01 X5.95909 Y7.00255
G01 X5.95897 Y7.00220
G01 X5.76453 Y7.05432
G01 X5.76456 Y7.05467
G01 X5.76453 Y7.05432
G01 X5.56392 Y7.07187
G01 X5.56392 Y7.07222
G01 X5.56392 Y7.07187
G01 X5.36344 Y7.05432
G01 X5.36336 Y7.05467
G01 X5.36344 Y7.05432
G01 X5.16893 Y7.00220
G01 X5.16885 Y7.00255
G01 X5.16893 Y7.00220
G01 X4.98645 Y6.91713
G01 X4.98630 Y6.91744
G01 X4.98645 Y6.91713
G01 X4.82155 Y6.80166
G01 X4.82135 Y6.80194
G01 X4.82155 Y6.80166
G01 X4.67924 Y6.65932
G01 X4.67896 Y6.65955
G01 X4.67924 Y6.65932
G01 X4.56382 Y6.49437
G01 X4.56344 Y6.49460
G01 X4.56382 Y6.49437
G01 X4.47873 Y6.31198
G01 X4.47832 Y6.31210
G01 X4.47873 Y6.31198
G01 X4.42659 Y6.11751
G01 X4.42625 Y6.11759
G01 X4.42659 Y6.11751
G01 X4.40903 Y5.91690
G01 X4.40870 Y5.91690
G01 X4.40903 Y5.91690
G01 X4.42659 Y5.71642
G01 X4.42625 Y5.71637
G01 X4.42659 Y5.71642
G01 X4.47873 Y5.52199
G01 X4.47832 Y5.52186
G01 X4.47873 Y5.52199
G01 X4.56382 Y5.33946
G01 X4.56344 Y5.33933
G01 X4.56382 Y5.33946
G01 X4.67921 Y5.17456
G01 X4.67896 Y5.17436
G01 X4.67921 Y5.17456
G01 X4.82155 Y5.03222
G01 X4.82135 Y5.03202
G01 X4.82155 Y5.03222
G01 X4.99280 Y4.91231
G01 X5.01165 Y4.89745
G01 X5.02851 Y4.88041
G01 X5.06738 Y4.83608
G01 X5.08640 Y4.81046
G01 X5.10121 Y4.78206
G01 X5.11122 Y4.75173
G01 X5.12524 Y4.69448
G01 X5.13032 Y4.66291
G01 X5.13032 Y4.63098
G01 X5.12524 Y4.59936
G01 X5.11122 Y4.54216
G01 X5.10121 Y4.51183
G01 X5.08640 Y4.48348
G01 X5.06738 Y4.45780
G01 X5.02851 Y4.41348
G01 X5.01165 Y4.39644
G01 X4.99278 Y4.38150
G01 X4.82155 Y4.26164
G01 X4.82135 Y4.26189
G01 X4.82155 Y4.26164
G01 X4.67924 Y4.11927
G01 X4.67896 Y4.11952
G01 X4.67924 Y4.11927
G01 X4.56382 Y3.95435
G01 X4.56344 Y3.95455
G01 X4.56382 Y3.95435
G01 X4.47873 Y3.77193
G01 X4.47832 Y3.77210
G01 X4.47873 Y3.77193
G01 X4.42659 Y3.57746
G01 X4.42625 Y3.57759
G01 X4.42659 Y3.57746
G01 X4.40903 Y3.37696
G01 X4.51490 Y3.37696
G01 X4.61399 Y3.37696
G01 X4.61447 Y3.38679
G01 X4.63080 Y3.55257
G01 X4.63459 Y3.57180
G01 X4.68300 Y3.73129
G01 X4.69044 Y3.74934
G01 X4.76905 Y3.89636
G01 X4.77408 Y3.90477
G01 X4.77987 Y3.91267
G01 X4.88559 Y4.04147
G01 X4.89224 Y4.04873
G01 X4.89951 Y4.05529
G01 X5.02831 Y4.16098
G01 X5.04462 Y4.17192
G01 X5.19151 Y4.25044
G01 X5.20045 Y4.25463
G01 X5.20967 Y4.25798
G01 X5.36908 Y4.30629
G01 X5.38831 Y4.31018
G01 X5.55419 Y4.32648
G01 X5.56395 Y4.32699
G01 X5.57375 Y4.32648
G01 X5.73961 Y4.31018
G01 X5.75884 Y4.30629
G01 X5.91825 Y4.25798
G01 X5.92750 Y4.25463
G01 X5.93641 Y4.25044
G01 X6.08330 Y4.17192
G01 X6.09961 Y4.16098
G01 X6.22841 Y4.05529
G01 X6.23570 Y4.04873
G01 X6.24233 Y4.04147
G01 X6.34804 Y3.91267
G01 X6.35894 Y3.89636
G01 X6.43748 Y3.74934
G01 X6.44164 Y3.74053
G01 X6.44495 Y3.73129
G01 X6.49333 Y3.57180
G01 X6.49717 Y3.55257
G01 X6.51350 Y3.38679
G01 X6.51398 Y3.37696
G01 X6.51350 Y3.36713
G01 X6.49717 Y3.20137
G01 X6.49333 Y3.18214
G01 X6.44495 Y3.02263
G01 X6.43748 Y3.00457
G01 X6.35894 Y2.85760
G01 X6.34804 Y2.84132
G01 X6.24233 Y2.71247
G01 X6.23570 Y2.70523
G01 X6.22841 Y2.69862
G01 X6.09961 Y2.59288
G01 X6.08330 Y2.58199
G01 X5.93641 Y2.50345
G01 X5.92750 Y2.49926
G01 X5.91825 Y2.49596
G01 X5.75884 Y2.44762
G01 X5.73961 Y2.44381
G01 X5.57375 Y2.42748
G01 X5.56395 Y2.42694
G01 X5.55419 Y2.42748
G01 X5.38831 Y2.44381
G01 X5.36908 Y2.44762
G01 X5.20967 Y2.49596
G01 X5.19151 Y2.50345
G01 X5.04462 Y2.58199
G01 X5.03618 Y2.58709
G01 X5.02831 Y2.59288
G01 X4.89951 Y2.69862
G01 X4.89224 Y2.70523
G01 X4.88559 Y2.71247
G01 X4.77987 Y2.84132
G01 X4.77408 Y2.84914
G01 X4.76905 Y2.85760
G01 X4.69044 Y3.00457
G01 X4.68300 Y3.02263
G01 X4.63459 Y3.18214
G01 X4.63080 Y3.20137
G01 X4.61447 Y3.36713
G01 X4.61399 Y3.37696
G01 X4.51490 Y3.35732
G01 X4.53128 Y3.19156
G01 X4.53415 Y3.17208
G01 X4.53888 Y3.15305
G01 X4.58729 Y2.99364
G01 X4.60225 Y2.95737
G01 X4.68086 Y2.81043
G01 X4.70263 Y2.77787
G01 X4.80835 Y2.64902
G01 X4.81693 Y2.63954
G01 X4.82653 Y2.62989
G01 X4.83606 Y2.62136
G01 X4.96486 Y2.51564
G01 X4.97639 Y2.50708
G01 X4.98348 Y2.50220
G01 X4.99748 Y2.49385
G01 X5.14436 Y2.41526
G01 X5.18066 Y2.40030
G01 X5.34010 Y2.35189
G01 X5.35915 Y2.34716
G01 X5.37850 Y2.34429
G01 X5.54439 Y2.32791
G01 X5.56395 Y2.32700
G01 X5.58353 Y2.32791
G01 X5.74942 Y2.34429
G01 X5.76877 Y2.34716
G01 X5.78782 Y2.35189
G01 X5.94728 Y2.40030
G01 X5.98355 Y2.41526
G01 X6.13044 Y2.49385
G01 X6.14426 Y2.50205
G01 X6.15183 Y2.50726
G01 X6.16306 Y2.51564
G01 X6.29186 Y2.62136
G01 X6.30105 Y2.62964
G01 X6.31129 Y2.63982
G01 X6.31957 Y2.64902
G01 X6.42534 Y2.77787
G01 X6.44710 Y2.81043
G01 X6.52564 Y2.95737
G01 X6.53402 Y2.97518
G01 X6.54065 Y2.99364
G01 X6.58904 Y3.15305
G01 X6.59666 Y3.19156
G01 X6.61302 Y3.35732
G01 X6.61396 Y3.37696
G01 X6.61302 Y3.39659
G01 X6.59666 Y3.56238
G01 X6.58904 Y3.60088
G01 X6.54065 Y3.76032
G01 X6.52564 Y3.79649
G01 X6.44710 Y3.94350
G01 X6.42534 Y3.97609
G01 X6.31957 Y4.10492
G01 X6.30644 Y4.11940
G01 X6.29186 Y4.13263
G01 X6.16306 Y4.23835
G01 X6.13044 Y4.26011
G01 X5.98355 Y4.33862
G01 X5.96575 Y4.34701
G01 X5.94728 Y4.35366
G01 X5.78782 Y4.40200
G01 X5.74942 Y4.40967
G01 X5.58353 Y4.42598
G01 X5.54439 Y4.42598
G01 X5.37850 Y4.40967
G01 X5.35915 Y4.40682
G01 X5.34010 Y4.40200
G01 X5.18066 Y4.35366
G01 X5.14436 Y4.33862
G01 X4.99748 Y4.26011
G01 X4.96486 Y4.23835
G01 X4.83606 Y4.13263
G01 X4.82694 Y4.12430
G01 X4.81658 Y4.11404
G01 X4.80835 Y4.10492
G01 X4.70263 Y3.97609
G01 X4.68086 Y3.94350
G01 X4.60225 Y3.79649
G01 X4.58729 Y3.76032
G01 X4.53888 Y3.60088
G01 X4.53415 Y3.58183
G01 X4.53128 Y3.56238
G01 X4.51490 Y3.39659
G01 X4.51490 Y3.37696
G01 X4.51490 Y3.35732
G04 P0 ( dwell for no time -- G64 should not smooth over this point )
G00 Z5.00000 ( retract )

G00 X4.51399 Y5.91693 ( rapid move to begin. )
G01 F150.00000
( Mill infeed pass 1/1 )
G01 Z-0.05000
G04 P0 ( dwell for no time -- G64 should not smooth over this point )
G01 F300.00000
G01 X4.51399 Y5.91693
G01 X4.51490 Y5.93654
G01 X4.53128 Y6.10238
G01 X4.53415 Y6.12183
G01 X4.53888 Y6.14088
G01 X4.58729 Y6.30029
G01 X4.60225 Y6.33649
G01 X4.68086 Y6.48348
G01 X4.68889 Y6.49696
G01 X4.69455 Y6.50524
G01 X4.70263 Y6.51609
G01 X4.80835 Y6.64489
G01 X4.81658 Y6.65401
G01 X4.82694 Y6.66432
G01 X4.83606 Y6.67261
G01 X4.96486 Y6.77832
G01 X4.99748 Y6.80009
G01 X5.14436 Y6.87865
G01 X5.18066 Y6.89364
G01 X5.34010 Y6.94205
G01 X5.35915 Y6.94680
G01 X5.37850 Y6.94969
G01 X5.54439 Y6.96603
G01 X5.56395 Y6.96699
G01 X5.58353 Y6.96603
G01 X5.74942 Y6.94969
G01 X5.78782 Y6.94205
G01 X5.94728 Y6.89364
G01 X5.98355 Y6.87865
G01 X6.13044 Y6.80009
G01 X6.16306 Y6.77832
G01 X6.29186 Y6.67261
G01 X6.30075 Y6.66460
G01 X6.31157 Y6.65373
G01 X6.31957 Y6.64489
G01 X6.42534 Y6.51609
G01 X6.44710 Y6.48348
G01 X6.52564 Y6.33649
G01 X6.54065 Y6.30029
G01 X6.58904 Y6.14088
G01 X6.59666 Y6.10238
G01 X6.61302 Y5.93654
G01 X6.61396 Y5.91693
G01 X6.61302 Y5.89732
G01 X6.59666 Y5.73151
G01 X6.58904 Y5.69311
G01 X6.54065 Y5.53359
G01 X6.52564 Y5.49737
G01 X6.44710 Y5.35048
G01 X6.42534 Y5.31782
G01 X6.31957 Y5.18907
G01 X6.30644 Y5.17451
G01 X6.29186 Y5.16131
G01 X6.16306 Y5.05559
G01 X6.13044 Y5.03380
G01 X5.98355 Y4.95529
G01 X5.96575 Y4.94685
G01 X5.94728 Y4.94030
G01 X5.78782 Y4.89189
G01 X5.76877 Y4.88711
G01 X5.74942 Y4.88424
G01 X5.58353 Y4.86791
G01 X5.56395 Y4.86700
G01 X5.54439 Y4.86791
G01 X5.37850 Y4.88424
G01 X5.35915 Y4.88711
G01 X5.34010 Y4.89189
G01 X5.18066 Y4.94030
G01 X5.14436 Y4.95529
G01 X4.99748 Y5.03380
G01 X4.96486 Y5.05559
G01 X4.83606 Y5.16131
G01 X4.82653 Y5.16989
G01 X4.81693 Y5.17954
G01 X4.80835 Y5.18907
G01 X4.70263 Y5.31782
G01 X4.68086 Y5.35048
G01 X4.60225 Y5.49737
G01 X4.58729 Y5.53359
G01 X4.53888 Y5.69311
G01 X4.53415 Y5.71213
G01 X4.53128 Y5.73151
G01 X4.51490 Y5.89732
G01 X4.51399 Y5.91693
G01 X4.61399 Y5.91693
G01 X4.61447 Y5.90713
G01 X4.63080 Y5.74131
G01 X4.63459 Y5.72214
G01 X4.68300 Y5.56268
G01 X4.69044 Y5.54457
G01 X4.76905 Y5.39755
G01 X4.77408 Y5.38919
G01 X4.77987 Y5.38127
G01 X4.88559 Y5.25252
G01 X4.89224 Y5.24518
G01 X4.89951 Y5.23865
G01 X5.02831 Y5.13293
G01 X5.03618 Y5.12709
G01 X5.04462 Y5.12204
G01 X5.19151 Y5.04345
G01 X5.20967 Y5.03596
G01 X5.36908 Y4.98762
G01 X5.38831 Y4.98376
G01 X5.55419 Y4.96743
G01 X5.56395 Y4.96700
G01 X5.57375 Y4.96743
G01 X5.73961 Y4.98376
G01 X5.75884 Y4.98762
G01 X5.91825 Y5.03596
G01 X5.92750 Y5.03926
G01 X5.93641 Y5.04345
G01 X6.08330 Y5.12204
G01 X6.09961 Y5.13293
G01 X6.22841 Y5.23865
G01 X6.23570 Y5.24518
G01 X6.24233 Y5.25252
G01 X6.34804 Y5.38127
G01 X6.35894 Y5.39755
G01 X6.43748 Y5.54457
G01 X6.44164 Y5.55343
G01 X6.44495 Y5.56268
G01 X6.49333 Y5.72214
G01 X6.49717 Y5.74131
G01 X6.51350 Y5.90713
G01 X6.51398 Y5.91693
G01 X6.51350 Y5.92673
G01 X6.49717 Y6.09257
G01 X6.49333 Y6.11185
G01 X6.44495 Y6.27129
G01 X6.44164 Y6.28053
G01 X6.43748 Y6.28940
G01 X6.35894 Y6.43636
G01 X6.34804 Y6.45264
G01 X6.24233 Y6.58144
G01 X6.23570 Y6.58871
G01 X6.22841 Y6.59529
G01 X6.09961 Y6.70100
G01 X6.08330 Y6.71192
G01 X5.93641 Y6.79049
G01 X5.91825 Y6.79798
G01 X5.75884 Y6.84632
G01 X5.74926 Y6.84873
G01 X5.73961 Y6.85015
G01 X5.57375 Y6.86648
G01 X5.56395 Y6.86697
G01 X5.55419 Y6.86648
G01 X5.38831 Y6.85015
G01 X5.37865 Y6.84873
G01 X5.36908 Y6.84632
G01 X5.20967 Y6.79798
G01 X5.19151 Y6.79049
G01 X5.04462 Y6.71192
G01 X5.02831 Y6.70100
G01 X4.89951 Y6.59529
G01 X4.88559 Y6.58144
G01 X4.77987 Y6.45264
G01 X4.77408 Y6.44474
G01 X4.76905 Y6.43636
G01 X4.69044 Y6.28940
G01 X4.68300 Y6.27129
G01 X4.63459 Y6.11185
G01 X4.63080 Y6.09257
G01 X4.61447 Y5.92673
G01 X4.61399 Y5.91693
G04 P0 ( dwell for no time -- G64 should not smooth over this point )
G00 Z5.00000 ( retract )

G00 X2.39588 Y10.06145 ( rapid move to begin. )
G01 F150.00000
( Mill infeed pass 1/1 )
G01 Z-0.05000
G04 P0 ( dwell for no time -- G64 should not smooth over this point )
G01 F300.00000
G01 X2.39588 Y10.06145
G01 X2.42407 Y10.30557
G01 X2.48925 Y10.54255
G01 X2.58971 Y10.76678
G01 X2.72331 Y10.97310
G01 X2.88684 Y11.15654
G01 X3.07647 Y11.31291
G01 X3.28767 Y11.43848
G01 X3.51564 Y11.53038
G01 X3.75488 Y11.58636
G01 X3.93863 Y11.60043
G01 X4.12280 Y11.60043
G01 X4.36573 Y11.56297
G01 X4.59999 Y11.48880
G01 X4.82023 Y11.37973
G01 X5.02128 Y11.23838
G01 X5.19836 Y11.06795
G01 X5.34728 Y10.87250
G01 X5.46473 Y10.65660
G01 X5.54779 Y10.42530
G01 X5.59460 Y10.18408
G01 X5.60395 Y9.93846
G01 X5.57576 Y9.69432
G01 X5.51068 Y9.45739
G01 X5.41012 Y9.23313
G01 X5.27657 Y9.02683
G01 X5.11307 Y8.84339
G01 X4.92349 Y8.68703
G01 X4.71218 Y8.56140
G01 X4.48429 Y8.46958
G01 X4.24497 Y8.41357
G01 X4.06133 Y8.39945
G01 X3.87706 Y8.39945
G01 X3.63421 Y8.43697
G01 X3.39994 Y8.51111
G01 X3.17962 Y8.62020
G01 X2.97868 Y8.76153
G01 X2.80154 Y8.93196
G01 X2.65257 Y9.12744
G01 X2.53517 Y9.34334
G01 X2.45214 Y9.57463
G01 X2.40535 Y9.81588
G01 X2.39588 Y10.06145
G01 X2.49585 Y10.05761
G01 X2.49616 Y10.05761
G01 X2.50500 Y9.82736
G01 X2.50469 Y9.82736
G01 X2.50500 Y9.82736
G01 X2.54884 Y9.60120
G01 X2.54851 Y9.60112
G01 X2.54884 Y9.60120
G01 X2.62674 Y9.38433
G01 X2.62641 Y9.38423
G01 X2.62674 Y9.38433
G01 X2.73675 Y9.18192
G01 X2.73655 Y9.18177
G01 X2.73675 Y9.18192
G01 X2.87647 Y8.99869
G01 X2.87625 Y8.99848
G01 X2.87647 Y8.99869
G01 X3.04249 Y8.83895
G01 X3.04229 Y8.83869
G01 X3.04249 Y8.83895
G01 X3.23093 Y8.70641
G01 X3.23078 Y8.70615
G01 X3.23093 Y8.70641
G01 X3.43743 Y8.60412
G01 X3.43731 Y8.60387
G01 X3.43743 Y8.60412
G01 X3.65702 Y8.53463
G01 X3.65694 Y8.53435
G01 X3.65702 Y8.53463
G01 X3.88473 Y8.49948
G01 X3.88470 Y8.49899
G01 X3.88473 Y8.49948
G01 X4.05745 Y8.49948
G01 X4.22971 Y8.51268
G01 X4.22976 Y8.51223
G01 X4.22971 Y8.51268
G01 X4.45404 Y8.56518
G01 X4.45409 Y8.56493
G01 X4.45404 Y8.56518
G01 X4.66768 Y8.65129
G01 X4.66783 Y8.65104
G01 X4.66768 Y8.65129
G01 X4.86575 Y8.76907
G01 X4.86590 Y8.76882
G01 X4.86575 Y8.76907
G01 X5.04347 Y8.91563
G01 X5.04368 Y8.91543
G01 X5.04347 Y8.91563
G01 X5.19681 Y9.08764
G01 X5.19704 Y9.08748
G01 X5.19681 Y9.08764
G01 X5.32201 Y9.28103
G01 X5.32232 Y9.28088
G01 X5.32201 Y9.28103
G01 X5.41630 Y9.49127
G01 X5.41652 Y9.49117
G01 X5.41630 Y9.49127
G01 X5.47736 Y9.71344
G01 X5.47764 Y9.71339
G01 X5.47736 Y9.71344
G01 X5.50372 Y9.94232
G01 X5.50403 Y9.94232
G01 X5.50372 Y9.94232
G01 X5.49496 Y10.17255
G01 X5.49526 Y10.17260
G01 X5.49496 Y10.17255
G01 X5.45104 Y10.39873
G01 X5.45137 Y10.39884
G01 X5.45104 Y10.39873
G01 X5.37322 Y10.61560
G01 X5.37345 Y10.61570
G01 X5.37322 Y10.61560
G01 X5.26316 Y10.81801
G01 X5.26336 Y10.81816
G01 X5.26316 Y10.81801
G01 X5.12348 Y11.00120
G01 X5.12369 Y11.00140
G01 X5.12348 Y11.00120
G01 X4.95742 Y11.16101
G01 X4.95760 Y11.16124
G01 X4.95742 Y11.16101
G01 X4.76903 Y11.29355
G01 X4.76918 Y11.29378
G01 X4.76903 Y11.29355
G01 X4.56255 Y11.39579
G01 X4.56263 Y11.39607
G01 X4.56255 Y11.39579
G01 X4.34282 Y11.46531
G01 X4.34289 Y11.46556
G01 X4.34282 Y11.46531
G01 X4.11513 Y11.50046
G01 X4.11516 Y11.50094
G01 X4.11513 Y11.50046
G01 X3.94241 Y11.50046
G01 X3.77025 Y11.48723
G01 X3.77017 Y11.48771
G01 X3.77025 Y11.48723
G01 X3.54589 Y11.43475
G01 X3.54581 Y11.43500
G01 X3.54589 Y11.43475
G01 X3.33223 Y11.34862
G01 X3.33205 Y11.34890
G01 X3.33223 Y11.34862
G01 X3.13418 Y11.23089
G01 X3.13395 Y11.23112
G01 X3.13418 Y11.23089
G01 X2.95638 Y11.08428
G01 X2.95623 Y11.08451
G01 X2.95638 Y11.08428
G01 X2.80307 Y10.91227
G01 X2.80289 Y10.91245
G01 X2.80307 Y10.91227
G01 X2.67785 Y10.71888
G01 X2.67757 Y10.71903
G01 X2.67785 Y10.71888
G01 X2.58364 Y10.50867
G01 X2.58336 Y10.50877
G01 X2.58364 Y10.50867
G01 X2.52252 Y10.28649
G01 X2.52230 Y10.28654
G01 X2.52252 Y10.28649
G01 X2.49616 Y10.05761
G04 P0 ( dwell for no time -- G64 should not smooth over this point )
G00 Z5.00000 ( retract )

G00 X7.05495 Y5.89732 ( rapid move to begin. )
G01 F150.00000
( Mill infeed pass 1/1 )
G01 Z-0.05000
G04 P0 ( dwell for no time -- G64 should not smooth over this point )
G01 F300.00000
G01 X7.05495 Y5.89732
G01 X7.05495 Y5.93654
G01 X7.07128 Y6.10238
G01 X7.07413 Y6.12183
G01 X7.07893 Y6.14088
G01 X7.12729 Y6.30029
G01 X7.14230 Y6.33649
G01 X7.22084 Y6.48348
G01 X7.22899 Y6.49707
G01 X7.23448 Y6.50514
G01 X7.24261 Y6.51609
G01 X7.34832 Y6.64489
G01 X7.35663 Y6.65401
G01 X7.36691 Y6.66432
G01 X7.37603 Y6.67261
G01 X7.50484 Y6.77832
G01 X7.51578 Y6.78645
G01 X7.52391 Y6.79196
G01 X7.53745 Y6.80009
G01 X7.68441 Y6.87865
G01 X7.72063 Y6.89364
G01 X7.88010 Y6.94205
G01 X7.89912 Y6.94680
G01 X7.91853 Y6.94969
G01 X8.08436 Y6.96603
G01 X8.10397 Y6.96699
G01 X8.12355 Y6.96603
G01 X8.28942 Y6.94969
G01 X8.30880 Y6.94680
G01 X8.32787 Y6.94205
G01 X8.48733 Y6.89364
G01 X8.52355 Y6.87865
G01 X8.67047 Y6.80009
G01 X8.70311 Y6.77832
G01 X8.83188 Y6.67261
G01 X8.84080 Y6.66450
G01 X8.85154 Y6.65378
G01 X8.85962 Y6.64489
G01 X8.96534 Y6.51609
G01 X8.98713 Y6.48348
G01 X9.06567 Y6.33649
G01 X9.07405 Y6.31876
G01 X9.08068 Y6.30029
G01 X9.12901 Y6.14088
G01 X9.13666 Y6.10238
G01 X9.15299 Y5.93654
G01 X9.15299 Y5.89732
G01 X9.13666 Y5.73151
G01 X9.13381 Y5.71213
G01 X9.12901 Y5.69311
G01 X9.08068 Y5.53359
G01 X9.06567 Y5.49737
G01 X8.98713 Y5.35048
G01 X8.97702 Y5.33364
G01 X8.96534 Y5.31782
G01 X8.85962 Y5.18907
G01 X8.83188 Y5.16131
G01 X8.70311 Y5.05559
G01 X8.67047 Y5.03380
G01 X8.52355 Y4.95529
G01 X8.48733 Y4.94030
G01 X8.32787 Y4.89189
G01 X8.30880 Y4.88711
G01 X8.28942 Y4.88424
G01 X8.12355 Y4.86791
G01 X8.10397 Y4.86700
G01 X8.08436 Y4.86791
G01 X7.91853 Y4.88424
G01 X7.88010 Y4.89189
G01 X7.72063 Y4.94030
G01 X7.70214 Y4.94685
G01 X7.68441 Y4.95529
G01 X7.53745 Y5.03380
G01 X7.50484 Y5.05559
G01 X7.37603 Y5.16131
G01 X7.36153 Y5.17451
G01 X7.34832 Y5.18907
G01 X7.24261 Y5.31782
G01 X7.23095 Y5.33364
G01 X7.22084 Y5.35048
G01 X7.14230 Y5.49737
G01 X7.13877 Y5.50586
G01 X7.12729 Y5.53359
G01 X7.07893 Y5.69311
G01 X7.07413 Y5.71213
G01 X7.07128 Y5.73151
G01 X7.05495 Y5.89732
G01 X7.15444 Y5.90713
G01 X7.17078 Y5.74131
G01 X7.17225 Y5.73161
G01 X7.17461 Y5.72214
G01 X7.22300 Y5.56268
G01 X7.23049 Y5.54457
G01 X7.30905 Y5.39755
G01 X7.31406 Y5.38919
G01 X7.31990 Y5.38127
G01 X7.42561 Y5.25252
G01 X7.43948 Y5.23865
G01 X7.56829 Y5.13293
G01 X7.57618 Y5.12709
G01 X7.58462 Y5.12204
G01 X7.73153 Y5.04345
G01 X7.74967 Y5.03596
G01 X7.90913 Y4.98762
G01 X7.91863 Y4.98518
G01 X7.92831 Y4.98376
G01 X8.09417 Y4.96743
G01 X8.11378 Y4.96743
G01 X8.27961 Y4.98376
G01 X8.28932 Y4.98518
G01 X8.29884 Y4.98762
G01 X8.45830 Y5.03596
G01 X8.47639 Y5.04345
G01 X8.62335 Y5.12204
G01 X8.63966 Y5.13293
G01 X8.76844 Y5.23865
G01 X8.78230 Y5.25252
G01 X8.88802 Y5.38127
G01 X8.89386 Y5.38919
G01 X8.89892 Y5.39755
G01 X8.97745 Y5.54457
G01 X8.98497 Y5.56268
G01 X9.03336 Y5.72214
G01 X9.03572 Y5.73161
G01 X9.03714 Y5.74131
G01 X9.05350 Y5.90713
G01 X9.05350 Y5.92673
G01 X9.03714 Y6.09257
G01 X9.03336 Y6.11185
G01 X8.98497 Y6.27129
G01 X8.98167 Y6.28053
G01 X8.97745 Y6.28940
G01 X8.89892 Y6.43636
G01 X8.88802 Y6.45264
G01 X8.78230 Y6.58144
G01 X8.77573 Y6.58871
G01 X8.76844 Y6.59529
G01 X8.63966 Y6.70100
G01 X8.62335 Y6.71192
G01 X8.47639 Y6.79049
G01 X8.45830 Y6.79798
G01 X8.29884 Y6.84632
G01 X8.27961 Y6.85015
G01 X8.11378 Y6.86648
G01 X8.10397 Y6.86697
G01 X8.09417 Y6.86648
G01 X7.92831 Y6.85015
G01 X7.90913 Y6.84632
G01 X7.74967 Y6.79798
G01 X7.73153 Y6.79049
G01 X7.58462 Y6.71192
G01 X7.57618 Y6.70687
G01 X7.56829 Y6.70100
G01 X7.43948 Y6.59529
G01 X7.42561 Y6.58144
G01 X7.31990 Y6.45264
G01 X7.30905 Y6.43636
G01 X7.23049 Y6.28940
G01 X7.22300 Y6.27129
G01 X7.17461 Y6.11185
G01 X7.17225 Y6.10227
G01 X7.17078 Y6.09257
G01 X7.15444 Y5.92673
G01 X7.15444 Y5.90713
G01 X7.13877 Y5.50586
G01 X7.05747 Y3.42232
G01 X7.05495 Y3.35732
G01 X7.07128 Y3.19156
G01 X7.07413 Y3.17208
G01 X7.07893 Y3.15305
G01 X7.12729 Y2.99364
G01 X7.14230 Y2.95737
G01 X7.22084 Y2.81043
G01 X7.22912 Y2.79662
G01 X7.23422 Y2.78920
G01 X7.24261 Y2.77787
G01 X7.34832 Y2.64902
G01 X7.35691 Y2.63954
G01 X7.36656 Y2.62989
G01 X7.37603 Y2.62136
G01 X7.50484 Y2.51564
G01 X7.53745 Y2.49385
G01 X7.68441 Y2.41526
G01 X7.70214 Y2.40685
G01 X7.72063 Y2.40030
G01 X7.88010 Y2.35189
G01 X7.91853 Y2.34429
G01 X8.08436 Y2.32791
G01 X8.10397 Y2.32700
G01 X8.12355 Y2.32791
G01 X8.28942 Y2.34429
G01 X8.30880 Y2.34716
G01 X8.32787 Y2.35189
G01 X8.48733 Y2.40030
G01 X8.52355 Y2.41526
G01 X8.67047 Y2.49385
G01 X8.68429 Y2.50208
G01 X8.69178 Y2.50723
G01 X8.70311 Y2.51564
G01 X8.83188 Y2.62136
G01 X8.85962 Y2.64902
G01 X8.96534 Y2.77787
G01 X8.97344 Y2.78879
G01 X8.97898 Y2.79692
G01 X8.98713 Y2.81043
G01 X9.06567 Y2.95737
G01 X9.08068 Y2.99364
G01 X9.12901 Y3.15305
G01 X9.13381 Y3.17208
G01 X9.13666 Y3.19156
G01 X9.15299 Y3.35732
G01 X9.15299 Y3.39659
G01 X9.13666 Y3.56238
G01 X9.12901 Y3.60088
G01 X9.08068 Y3.76032
G01 X9.07405 Y3.77876
G01 X9.06567 Y3.79649
G01 X8.98713 Y3.94350
G01 X8.97702 Y3.96034
G01 X8.96534 Y3.97609
G01 X8.85962 Y4.10492
G01 X8.84644 Y4.11940
G01 X8.83188 Y4.13263
G01 X8.70311 Y4.23835
G01 X8.67047 Y4.26011
G01 X8.52355 Y4.33862
G01 X8.48733 Y4.35366
G01 X8.32787 Y4.40200
G01 X8.30880 Y4.40682
G01 X8.28942 Y4.40967
G01 X8.12355 Y4.42598
G01 X8.10397 Y4.42699
G01 X8.08436 Y4.42598
G01 X7.91853 Y4.40967
G01 X7.89912 Y4.40682
G01 X7.88010 Y4.40200
G01 X7.72063 Y4.35366
G01 X7.68441 Y4.33862
G01 X7.53745 Y4.26011
G01 X7.52064 Y4.25003
G01 X7.50484 Y4.23835
G01 X7.37603 Y4.13263
G01 X7.34832 Y4.10492
G01 X7.24261 Y3.97609
G01 X7.23095 Y3.96034
G01 X7.22084 Y3.94350
G01 X7.14230 Y3.79649
G01 X7.12729 Y3.76032
G01 X7.07893 Y3.60088
G01 X7.07413 Y3.58183
G01 X7.07128 Y3.56238
G01 X7.05747 Y3.42232
G01 X7.05495 Y3.39659
G01 X7.05495 Y3.35732
G01 X7.15444 Y3.36713
G01 X7.17078 Y3.20137
G01 X7.17225 Y3.19161
G01 X7.17461 Y3.18214
G01 X7.22300 Y3.02263
G01 X7.23049 Y3.00457
G01 X7.30905 Y2.85760
G01 X7.31406 Y2.84914
G01 X7.31990 Y2.84132
G01 X7.42561 Y2.71247
G01 X7.43948 Y2.69862
G01 X7.56829 Y2.59288
G01 X7.57618 Y2.58709
G01 X7.58462 Y2.58199
G01 X7.73153 Y2.50345
G01 X7.74967 Y2.49596
G01 X7.90913 Y2.44762
G01 X7.91863 Y2.44521
G01 X7.92831 Y2.44381
G01 X8.09417 Y2.42748
G01 X8.11378 Y2.42748
G01 X8.27961 Y2.44381
G01 X8.28932 Y2.44521
G01 X8.29884 Y2.44762
G01 X8.45830 Y2.49596
G01 X8.47639 Y2.50345
G01 X8.62335 Y2.58199
G01 X8.63178 Y2.58709
G01 X8.63966 Y2.59288
G01 X8.76844 Y2.69862
G01 X8.78230 Y2.71247
G01 X8.88802 Y2.84132
G01 X8.89386 Y2.84914
G01 X8.89892 Y2.85760
G01 X8.97745 Y3.00457
G01 X8.98497 Y3.02263
G01 X9.03336 Y3.18214
G01 X9.03572 Y3.19161
G01 X9.03714 Y3.20137
G01 X9.05350 Y3.36713
G01 X9.05350 Y3.38679
G01 X9.03714 Y3.55257
G01 X9.03336 Y3.57180
G01 X8.98497 Y3.73129
G01 X8.98167 Y3.74053
G01 X8.97745 Y3.74934
G01 X8.89892 Y3.89636
G01 X8.88802 Y3.91267
G01 X8.78230 Y4.04147
G01 X8.76844 Y4.05529
G01 X8.63966 Y4.16098
G01 X8.62335 Y4.17192
G01 X8.47639 Y4.25044
G01 X8.45830 Y4.25798
G01 X8.29884 Y4.30629
G01 X8.28932 Y4.30873
G01 X8.27961 Y4.31018
G01 X8.11378 Y4.32648
G01 X8.09417 Y4.32648
G01 X7.92831 Y4.31018
G01 X7.91863 Y4.30873
G01 X7.90913 Y4.30629
G01 X7.74967 Y4.25798
G01 X7.73153 Y4.25044
G01 X7.58462 Y4.17192
G01 X7.57618 Y4.16690
G01 X7.56829 Y4.16098
G01 X7.43948 Y4.05529
G01 X7.42561 Y4.04147
G01 X7.31990 Y3.91267
G01 X7.31406 Y3.90477
G01 X7.30905 Y3.89636
G01 X7.23049 Y3.74934
G01 X7.22300 Y3.73129
G01 X7.17461 Y3.57180
G01 X7.17225 Y3.56232
G01 X7.17078 Y3.55257
G01 X7.15444 Y3.38679
G01 X7.15444 Y3.36713
G04 P0 ( dwell for no time -- G64 should not smooth over this point )
G00 Z5.00000 ( retract )

G00 X9.69447 Y3.36713 ( rapid move to begin. )
G01 F150.00000
( Mill infeed pass 1/1 )
G01 Z-0.05000
G04 P0 ( dwell for no time -- G64 should not smooth over this point )
G01 F300.00000
G01 X9.69447 Y3.36713
G01 X9.69447 Y3.38679
G01 X9.71080 Y3.55257
G01 X9.71222 Y3.56232
G01 X9.71459 Y3.57180
G01 X9.76297 Y3.73129
G01 X9.77047 Y3.74934
G01 X9.84903 Y3.89636
G01 X9.85408 Y3.90477
G01 X9.85990 Y3.91267
G01 X9.96561 Y4.04147
G01 X9.97951 Y4.05529
G01 X10.10831 Y4.16098
G01 X10.11616 Y4.16690
G01 X10.12459 Y4.17192
G01 X10.27153 Y4.25044
G01 X10.28964 Y4.25798
G01 X10.44910 Y4.30629
G01 X10.45865 Y4.30873
G01 X10.46836 Y4.31018
G01 X10.63419 Y4.32648
G01 X10.65380 Y4.32648
G01 X10.81959 Y4.31018
G01 X10.82929 Y4.30873
G01 X10.83882 Y4.30629
G01 X10.99830 Y4.25798
G01 X11.01641 Y4.25044
G01 X11.16335 Y4.17192
G01 X11.17963 Y4.16098
G01 X11.30846 Y4.05529
G01 X11.32233 Y4.04147
G01 X11.42804 Y3.91267
G01 X11.43892 Y3.89636
G01 X11.51748 Y3.74934
G01 X11.52164 Y3.74053
G01 X11.52497 Y3.73129
G01 X11.57333 Y3.57180
G01 X11.57714 Y3.55257
G01 X11.59347 Y3.38679
G01 X11.59347 Y3.36713
G01 X11.57714 Y3.20137
G01 X11.57572 Y3.19161
G01 X11.57333 Y3.18214
G01 X11.52497 Y3.02263
G01 X11.51748 Y3.00457
G01 X11.43892 Y2.85760
G01 X11.43389 Y2.84914
G01 X11.42804 Y2.84132
G01 X11.32233 Y2.71247
G01 X11.30846 Y2.69862
G01 X11.17963 Y2.59288
G01 X11.17178 Y2.58709
G01 X11.16335 Y2.58199
G01 X11.01641 Y2.50345
G01 X10.99830 Y2.49596
G01 X10.83882 Y2.44762
G01 X10.82929 Y2.44521
G01 X10.81959 Y2.44381
G01 X10.65380 Y2.42748
G01 X10.63419 Y2.42748
G01 X10.46836 Y2.44381
G01 X10.45865 Y2.44521
G01 X10.44910 Y2.44762
G01 X10.28964 Y2.49596
G01 X10.27153 Y2.50345
G01 X10.12459 Y2.58199
G01 X10.11616 Y2.58709
G01 X10.10831 Y2.59288
G01 X9.97951 Y2.69862
G01 X9.96561 Y2.71247
G01 X9.85990 Y2.84132
G01 X9.85408 Y2.84914
G01 X9.84903 Y2.85760
G01 X9.77047 Y3.00457
G01 X9.76297 Y3.02263
G01 X9.71459 Y3.18214
G01 X9.71222 Y3.19161
G01 X9.71080 Y3.20137
G01 X9.69447 Y3.36713
G01 X9.59493 Y3.35732
G01 X9.59493 Y3.39659
G01 X9.59744 Y3.42235
G01 X9.61126 Y3.56238
G01 X9.61415 Y3.58183
G01 X9.61890 Y3.60088
G01 X9.66727 Y3.76032
G01 X9.68230 Y3.79649
G01 X9.76086 Y3.94350
G01 X9.77092 Y3.96034
G01 X9.78263 Y3.97609
G01 X9.88835 Y4.10492
G01 X9.91606 Y4.13263
G01 X10.04486 Y4.23835
G01 X10.06061 Y4.25003
G01 X10.07748 Y4.26011
G01 X10.22441 Y4.33862
G01 X10.26066 Y4.35366
G01 X10.42007 Y4.40200
G01 X10.43915 Y4.40682
G01 X10.45855 Y4.40967
G01 X10.62439 Y4.42598
G01 X10.64400 Y4.42699
G01 X10.66355 Y4.42598
G01 X10.82939 Y4.40967
G01 X10.84882 Y4.40682
G01 X10.86785 Y4.40200
G01 X11.02733 Y4.35366
G01 X11.06353 Y4.33862
G01 X11.21044 Y4.26011
G01 X11.24308 Y4.23835
G01 X11.37191 Y4.13263
G01 X11.38083 Y4.12448
G01 X11.39152 Y4.11376
G01 X11.39960 Y4.10492
G01 X11.50531 Y3.97609
G01 X11.51316 Y3.96552
G01 X11.51915 Y3.95681
G01 X11.52713 Y3.94350
G01 X11.60564 Y3.79649
G01 X11.61402 Y3.77876
G01 X11.62065 Y3.76032
G01 X11.66904 Y3.60088
G01 X11.67668 Y3.56238
G01 X11.69302 Y3.39659
G01 X11.69302 Y3.35732
G01 X11.67668 Y3.19156
G01 X11.67379 Y3.17208
G01 X11.66904 Y3.15305
G01 X11.62065 Y2.99364
G01 X11.60564 Y2.95737
G01 X11.52713 Y2.81043
G01 X11.51900 Y2.79692
G01 X11.51341 Y2.78879
G01 X11.50531 Y2.77787
G01 X11.39960 Y2.64902
G01 X11.37191 Y2.62136
G01 X11.24308 Y2.51564
G01 X11.23180 Y2.50723
G01 X11.22426 Y2.50208
G01 X11.21044 Y2.49385
G01 X11.06353 Y2.41526
G01 X11.02733 Y2.40030
G01 X10.86785 Y2.35189
G01 X10.84882 Y2.34716
G01 X10.82939 Y2.34429
G01 X10.66355 Y2.32791
G01 X10.64400 Y2.32700
G01 X10.62439 Y2.32791
G01 X10.45855 Y2.34429
G01 X10.42007 Y2.35189
G01 X10.26066 Y2.40030
G01 X10.24217 Y2.40685
G01 X10.22441 Y2.41526
G01 X10.07748 Y2.49385
G01 X10.04486 Y2.51564
G01 X9.91606 Y2.62136
G01 X9.90658 Y2.62989
G01 X9.89693 Y2.63954
G01 X9.88835 Y2.64902
G01 X9.78263 Y2.77787
G01 X9.77425 Y2.78920
G01 X9.76909 Y2.79662
G01 X9.76086 Y2.81043
G01 X9.68230 Y2.95737
G01 X9.66727 Y2.99364
G01 X9.61890 Y3.15305
G01 X9.61415 Y3.17208
G01 X9.61126 Y3.19156
G01 X9.59493 Y3.35732
G01 X9.59744 Y3.42235
G01 X9.67880 Y5.50578
G01 X9.69447 Y5.90713
G01 X9.69447 Y5.92673
G01 X9.71080 Y6.09257
G01 X9.71222 Y6.10227
G01 X9.71459 Y6.11185
G01 X9.76297 Y6.27129
G01 X9.77047 Y6.28940
G01 X9.84903 Y6.43636
G01 X9.85990 Y6.45264
G01 X9.96561 Y6.58144
G01 X9.97951 Y6.59529
G01 X10.10831 Y6.70100
G01 X10.11616 Y6.70687
G01 X10.12459 Y6.71192
G01 X10.27153 Y6.79049
G01 X10.28964 Y6.79798
G01 X10.44910 Y6.84632
G01 X10.46836 Y6.85015
G01 X10.63419 Y6.86648
G01 X10.64400 Y6.86697
G01 X10.65380 Y6.86648
G01 X10.81959 Y6.85015
G01 X10.83882 Y6.84632
G01 X10.99830 Y6.79798
G01 X11.01641 Y6.79049
G01 X11.16335 Y6.71192
G01 X11.17963 Y6.70100
G01 X11.30846 Y6.59529
G01 X11.31575 Y6.58871
G01 X11.32233 Y6.58144
G01 X11.42804 Y6.45264
G01 X11.43892 Y6.43636
G01 X11.51748 Y6.28940
G01 X11.52164 Y6.28053
G01 X11.52497 Y6.27129
G01 X11.57333 Y6.11185
G01 X11.57714 Y6.09257
G01 X11.59347 Y5.92673
G01 X11.59347 Y5.90713
G01 X11.57714 Y5.74131
G01 X11.57572 Y5.73161
G01 X11.57333 Y5.72214
G01 X11.52497 Y5.56268
G01 X11.51748 Y5.54457
G01 X11.43892 Y5.39755
G01 X11.43389 Y5.38919
G01 X11.42804 Y5.38127
G01 X11.32233 Y5.25252
G01 X11.30846 Y5.23865
G01 X11.17963 Y5.13293
G01 X11.16335 Y5.12204
G01 X11.01641 Y5.04345
G01 X10.99830 Y5.03596
G01 X10.83882 Y4.98762
G01 X10.82929 Y4.98518
G01 X10.81959 Y4.98376
G01 X10.65380 Y4.96743
G01 X10.63419 Y4.96743
G01 X10.46836 Y4.98376
G01 X10.45865 Y4.98518
G01 X10.44910 Y4.98762
G01 X10.28964 Y5.03596
G01 X10.27153 Y5.04345
G01 X10.12459 Y5.12204
G01 X10.11616 Y5.12709
G01 X10.10831 Y5.13293
G01 X9.97951 Y5.23865
G01 X9.96561 Y5.25252
G01 X9.85990 Y5.38127
G01 X9.85408 Y5.38919
G01 X9.84903 Y5.39755
G01 X9.77047 Y5.54457
G01 X9.76297 Y5.56268
G01 X9.71459 Y5.72214
G01 X9.71222 Y5.73161
G01 X9.71080 Y5.74131
G01 X9.69447 Y5.90713
G01 X9.59493 Y5.89732
G01 X9.61126 Y5.73151
G01 X9.61415 Y5.71213
G01 X9.61890 Y5.69311
G01 X9.66727 Y5.53359
G01 X9.67880 Y5.50578
G01 X9.68230 Y5.49737
G01 X9.76086 Y5.35048
G01 X9.77092 Y5.33364
G01 X9.78263 Y5.31782
G01 X9.88835 Y5.18907
G01 X9.90153 Y5.17451
G01 X9.91606 Y5.16131
G01 X10.04486 Y5.05559
G01 X10.07748 Y5.03380
G01 X10.22441 Y4.95529
G01 X10.24217 Y4.94685
G01 X10.26066 Y4.94030
G01 X10.42007 Y4.89189
G01 X10.45855 Y4.88424
G01 X10.62439 Y4.86791
G01 X10.64400 Y4.86700
G01 X10.66355 Y4.86791
G01 X10.82939 Y4.88424
G01 X10.84882 Y4.88711
G01 X10.86785 Y4.89189
G01 X11.02733 Y4.94030
G01 X11.06353 Y4.95529
G01 X11.21044 Y5.03380
G01 X11.24308 Y5.05559
G01 X11.37191 Y5.16131
G01 X11.39960 Y5.18907
G01 X11.50531 Y5.31782
G01 X11.51341 Y5.32882
G01 X11.51900 Y5.33687
G01 X11.52713 Y5.35048
G01 X11.60564 Y5.49737
G01 X11.62065 Y5.53359
G01 X11.66904 Y5.69311
G01 X11.67379 Y5.71213
G01 X11.67668 Y5.73151
G01 X11.69302 Y5.89732
G01 X11.69302 Y5.93654
G01 X11.67668 Y6.10238
G01 X11.66904 Y6.14088
G01 X11.62065 Y6.30029
G01 X11.61402 Y6.31876
G01 X11.60564 Y6.33649
G01 X11.52713 Y6.48348
G01 X11.50531 Y6.51609
G01 X11.39960 Y6.64489
G01 X11.39152 Y6.65378
G01 X11.38083 Y6.66450
G01 X11.37191 Y6.67261
G01 X11.24308 Y6.77832
G01 X11.21044 Y6.80009
G01 X11.06353 Y6.87865
G01 X11.02733 Y6.89364
G01 X10.86785 Y6.94205
G01 X10.84882 Y6.94680
G01 X10.82939 Y6.94969
G01 X10.66355 Y6.96603
G01 X10.64400 Y6.96699
G01 X10.62439 Y6.96603
G01 X10.45855 Y6.94969
G01 X10.43915 Y6.94680
G01 X10.42007 Y6.94205
G01 X10.26066 Y6.89364
G01 X10.22441 Y6.87865
G01 X10.07748 Y6.80009
G01 X10.06389 Y6.79196
G01 X10.05581 Y6.78645
G01 X10.04486 Y6.77832
G01 X9.91606 Y6.67261
G01 X9.90694 Y6.66432
G01 X9.89663 Y6.65401
G01 X9.88835 Y6.64489
G01 X9.78263 Y6.51609
G01 X9.77450 Y6.50514
G01 X9.76899 Y6.49707
G01 X9.76086 Y6.48348
G01 X9.68230 Y6.33649
G01 X9.66727 Y6.30029
G01 X9.61890 Y6.14088
G01 X9.61415 Y6.12183
G01 X9.61126 Y6.10238
G01 X9.59493 Y5.93654
G01 X9.59493 Y5.89732
G04 P0 ( dwell for no time -- G64 should not smooth over this point )
G00 Z5.00000 ( retract )

G00 X12.58090 Y7.01500 ( rapid move to begin. )
G01 F150.00000
( Mill infeed pass 1/1 )
G01 Z-0.05000
G04 P0 ( dwell for no time -- G64 should not smooth over this point )
G01 F300.00000
G01 X12.58090 Y7.01500
G01 X12.75476 Y7.09605
G01 X12.96609 Y7.15269
G01 X13.18397 Y7.17172
G01 X13.40180 Y7.15269
G01 X13.61313 Y7.09605
G01 X13.78699 Y7.01500
G01 X13.56037 Y6.78833
G01 X13.55636 Y6.79049
G01 X13.54752 Y6.79465
G01 X13.53830 Y6.79798
G01 X13.37884 Y6.84632
G01 X13.36932 Y6.84873
G01 X13.35961 Y6.85015
G01 X13.19380 Y6.86648
G01 X13.17419 Y6.86648
G01 X13.00836 Y6.85015
G01 X12.99865 Y6.84873
G01 X12.98913 Y6.84632
G01 X12.82967 Y6.79798
G01 X12.81153 Y6.79049
G01 X12.80752 Y6.78833
G01 X12.58090 Y7.01500
G01 X12.66040 Y7.00799
G01 X12.75260 Y6.98470
G01 X12.78915 Y7.00171
G01 X12.98351 Y7.05383
G01 X12.98341 Y7.05432
G01 X12.98351 Y7.05383
G01 X13.18397 Y7.07133
G01 X13.18397 Y7.07174
G01 X13.18397 Y7.07133
G01 X13.38443 Y7.05383
G01 X13.38453 Y7.05432
G01 X13.38443 Y7.05383
G01 X13.57879 Y7.00171
G01 X13.61529 Y6.98470
G01 X13.70754 Y7.00799
G01 X13.61529 Y6.98470
G01 X13.53429 Y6.90369
G01 X13.53830 Y6.88840
G01 X13.53429 Y6.90369
G01 X13.40787 Y6.94205
G01 X13.36942 Y6.94969
G01 X13.20358 Y6.96603
G01 X13.18400 Y6.96699
G01 X13.16439 Y6.96603
G01 X12.99855 Y6.94969
G01 X12.96010 Y6.94205
G01 X12.83360 Y6.90369
G01 X12.82959 Y6.88835
G01 X12.83360 Y6.90369
G01 X12.75260 Y6.98470
G04 P0 ( dwell for no time -- G64 should not smooth over this point )
G00 Z5.00000 ( retract )

G00 X14.67399 Y5.91693 ( rapid move to begin. )
G01 F150.00000
( Mill infeed pass 1/1 )
G01 Z-0.05000
G04 P0 ( dwell for no time -- G64 should not smooth over this point )
G01 F300.00000
G01 X14.67399 Y5.91693
G01 X14.67490 Y5.93654
G01 X14.69128 Y6.10238
G01 X14.69413 Y6.12183
G01 X14.69893 Y6.14088
G01 X14.74727 Y6.30029
G01 X14.76228 Y6.33649
G01 X14.84084 Y6.48348
G01 X14.84894 Y6.49702
G01 X14.85455 Y6.50519
G01 X14.86261 Y6.51609
G01 X14.96832 Y6.64489
G01 X14.97663 Y6.65401
G01 X14.98694 Y6.66432
G01 X14.99606 Y6.67261
G01 X15.12484 Y6.77832
G01 X15.15748 Y6.80009
G01 X15.30439 Y6.87865
G01 X15.34066 Y6.89364
G01 X15.50010 Y6.94205
G01 X15.53855 Y6.94969
G01 X15.70439 Y6.96603
G01 X15.72400 Y6.96699
G01 X15.74353 Y6.96603
G01 X15.90937 Y6.94969
G01 X15.94787 Y6.94205
G01 X16.10733 Y6.89364
G01 X16.14355 Y6.87865
G01 X16.29044 Y6.80009
G01 X16.32311 Y6.77832
G01 X16.45186 Y6.67261
G01 X16.46077 Y6.66450
G01 X16.47154 Y6.65378
G01 X16.47962 Y6.64489
G01 X16.58534 Y6.51609
G01 X16.60710 Y6.48348
G01 X16.68567 Y6.33649
G01 X16.70065 Y6.30029
G01 X16.74901 Y6.14088
G01 X16.75381 Y6.12183
G01 X16.75666 Y6.10238
G01 X16.77302 Y5.93654
G01 X16.77398 Y5.91693
G01 X16.77302 Y5.89732
G01 X16.75666 Y5.73151
G01 X16.75381 Y5.71213
G01 X16.74901 Y5.69311
G01 X16.70065 Y5.53359
G01 X16.68567 Y5.49737
G01 X16.60710 Y5.35048
G01 X16.58534 Y5.31782
G01 X16.47962 Y5.18907
G01 X16.46644 Y5.17451
G01 X16.45186 Y5.16131
G01 X16.32311 Y5.05559
G01 X16.29044 Y5.03380
G01 X16.14355 Y4.95529
G01 X16.12580 Y4.94685
G01 X16.10733 Y4.94030
G01 X15.94787 Y4.89189
G01 X15.90937 Y4.88424
G01 X15.74353 Y4.86791
G01 X15.70439 Y4.86791
G01 X15.53855 Y4.88424
G01 X15.50010 Y4.89189
G01 X15.34066 Y4.94030
G01 X15.32214 Y4.94685
G01 X15.30439 Y4.95529
G01 X15.15748 Y5.03380
G01 X15.12484 Y5.05559
G01 X14.99606 Y5.16131
G01 X14.98656 Y5.16989
G01 X14.97693 Y5.17954
G01 X14.96832 Y5.18907
G01 X14.86261 Y5.31782
G01 X14.84084 Y5.35048
G01 X14.76228 Y5.49737
G01 X14.74727 Y5.53359
G01 X14.69893 Y5.69311
G01 X14.69413 Y5.71213
G01 X14.69128 Y5.73151
G01 X14.67490 Y5.89732
G01 X14.67399 Y5.91693
G01 X14.77394 Y5.91693
G01 X14.77444 Y5.90713
G01 X14.79080 Y5.74131
G01 X14.79225 Y5.73161
G01 X14.79464 Y5.72214
G01 X14.84297 Y5.56268
G01 X14.85044 Y5.54457
G01 X14.92905 Y5.39755
G01 X14.93408 Y5.38919
G01 X14.93987 Y5.38127
G01 X15.04559 Y5.25252
G01 X15.05224 Y5.24518
G01 X15.05951 Y5.23865
G01 X15.18829 Y5.13293
G01 X15.20462 Y5.12204
G01 X15.35156 Y5.04345
G01 X15.36045 Y5.03926
G01 X15.36967 Y5.03596
G01 X15.52913 Y4.98762
G01 X15.54836 Y4.98376
G01 X15.71419 Y4.96743
G01 X15.73380 Y4.96743
G01 X15.89956 Y4.98376
G01 X15.91884 Y4.98762
G01 X16.07830 Y5.03596
G01 X16.08755 Y5.03926
G01 X16.09636 Y5.04345
G01 X16.24335 Y5.12204
G01 X16.25966 Y5.13293
G01 X16.38841 Y5.23865
G01 X16.39575 Y5.24518
G01 X16.40233 Y5.25252
G01 X16.50804 Y5.38127
G01 X16.51384 Y5.38919
G01 X16.51894 Y5.39755
G01 X16.59748 Y5.54457
G01 X16.60495 Y5.56268
G01 X16.65336 Y5.72214
G01 X16.65575 Y5.73161
G01 X16.65712 Y5.74131
G01 X16.67350 Y5.90713
G01 X16.67398 Y5.91693
G01 X16.67350 Y5.92673
G01 X16.65712 Y6.09257
G01 X16.65575 Y6.10227
G01 X16.65336 Y6.11185
G01 X16.60495 Y6.27129
G01 X16.60162 Y6.28053
G01 X16.59748 Y6.28940
G01 X16.51894 Y6.43636
G01 X16.50804 Y6.45264
G01 X16.40233 Y6.58144
G01 X16.39575 Y6.58871
G01 X16.38841 Y6.59529
G01 X16.25966 Y6.70100
G01 X16.24335 Y6.71192
G01 X16.09636 Y6.79049
G01 X16.08755 Y6.79465
G01 X16.07830 Y6.79798
G01 X15.91884 Y6.84632
G01 X15.90926 Y6.84873
G01 X15.89956 Y6.85015
G01 X15.73380 Y6.86648
G01 X15.71419 Y6.86648
G01 X15.54836 Y6.85015
G01 X15.53865 Y6.84873
G01 X15.52913 Y6.84632
G01 X15.36967 Y6.79798
G01 X15.36045 Y6.79465
G01 X15.35156 Y6.79049
G01 X15.20462 Y6.71192
G01 X15.18829 Y6.70100
G01 X15.05951 Y6.59529
G01 X15.05224 Y6.58871
G01 X15.04559 Y6.58144
G01 X14.93987 Y6.45264
G01 X14.92905 Y6.43636
G01 X14.85044 Y6.28940
G01 X14.84297 Y6.27129
G01 X14.79464 Y6.11185
G01 X14.79225 Y6.10227
G01 X14.79080 Y6.09257
G01 X14.77444 Y5.92673
G01 X14.77394 Y5.91693
G04 P0 ( dwell for no time -- G64 should not smooth over this point )
G00 Z5.00000 ( retract )

G00 X12.13495 Y3.35732 ( rapid move to begin. )
G01 F150.00000
( Mill infeed pass 1/1 )
G01 Z-0.05000
G04 P0 ( dwell for no time -- G64 should not smooth over this point )
G01 F300.00000
G01 X12.13495 Y3.35732
G01 X12.15128 Y3.19156
G01 X12.15413 Y3.17208
G01 X12.15893 Y3.15305
G01 X12.20727 Y2.99364
G01 X12.22228 Y2.95737
G01 X12.30084 Y2.81043
G01 X12.30912 Y2.79662
G01 X12.31422 Y2.78920
G01 X12.32261 Y2.77787
G01 X12.42832 Y2.64902
G01 X12.43691 Y2.63954
G01 X12.44656 Y2.62989
G01 X12.45603 Y2.62136
G01 X12.58484 Y2.51564
G01 X12.61745 Y2.49385
G01 X12.76436 Y2.41526
G01 X12.78212 Y2.40685
G01 X12.80066 Y2.40030
G01 X12.96010 Y2.35189
G01 X12.99855 Y2.34429
G01 X13.16439 Y2.32791
G01 X13.20358 Y2.32791
G01 X13.36942 Y2.34429
G01 X13.40787 Y2.35189
G01 X13.56733 Y2.40030
G01 X13.58577 Y2.40685
G01 X13.60353 Y2.41526
G01 X13.75049 Y2.49385
G01 X13.78308 Y2.51564
G01 X13.91191 Y2.62136
G01 X13.92116 Y2.62974
G01 X13.93124 Y2.63977
G01 X13.93960 Y2.64902
G01 X14.04531 Y2.77787
G01 X14.06708 Y2.81043
G01 X14.14564 Y2.95737
G01 X14.16063 Y2.99364
G01 X14.20899 Y3.15305
G01 X14.21379 Y3.17208
G01 X14.21663 Y3.19156
G01 X14.23302 Y3.35732
G01 X14.23398 Y3.37696
G01 X14.23302 Y3.39659
G01 X14.21663 Y3.56238
G01 X14.21379 Y3.58183
G01 X14.20899 Y3.60088
G01 X14.16063 Y3.76032
G01 X14.14564 Y3.79649
G01 X14.06708 Y3.94350
G01 X14.04531 Y3.97609
G01 X13.93960 Y4.10492
G01 X13.93154 Y4.11376
G01 X13.92077 Y4.12448
G01 X13.91191 Y4.13263
G01 X13.78308 Y4.23835
G01 X13.75049 Y4.26011
G01 X13.60353 Y4.33862
G01 X13.58577 Y4.34701
G01 X13.56733 Y4.35366
G01 X13.40787 Y4.40200
G01 X13.36942 Y4.40967
G01 X13.20358 Y4.42598
G01 X13.16439 Y4.42598
G01 X12.99855 Y4.40967
G01 X12.96010 Y4.40200
G01 X12.80066 Y4.35366
G01 X12.78212 Y4.34701
G01 X12.76436 Y4.33862
G01 X12.61745 Y4.26011
G01 X12.58484 Y4.23835
G01 X12.45603 Y4.13263
G01 X12.44694 Y4.12430
G01 X12.43660 Y4.11404
G01 X12.42832 Y4.10492
G01 X12.32261 Y3.97609
G01 X12.31450 Y3.96509
G01 X12.30897 Y3.95707
G01 X12.30084 Y3.94350
G01 X12.22228 Y3.79649
G01 X12.20727 Y3.76032
G01 X12.15893 Y3.60088
G01 X12.15413 Y3.58183
G01 X12.15128 Y3.56238
G01 X12.13495 Y3.39659
G01 X12.13495 Y3.35732
G01 X12.23444 Y3.36713
G01 X12.25078 Y3.20137
G01 X12.25225 Y3.19161
G01 X12.25464 Y3.18214
G01 X12.30300 Y3.02263
G01 X12.31049 Y3.00457
G01 X12.38905 Y2.85760
G01 X12.39408 Y2.84914
G01 X12.39992 Y2.84132
G01 X12.50564 Y2.71247
G01 X12.51948 Y2.69862
G01 X12.64829 Y2.59288
G01 X12.65619 Y2.58709
G01 X12.66462 Y2.58199
G01 X12.81153 Y2.50345
G01 X12.82045 Y2.49926
G01 X12.82967 Y2.49596
G01 X12.98913 Y2.44762
G01 X13.00836 Y2.44381
G01 X13.17419 Y2.42748
G01 X13.19380 Y2.42748
G01 X13.35961 Y2.44381
G01 X13.37884 Y2.44762
G01 X13.53830 Y2.49596
G01 X13.54752 Y2.49926
G01 X13.55636 Y2.50345
G01 X13.70335 Y2.58199
G01 X13.71963 Y2.59288
G01 X13.84846 Y2.69862
G01 X13.85575 Y2.70523
G01 X13.86233 Y2.71247
G01 X13.96804 Y2.84132
G01 X13.97892 Y2.85760
G01 X14.05748 Y3.00457
G01 X14.06492 Y3.02263
G01 X14.11336 Y3.18214
G01 X14.11572 Y3.19161
G01 X14.11717 Y3.20137
G01 X14.13347 Y3.36713
G01 X14.13396 Y3.37696
G01 X14.13347 Y3.38679
G01 X14.11717 Y3.55257
G01 X14.11572 Y3.56232
G01 X14.11336 Y3.57180
G01 X14.06492 Y3.73129
G01 X14.06167 Y3.74053
G01 X14.05748 Y3.74934
G01 X13.97892 Y3.89636
G01 X13.96804 Y3.91267
G01 X13.86233 Y4.04147
G01 X13.85575 Y4.04873
G01 X13.84846 Y4.05529
G01 X13.71963 Y4.16098
G01 X13.70335 Y4.17192
G01 X13.55636 Y4.25044
G01 X13.54752 Y4.25463
G01 X13.53830 Y4.25798
G01 X13.37884 Y4.30629
G01 X13.35961 Y4.31018
G01 X13.19380 Y4.32648
G01 X13.17419 Y4.32648
G01 X13.00836 Y4.31018
G01 X12.98913 Y4.30629
G01 X12.82967 Y4.25798
G01 X12.82045 Y4.25463
G01 X12.81153 Y4.25044
G01 X12.66462 Y4.17192
G01 X12.65619 Y4.16690
G01 X12.64829 Y4.16098
G01 X12.51948 Y4.05529
G01 X12.50564 Y4.04147
G01 X12.39992 Y3.91267
G01 X12.39408 Y3.90477
G01 X12.38905 Y3.89636
G01 X12.31049 Y3.74934
G01 X12.30300 Y3.73129
G01 X12.25464 Y3.57180
G01 X12.25225 Y3.56232
G01 X12.25078 Y3.55257
G01 X12.23444 Y3.38679
G01 X12.23444 Y3.36713
G04 P0 ( dwell for no time -- G64 should not smooth over this point )
G00 Z5.00000 ( retract )

G00 X14.67399 Y3.37696 ( rapid move to begin. )
G01 F150.00000
( Mill infeed pass 1/1 )
G01 Z-0.05000
G04 P0 ( dwell for no time -- G64 should not smooth over this point )
G01 F300.00000
G01 X14.67399 Y3.37696
G01 X14.67490 Y3.39659
G01 X14.69128 Y3.56238
G01 X14.69413 Y3.58183
G01 X14.69893 Y3.60088
G01 X14.74727 Y3.76032
G01 X14.76228 Y3.79649
G01 X14.84084 Y3.94350
G01 X14.86261 Y3.97609
G01 X14.96832 Y4.10492
G01 X14.97663 Y4.11404
G01 X14.98694 Y4.12430
G01 X14.99606 Y4.13263
G01 X15.12484 Y4.23835
G01 X15.15748 Y4.26011
G01 X15.30439 Y4.33862
G01 X15.32214 Y4.34701
G01 X15.34066 Y4.35366
G01 X15.50010 Y4.40200
G01 X15.53855 Y4.40967
G01 X15.70439 Y4.42598
G01 X15.74353 Y4.42598
G01 X15.90937 Y4.40967
G01 X15.94787 Y4.40200
G01 X16.10733 Y4.35366
G01 X16.12580 Y4.34701
G01 X16.14355 Y4.33862
G01 X16.29044 Y4.26011
G01 X16.32311 Y4.23835
G01 X16.45186 Y4.13263
G01 X16.46644 Y4.11940
G01 X16.47962 Y4.10492
G01 X16.58534 Y3.97609
G01 X16.60710 Y3.94350
G01 X16.68567 Y3.79649
G01 X16.70065 Y3.76032
G01 X16.74901 Y3.60088
G01 X16.75381 Y3.58183
G01 X16.75666 Y3.56238
G01 X16.77302 Y3.39659
G01 X16.77398 Y3.37696
G01 X16.77302 Y3.35732
G01 X16.75666 Y3.19156
G01 X16.75381 Y3.17208
G01 X16.74901 Y3.15305
G01 X16.70065 Y2.99364
G01 X16.68567 Y2.95737
G01 X16.60710 Y2.81043
G01 X16.58534 Y2.77787
G01 X16.47962 Y2.64902
G01 X16.47119 Y2.63977
G01 X16.46118 Y2.62974
G01 X16.45186 Y2.62136
G01 X16.32311 Y2.51564
G01 X16.29044 Y2.49385
G01 X16.14355 Y2.41526
G01 X16.12580 Y2.40685
G01 X16.10733 Y2.40030
G01 X15.94787 Y2.35189
G01 X15.90937 Y2.34429
G01 X15.74353 Y2.32791
G01 X15.70439 Y2.32791
G01 X15.53855 Y2.34429
G01 X15.50010 Y2.35189
G01 X15.34066 Y2.40030
G01 X15.32214 Y2.40685
G01 X15.30439 Y2.41526
G01 X15.15748 Y2.49385
G01 X15.12484 Y2.51564
G01 X14.99606 Y2.62136
G01 X14.98656 Y2.62989
G01 X14.97693 Y2.63954
G01 X14.96832 Y2.64902
G01 X14.86261 Y2.77787
G01 X14.84084 Y2.81043
G01 X14.76228 Y2.95737
G01 X14.74727 Y2.99364
G01 X14.69893 Y3.15305
G01 X14.69413 Y3.17208
G01 X14.69128 Y3.19156
G01 X14.67490 Y3.35732
G01 X14.67399 Y3.37696
G01 X14.77394 Y3.37696
G01 X14.77444 Y3.36713
G01 X14.79080 Y3.20137
G01 X14.79225 Y3.19161
G01 X14.79464 Y3.18214
G01 X14.84297 Y3.02263
G01 X14.85044 Y3.00457
G01 X14.92905 Y2.85760
G01 X14.93987 Y2.84132
G01 X15.04559 Y2.71247
G01 X15.05224 Y2.70523
G01 X15.05951 Y2.69862
G01 X15.18829 Y2.59288
G01 X15.20462 Y2.58199
G01 X15.35156 Y2.50345
G01 X15.36045 Y2.49926
G01 X15.36967 Y2.49596
G01 X15.52913 Y2.44762
G01 X15.54836 Y2.44381
G01 X15.71419 Y2.42748
G01 X15.73380 Y2.42748
G01 X15.89956 Y2.44381
G01 X15.91884 Y2.44762
G01 X16.07830 Y2.49596
G01 X16.08755 Y2.49926
G01 X16.09636 Y2.50345
G01 X16.24335 Y2.58199
G01 X16.25966 Y2.59288
G01 X16.38841 Y2.69862
G01 X16.39575 Y2.70523
G01 X16.40233 Y2.71247
G01 X16.50804 Y2.84132
G01 X16.51894 Y2.85760
G01 X16.59748 Y3.00457
G01 X16.60495 Y3.02263
G01 X16.65336 Y3.18214
G01 X16.65575 Y3.19161
G01 X16.65712 Y3.20137
G01 X16.67350 Y3.36713
G01 X16.67398 Y3.37696
G01 X16.67350 Y3.38679
G01 X16.65712 Y3.55257
G01 X16.65575 Y3.56232
G01 X16.65336 Y3.57180
G01 X16.60495 Y3.73129
G01 X16.60162 Y3.74053
G01 X16.59748 Y3.74934
G01 X16.51894 Y3.89636
G01 X16.50804 Y3.91267
G01 X16.40233 Y4.04147
G01 X16.39575 Y4.04873
G01 X16.38841 Y4.05529
G01 X16.25966 Y4.16098
G01 X16.24335 Y4.17192
G01 X16.09636 Y4.25044
G01 X16.08755 Y4.25463
G01 X16.07830 Y4.25798
G01 X15.91884 Y4.30629
G01 X15.89956 Y4.31018
G01 X15.73380 Y4.32648
G01 X15.71419 Y4.32648
G01 X15.54836 Y4.31018
G01 X15.52913 Y4.30629
G01 X15.36967 Y4.25798
G01 X15.36045 Y4.25463
G01 X15.35156 Y4.25044
G01 X15.20462 Y4.17192
G01 X15.18829 Y4.16098
G01 X15.05951 Y4.05529
G01 X15.05224 Y4.04873
G01 X15.04559 Y4.04147
G01 X14.93987 Y3.91267
G01 X14.93408 Y3.90477
G01 X14.92905 Y3.89636
G01 X14.85044 Y3.74934
G01 X14.84297 Y3.73129
G01 X14.79464 Y3.57180
G01 X14.79225 Y3.56232
G01 X14.79080 Y3.55257
G01 X14.77444 Y3.38679
G01 X14.77394 Y3.37696
G04 P0 ( dwell for no time -- G64 should not smooth over this point )
G00 Z5.00000 ( retract )

G00 X17.21394 Y3.37696 ( rapid move to begin. )
G01 F150.00000
( Mill infeed pass 1/1 )
G01 Z-0.05000
G04 P0 ( dwell for no time -- G64 should not smooth over this point )
G01 F300.00000
G01 X17.21394 Y3.37696
G01 X17.21493 Y3.35732
G01 X17.23128 Y3.19156
G01 X17.23413 Y3.17208
G01 X17.23893 Y3.15305
G01 X17.28729 Y2.99364
G01 X17.30230 Y2.95737
G01 X17.38084 Y2.81043
G01 X17.40261 Y2.77787
G01 X17.50832 Y2.64902
G01 X17.51693 Y2.63954
G01 X17.52658 Y2.62989
G01 X17.53606 Y2.62136
G01 X17.66484 Y2.51564
G01 X17.69748 Y2.49385
G01 X17.84441 Y2.41526
G01 X17.86217 Y2.40685
G01 X17.88066 Y2.40030
G01 X18.04005 Y2.35189
G01 X18.07850 Y2.34429
G01 X18.24439 Y2.32791
G01 X18.28355 Y2.32791
G01 X18.44939 Y2.34429
G01 X18.48782 Y2.35189
G01 X18.64728 Y2.40030
G01 X18.66580 Y2.40685
G01 X18.68355 Y2.41526
G01 X18.83047 Y2.49385
G01 X18.86311 Y2.51564
G01 X18.99188 Y2.62136
G01 X19.00118 Y2.62974
G01 X19.01121 Y2.63977
G01 X19.01962 Y2.64902
G01 X19.12534 Y2.77787
G01 X19.14713 Y2.81043
G01 X19.22567 Y2.95737
G01 X19.24068 Y2.99364
G01 X19.28901 Y3.15305
G01 X19.29381 Y3.17208
G01 X19.29668 Y3.19156
G01 X19.31302 Y3.35732
G01 X19.31393 Y3.37696
G01 X19.31302 Y3.39659
G01 X19.29668 Y3.56238
G01 X19.29381 Y3.58183
G01 X19.28901 Y3.60088
G01 X19.24068 Y3.76032
G01 X19.22567 Y3.79649
G01 X19.14713 Y3.94350
G01 X19.12534 Y3.97609
G01 X19.01962 Y4.10492
G01 X19.00639 Y4.11940
G01 X18.99188 Y4.13263
G01 X18.86311 Y4.23835
G01 X18.83047 Y4.26011
G01 X18.68355 Y4.33862
G01 X18.66580 Y4.34701
G01 X18.64728 Y4.35366
G01 X18.48782 Y4.40200
G01 X18.44939 Y4.40967
G01 X18.28355 Y4.42598
G01 X18.24439 Y4.42598
G01 X18.07850 Y4.40967
G01 X18.04005 Y4.40200
G01 X17.88066 Y4.35366
G01 X17.86217 Y4.34701
G01 X17.84441 Y4.33862
G01 X17.69748 Y4.26011
G01 X17.66484 Y4.23835
G01 X17.53606 Y4.13263
G01 X17.52148 Y4.11940
G01 X17.50832 Y4.10492
G01 X17.40261 Y3.97609
G01 X17.38084 Y3.94350
G01 X17.30230 Y3.79649
G01 X17.28729 Y3.76032
G01 X17.23893 Y3.60088
G01 X17.23413 Y3.58183
G01 X17.23128 Y3.56238
G01 X17.21493 Y3.39659
G01 X17.21394 Y3.37696
G01 X17.31396 Y3.37696
G01 X17.31444 Y3.38679
G01 X17.33080 Y3.55257
G01 X17.33220 Y3.56232
G01 X17.33464 Y3.57180
G01 X17.38300 Y3.73129
G01 X17.39047 Y3.74934
G01 X17.46900 Y3.89636
G01 X17.47408 Y3.90477
G01 X17.47990 Y3.91267
G01 X17.58561 Y4.04147
G01 X17.59224 Y4.04873
G01 X17.59951 Y4.05529
G01 X17.72829 Y4.16098
G01 X17.74457 Y4.17192
G01 X17.89156 Y4.25044
G01 X17.90040 Y4.25463
G01 X17.90962 Y4.25798
G01 X18.06908 Y4.30629
G01 X18.08831 Y4.31018
G01 X18.25419 Y4.32648
G01 X18.27375 Y4.32648
G01 X18.43956 Y4.31018
G01 X18.45879 Y4.30629
G01 X18.61825 Y4.25798
G01 X18.62755 Y4.25463
G01 X18.63639 Y4.25044
G01 X18.78330 Y4.17192
G01 X18.79966 Y4.16098
G01 X18.92844 Y4.05529
G01 X18.93570 Y4.04873
G01 X18.94233 Y4.04147
G01 X19.04804 Y3.91267
G01 X19.05894 Y3.89636
G01 X19.13748 Y3.74934
G01 X19.14162 Y3.74053
G01 X19.14497 Y3.73129
G01 X19.19331 Y3.57180
G01 X19.19575 Y3.56232
G01 X19.19714 Y3.55257
G01 X19.21350 Y3.38679
G01 X19.21398 Y3.37696
G01 X19.21350 Y3.36713
G01 X19.19714 Y3.20137
G01 X19.19575 Y3.19161
G01 X19.19331 Y3.18214
G01 X19.14497 Y3.02263
G01 X19.13748 Y3.00457
G01 X19.05894 Y2.85760
G01 X19.04804 Y2.84132
G01 X18.94233 Y2.71247
G01 X18.93570 Y2.70523
G01 X18.92844 Y2.69862
G01 X18.79966 Y2.59288
G01 X18.78330 Y2.58199
G01 X18.63639 Y2.50345
G01 X18.62755 Y2.49926
G01 X18.61825 Y2.49596
G01 X18.45879 Y2.44762
G01 X18.43956 Y2.44381
G01 X18.27375 Y2.42748
G01 X18.25419 Y2.42748
G01 X18.08831 Y2.44381
G01 X18.06908 Y2.44762
G01 X17.90962 Y2.49596
G01 X17.90040 Y2.49926
G01 X17.89156 Y2.50345
G01 X17.74457 Y2.58199
G01 X17.72829 Y2.59288
G01 X17.59951 Y2.69862
G01 X17.59224 Y2.70523
G01 X17.58561 Y2.71247
G01 X17.47990 Y2.84132
G01 X17.46900 Y2.85760
G01 X17.39047 Y3.00457
G01 X17.38300 Y3.02263
G01 X17.33464 Y3.18214
G01 X17.33220 Y3.19161
G01 X17.33080 Y3.20137
G01 X17.31444 Y3.36713
G01 X17.31396 Y3.37696
G01 X17.21394 Y3.37696
G01 X17.21394 Y5.91693
G01 X17.21493 Y5.93654
G01 X17.23128 Y6.10238
G01 X17.23413 Y6.12183
G01 X17.23893 Y6.14088
G01 X17.28729 Y6.30029
G01 X17.30230 Y6.33649
G01 X17.38084 Y6.48348
G01 X17.38899 Y6.49707
G01 X17.39448 Y6.50514
G01 X17.40261 Y6.51609
G01 X17.50832 Y6.64489
G01 X17.51658 Y6.65401
G01 X17.52694 Y6.66432
G01 X17.53606 Y6.67261
G01 X17.66484 Y6.77832
G01 X17.69748 Y6.80009
G01 X17.84441 Y6.87865
G01 X17.88066 Y6.89364
G01 X18.04005 Y6.94205
G01 X18.07850 Y6.94969
G01 X18.24439 Y6.96603
G01 X18.26395 Y6.96699
G01 X18.28355 Y6.96603
