( pcb2gcode 2.5.0 )
( Software-independent Gcode )

G94 ( Millimeters per minute feed rate. )
G21 ( Units == Millimeters. )

G90 ( Absolute coordinates. )
G00 S10000 ( RPM spindle speed. )
G64 P0.01000 ( set maximum deviation from commanded toolpath )
G01 F600.00000 ( Feedrate. )


G00 Z10.00000 (Retract to tool change height)
T1
M5      (Spindle stop.)
G04 P1.00000 (Wait for spindle to stop)
(MSG, Change tool bit to cutter diameter 3.00000mm)
M6      (Tool change.)
M0      (Temporary machine stop.)
M3 ( Spindle on clockwise. )
G04 P1.00000 (Wait for spindle to get up to speed)
G04 P0 ( dwell for no time -- G64 should not smooth over this point )
G00 Z5.00000 ( retract )

G00 X-1.50000 Y0.00000 ( rapid move to begin. )
G01 Z-0.50000 F60.00000 ( plunge. )
G04 P0 ( dwell for no time -- G64 should not smooth over this point )
G01 F600.00000
G01 X-1.50000 Y69.99996
G01 X-1.47114 Y70.29259
G01 X-1.38580 Y70.57398
G01 X-1.24717 Y70.83334
G01 X-1.06065 Y71.06064
G01 X-0.83332 Y71.24715
G01 X-0.57401 Y71.38579
G01 X-0.29261 Y71.47115
G01 X0.00000 Y71.49998
G01 X99.99993 Y71.49998
G01 X100.29261 Y71.47115
G01 X100.57397 Y71.38579
G01 X100.83330 Y71.24715
G01 X101.06063 Y71.06064
G01 X101.24714 Y70.83334
G01 X101.38578 Y70.57398
G01 X101.47115 Y70.29259
G01 X101.49995 Y69.99996
G01 X101.49995 Y0.00000
G01 X101.47714 Y-0.26043
G01 X101.40950 Y-0.51303
G01 X101.29901 Y-0.74999
G01 X101.14900 Y-0.96413
G01 X100.96414 Y-1.14905
G01 X100.74994 Y-1.29903
G01 X100.51301 Y-1.40952
G01 X100.26043 Y-1.47719
G01 X99.99993 Y-1.50000
G01 X0.00000 Y-1.50000
G01 X-0.29261 Y-1.47114
G01 X-0.57401 Y-1.38580
G01 X-0.83332 Y-1.24717
G01 X-1.06065 Y-1.06065
G01 X-1.24717 Y-0.83332
G01 X-1.38580 Y-0.57401
G01 X-1.47114 Y-0.29261
G01 X-1.50000 Y0.00000
G01 Z-1.00000 F60.00000 ( plunge. )
G04 P0 ( dwell for no time -- G64 should not smooth over this point )
G01 F600.00000
G01 X-1.50000 Y69.99996
G01 X-1.47114 Y70.29259
G01 X-1.38580 Y70.57398
G01 X-1.24717 Y70.83334
G01 X-1.06065 Y71.06064
G01 X-0.83332 Y71.24715
G01 X-0.57401 Y71.38579
G01 X-0.29261 Y71.47115
G01 X0.00000 Y71.49998
G01 X99.99993 Y71.49998
G01 X100.29261 Y71.47115
G01 X100.57397 Y71.38579
G01 X100.83330 Y71.24715
G01 X101.06063 Y71.06064
G01 X101.24714 Y70.83334
G01 X101.38578 Y70.57398
G01 X101.47115 Y70.29259
G01 X101.49995 Y69.99996
G01 X101.49995 Y0.00000
G01 X101.47714 Y-0.26043
G01 X101.40950 Y-0.51303
G01 X101.29901 Y-0.74999
G01 X101.14900 Y-0.96413
G01 X100.96414 Y-1.14905
G01 X100.74994 Y-1.29903
G01 X100.51301 Y-1.40952
G01 X100.26043 Y-1.47719
G01 X99.99993 Y-1.50000
G01 X0.00000 Y-1.50000
G01 X-0.29261 Y-1.47114
G01 X-0.57401 Y-1.38580
G01 X-0.83332 Y-1.24717
G01 X-1.06065 Y-1.06065
G01 X-1.24717 Y-0.83332
G01 X-1.38580 Y-0.57401
G01 X-1.47114 Y-0.29261
G01 X-1.50000 Y0.00000
G01 Z-1.50000 F60.00000 ( plunge. )
G04 P0 ( dwell for no time -- G64 should not smooth over this point )
G01 F600.00000
G01 X-1.50000 Y69.99996
G01 X-1.47114 Y70.29259
G01 X-1.38580 Y70.57398
G01 X-1.24717 Y70.83334
G01 X-1.06065 Y71.06064
G01 X-0.83332 Y71.24715
G01 X-0.57401 Y71.38579
G01 X-0.29261 Y71.47115
G01 X0.00000 Y71.49998
G01 X99.99993 Y71.49998
G01 X100.29261 Y71.47115
G01 X100.57397 Y71.38579
G01 X100.83330 Y71.24715
G01 X101.06063 Y71.06064
G01 X101.24714 Y70.83334
G01 X101.38578 Y70.57398
G01 X101.47115 Y70.29259
G01 X101.49995 Y69.99996
G01 X101.49995 Y0.00000
G01 X101.47714 Y-0.26043
G01 X101.40950 Y-0.51303
G01 X101.29901 Y-0.74999
G01 X101.14900 Y-0.96413
G01 X100.96414 Y-1.14905
G01 X100.74994 Y-1.29903
G01 X100.51301 Y-1.40952
G01 X100.26043 Y-1.47719
G01 X99.99993 Y-1.50000
G01 X0.00000 Y-1.50000
G01 X-0.29261 Y-1.47114
G01 X-0.57401 Y-1.38580
G01 X-0.83332 Y-1.24717
G01 X-1.06065 Y-1.06065
G01 X-1.24717 Y-0.83332
G01 X-1.38580 Y-0.57401
G01 X-1.47114 Y-0.29261
G01 X-1.50000 Y0.00000
G01 Z-2.00000 F60.00000 ( plunge. )
G04 P0 ( dwell for no time -- G64 should not smooth over this point )
G01 F600.00000
G01 X-1.50000 Y69.99996
G01 X-1.47114 Y70.29259
G01 X-1.38580 Y70.57398
G01 X-1.24717 Y70.83334
G01 X-1.06065 Y71.06064
G01 X-0.83332 Y71.24715
G01 X-0.57401 Y71.38579
G01 X-0.29261 Y71.47115
G01 X0.00000 Y71.49998
G01 X99.99993 Y71.49998
G01 X100.29261 Y71.47115
G01 X100.57397 Y71.38579
G01 X100.83330 Y71.24715
G01 X101.06063 Y71.06064
G01 X101.24714 Y70.83334
G01 X101.38578 Y70.57398
G01 X101.47115 Y70.29259
G01 X101.49995 Y69.99996
G01 X101.49995 Y0.00000
G01 X101.47714 Y-0.26043
G01 X101.40950 Y-0.51303
G01 X101.29901 Y-0.74999
G01 X101.14900 Y-0.96413
G01 X100.96414 Y-1.14905
G01 X100.74994 Y-1.29903
G01 X100.51301 Y-1.40952
G01 X100.26043 Y-1.47719
G01 X99.99993 Y-1.50000
G01 X0.00000 Y-1.50000
G01 X-0.29261 Y-1.47114
G01 X-0.57401 Y-1.38580
G01 X-0.83332 Y-1.24717
G01 X-1.06065 Y-1.06065
G01 X-1.24717 Y-0.83332
G01 X-1.38580 Y-0.57401
G01 X-1.47114 Y-0.29261
G01 X-1.50000 Y0.00000
G01 Z-2.50000 F60.00000 ( plunge. )
G04 P0 ( dwell for no time -- G64 should not smooth over this point )
G01 F600.00000
G01 X-1.50000 Y69.99996
G01 X-1.47114 Y70.29259
G01 X-1.38580 Y70.57398
G01 X-1.24717 Y70.83334
G01 X-1.06065 Y71.06064
G01 X-0.83332 Y71.24715
G01 X-0.57401 Y71.38579
G01 X-0.29261 Y71.47115
G01 X0.00000 Y71.49998
G01 X99.99993 Y71.49998
G01 X100.29261 Y71.47115
G01 X100.57397 Y71.38579
G01 X100.83330 Y71.24715
G01 X101.06063 Y71.06064
G01 X101.24714 Y70.83334
G01 X101.38578 Y70.57398
G01 X101.47115 Y70.29259
G01 X101.49995 Y69.99996
G01 X101.49995 Y0.00000
G01 X101.47714 Y-0.26043
G01 X101.40950 Y-0.51303
G01 X101.29901 Y-0.74999
G01 X101.14900 Y-0.96413
G01 X100.96414 Y-1.14905
G01 X100.74994 Y-1.29903
G01 X100.51301 Y-1.40952
G01 X100.26043 Y-1.47719
G01 X99.99993 Y-1.50000
G01 X0.00000 Y-1.50000
G01 X-0.29261 Y-1.47114
G01 X-0.57401 Y-1.38580
G01 X-0.83332 Y-1.24717
G01 X-1.06065 Y-1.06065
G01 X-1.24717 Y-0.83332
G01 X-1.38580 Y-0.57401
G01 X-1.47114 Y-0.29261
G01 X-1.50000 Y0.00000

G04 P0 ( dwell for no time -- G64 should not smooth over this point )
G00 Z10.000000 ( retract )

M5 ( Spindle off. )
G04 P1.000000
M9 ( Coolant off. )
M2 ( Program end. )

