( pcb2gcode 2.4.0 )
( Software-independent Gcode )

G94 ( Millimeters per minute feed rate. )
G21 ( Units == Millimeters. )

G90 ( Absolute coordinates. )
G00 S10000 ( RPM spindle speed. )
G64 P0.01000 ( set maximum deviation from commanded toolpath )
G01 F600.00000 ( Feedrate. )


G00 Z50.00000 (Retract to tool change height)
T0
M5      (Spindle stop.)
G04 P1.00000 (Wait for spindle to stop)
(MSG, Change tool bit to mill diameter 0.40000mm)
M6      (Tool change.)
M0      (Temporary machine stop.)
M3 ( Spindle on clockwise. )
G04 P1.00000 (Wait for spindle to get up to speed)
G04 P0 ( dwell for no time -- G64 should not smooth over this point )
G00 Z1.00000 ( retract )

G00 X6.35505 Y47.95977 ( rapid move to begin. )
G01 F300.00000
( Mill infeed pass 1/1 )
G01 Z-0.05000
G04 P0 ( dwell for no time -- G64 should not smooth over this point )
G01 F600.00000
G01 X6.35505 Y47.95977
G01 X6.33559 Y47.98027
G01 X6.25353 Y48.05649
G01 X6.24809 Y48.06195
G01 X6.15487 Y48.16307
G01 X4.62163 Y48.16307
G01 X4.54357 Y48.15537
G01 X4.46854 Y48.13261
G01 X4.39940 Y48.09566
G01 X4.33877 Y48.04592
G01 X4.28904 Y47.98529
G01 X4.25206 Y47.91616
G01 X4.22930 Y47.84110
G01 X4.22163 Y47.76307
G01 X4.22163 Y46.06307
G01 X4.42163 Y46.06307
G01 X4.22163 Y46.06307
G01 X4.22930 Y45.98504
G01 X4.25206 Y45.90999
G01 X4.28904 Y45.84085
G01 X4.33877 Y45.78022
G01 X4.39940 Y45.73049
G01 X4.46854 Y45.69353
G01 X4.54357 Y45.67075
G01 X4.62163 Y45.66307
G01 X4.82612 Y45.66307
G01 X5.00080 Y45.70018
G01 X5.00588 Y45.70112
G01 X5.10057 Y45.71616
G01 X5.10052 Y45.71644
G01 X5.10057 Y45.71616
G01 X5.10580 Y45.71687
G01 X5.28350 Y45.73554
G01 X5.28871 Y45.73595
G01 X5.37751 Y45.74062
G01 X5.37748 Y45.74090
G01 X5.37751 Y45.74062
G01 X5.38276 Y45.74077
G01 X5.56046 Y45.74077
G01 X5.56569 Y45.74062
G01 X5.65449 Y45.73595
G01 X5.65452 Y45.73620
G01 X5.65449 Y45.73595
G01 X5.65970 Y45.73554
G01 X5.83740 Y45.71687
G01 X5.84263 Y45.71616
G01 X5.90890 Y45.70564
G01 X6.06295 Y45.80384
G01 X6.07405 Y45.80996
G01 X6.14504 Y45.84344
G01 X6.14471 Y45.84415
G01 X6.14504 Y45.84344
G01 X6.15401 Y45.84715
G01 X6.19854 Y45.86307
G01 X6.32162 Y45.86307
G01 X6.36064 Y45.86691
G01 X6.39815 Y45.87829
G01 X6.43272 Y45.89678
G01 X6.46305 Y45.92165
G01 X6.48792 Y45.95195
G01 X6.50638 Y45.98654
G01 X6.51779 Y46.02406
G01 X6.52162 Y46.06307
G01 X6.52162 Y47.76307
G01 X6.51779 Y47.80208
G01 X6.50638 Y47.83960
G01 X6.48792 Y47.87420
G01 X6.46305 Y47.90450
G01 X6.43272 Y47.92936
G01 X6.39815 Y47.94786
G01 X6.36064 Y47.95923
G01 X6.35505 Y47.95977
G01 X6.32162 Y47.96307
G01 X4.62163 Y47.96307
G01 X4.58261 Y47.95923
G01 X4.54507 Y47.94786
G01 X4.51050 Y47.92936
G01 X4.48020 Y47.90450
G01 X4.45533 Y47.87420
G01 X4.43684 Y47.83960
G01 X4.42546 Y47.80208
G01 X4.42163 Y47.76307
G01 X4.42163 Y46.06307
G01 X4.42546 Y46.02406
G01 X4.43684 Y45.98654
G01 X4.45533 Y45.95195
G01 X4.48020 Y45.92165
G01 X4.51050 Y45.89678
G01 X4.54507 Y45.87829
G01 X4.58261 Y45.86691
G01 X4.62163 Y45.86307
G01 X6.19854 Y45.86307
G04 P0 ( dwell for no time -- G64 should not smooth over this point )
G00 Z1.00000 ( retract )

G00 X6.01764 Y45.26849 ( rapid move to begin. )
G01 F300.00000
( Mill infeed pass 1/1 )
G01 Z-0.05000
G04 P0 ( dwell for no time -- G64 should not smooth over this point )
G01 F600.00000
G01 X6.01764 Y45.26849
G01 X5.99653 Y45.29660
G01 X5.99353 Y45.30079
G01 X5.95155 Y45.36310
G01 X5.94944 Y45.36638
G01 X5.91479 Y45.42241
G01 X5.91289 Y45.42561
G01 X5.86933 Y45.50229
G01 X5.86811 Y45.50448
G01 X5.86511 Y45.51009
G01 X5.81388 Y45.51824
G01 X5.64139 Y45.53643
G01 X5.55782 Y45.54077
G01 X5.38538 Y45.54077
G01 X5.30181 Y45.53643
G01 X5.12932 Y45.51824
G01 X5.03981 Y45.50407
G01 X4.87370 Y45.46871
G01 X4.81149 Y45.43280
G01 X4.66775 Y45.32835
G01 X4.60560 Y45.27240
G01 X4.48670 Y45.14034
G01 X4.43755 Y45.07268
G01 X4.34870 Y44.91880
G01 X4.31469 Y44.84240
G01 X4.25978 Y44.67341
G01 X4.24238 Y44.59160
G01 X4.22381 Y44.41489
G01 X4.22381 Y44.33125
G01 X4.42272 Y44.35216
G01 X4.22381 Y44.33125
G01 X4.24238 Y44.15454
G01 X4.25978 Y44.07273
G01 X4.31469 Y43.90374
G01 X4.34870 Y43.82734
G01 X4.43755 Y43.67344
G01 X4.48670 Y43.60580
G01 X4.60560 Y43.47375
G01 X4.66775 Y43.41779
G01 X4.81149 Y43.31335
G01 X4.88393 Y43.27154
G01 X5.03765 Y43.20308
G01 X5.63689 Y43.20308
G01 X5.72945 Y43.30039
G01 X5.73679 Y43.30738
G01 X5.73753 Y43.30801
G01 X5.79020 Y43.35815
G01 X5.79412 Y43.36168
G01 X5.82015 Y43.38398
G01 X5.97796 Y43.45424
G01 X6.01418 Y43.47514
G01 X6.15795 Y43.57959
G01 X6.18901 Y43.60758
G01 X6.30791 Y43.73963
G01 X6.33249 Y43.77344
G01 X6.42134 Y43.92734
G01 X6.43834 Y43.96554
G01 X6.49325 Y44.13455
G01 X6.50194 Y44.17545
G01 X6.52053 Y44.35216
G01 X6.52053 Y44.39399
G01 X6.50194 Y44.57070
G01 X6.49325 Y44.61159
G01 X6.43834 Y44.78060
G01 X6.42134 Y44.81880
G01 X6.33249 Y44.97268
G01 X6.30791 Y45.00651
G01 X6.18901 Y45.13856
G01 X6.15795 Y45.16656
G01 X6.01764 Y45.26849
G01 X6.01418 Y45.27100
G01 X5.97796 Y45.29190
G01 X5.81563 Y45.36417
G01 X5.77585 Y45.37710
G01 X5.60204 Y45.41405
G01 X5.56046 Y45.41842
G01 X5.38276 Y45.41842
G01 X5.34118 Y45.41405
G01 X5.16737 Y45.37710
G01 X5.12759 Y45.36417
G01 X4.96526 Y45.29190
G01 X4.92907 Y45.27100
G01 X4.78530 Y45.16656
G01 X4.75424 Y45.13856
G01 X4.63532 Y45.00651
G01 X4.61076 Y44.97268
G01 X4.52191 Y44.81880
G01 X4.50489 Y44.78060
G01 X4.44997 Y44.61159
G01 X4.44129 Y44.57070
G01 X4.42272 Y44.39399
G01 X4.42272 Y44.35216
G01 X4.44129 Y44.17545
G01 X4.44997 Y44.13455
G01 X4.50489 Y43.96554
G01 X4.52191 Y43.92734
G01 X4.61076 Y43.77344
G01 X4.63532 Y43.73963
G01 X4.75424 Y43.60758
G01 X4.78530 Y43.57959
G01 X4.92907 Y43.47514
G01 X4.96526 Y43.45424
G01 X5.12759 Y43.38195
G01 X5.16737 Y43.36905
G01 X5.34118 Y43.33209
G01 X5.38276 Y43.32772
G01 X5.56046 Y43.32772
G01 X5.60204 Y43.33209
G01 X5.77585 Y43.36905
G01 X5.81563 Y43.38195
G01 X5.82015 Y43.38398
G01 X5.81693 Y43.10217
G01 X5.81621 Y43.10143
G01 X5.81690 Y43.10065
G01 X5.81726 Y43.10029
G01 X5.87519 Y43.04238
G01 X5.87540 Y43.04218
G01 X5.92518 Y42.99237
G01 X5.94735 Y42.97377
G01 X5.93907 Y43.00009
G01 X5.92429 Y43.06953
G01 X5.91995 Y43.10733
G01 X5.92284 Y43.14525
G01 X5.93285 Y43.18195
G01 X5.95251 Y43.23395
G01 X5.92569 Y43.21096
G01 X5.87354 Y43.16135
G01 X5.87123 Y43.15927
G01 X5.81693 Y43.10217
G01 X5.81690 Y43.10065
G01 X5.81378 Y42.82478
G01 X5.81563 Y42.82417
G01 X5.97796 Y42.75190
G01 X6.01418 Y42.73100
G01 X6.15795 Y42.62656
G01 X6.18901 Y42.59856
G01 X6.30791 Y42.46651
G01 X6.33249 Y42.43268
G01 X6.42134 Y42.27880
G01 X6.43834 Y42.24063
G01 X6.49325 Y42.07159
G01 X6.50194 Y42.03070
G01 X6.52053 Y41.85399
G01 X6.52053 Y41.81216
G01 X6.50194 Y41.63545
G01 X6.49325 Y41.59455
G01 X6.43834 Y41.42554
G01 X6.42134 Y41.38734
G01 X6.33249 Y41.23344
G01 X6.30791 Y41.19963
G01 X6.18901 Y41.06758
G01 X6.15795 Y41.03959
G01 X6.01418 Y40.93514
G01 X5.97796 Y40.91424
G01 X5.82010 Y40.84393
G01 X5.81563 Y40.84195
G01 X5.77585 Y40.82905
G01 X5.60204 Y40.79209
G01 X5.56046 Y40.78772
G01 X5.38276 Y40.78772
G01 X5.34118 Y40.79209
G01 X5.16737 Y40.82905
G01 X5.12759 Y40.84195
G01 X4.96526 Y40.91424
G01 X4.92907 Y40.93514
G01 X4.78530 Y41.03959
G01 X4.75424 Y41.06758
G01 X4.63532 Y41.19963
G01 X4.61076 Y41.23344
G01 X4.52191 Y41.38734
G01 X4.50489 Y41.42554
G01 X4.44997 Y41.59455
G01 X4.44129 Y41.63545
G01 X4.42272 Y41.81216
G01 X4.22381 Y41.79125
G01 X4.42272 Y41.81216
G01 X4.42272 Y41.85399
G01 X4.44129 Y42.03070
G01 X4.44997 Y42.07159
G01 X4.50489 Y42.24063
G01 X4.52191 Y42.27880
G01 X4.61076 Y42.43268
G01 X4.63532 Y42.46651
G01 X4.75424 Y42.59856
G01 X4.78530 Y42.62656
G01 X4.92907 Y42.73100
G01 X4.96526 Y42.75190
G01 X5.12759 Y42.82417
G01 X5.16737 Y42.83710
G01 X5.34118 Y42.87405
G01 X5.38276 Y42.87842
G01 X5.56046 Y42.87842
G01 X5.60204 Y42.87405
G01 X5.77585 Y42.83710
G01 X5.81378 Y42.82478
G01 X5.79335 Y42.84190
G01 X5.78685 Y42.84784
G01 X5.73377 Y42.90095
G01 X5.67410 Y42.96062
G01 X5.67070 Y42.96420
G01 X5.63544 Y43.00308
G01 X5.29247 Y43.00308
G01 X5.11078 Y43.00308
G01 X5.03773 Y43.00308
G01 X4.88393 Y42.93461
G01 X4.81149 Y42.89280
G01 X4.66775 Y42.78835
G01 X4.60560 Y42.73240
G01 X4.48670 Y42.60034
G01 X4.43755 Y42.53268
G01 X4.34870 Y42.37880
G01 X4.31469 Y42.30240
G01 X4.25978 Y42.13341
G01 X4.24238 Y42.05160
G01 X4.22381 Y41.87489
G01 X4.22381 Y41.79125
G01 X4.24238 Y41.61454
G01 X4.25978 Y41.53273
G01 X4.31469 Y41.36374
G01 X4.34870 Y41.28734
G01 X4.43755 Y41.13344
G01 X4.48670 Y41.06580
G01 X4.60560 Y40.93375
G01 X4.66775 Y40.87779
G01 X4.81149 Y40.77335
G01 X4.88393 Y40.73154
G01 X5.03765 Y40.66308
G01 X5.63689 Y40.66308
G01 X5.72945 Y40.76039
G01 X5.73679 Y40.76738
G01 X5.73753 Y40.76801
G01 X5.79020 Y40.81815
G01 X5.79412 Y40.82168
G01 X5.82010 Y40.84393
G01 X5.97796 Y40.91424
G01 X5.91080 Y40.65679
G01 X5.87354 Y40.62135
G01 X5.87123 Y40.61927
G01 X5.81621 Y40.56143
G01 X5.81726 Y40.56029
G01 X5.87148 Y40.50606
G01 X5.87519 Y40.50238
G01 X5.87540 Y40.50218
G01 X5.92518 Y40.45237
G01 X5.94735 Y40.43377
G01 X5.93907 Y40.46009
G01 X5.92429 Y40.52953
G01 X5.91995 Y40.56733
G01 X5.92284 Y40.60525
G01 X5.93285 Y40.64195
G01 X5.95251 Y40.69395
G01 X5.92569 Y40.67096
G01 X5.91080 Y40.65679
G01 X5.87148 Y40.50606
G01 X5.81378 Y40.28478
G01 X5.81563 Y40.28417
G01 X5.97796 Y40.21190
G01 X6.01418 Y40.19100
G01 X6.15795 Y40.08656
G01 X6.18901 Y40.05856
G01 X6.30791 Y39.92651
G01 X6.33249 Y39.89268
G01 X6.42134 Y39.73880
G01 X6.43834 Y39.70060
G01 X6.49325 Y39.53159
G01 X6.50194 Y39.49070
G01 X6.52053 Y39.31399
G01 X6.52053 Y39.27216
G01 X6.50194 Y39.09545
G01 X6.49325 Y39.05455
G01 X6.43834 Y38.88554
G01 X6.42134 Y38.84734
G01 X6.33249 Y38.69344
G01 X6.30791 Y38.65963
G01 X6.18901 Y38.52758
G01 X6.15795 Y38.49959
G01 X6.01418 Y38.39514
G01 X5.97796 Y38.37424
G01 X5.82010 Y38.30393
G01 X5.81563 Y38.30195
G01 X5.77585 Y38.28905
G01 X5.60204 Y38.25209
G01 X5.56046 Y38.24772
G01 X5.38276 Y38.24772
G01 X5.34118 Y38.25209
G01 X5.16737 Y38.28905
G01 X5.12759 Y38.30195
G01 X4.96526 Y38.37424
G01 X4.92907 Y38.39514
G01 X4.78530 Y38.49959
G01 X4.75424 Y38.52758
G01 X4.63532 Y38.65963
G01 X4.61076 Y38.69344
G01 X4.52191 Y38.84734
G01 X4.50489 Y38.88554
G01 X4.44997 Y39.05455
G01 X4.44129 Y39.09545
G01 X4.42272 Y39.27216
G01 X4.22381 Y39.25125
G01 X4.42272 Y39.27216
G01 X4.42272 Y39.31399
G01 X4.44129 Y39.49070
G01 X4.44997 Y39.53159
G01 X4.50489 Y39.70060
G01 X4.52191 Y39.73880
G01 X4.61076 Y39.89268
G01 X4.63532 Y39.92651
G01 X4.75424 Y40.05856
G01 X4.78530 Y40.08656
G01 X4.92907 Y40.19100
G01 X4.96526 Y40.21190
G01 X5.12759 Y40.28417
G01 X5.16737 Y40.29710
G01 X5.34118 Y40.33405
G01 X5.38276 Y40.33842
G01 X5.56046 Y40.33842
G01 X5.60204 Y40.33405
G01 X5.77585 Y40.29710
G01 X5.81378 Y40.28478
G01 X5.79335 Y40.30190
G01 X5.78685 Y40.30784
G01 X5.73377 Y40.36095
G01 X5.67410 Y40.42062
G01 X5.67070 Y40.42420
G01 X5.63544 Y40.46308
G01 X5.56044 Y40.46308
G01 X5.03773 Y40.46308
G01 X4.88393 Y40.39461
G01 X4.81149 Y40.35280
G01 X4.66775 Y40.24835
G01 X4.60560 Y40.19240
G01 X4.48670 Y40.06034
G01 X4.43755 Y39.99268
G01 X4.34870 Y39.83880
G01 X4.31469 Y39.76240
G01 X4.25978 Y39.59341
G01 X4.24238 Y39.51160
G01 X4.22381 Y39.33489
G01 X4.22381 Y39.25125
G01 X4.24238 Y39.07454
G01 X4.25978 Y38.99273
G01 X4.31469 Y38.82374
G01 X4.34870 Y38.74734
G01 X4.43755 Y38.59344
G01 X4.48670 Y38.52580
G01 X4.60560 Y38.39375
G01 X4.66775 Y38.33779
G01 X4.81149 Y38.23335
G01 X4.88393 Y38.19154
G01 X5.03765 Y38.12308
G01 X5.63689 Y38.12308
G01 X5.72945 Y38.22039
G01 X5.73679 Y38.22738
G01 X5.73753 Y38.22801
G01 X5.79020 Y38.27815
G01 X5.79412 Y38.28168
G01 X5.82010 Y38.30393
G01 X5.97796 Y38.37424
G01 X5.91080 Y38.11679
G01 X5.87354 Y38.08135
G01 X5.87123 Y38.07927
G01 X5.81621 Y38.02143
G01 X5.81726 Y38.02029
G01 X5.87148 Y37.96606
G01 X5.87519 Y37.96238
G01 X5.87540 Y37.96218
G01 X5.92518 Y37.91237
G01 X5.94735 Y37.89377
G01 X5.93907 Y37.92009
G01 X5.92429 Y37.98953
G01 X5.91995 Y38.02733
G01 X5.92284 Y38.06525
G01 X5.93285 Y38.10195
G01 X5.95251 Y38.15395
G01 X5.92569 Y38.13096
G01 X5.91080 Y38.11679
G01 X5.87148 Y37.96606
G01 X5.81378 Y37.74478
G01 X5.81563 Y37.74417
G01 X5.97796 Y37.67190
G01 X6.01418 Y37.65100
G01 X6.15795 Y37.54656
G01 X6.18901 Y37.51856
G01 X6.30791 Y37.38651
G01 X6.33249 Y37.35268
G01 X6.42134 Y37.19880
G01 X6.43834 Y37.16060
G01 X6.49325 Y36.99159
G01 X6.50194 Y36.95070
G01 X6.52053 Y36.77399
G01 X6.52053 Y36.73216
G01 X6.50194 Y36.55545
G01 X6.49325 Y36.51455
G01 X6.43834 Y36.34554
G01 X6.42134 Y36.30734
G01 X6.33249 Y36.15344
G01 X6.30791 Y36.11963
G01 X6.18901 Y35.98758
G01 X6.15795 Y35.95959
G01 X6.01418 Y35.85514
G01 X5.97796 Y35.83424
G01 X5.82010 Y35.76393
G01 X5.81563 Y35.76195
G01 X5.77585 Y35.74907
G01 X5.60204 Y35.71212
G01 X5.56046 Y35.70772
G01 X5.38276 Y35.70772
G01 X5.34118 Y35.71212
G01 X5.16737 Y35.74907
G01 X5.12759 Y35.76195
G01 X4.96526 Y35.83424
G01 X4.92907 Y35.85514
G01 X4.78530 Y35.95959
G01 X4.75424 Y35.98758
G01 X4.63532 Y36.11963
G01 X4.61076 Y36.15344
G01 X4.52191 Y36.30734
G01 X4.50489 Y36.34554
G01 X4.44997 Y36.51455
G01 X4.44129 Y36.55545
G01 X4.42272 Y36.73216
G01 X4.22381 Y36.71125
G01 X4.42272 Y36.73216
G01 X4.42272 Y36.77399
G01 X4.44129 Y36.95070
G01 X4.44997 Y36.99159
G01 X4.50489 Y37.16060
G01 X4.52191 Y37.19880
G01 X4.61076 Y37.35268
G01 X4.63532 Y37.38651
G01 X4.75424 Y37.51856
G01 X4.78530 Y37.54656
G01 X4.92907 Y37.65100
G01 X4.96526 Y37.67190
G01 X5.12759 Y37.74417
G01 X5.16737 Y37.75710
G01 X5.34118 Y37.79405
G01 X5.38276 Y37.79842
G01 X5.56046 Y37.79842
G01 X5.60204 Y37.79405
G01 X5.77585 Y37.75710
G01 X5.81378 Y37.74478
G01 X5.79335 Y37.76190
G01 X5.78685 Y37.76784
G01 X5.73377 Y37.82095
G01 X5.67410 Y37.88062
G01 X5.67070 Y37.88420
G01 X5.63544 Y37.92308
G01 X5.56044 Y37.92308
G01 X5.29247 Y37.92308
G01 X5.11078 Y37.92308
G01 X5.03773 Y37.92308
G01 X4.88393 Y37.85461
G01 X4.81149 Y37.81280
G01 X4.66775 Y37.70835
G01 X4.60560 Y37.65240
G01 X4.48670 Y37.52034
G01 X4.43755 Y37.45268
G01 X4.34870 Y37.29880
G01 X4.31469 Y37.22240
G01 X4.25978 Y37.05341
G01 X4.24238 Y36.97160
G01 X4.22381 Y36.79489
G01 X4.22381 Y36.71125
G01 X4.24238 Y36.53454
G01 X4.25978 Y36.45273
G01 X4.31469 Y36.28374
G01 X4.34870 Y36.20734
G01 X4.43755 Y36.05344
G01 X4.48670 Y35.98580
G01 X4.60560 Y35.85375
G01 X4.66775 Y35.79782
G01 X4.81149 Y35.69337
G01 X4.88393 Y35.65154
G01 X5.03765 Y35.58308
G01 X5.63689 Y35.58308
G01 X5.72945 Y35.68039
G01 X5.73679 Y35.68740
G01 X5.73753 Y35.68801
G01 X5.79020 Y35.73815
G01 X5.79412 Y35.74168
G01 X5.82010 Y35.76393
G01 X5.97796 Y35.83424
G01 X5.91080 Y35.57681
G01 X5.87354 Y35.54138
G01 X5.87123 Y35.53927
G01 X5.81621 Y35.48143
G01 X5.81726 Y35.48029
G01 X5.87148 Y35.42606
G01 X5.87519 Y35.42238
G01 X5.87540 Y35.42218
G01 X5.92518 Y35.37237
G01 X5.94735 Y35.35377
G01 X5.93907 Y35.38009
G01 X5.92429 Y35.44953
G01 X5.91995 Y35.48735
G01 X5.92284 Y35.52525
G01 X5.93285 Y35.56198
G01 X5.95251 Y35.61395
G01 X5.92569 Y35.59096
G01 X5.91080 Y35.57681
G01 X5.87148 Y35.42606
G01 X5.81378 Y35.20478
G01 X5.81563 Y35.20417
G01 X5.97796 Y35.13190
G01 X6.01418 Y35.11100
G01 X6.15795 Y35.00656
G01 X6.18901 Y34.97856
G01 X6.30791 Y34.84651
G01 X6.33249 Y34.81268
G01 X6.42134 Y34.65880
G01 X6.43834 Y34.62060
G01 X6.49325 Y34.45159
G01 X6.50194 Y34.41070
G01 X6.52053 Y34.23399
G01 X6.52053 Y34.19216
G01 X6.50194 Y34.01545
G01 X6.49325 Y33.97455
G01 X6.43834 Y33.80554
G01 X6.42134 Y33.76734
G01 X6.33249 Y33.61344
G01 X6.30791 Y33.57963
G01 X6.18901 Y33.44758
G01 X6.15795 Y33.41959
G01 X6.01418 Y33.31514
G01 X5.97796 Y33.29424
G01 X5.82010 Y33.22393
G01 X5.81563 Y33.22195
G01 X5.77585 Y33.20905
G01 X5.60204 Y33.17209
G01 X5.56046 Y33.16772
G01 X5.38276 Y33.16772
G01 X5.34118 Y33.17209
G01 X5.16737 Y33.20905
G01 X5.12759 Y33.22195
G01 X4.96526 Y33.29424
G01 X4.92907 Y33.31514
G01 X4.78530 Y33.41959
G01 X4.75424 Y33.44758
G01 X4.63532 Y33.57963
G01 X4.61076 Y33.61344
G01 X4.52191 Y33.76734
G01 X4.50489 Y33.80554
G01 X4.44997 Y33.97455
G01 X4.44129 Y34.01545
G01 X4.42272 Y34.19216
G01 X4.22381 Y34.17125
G01 X4.42272 Y34.19216
G01 X4.42272 Y34.23399
G01 X4.44129 Y34.41070
G01 X4.44997 Y34.45159
G01 X4.50489 Y34.62060
G01 X4.52191 Y34.65880
G01 X4.61076 Y34.81268
G01 X4.63532 Y34.84651
G01 X4.75424 Y34.97856
G01 X4.78530 Y35.00656
G01 X4.92907 Y35.11100
G01 X4.96526 Y35.13190
G01 X5.12759 Y35.20417
G01 X5.16737 Y35.21710
G01 X5.34118 Y35.25405
G01 X5.38276 Y35.25842
G01 X5.56046 Y35.25842
G01 X5.60204 Y35.25405
G01 X5.77585 Y35.21710
G01 X5.81378 Y35.20478
G01 X5.79335 Y35.22190
G01 X5.78685 Y35.22784
G01 X5.73377 Y35.28095
G01 X5.67410 Y35.34062
G01 X5.67070 Y35.34420
G01 X5.63544 Y35.38308
G01 X5.03773 Y35.38308
G01 X4.88393 Y35.31461
G01 X4.81149 Y35.27280
G01 X4.66775 Y35.16835
G01 X4.60560 Y35.11240
G01 X4.48670 Y34.98034
G01 X4.43755 Y34.91268
G01 X4.34870 Y34.75880
G01 X4.31469 Y34.68240
G01 X4.25978 Y34.51341
G01 X4.24238 Y34.43160
G01 X4.22381 Y34.25489
G01 X4.22381 Y34.17125
G01 X4.24238 Y33.99454
G01 X4.25978 Y33.91273
G01 X4.31469 Y33.74374
G01 X4.34870 Y33.66734
G01 X4.43755 Y33.51344
G01 X4.48670 Y33.44580
G01 X4.60560 Y33.31375
G01 X4.66775 Y33.25779
G01 X4.81149 Y33.15335
G01 X4.88393 Y33.11154
G01 X5.03765 Y33.04308
G01 X5.63689 Y33.04308
G01 X5.72945 Y33.14039
G01 X5.73679 Y33.14738
G01 X5.73753 Y33.14801
G01 X5.79020 Y33.19815
G01 X5.79412 Y33.20168
G01 X5.82010 Y33.22393
G01 X5.97796 Y33.29424
G01 X5.91080 Y33.03679
G01 X5.87354 Y33.00135
G01 X5.87123 Y32.99927
G01 X5.81621 Y32.94143
G01 X5.81726 Y32.94029
G01 X5.87148 Y32.88606
G01 X5.87519 Y32.88238
G01 X5.87540 Y32.88218
G01 X5.92518 Y32.83237
G01 X5.94735 Y32.81377
G01 X5.93907 Y32.84009
G01 X5.92429 Y32.90953
G01 X5.91995 Y32.94733
G01 X5.92284 Y32.98525
G01 X5.93285 Y33.02195
G01 X5.95251 Y33.07395
G01 X5.92569 Y33.05096
G01 X5.91080 Y33.03679
G01 X5.87148 Y32.88606
G01 X5.81378 Y32.66478
G01 X5.81563 Y32.66417
G01 X5.97796 Y32.59190
G01 X6.01418 Y32.57100
G01 X6.15795 Y32.46656
G01 X6.18901 Y32.43856
G01 X6.30791 Y32.30651
G01 X6.33249 Y32.27268
G01 X6.42134 Y32.11880
G01 X6.43834 Y32.08060
G01 X6.49325 Y31.91159
G01 X6.50194 Y31.87070
G01 X6.52053 Y31.69399
G01 X6.52053 Y31.65216
G01 X6.50194 Y31.47545
G01 X6.49325 Y31.43455
G01 X6.43834 Y31.26554
G01 X6.42134 Y31.22734
G01 X6.33249 Y31.07344
G01 X6.30791 Y31.03963
G01 X6.18901 Y30.90758
G01 X6.15795 Y30.87959
G01 X6.01418 Y30.77514
G01 X5.97796 Y30.75424
G01 X5.82010 Y30.68393
G01 X5.81563 Y30.68195
G01 X5.77585 Y30.66905
G01 X5.60204 Y30.63209
G01 X5.56046 Y30.62772
G01 X5.38276 Y30.62772
G01 X5.34118 Y30.63209
G01 X5.16737 Y30.66905
G01 X5.12759 Y30.68195
G01 X4.96526 Y30.75424
G01 X4.92907 Y30.77514
G01 X4.78530 Y30.87959
G01 X4.75424 Y30.90758
G01 X4.63532 Y31.03963
G01 X4.61076 Y31.07344
G01 X4.52191 Y31.22734
G01 X4.50489 Y31.26554
G01 X4.44997 Y31.43455
G01 X4.44129 Y31.47545
G01 X4.42272 Y31.65216
G01 X4.22381 Y31.63125
G01 X4.42272 Y31.65216
G01 X4.42272 Y31.69399
G01 X4.44129 Y31.87070
G01 X4.44997 Y31.91159
G01 X4.50489 Y32.08060
G01 X4.52191 Y32.11880
G01 X4.61076 Y32.27268
G01 X4.63532 Y32.30651
G01 X4.75424 Y32.43856
G01 X4.78530 Y32.46656
G01 X4.92907 Y32.57100
G01 X4.96526 Y32.59190
G01 X5.12759 Y32.66417
G01 X5.16737 Y32.67710
G01 X5.34118 Y32.71405
G01 X5.38276 Y32.71842
G01 X5.56046 Y32.71842
G01 X5.60204 Y32.71405
G01 X5.77585 Y32.67710
G01 X5.81378 Y32.66478
G01 X5.79335 Y32.68190
G01 X5.78685 Y32.68784
G01 X5.73377 Y32.74095
G01 X5.67410 Y32.80062
G01 X5.67070 Y32.80420
G01 X5.63544 Y32.84308
G01 X5.56044 Y32.84308
G01 X5.03773 Y32.84308
G01 X4.88393 Y32.77461
G01 X4.81149 Y32.73280
G01 X4.66775 Y32.62835
G01 X4.60560 Y32.57240
G01 X4.48670 Y32.44034
G01 X4.43755 Y32.37268
G01 X4.34870 Y32.21880
G01 X4.31469 Y32.14240
G01 X4.25978 Y31.97341
G01 X4.24238 Y31.89160
G01 X4.22381 Y31.71489
G01 X4.22381 Y31.63125
G01 X4.24238 Y31.45454
G01 X4.25978 Y31.37273
G01 X4.31469 Y31.20374
G01 X4.34870 Y31.12734
G01 X4.43755 Y30.97344
G01 X4.48670 Y30.90580
G01 X4.60560 Y30.77375
G01 X4.66775 Y30.71779
G01 X4.81149 Y30.61335
G01 X4.88393 Y30.57154
G01 X5.03765 Y30.50308
G01 X5.63689 Y30.50308
G01 X5.72945 Y30.60039
G01 X5.73679 Y30.60738
G01 X5.73753 Y30.60801
G01 X5.79020 Y30.65815
G01 X5.79412 Y30.66168
G01 X5.82010 Y30.68393
G01 X5.97796 Y30.75424
G01 X5.91080 Y30.49679
G01 X5.87354 Y30.46135
G01 X5.87123 Y30.45927
G01 X5.81621 Y30.40143
G01 X5.81726 Y30.40029
G01 X5.87148 Y30.34606
G01 X5.87519 Y30.34238
G01 X5.87540 Y30.34218
G01 X5.92518 Y30.29237
G01 X5.94735 Y30.27377
G01 X5.93907 Y30.30009
G01 X5.92429 Y30.36953
G01 X5.91995 Y30.40733
G01 X5.92284 Y30.44525
G01 X5.93285 Y30.48195
G01 X5.95251 Y30.53395
G01 X5.92569 Y30.51096
G01 X5.91080 Y30.49679
G01 X5.87148 Y30.34606
G01 X5.81378 Y30.12478
G01 X5.77585 Y30.13710
G01 X5.60204 Y30.17405
G01 X5.56046 Y30.17842
G01 X5.38276 Y30.17842
G01 X5.34118 Y30.17405
G01 X5.16737 Y30.13710
G01 X5.12759 Y30.12417
G01 X4.96526 Y30.05190
G01 X4.92907 Y30.03100
G01 X4.78530 Y29.92656
G01 X4.75424 Y29.89856
G01 X4.63532 Y29.76651
G01 X4.61076 Y29.73268
G01 X4.52191 Y29.57880
G01 X4.50489 Y29.54060
G01 X4.44997 Y29.37159
G01 X4.44129 Y29.33070
G01 X4.42272 Y29.15399
G01 X4.42272 Y29.11216
G01 X4.22381 Y29.09125
G01 X4.42272 Y29.11216
G01 X4.44129 Y28.93545
G01 X4.44997 Y28.89455
G01 X4.50489 Y28.72554
G01 X4.52191 Y28.68734
G01 X4.61076 Y28.53344
G01 X4.63532 Y28.49963
G01 X4.75424 Y28.36758
G01 X4.78530 Y28.33959
G01 X4.92907 Y28.23514
G01 X4.96526 Y28.21424
G01 X5.12759 Y28.14195
G01 X5.16737 Y28.12905
G01 X5.34118 Y28.09209
G01 X5.38276 Y28.08772
G01 X5.56046 Y28.08772
G01 X5.60204 Y28.09209
G01 X5.77585 Y28.12905
G01 X5.81563 Y28.14195
G01 X5.97796 Y28.21424
G01 X6.01418 Y28.23514
G01 X6.15795 Y28.33959
G01 X6.18901 Y28.36758
G01 X6.30791 Y28.49963
G01 X6.33249 Y28.53344
G01 X6.42134 Y28.68734
G01 X6.43834 Y28.72554
G01 X6.46516 Y28.80807
G01 X6.54461 Y28.80807
G01 X6.63305 Y28.80807
G01 X6.65264 Y28.80903
G01 X6.67702 Y28.81144
G01 X6.69142 Y28.81429
G01 X6.67702 Y28.81144
G01 X6.65264 Y28.80903
G01 X6.63305 Y28.80807
G01 X6.54461 Y28.80807
G01 X6.48736 Y28.75081
G01 X6.48571 Y28.75203
G01 X6.48736 Y28.75081
G01 X6.47527 Y28.73616
G01 X6.46615 Y28.71950
G01 X6.46036 Y28.70141
G01 X6.45909 Y28.70192
G01 X6.46036 Y28.70141
G01 X6.44700 Y28.64005
G01 X6.40067 Y28.46717
G01 X6.37484 Y28.38787
G01 X6.30849 Y28.21508
G01 X6.30283 Y28.20240
G01 X6.27550 Y28.17779
G01 X6.13173 Y28.07335
G01 X6.05932 Y28.03154
G01 X5.90557 Y27.96308
G01 X5.03765 Y27.96308
G01 X4.88393 Y28.03154
G01 X4.81149 Y28.07335
G01 X4.66775 Y28.17779
G01 X4.60560 Y28.23375
G01 X4.48670 Y28.36580
G01 X4.43755 Y28.43344
G01 X4.34870 Y28.58734
G01 X4.31469 Y28.66374
G01 X4.25978 Y28.83273
G01 X4.24238 Y28.91454
G01 X4.22381 Y29.09125
G01 X4.22381 Y29.17489
G01 X4.24238 Y29.35160
G01 X4.25978 Y29.43341
G01 X4.31469 Y29.60240
G01 X4.34870 Y29.67880
G01 X4.43755 Y29.83268
G01 X4.48670 Y29.90034
G01 X4.60560 Y30.03240
G01 X4.66775 Y30.08835
G01 X4.81149 Y30.19280
G01 X4.88393 Y30.23461
G01 X5.03773 Y30.30308
G01 X5.11078 Y30.30308
G01 X5.29247 Y30.30308
G01 X5.56044 Y30.30308
G01 X5.63544 Y30.30308
G01 X5.67070 Y30.26420
G01 X5.67410 Y30.26062
G01 X5.73377 Y30.20095
G01 X5.78685 Y30.14784
G01 X5.79335 Y30.14190
G01 X5.81378 Y30.12478
G01 X5.81563 Y30.12417
G01 X5.97796 Y30.05190
G01 X6.01418 Y30.03100
G01 X6.15795 Y29.92656
G01 X6.18901 Y29.89856
G01 X6.30791 Y29.76651
G01 X6.33249 Y29.73268
G01 X6.37011 Y29.66750
G01 X6.43641 Y29.61706
G01 X6.44395 Y29.61185
G01 X6.47052 Y29.59521
G01 X6.46861 Y29.59087
G01 X6.47052 Y29.59521
G01 X6.48685 Y29.58698
G01 X6.50440 Y29.58185
G01 X6.52261 Y29.58000
G01 X6.54085 Y29.58150
G01 X6.54197 Y29.57174
G01 X6.54085 Y29.58150
G01 X6.55850 Y29.58630
G01 X6.60311 Y29.60293
G01 X6.61555 Y29.60857
G01 X6.68779 Y29.64743
G01 X6.61555 Y29.60857
G01 X6.60311 Y29.60293
G01 X6.55850 Y29.58630
G01 X6.54085 Y29.58150
G01 X6.52261 Y29.58000
G01 X6.50440 Y29.58185
G01 X6.48685 Y29.58698
G01 X6.47052 Y29.59521
G01 X6.44395 Y29.61185
G01 X6.43641 Y29.61706
G01 X6.37011 Y29.66750
G01 X6.42134 Y29.57880
G01 X6.43834 Y29.54060
G01 X6.46516 Y29.45808
G01 X6.49841 Y29.45808
G01 X6.68779 Y29.64743
G01 X8.97496 Y31.93463
G01 X8.97496 Y32.80001
G01 X8.97592 Y32.81962
G01 X8.97834 Y32.84400
G01 X8.98598 Y32.88246
G01 X8.99309 Y32.90590
G01 X9.00811 Y32.94214
G01 X9.01964 Y32.96373
G01 X9.04143 Y32.99635
G01 X9.05697 Y33.01530
G01 X9.07016 Y33.02983
G01 X10.07016 Y34.02982
G01 X10.08468 Y34.04301
G01 X10.10363 Y34.05855
G01 X10.13625 Y34.08034
G01 X10.15784 Y34.09188
G01 X10.19408 Y34.10689
G01 X10.21753 Y34.11400
G01 X10.25598 Y34.12164
G01 X10.28037 Y34.12406
G01 X10.29997 Y34.12502
G01 X11.34915 Y34.12502
G01 X11.48024 Y34.17224
G01 X11.48595 Y34.17476
G01 X11.53647 Y34.14895
G01 X11.54130 Y34.14664
G01 X11.58979 Y34.12502
G01 X11.34915 Y34.12502
G01 X11.58979 Y34.12502
G01 X11.87356 Y34.12505
G01 X11.88453 Y34.12147
G01 X11.92443 Y34.11075
G01 X12.04986 Y34.08408
G01 X12.08260 Y34.07890
G01 X12.20802 Y34.06571
G01 X12.23726 Y34.06416
G01 X12.36271 Y34.06416
G01 X12.39192 Y34.06571
G01 X12.51734 Y34.07890
G01 X12.55008 Y34.08408
G01 X12.67554 Y34.11075
G01 X12.71546 Y34.12149
G01 X12.72634 Y34.12502
G01 X13.01010 Y34.12502
G01 X13.05864 Y34.14664
G01 X13.06347 Y34.14895
G01 X13.13246 Y34.18420
G01 X13.13693 Y34.18664
G01 X13.26235 Y34.25903
G01 X13.26695 Y34.26188
G01 X13.36111 Y34.32327
G01 X13.36367 Y34.32502
G01 X13.43741 Y34.32502
G01 X13.44269 Y34.32103
G01 X13.44404 Y34.32004
G01 X13.49631 Y34.28207
G01 X13.50048 Y34.27920
G01 X13.58600 Y34.22345
G01 X13.59062 Y34.22063
G01 X13.59042 Y34.22027
G01 X13.59062 Y34.22063
G01 X13.64289 Y34.19045
G01 X13.64736 Y34.18801
G01 X13.71714 Y34.15233
G01 X13.72199 Y34.15002
G01 X13.77424 Y34.12675
G01 X13.77843 Y34.12502
G01 X13.01010 Y34.12502
G01 X13.77843 Y34.12502
G01 X14.54998 Y34.12502
G01 X14.56956 Y34.12406
G01 X14.59395 Y34.12164
G01 X14.63240 Y34.11400
G01 X14.65585 Y34.10689
G01 X14.69209 Y34.09188
G01 X14.71368 Y34.08034
G01 X14.74630 Y34.05855
G01 X14.76524 Y34.04301
G01 X14.77977 Y34.02982
G01 X14.84436 Y33.96523
G01 X15.95960 Y32.85002
G01 X16.75000 Y32.85002
G01 X16.76044 Y32.84974
G01 X16.78658 Y32.84837
G01 X16.81769 Y32.84428
G01 X16.86880 Y32.83341
G01 X16.90860 Y32.82048
G01 X16.95632 Y32.79922
G01 X16.99254 Y32.77831
G01 X17.03481 Y32.74761
G01 X17.06590 Y32.71962
G01 X17.10088 Y32.68078
G01 X17.12544 Y32.64697
G01 X17.15157 Y32.60171
G01 X17.16859 Y32.56351
G01 X17.18475 Y32.51380
G01 X17.19343 Y32.47291
G01 X17.19889 Y32.42091
G01 X17.19996 Y32.40001
G01 X17.19996 Y32.19269
G01 X17.19996 Y31.70001
G01 X17.19889 Y31.67910
G01 X17.19343 Y31.62714
G01 X17.18475 Y31.58624
G01 X17.16859 Y31.53653
G01 X17.15157 Y31.49833
G01 X17.12544 Y31.45307
G01 X17.10806 Y31.42914
G01 X17.10088 Y31.41924
G01 X17.06590 Y31.38040
G01 X17.03481 Y31.35244
G01 X16.99254 Y31.32170
G01 X16.95632 Y31.30080
G01 X16.90860 Y31.27954
G01 X16.86880 Y31.26661
G01 X16.81769 Y31.25576
G01 X16.77611 Y31.25139
G01 X16.76387 Y31.25139
G01 X16.75000 Y31.25002
G01 X15.84998 Y31.25002
G01 X15.83951 Y31.25028
G01 X15.81340 Y31.25165
G01 X15.78229 Y31.25576
G01 X15.73116 Y31.26661
G01 X15.69138 Y31.27954
G01 X15.64365 Y31.30080
G01 X15.60743 Y31.32170
G01 X15.56514 Y31.35244
G01 X15.53408 Y31.38040
G01 X15.49910 Y31.41924
G01 X15.47454 Y31.45307
G01 X15.44840 Y31.49833
G01 X15.43138 Y31.53653
G01 X15.41523 Y31.58624
G01 X15.40654 Y31.62714
G01 X15.40108 Y31.67910
G01 X15.39999 Y31.70001
G01 X15.39999 Y32.40001
G01 X15.40108 Y32.42091
G01 X15.40654 Y32.47291
G01 X15.40847 Y32.48192
G01 X14.41536 Y33.47501
G01 X13.34592 Y33.47501
G01 X13.08460 Y33.47501
G01 X13.00706 Y33.50714
G01 X12.99098 Y33.51334
G01 X12.96649 Y33.52210
G01 X12.93733 Y33.53099
G01 X12.91282 Y33.53711
G01 X12.88630 Y33.54242
G01 X12.86182 Y33.54606
G01 X12.83683 Y33.54852
G01 X12.81231 Y33.54974
G01 X12.79997 Y33.55002
G01 X10.54999 Y33.55002
G01 X10.53764 Y33.54974
G01 X10.51313 Y33.54852
G01 X10.48811 Y33.54606
G01 X10.46360 Y33.54242
G01 X10.43711 Y33.53711
G01 X10.41260 Y33.53099
G01 X10.41148 Y33.53071
G01 X10.39055 Y33.51344
G01 X10.37239 Y33.49698
G01 X10.36246 Y33.48753
G01 X9.61247 Y32.73755
G01 X9.60300 Y32.72762
G01 X9.58654 Y32.70946
G01 X9.56927 Y32.68848
G01 X9.56899 Y32.68741
G01 X9.56287 Y32.66290
G01 X9.55756 Y32.63638
G01 X9.55393 Y32.61189
G01 X9.55146 Y32.58688
G01 X9.55024 Y32.56236
G01 X9.54994 Y32.55002
G01 X9.54994 Y31.80001
G01 X9.54966 Y31.78769
G01 X9.54844 Y31.76318
G01 X9.54598 Y31.73818
G01 X9.54234 Y31.71370
G01 X9.53703 Y31.68718
G01 X9.53091 Y31.66267
G01 X9.53063 Y31.66160
G01 X9.51336 Y31.64062
G01 X9.49690 Y31.62246
G01 X9.48745 Y31.61256
G01 X6.82355 Y28.94863
G01 X6.82056 Y28.94556
G01 X6.81398 Y28.93880
G01 X6.81095 Y28.93570
G01 X6.79660 Y28.92138
G01 X6.79356 Y28.91828
G01 X6.77633 Y28.90052
G01 X6.77303 Y28.89719
G01 X6.75825 Y28.88239
G01 X6.75495 Y28.87903
G01 X6.73437 Y28.85788
G01 X6.73051 Y28.85396
G01 X6.71476 Y28.83822
G01 X6.71088 Y28.83428
G01 X6.69142 Y28.81429
G01 X6.69122 Y28.81409
G01 X6.68944 Y28.80509
G01 X6.68703 Y28.78071
G01 X6.68606 Y28.76110
G01 X6.68606 Y28.66666
G01 X6.68606 Y27.13758
G01 X6.46656 Y26.91808
G01 X6.46516 Y26.91808
G01 X6.43834 Y27.00060
G01 X6.42134 Y27.03880
G01 X6.33249 Y27.19268
G01 X6.30791 Y27.22651
G01 X6.18901 Y27.35856
G01 X6.15795 Y27.38656
G01 X6.01418 Y27.49100
G01 X5.97796 Y27.51190
G01 X5.81563 Y27.58417
G01 X5.77585 Y27.59710
G01 X5.60204 Y27.63405
G01 X5.56046 Y27.63842
G01 X5.38276 Y27.63842
G01 X5.34118 Y27.63405
G01 X5.16737 Y27.59710
G01 X5.12759 Y27.58417
G01 X4.96526 Y27.51190
G01 X4.92907 Y27.49100
G01 X4.78530 Y27.38656
G01 X4.75424 Y27.35856
G01 X4.63532 Y27.22651
G01 X4.61076 Y27.19268
G01 X4.52191 Y27.03880
G01 X4.50489 Y27.00060
G01 X4.44997 Y26.83159
G01 X4.44129 Y26.79070
G01 X4.42272 Y26.61399
G01 X4.42272 Y26.57216
G01 X4.22381 Y26.55125
G01 X4.42272 Y26.57216
G01 X4.44129 Y26.39545
G01 X4.44997 Y26.35455
G01 X4.50489 Y26.18554
G01 X4.52191 Y26.14734
G01 X4.61076 Y25.99344
G01 X4.63532 Y25.95963
G01 X4.75424 Y25.82758
G01 X4.78530 Y25.79959
G01 X4.92907 Y25.69514
G01 X4.96526 Y25.67424
G01 X5.12759 Y25.60195
G01 X5.16737 Y25.58905
G01 X5.34118 Y25.55209
G01 X5.38276 Y25.54772
G01 X5.56046 Y25.54772
G01 X5.60204 Y25.55209
G01 X5.77585 Y25.58905
G01 X5.81563 Y25.60195
G01 X5.97796 Y25.67424
G01 X6.01418 Y25.69514
G01 X6.15795 Y25.79959
G01 X6.18901 Y25.82758
G01 X6.30791 Y25.95963
G01 X6.33249 Y25.99344
G01 X6.42134 Y26.14734
G01 X6.43834 Y26.18554
G01 X6.46516 Y26.26807
G01 X6.60118 Y26.26807
G01 X6.62076 Y26.26903
G01 X6.64514 Y26.27144
G01 X6.68360 Y26.27909
G01 X6.70704 Y26.28620
G01 X6.74329 Y26.30121
G01 X6.76488 Y26.31274
G01 X6.79749 Y26.33454
G01 X6.81644 Y26.35008
G01 X6.83097 Y26.36327
G01 X7.04016 Y26.57243
G01 X7.22492 Y26.75722
G01 X7.23427 Y26.77977
G01 X7.24133 Y26.79804
G01 X7.25004 Y26.82255
G01 X7.26023 Y26.85587
G01 X7.26633 Y26.88038
G01 X7.27247 Y26.91089
G01 X7.27610 Y26.93538
G01 X7.27892 Y26.96420
G01 X7.28017 Y26.98872
G01 X7.28052 Y27.00296
G01 X7.28052 Y28.55000
G01 X7.28085 Y28.56425
G01 X7.28207 Y28.58879
G01 X7.28492 Y28.61764
G01 X7.28855 Y28.64213
G01 X7.28913 Y28.64594
G01 X7.30387 Y28.66771
G01 X7.31862 Y28.68759
G01 X7.33656 Y28.70944
G01 X7.35297 Y28.72760
G01 X7.36246 Y28.73753
G01 X9.98745 Y31.36254
G01 X9.99690 Y31.37248
G01 X10.01339 Y31.39064
G01 X10.03129 Y31.41246
G01 X10.04605 Y31.43237
G01 X10.06282 Y31.45749
G01 X10.07582 Y31.47916
G01 X10.09169 Y31.50890
G01 X10.10282 Y31.53244
G01 X10.11062 Y31.55002
G01 X10.12494 Y31.58462
G01 X10.12497 Y31.84596
G01 X10.32497 Y32.32881
G01 X10.32497 Y32.33257
G01 X10.32200 Y32.33450
G01 X10.32497 Y32.33257
G01 X10.32845 Y32.33605
G01 X10.33553 Y32.34931
G01 X10.34798 Y32.36447
G01 X10.52995 Y32.54644
G01 X10.53205 Y32.55063
G01 X10.58115 Y32.64123
G01 X10.58382 Y32.64583
G01 X10.61189 Y32.69168
G01 X10.61471 Y32.69602
G01 X10.61422 Y32.69635
G01 X10.61471 Y32.69602
G01 X10.66756 Y32.77301
G01 X10.67069 Y32.77730
G01 X10.69774 Y32.81258
G01 X10.71118 Y32.82688
G01 X10.72710 Y32.83831
G01 X10.72390 Y32.84227
G01 X10.72710 Y32.83831
G01 X10.73525 Y32.84301
G01 X10.73970 Y32.84542
G01 X10.82248 Y32.88774
G01 X10.82730 Y32.89005
G01 X10.87960 Y32.91334
G01 X10.88435 Y32.91530
G01 X10.88417 Y32.91573
G01 X10.88435 Y32.91530
G01 X10.95540 Y32.94268
G01 X10.96045 Y32.94446
G01 X11.01270 Y32.96142
G01 X11.01765 Y32.96290
G01 X11.06276 Y32.97501
G01 X12.53718 Y32.97501
G01 X12.66538 Y32.97501
G01 X13.15847 Y32.48192
G01 X13.15653 Y32.47291
G01 X13.15107 Y32.42091
G01 X13.14998 Y32.40001
G01 X13.14998 Y31.70001
G01 X13.15107 Y31.67910
G01 X13.15653 Y31.62714
G01 X13.16525 Y31.58624
G01 X13.18140 Y31.53653
G01 X13.19839 Y31.49833
G01 X13.22453 Y31.45307
G01 X13.24909 Y31.41924
G01 X13.28407 Y31.38040
G01 X13.31516 Y31.35244
G01 X13.35742 Y31.32170
G01 X13.39364 Y31.30080
G01 X13.44140 Y31.27954
G01 X13.48115 Y31.26661
G01 X13.53228 Y31.25576
G01 X13.56339 Y31.25165
G01 X13.58953 Y31.25028
G01 X13.59999 Y31.25002
G01 X14.49999 Y31.25002
G01 X14.51389 Y31.25139
G01 X14.52613 Y31.25139
G01 X14.56771 Y31.25576
G01 X14.61881 Y31.26661
G01 X14.65859 Y31.27954
G01 X14.70634 Y31.30080
G01 X14.74254 Y31.32170
G01 X14.78483 Y31.35244
G01 X14.81589 Y31.38040
G01 X14.85087 Y31.41924
G01 X14.87545 Y31.45307
G01 X14.90159 Y31.49833
G01 X14.91858 Y31.53653
G01 X14.93474 Y31.58624
G01 X14.94343 Y31.62714
G01 X14.94889 Y31.67910
G01 X14.94998 Y31.70001
G01 X14.94998 Y32.40001
G01 X14.94889 Y32.42091
G01 X14.94343 Y32.47291
G01 X14.93474 Y32.51380
G01 X14.91858 Y32.56351
G01 X14.90159 Y32.60171
G01 X14.87545 Y32.64697
G01 X14.85087 Y32.68078
G01 X14.81589 Y32.71962
G01 X14.78483 Y32.74761
G01 X14.74254 Y32.77831
G01 X14.70634 Y32.79922
G01 X14.65859 Y32.82048
G01 X14.61881 Y32.83341
G01 X14.56771 Y32.84428
G01 X14.53659 Y32.84837
G01 X14.51046 Y32.84974
G01 X14.49999 Y32.85002
G01 X13.70962 Y32.85002
G01 X13.10507 Y33.45454
G01 X13.08460 Y33.47501
G01 X13.10507 Y33.45454
G01 X13.26939 Y33.29025
G01 X13.75222 Y33.09025
G01 X13.79245 Y33.05002
G01 X13.78615 Y33.03478
G01 X13.79245 Y33.05002
G01 X14.29623 Y33.05002
G01 X14.46075 Y32.98187
G01 X14.49270 Y32.96785
G01 X14.56039 Y32.93519
G01 X14.60390 Y32.91156
G01 X14.66530 Y32.87400
G01 X14.70477 Y32.84687
G01 X14.75679 Y32.80697
G01 X14.79268 Y32.77636
G01 X14.83850 Y32.73285
G01 X14.87088 Y32.69874
G01 X14.91234 Y32.65017
G01 X14.94122 Y32.61253
G01 X14.97985 Y32.55627
G01 X15.00517 Y32.51492
G01 X15.04185 Y32.44723
G01 X15.06405 Y32.40069
G01 X15.07497 Y32.37616
G01 X15.07497 Y31.39874
G01 X15.07479 Y31.39833
G01 X15.04866 Y31.35307
G01 X14.99951 Y31.28540
G01 X14.96453 Y31.24657
G01 X14.90238 Y31.19061
G01 X14.86011 Y31.15990
G01 X14.84299 Y31.15002
G01 X14.81797 Y31.15002
G01 X14.76075 Y31.15002
G01 X14.66491 Y31.15002
G01 X14.61132 Y31.15005
G01 X14.53408 Y31.15005
G01 X14.49997 Y31.15005
G01 X13.48849 Y31.15005
G01 X13.43525 Y31.15002
G01 X13.25699 Y31.15002
G01 X13.23987 Y31.15990
G01 X13.19758 Y31.19061
G01 X13.13545 Y31.24657
G01 X13.10048 Y31.28540
G01 X13.05133 Y31.35307
G01 X13.02519 Y31.39833
G01 X13.02499 Y31.39882
G01 X13.02499 Y31.60283
G01 X13.02499 Y31.65536
G01 X13.02499 Y31.70001
G01 X13.02499 Y32.39724
G01 X13.02306 Y32.41675
G01 X13.01737 Y32.43549
G01 X13.02359 Y32.43714
G01 X13.01737 Y32.43549
G01 X13.01620 Y32.43829
G01 X13.01518 Y32.44067
G01 X12.99626 Y32.48319
G01 X12.99517 Y32.48561
G01 X12.97129 Y32.53567
G01 X12.96893 Y32.54027
G01 X12.92976 Y32.61253
G01 X12.92712 Y32.61715
G01 X12.89903 Y32.66297
G01 X12.89621 Y32.66732
G01 X12.85453 Y32.72802
G01 X12.85567 Y32.72886
G01 X12.85453 Y32.72802
G01 X12.85140 Y32.73232
G01 X12.81932 Y32.77410
G01 X12.81605 Y32.77816
G01 X12.77129 Y32.83059
G01 X12.76776 Y32.83447
G01 X12.73177 Y32.87242
G01 X12.72829 Y32.87593
G01 X12.68178 Y32.92033
G01 X12.66413 Y32.93379
G01 X12.66774 Y32.93940
G01 X12.66413 Y32.93379
G01 X12.64394 Y32.94301
G01 X12.63980 Y32.94435
G01 X12.63949 Y32.94446
G01 X12.58724 Y32.96142
G01 X12.58229 Y32.96290
G01 X12.53718 Y32.97501
G01 X11.06276 Y32.97501
G01 X10.68458 Y32.97501
G01 X10.12497 Y32.41540
G01 X10.12494 Y31.58462
G01 X10.27013 Y31.72980
G01 X10.30973 Y31.76940
G01 X10.50345 Y32.23712
G01 X10.68316 Y32.41682
G01 X10.68346 Y32.41713
G01 X10.69444 Y32.43013
G01 X10.69548 Y32.42929
G01 X10.69444 Y32.43013
G01 X10.70112 Y32.44156
G01 X10.70226 Y32.44258
G01 X10.70236 Y32.44367
G01 X10.70302 Y32.44479
G01 X10.70914 Y32.45764
G01 X10.75575 Y32.54364
G01 X10.78108 Y32.58497
G01 X10.83094 Y32.65761
G01 X10.84336 Y32.67379
G01 X10.91112 Y32.70844
G01 X10.95862 Y32.72960
G01 X11.02476 Y32.75507
G01 X11.07203 Y32.77042
G01 X11.11262 Y32.78131
G01 X11.10744 Y32.77831
G01 X11.06515 Y32.74761
G01 X11.03409 Y32.71962
G01 X10.99911 Y32.68078
G01 X10.97452 Y32.64697
G01 X10.94839 Y32.60171
G01 X10.93139 Y32.56351
G01 X10.91524 Y32.51380
G01 X10.90655 Y32.47291
G01 X10.90109 Y32.42091
G01 X10.90000 Y32.40001
G01 X10.90000 Y32.33770
G01 X10.88626 Y32.33036
G01 X10.85364 Y32.30857
G01 X10.83470 Y32.29302
G01 X10.82017 Y32.27984
G01 X10.30973 Y31.76940
G01 X10.82017 Y32.27984
G01 X10.83470 Y32.29302
G01 X10.85364 Y32.30857
G01 X10.88626 Y32.33036
G01 X10.90000 Y32.33770
G01 X10.90000 Y32.40001
G01 X10.90109 Y32.42091
G01 X10.90655 Y32.47291
G01 X10.91524 Y32.51380
G01 X10.93139 Y32.56351
G01 X10.94839 Y32.60171
G01 X10.97452 Y32.64697
G01 X10.99911 Y32.68078
G01 X11.03409 Y32.71962
G01 X11.06515 Y32.74761
G01 X11.10744 Y32.77831
G01 X11.11262 Y32.78131
G01 X11.14364 Y32.79922
G01 X11.19139 Y32.82048
G01 X11.23114 Y32.83341
G01 X11.28227 Y32.84428
G01 X11.32385 Y32.84865
G01 X11.33609 Y32.84865
G01 X11.34999 Y32.85002
G01 X12.24998 Y32.85002
G01 X12.26045 Y32.84974
G01 X12.28658 Y32.84837
G01 X12.31770 Y32.84428
G01 X12.36883 Y32.83341
G01 X12.40858 Y32.82048
G01 X12.45633 Y32.79922
G01 X12.48737 Y32.78131
G01 X12.52791 Y32.77042
G01 X12.56014 Y32.75995
G01 X12.58839 Y32.73298
G01 X12.62087 Y32.69874
G01 X12.66225 Y32.65027
G01 X12.69116 Y32.61263
G01 X12.72987 Y32.55624
G01 X12.75519 Y32.51492
G01 X12.79187 Y32.44723
G01 X12.81407 Y32.40069
G01 X12.82496 Y32.37618
G01 X12.82496 Y31.39876
G01 X12.82479 Y31.39833
G01 X12.79865 Y31.35307
G01 X12.74950 Y31.28540
G01 X12.71452 Y31.24657
G01 X12.65240 Y31.19061
G01 X12.61010 Y31.15990
G01 X12.59299 Y31.15002
G01 X12.56807 Y31.15002
G01 X12.51087 Y31.15002
G01 X12.41491 Y31.15002
G01 X12.36126 Y31.15005
G01 X12.28407 Y31.15005
G01 X12.24996 Y31.15005
G01 X11.23845 Y31.15005
G01 X11.18524 Y31.15002
G01 X11.00698 Y31.15002
G01 X10.98986 Y31.15990
G01 X10.94760 Y31.19061
G01 X10.93993 Y31.19752
G01 X10.93472 Y31.25899
G01 X10.93993 Y31.19752
G01 X10.50180 Y30.75942
G01 X10.46246 Y30.74197
G01 X10.46017 Y30.74093
G01 X10.43665 Y30.72980
G01 X10.43233 Y30.72762
G01 X10.35019 Y30.68378
G01 X10.34585 Y30.68134
G01 X10.32421 Y30.66834
G01 X10.32009 Y30.66575
G01 X10.31958 Y30.66651
G01 X10.32009 Y30.66575
G01 X10.24900 Y30.61830
G01 X10.24493 Y30.61543
G01 X10.22504 Y30.60067
G01 X10.22118 Y30.59767
G01 X10.15842 Y30.54616
G01 X10.15466 Y30.54294
G01 X10.13650 Y30.52645
G01 X10.13472 Y30.52480
G01 X10.10602 Y30.49745
G01 X10.10577 Y30.49773
G01 X10.10602 Y30.49745
G01 X10.10427 Y30.49574
G01 X8.85426 Y29.24573
G01 X8.85405 Y29.24591
G01 X8.85426 Y29.24573
G01 X8.85256 Y29.24398
G01 X8.82520 Y29.21528
G01 X8.82355 Y29.21350
G01 X8.80706 Y29.19534
G01 X8.80384 Y29.19158
G01 X8.75235 Y29.12882
G01 X8.74933 Y29.12496
G01 X8.73457 Y29.10507
G01 X8.73206 Y29.10149
G01 X8.70684 Y29.06423
G01 X8.68672 Y29.05589
G01 X8.68385 Y29.05465
G01 X8.63554 Y29.03286
G01 X8.62660 Y29.02915
G01 X8.62190 Y29.02707
G01 X8.54664 Y28.99125
G01 X8.54189 Y28.98884
G01 X8.54174 Y28.98909
G01 X8.54189 Y28.98884
G01 X8.43170 Y28.92900
G01 X8.42723 Y28.92643
G01 X8.36889 Y28.89072
G01 X8.36444 Y28.88785
G01 X8.31004 Y28.85046
G01 X7.87499 Y28.41541
G01 X7.87499 Y25.66718
G01 X7.89178 Y25.60447
G01 X7.89330 Y25.59936
G01 X7.91540 Y25.53157
G01 X7.91712 Y25.52672
G01 X7.95086 Y25.43883
G01 X7.93783 Y25.41346
G01 X7.93584 Y25.40937
G01 X7.90341 Y25.33838
G01 X7.89861 Y25.32557
G01 X7.87499 Y25.24694
G01 X7.87499 Y25.66718
G01 X7.87499 Y25.24694
G01 X7.87499 Y24.80002
G01 X7.87402 Y24.78044
G01 X7.87161 Y24.75606
G01 X7.86396 Y24.71760
G01 X7.85685 Y24.69416
G01 X7.84184 Y24.65793
G01 X7.83031 Y24.63632
G01 X7.80851 Y24.60371
G01 X7.79297 Y24.58478
G01 X7.77979 Y24.57023
G01 X7.03285 Y23.82327
G01 X7.01832 Y23.81008
G01 X6.99937 Y23.79454
G01 X6.96678 Y23.77274
G01 X6.94517 Y23.76121
G01 X6.90895 Y23.74620
G01 X6.88548 Y23.73909
G01 X6.84702 Y23.73144
G01 X6.82264 Y23.72903
G01 X6.80306 Y23.72807
G01 X6.48263 Y23.72807
G01 X6.47385 Y23.72334
G01 X6.47090 Y23.72807
G01 X6.47385 Y23.72334
G01 X6.46000 Y23.71219
G01 X6.47385 Y23.72334
G01 X6.48263 Y23.72807
G01 X6.47090 Y23.72807
G01 X6.46516 Y23.72807
G01 X6.46000 Y23.71219
G01 X6.43834 Y23.64554
G01 X6.42134 Y23.60734
G01 X6.33249 Y23.45344
G01 X6.30791 Y23.41963
G01 X6.18901 Y23.28758
G01 X6.15795 Y23.25959
G01 X6.01418 Y23.15514
G01 X5.97796 Y23.13427
G01 X5.82002 Y23.06393
G01 X5.81563 Y23.06195
G01 X5.77585 Y23.04905
G01 X5.60204 Y23.01209
G01 X5.56046 Y23.00772
G01 X5.38276 Y23.00772
G01 X5.34118 Y23.01209
G01 X5.16737 Y23.04905
G01 X5.12759 Y23.06195
G01 X4.96526 Y23.13427
G01 X4.92907 Y23.15514
G01 X4.78530 Y23.25959
G01 X4.75424 Y23.28758
G01 X4.63532 Y23.41963
G01 X4.61076 Y23.45344
G01 X4.52191 Y23.60734
G01 X4.50489 Y23.64554
G01 X4.44997 Y23.81455
G01 X4.44129 Y23.85545
G01 X4.42272 Y24.03216
G01 X4.22381 Y24.01125
G01 X4.42272 Y24.03216
G01 X4.42272 Y24.07399
G01 X4.44129 Y24.25070
G01 X4.44997 Y24.29159
G01 X4.50489 Y24.46060
G01 X4.52191 Y24.49880
G01 X4.61076 Y24.65268
G01 X4.63532 Y24.68651
G01 X4.75424 Y24.81856
G01 X4.78530 Y24.84656
G01 X4.92907 Y24.95100
G01 X4.96526 Y24.97190
G01 X5.12759 Y25.04417
G01 X5.16737 Y25.05710
G01 X5.34118 Y25.09405
G01 X5.38276 Y25.09842
G01 X5.56046 Y25.09842
G01 X5.60204 Y25.09405
G01 X5.77585 Y25.05710
G01 X5.81563 Y25.04417
G01 X5.97796 Y24.97190
G01 X6.01418 Y24.95100
G01 X6.15795 Y24.84656
G01 X6.18901 Y24.81856
G01 X6.30791 Y24.68651
G01 X6.33249 Y24.65268
G01 X6.42134 Y24.49880
G01 X6.43834 Y24.46060
G01 X6.46516 Y24.37808
G01 X6.66841 Y24.37808
G01 X7.22497 Y24.93464
G01 X7.22492 Y26.49590
G01 X7.22492 Y26.75722
G01 X7.04016 Y26.57243
G01 X6.90224 Y26.23949
G01 X6.88416 Y26.19872
G01 X6.87418 Y26.17762
G01 X6.84923 Y26.13106
G01 X6.83755 Y26.12481
G01 X6.76511 Y26.09481
G01 X6.74166 Y26.08770
G01 X6.66475 Y26.07241
G01 X6.64037 Y26.07000
G01 X6.60382 Y26.06819
G01 X6.59079 Y26.08729
G01 X6.60382 Y26.06819
G01 X6.59455 Y26.04734
G01 X6.50570 Y25.89344
G01 X6.45655 Y25.82580
G01 X6.33763 Y25.69375
G01 X6.27550 Y25.63779
G01 X6.13173 Y25.53335
G01 X6.05932 Y25.49154
G01 X5.90557 Y25.42308
G01 X5.03765 Y25.42308
G01 X4.88393 Y25.49154
G01 X4.81149 Y25.53335
G01 X4.66775 Y25.63779
G01 X4.60560 Y25.69375
G01 X4.48670 Y25.82580
G01 X4.43755 Y25.89344
G01 X4.34870 Y26.04734
G01 X4.31469 Y26.12374
G01 X4.25978 Y26.29273
G01 X4.24238 Y26.37454
G01 X4.22381 Y26.55125
G01 X4.22381 Y26.63489
G01 X4.24238 Y26.81160
G01 X4.25978 Y26.89341
G01 X4.31469 Y27.06240
G01 X4.34870 Y27.13880
G01 X4.43755 Y27.29268
G01 X4.48670 Y27.36034
G01 X4.60560 Y27.49240
G01 X4.66775 Y27.54835
G01 X4.81149 Y27.65280
G01 X4.88393 Y27.69461
G01 X5.03773 Y27.76308
G01 X5.90552 Y27.76308
G01 X6.05932 Y27.69461
G01 X6.13173 Y27.65280
G01 X6.27550 Y27.54835
G01 X6.33763 Y27.49240
G01 X6.45655 Y27.36034
G01 X6.48606 Y27.31970
G01 X6.59333 Y27.04487
G01 X6.48606 Y27.31970
G01 X6.48606 Y28.12227
G01 X6.49218 Y28.13593
G01 X6.49424 Y28.14088
G01 X6.56247 Y28.31861
G01 X6.56419 Y28.32346
G01 X6.59165 Y28.40774
G01 X6.59317 Y28.41284
G01 X6.64077 Y28.59054
G01 X6.64189 Y28.59514
G01 X6.64954 Y28.63014
G01 X6.68606 Y28.66666
G04 P0 ( dwell for no time -- G64 should not smooth over this point )
G00 Z1.00000 ( retract )

G00 X7.52558 Y37.05852 ( rapid move to begin. )
G01 F300.00000
( Mill infeed pass 1/1 )
G01 Z-0.05000
G04 P0 ( dwell for no time -- G64 should not smooth over this point )
G01 F600.00000
G01 X7.52558 Y37.05852
G01 X7.64113 Y37.05852
G01 X7.65639 Y37.01153
G01 X7.67339 Y36.97333
G01 X7.69952 Y36.92807
G01 X7.72411 Y36.89423
G01 X7.75909 Y36.85540
G01 X7.79015 Y36.82743
G01 X7.83244 Y36.79670
G01 X7.86864 Y36.77579
G01 X7.91639 Y36.75453
G01 X7.95614 Y36.74163
G01 X8.00727 Y36.73076
G01 X8.03838 Y36.72667
G01 X8.06452 Y36.72530
G01 X8.07499 Y36.72502
G01 X8.09597 Y36.72502
G01 X8.09597 Y36.61704
G01 X8.03483 Y36.61704
G01 X7.96239 Y36.62443
G01 X7.83755 Y36.66586
G01 X7.72675 Y36.73416
G01 X7.63470 Y36.82608
G01 X7.56622 Y36.93670
G01 X7.52558 Y37.05852
G04 P0 ( dwell for no time -- G64 should not smooth over this point )
G00 Z1.00000 ( retract )

G00 X9.00399 Y36.61704 ( rapid move to begin. )
G01 F300.00000
( Mill infeed pass 1/1 )
G01 Z-0.05000
G04 P0 ( dwell for no time -- G64 should not smooth over this point )
G01 F600.00000
G01 X9.00399 Y36.61704
G01 X9.06503 Y36.61704
G01 X9.13864 Y36.62466
G01 X9.26330 Y36.66629
G01 X9.37770 Y36.73706
G01 X9.37801 Y36.73731
G01 X9.42713 Y36.76591
G01 X9.49294 Y36.79256
G01 X9.52939 Y36.80340
G01 X9.56724 Y36.80716
G01 X9.60511 Y36.80371
G01 X9.67488 Y36.79052
G01 X9.70633 Y36.78186
G01 X9.73594 Y36.76822
G01 X9.74473 Y36.76327
G01 X9.75149 Y36.75931
G01 X9.86254 Y36.69085
G01 X9.98728 Y36.64948
G01 X10.05987 Y36.64204
G01 X10.09596 Y36.64204
G01 X10.09596 Y36.75011
G01 X10.08951 Y36.75029
G01 X10.06340 Y36.75166
G01 X10.03228 Y36.75575
G01 X9.98115 Y36.76662
G01 X9.94138 Y36.77955
G01 X9.89365 Y36.80079
G01 X9.85743 Y36.82172
G01 X9.81514 Y36.85242
G01 X9.78408 Y36.88039
G01 X9.74910 Y36.91925
G01 X9.72454 Y36.95306
G01 X9.69840 Y36.99832
G01 X9.68138 Y37.03652
G01 X9.67425 Y37.05852
G01 X9.45885 Y37.05852
G01 X9.44359 Y37.01153
G01 X9.42657 Y36.97333
G01 X9.40046 Y36.92807
G01 X9.37587 Y36.89423
G01 X9.34090 Y36.85540
G01 X9.30983 Y36.82743
G01 X9.26754 Y36.79670
G01 X9.23135 Y36.77579
G01 X9.18359 Y36.75453
G01 X9.14382 Y36.74163
G01 X9.09271 Y36.73076
G01 X9.05111 Y36.72639
G01 X9.03889 Y36.72639
G01 X9.02500 Y36.72502
G01 X9.00399 Y36.72502
G01 X9.00399 Y36.61704
G04 P0 ( dwell for no time -- G64 should not smooth over this point )
G00 Z1.00000 ( retract )

G00 X11.00399 Y36.64204 ( rapid move to begin. )
G01 F300.00000
( Mill infeed pass 1/1 )
G01 Z-0.05000
G04 P0 ( dwell for no time -- G64 should not smooth over this point )
G01 F600.00000
G01 X11.00399 Y36.64204
G01 X11.04003 Y36.64204
G01 X11.11354 Y36.64966
G01 X11.23830 Y36.69129
G01 X11.34785 Y36.75908
G01 X11.40007 Y36.78186
G01 X11.46853 Y36.80068
G01 X11.50597 Y36.80724
G01 X11.54397 Y36.80658
G01 X11.58115 Y36.79875
G01 X11.64892 Y36.77760
G01 X11.67909 Y36.76540
G01 X11.70688 Y36.74846
G01 X11.71506 Y36.74252
G01 X11.72138 Y36.73774
G01 X11.72301 Y36.73645
G01 X11.83754 Y36.66586
G01 X11.96238 Y36.62443
G01 X12.03485 Y36.61704
G01 X12.09596 Y36.61704
G01 X12.09596 Y36.72502
G01 X12.07498 Y36.72502
G01 X12.06451 Y36.72530
G01 X12.03838 Y36.72667
G01 X12.00726 Y36.73076
G01 X11.95616 Y36.74163
G01 X11.91638 Y36.75453
G01 X11.86863 Y36.77579
G01 X11.83243 Y36.79670
G01 X11.79014 Y36.82743
G01 X11.75908 Y36.85540
G01 X11.72410 Y36.89423
G01 X11.69954 Y36.92807
G01 X11.67340 Y36.97333
G01 X11.65639 Y37.01153
G01 X11.64112 Y37.05852
G01 X11.42573 Y37.05852
G01 X11.41859 Y37.03652
G01 X11.40157 Y36.99832
G01 X11.37544 Y36.95306
G01 X11.35087 Y36.91925
G01 X11.31590 Y36.88039
G01 X11.28483 Y36.85242
G01 X11.24254 Y36.82172
G01 X11.20632 Y36.80079
G01 X11.15860 Y36.77955
G01 X11.11882 Y36.76662
G01 X11.06769 Y36.75575
G01 X11.02611 Y36.75138
G01 X11.01389 Y36.75138
G01 X11.00399 Y36.75042
G01 X11.00399 Y36.64204
G04 P0 ( dwell for no time -- G64 should not smooth over this point )
G00 Z1.00000 ( retract )

G00 X13.00398 Y36.61704 ( rapid move to begin. )
G01 F300.00000
( Mill infeed pass 1/1 )
G01 Z-0.05000
G04 P0 ( dwell for no time -- G64 should not smooth over this point )
G01 F600.00000
G01 X13.00398 Y36.61704
G01 X13.06504 Y36.61704
G01 X13.13865 Y36.62469
G01 X13.26332 Y36.66629
G01 X13.37388 Y36.73470
G01 X13.46583 Y36.82680
G01 X13.53413 Y36.93759
G01 X13.57426 Y37.05852
G01 X13.45885 Y37.05852
G01 X13.44358 Y37.01153
G01 X13.42659 Y36.97333
G01 X13.40045 Y36.92807
G01 X13.37586 Y36.89423
G01 X13.34089 Y36.85540
G01 X13.30982 Y36.82743
G01 X13.26753 Y36.79670
G01 X13.23134 Y36.77579
G01 X13.18359 Y36.75453
G01 X13.14383 Y36.74163
G01 X13.09270 Y36.73076
G01 X13.05113 Y36.72639
G01 X13.03888 Y36.72639
G01 X13.02499 Y36.72502
G01 X13.00398 Y36.72502
G01 X13.00398 Y36.61704
G04 P0 ( dwell for no time -- G64 should not smooth over this point )
G00 Z1.00000 ( retract )

G00 X17.67085 Y32.44039 ( rapid move to begin. )
G01 F300.00000
( Mill infeed pass 1/1 )
G01 Z-0.05000
G04 P0 ( dwell for no time -- G64 should not smooth over this point )
G01 F600.00000
G01 X17.67085 Y32.44039
G01 X17.64753 Y32.44898
G01 X17.64728 Y32.44908
G01 X17.64372 Y32.45040
G01 X17.64344 Y32.45048
G01 X17.59211 Y32.46907
G01 X17.57006 Y32.47748
G01 X17.51319 Y32.50021
G01 X17.51020 Y32.50135
G01 X17.49767 Y32.50590
G01 X17.49399 Y32.51929
G01 X17.48922 Y32.53905
G01 X17.48840 Y32.54220
G01 X17.47451 Y32.59264
G01 X17.47360 Y32.59577
G01 X17.47108 Y32.60384
G01 X17.45805 Y32.65114
G01 X17.45328 Y32.67087
G01 X17.45249 Y32.67400
G01 X17.43842 Y32.72505
G01 X17.43753 Y32.72810
G01 X17.43433 Y32.73846
G01 X17.42564 Y32.76854
G01 X17.42053 Y32.78761
G01 X17.41901 Y32.79272
G01 X17.38884 Y32.88533
G01 X17.38711 Y32.89015
G01 X17.36704 Y32.94245
G01 X17.36498 Y32.94740
G01 X17.35325 Y32.97372
G01 X17.35325 Y33.66671
G01 X17.35541 Y33.70851
G01 X17.36090 Y33.76051
G01 X17.37827 Y33.84230
G01 X17.39442 Y33.89200
G01 X17.42843 Y33.96841
G01 X17.45457 Y34.01367
G01 X17.50372 Y34.08131
G01 X17.53870 Y34.12015
G01 X17.60085 Y34.17610
G01 X17.64311 Y34.20684
G01 X17.71556 Y34.24864
G01 X17.76328 Y34.26990
G01 X17.84281 Y34.29574
G01 X17.89394 Y34.30661
G01 X17.97710 Y34.31535
G01 X17.98934 Y34.31535
G01 X18.00324 Y34.31672
G01 X18.04083 Y34.31672
G01 X18.30321 Y34.21844
G01 X18.04083 Y34.31672
G01 X17.83252 Y34.52502
G01 X17.83882 Y34.54026
G01 X17.83252 Y34.52502
G01 X17.54431 Y34.52502
G01 X17.51017 Y34.56818
G01 X17.54431 Y34.52502
G01 X17.54233 Y34.50623
G01 X17.52495 Y34.42444
G01 X17.50880 Y34.37473
G01 X17.47479 Y34.29833
G01 X17.44865 Y34.25306
G01 X17.39950 Y34.18542
G01 X17.36453 Y34.14656
G01 X17.30235 Y34.09063
G01 X17.26008 Y34.05990
G01 X17.18769 Y34.01809
G01 X17.13994 Y33.99683
G01 X17.06041 Y33.97100
G01 X17.00928 Y33.96013
G01 X16.92612 Y33.95139
G01 X16.91388 Y33.95139
G01 X16.89999 Y33.95002
G01 X16.19999 Y33.95002
G01 X16.17906 Y33.95055
G01 X16.15292 Y33.95192
G01 X16.09069 Y33.96013
G01 X16.03956 Y33.97100
G01 X15.96003 Y33.99683
G01 X15.91228 Y34.01809
G01 X15.83987 Y34.05990
G01 X15.79760 Y34.09063
G01 X15.73545 Y34.14656
G01 X15.70047 Y34.18542
G01 X15.65132 Y34.25306
G01 X15.64998 Y34.25543
G01 X15.64998 Y34.36132
G01 X15.64998 Y34.41626
G01 X15.64998 Y34.50544
G01 X15.64998 Y34.55799
G01 X15.64998 Y35.52784
G01 X15.70776 Y35.57922
G01 X15.71073 Y35.58197
G01 X15.75338 Y35.62306
G01 X15.75635 Y35.62606
G01 X15.77586 Y35.64651
G01 X15.76524 Y35.61379
G01 X15.75656 Y35.57290
G01 X15.75109 Y35.52093
G01 X15.74998 Y35.50000
G01 X15.74998 Y34.60000
G01 X15.64998 Y34.55799
G01 X15.74998 Y34.60000
G01 X15.75109 Y34.57910
G01 X15.75656 Y34.52713
G01 X15.76524 Y34.48624
G01 X15.78140 Y34.43653
G01 X15.79839 Y34.39833
G01 X15.82453 Y34.35306
G01 X15.84911 Y34.31923
G01 X15.88406 Y34.28039
G01 X15.91515 Y34.25243
G01 X15.95742 Y34.22170
G01 X15.99364 Y34.20079
G01 X16.04139 Y34.17953
G01 X16.08114 Y34.16663
G01 X16.13227 Y34.15576
G01 X16.16339 Y34.15167
G01 X16.18952 Y34.15030
G01 X16.19999 Y34.15002
G01 X16.89999 Y34.15002
G01 X16.91388 Y34.15139
G01 X16.92612 Y34.15139
G01 X16.96770 Y34.15576
G01 X17.01883 Y34.16663
G01 X17.05856 Y34.17953
G01 X17.10631 Y34.20079
G01 X17.14256 Y34.22170
G01 X17.18482 Y34.25243
G01 X17.21586 Y34.28039
G01 X17.25086 Y34.31923
G01 X17.27545 Y34.35306
G01 X17.30156 Y34.39833
G01 X17.31858 Y34.43653
G01 X17.33471 Y34.48624
G01 X17.34342 Y34.52713
G01 X17.34888 Y34.57910
G01 X17.35000 Y34.60000
G01 X17.35000 Y34.72502
G01 X17.91535 Y34.72502
G01 X18.30321 Y34.33716
G01 X18.30321 Y34.21844
G01 X18.30321 Y34.11672
G01 X18.00324 Y34.11672
G01 X17.98934 Y34.11535
G01 X17.97710 Y34.11535
G01 X17.93552 Y34.11098
G01 X17.88441 Y34.10011
G01 X17.84464 Y34.08718
G01 X17.79689 Y34.06594
G01 X17.76069 Y34.04501
G01 X17.71840 Y34.01430
G01 X17.68734 Y33.98634
G01 X17.65236 Y33.94748
G01 X17.62777 Y33.91367
G01 X17.60164 Y33.86841
G01 X17.58464 Y33.83021
G01 X17.56849 Y33.78050
G01 X17.55980 Y33.73960
G01 X17.55434 Y33.68761
G01 X17.55325 Y33.66671
G01 X17.55325 Y32.74171
G01 X17.55434 Y32.72081
G01 X17.55980 Y32.66884
G01 X17.56849 Y32.62795
G01 X17.58464 Y32.57824
G01 X17.60164 Y32.54004
G01 X17.62777 Y32.49477
G01 X17.65236 Y32.46094
G01 X17.67085 Y32.44039
G01 X17.68734 Y32.42211
G01 X17.71840 Y32.39411
G01 X17.76069 Y32.36341
G01 X17.79689 Y32.34250
G01 X17.84464 Y32.32124
G01 X17.88441 Y32.30831
G01 X17.93552 Y32.29747
G01 X17.96663 Y32.29335
G01 X17.99277 Y32.29198
G01 X18.00324 Y32.29173
G01 X19.25325 Y32.29173
G01 X19.26714 Y32.29307
G01 X19.27938 Y32.29307
G01 X19.32096 Y32.29747
G01 X19.37207 Y32.30831
G01 X19.41184 Y32.32124
G01 X19.45960 Y32.34250
G01 X19.49579 Y32.36341
G01 X19.53808 Y32.39411
G01 X19.56915 Y32.42211
G01 X19.59904 Y32.45530
G01 X19.60412 Y32.46094
G01 X19.62871 Y32.49477
G01 X19.65482 Y32.54004
G01 X19.67184 Y32.57824
G01 X19.68799 Y32.62795
G01 X19.69668 Y32.66884
G01 X19.70214 Y32.72081
G01 X19.70323 Y32.74171
G01 X19.70323 Y33.66671
G01 X19.70214 Y33.68761
G01 X19.69668 Y33.73960
G01 X19.68799 Y33.78050
G01 X19.67184 Y33.83021
G01 X19.65482 Y33.86841
G01 X19.62871 Y33.91367
G01 X19.60412 Y33.94748
G01 X19.57484 Y33.97999
G01 X19.60412 Y33.94748
G01 X19.62871 Y33.91367
G01 X19.65482 Y33.86841
G01 X19.67184 Y33.83021
G01 X19.68799 Y33.78050
G01 X19.69668 Y33.73960
G01 X19.70214 Y33.68761
G01 X19.70323 Y33.66671
G01 X19.70323 Y32.74171
G01 X19.70214 Y32.72081
G01 X19.69668 Y32.66884
G01 X19.68799 Y32.62795
G01 X19.67184 Y32.57824
G01 X19.65482 Y32.54004
G01 X19.62871 Y32.49477
G01 X19.60412 Y32.46094
G01 X19.59904 Y32.45530
G01 X19.64941 Y32.47679
G01 X19.65335 Y32.47837
G01 X19.71093 Y32.50008
G01 X19.72124 Y32.54847
G01 X19.72868 Y32.59556
G01 X19.73572 Y32.66214
G01 X19.73823 Y32.71045
G01 X19.73910 Y32.74303
G01 X19.73910 Y33.66541
G01 X19.73823 Y33.69797
G01 X19.73572 Y33.74631
G01 X19.72868 Y33.81293
G01 X19.72124 Y33.86000
G01 X19.70618 Y33.93071
G01 X19.70346 Y33.94082
G01 X19.68494 Y33.94550
G01 X19.68116 Y33.94654
G01 X19.62236 Y33.96391
G01 X19.61845 Y33.96516
G01 X19.57484 Y33.97999
G01 X19.56915 Y33.98634
G01 X19.53808 Y34.01430
G01 X19.49579 Y34.04501
G01 X19.45960 Y34.06594
G01 X19.41184 Y34.08718
G01 X19.37207 Y34.10011
G01 X19.32096 Y34.11098
G01 X19.28985 Y34.11507
G01 X19.26371 Y34.11644
G01 X19.25325 Y34.11672
G01 X19.10816 Y34.11672
G01 X18.95322 Y34.11672
G01 X18.95322 Y34.26929
G01 X18.96254 Y34.23978
G01 X18.96346 Y34.23701
G01 X18.97598 Y34.20105
G01 X18.98365 Y34.18426
G01 X18.99424 Y34.16917
G01 X19.00745 Y34.15626
G01 X19.02279 Y34.14603
G01 X19.03976 Y34.13876
G01 X19.10816 Y34.11672
G01 X19.03976 Y34.13876
G01 X19.02279 Y34.14603
G01 X19.00745 Y34.15626
G01 X18.99729 Y34.14534
G01 X19.00745 Y34.15626
G01 X18.99424 Y34.16917
G01 X18.98365 Y34.18426
G01 X18.97598 Y34.20105
G01 X18.96346 Y34.23701
G01 X18.96254 Y34.23978
G01 X18.95322 Y34.26929
G01 X18.95322 Y34.47176
G01 X18.95226 Y34.49137
G01 X18.94984 Y34.51575
G01 X18.94220 Y34.55421
G01 X18.93509 Y34.57765
G01 X18.92007 Y34.61387
G01 X18.90854 Y34.63549
G01 X18.88675 Y34.66810
G01 X18.87120 Y34.68702
G01 X18.85802 Y34.70158
G01 X18.27979 Y35.27983
G01 X18.26526 Y35.29302
G01 X18.24631 Y35.30856
G01 X18.21373 Y35.33035
G01 X18.19211 Y35.34189
G01 X18.15589 Y35.35690
G01 X18.13242 Y35.36401
G01 X18.09396 Y35.37165
G01 X18.06958 Y35.37407
G01 X18.05000 Y35.37503
G01 X17.45863 Y35.37503
G01 X17.35000 Y35.37503
G01 X17.35000 Y35.47092
G01 X17.35312 Y35.46302
G01 X17.35378 Y35.46144
G01 X17.36232 Y35.44105
G01 X17.37085 Y35.42492
G01 X17.38218 Y35.41062
G01 X17.39592 Y35.39863
G01 X17.41162 Y35.38931
G01 X17.42874 Y35.38301
G01 X17.45863 Y35.37503
G01 X17.42874 Y35.38301
G01 X17.41162 Y35.38931
G01 X17.40941 Y35.38532
G01 X17.41162 Y35.38931
G01 X17.39592 Y35.39863
G01 X17.38218 Y35.41062
G01 X17.37085 Y35.42492
G01 X17.36712 Y35.42215
G01 X17.37085 Y35.42492
G01 X17.36232 Y35.44105
G01 X17.35378 Y35.46144
G01 X17.35312 Y35.46302
G01 X17.35000 Y35.47092
G01 X17.35000 Y35.50000
G01 X17.34888 Y35.52093
G01 X17.34342 Y35.57290
G01 X17.33471 Y35.61379
G01 X17.31858 Y35.66350
G01 X17.30156 Y35.70173
G01 X17.27545 Y35.74697
G01 X17.25086 Y35.78077
G01 X17.21586 Y35.81963
G01 X17.18482 Y35.84760
G01 X17.14256 Y35.87833
G01 X17.10631 Y35.89924
G01 X17.05856 Y35.92050
G01 X17.01883 Y35.93340
G01 X16.96770 Y35.94427
G01 X16.93656 Y35.94836
G01 X16.91045 Y35.94973
G01 X16.89999 Y35.95001
G01 X16.19999 Y35.95001
G01 X16.18609 Y35.94864
G01 X16.17385 Y35.94864
G01 X16.13227 Y35.94427
G01 X16.08114 Y35.93340
G01 X16.04139 Y35.92050
G01 X15.99364 Y35.89924
G01 X15.95742 Y35.87833
G01 X15.91515 Y35.84760
G01 X15.88406 Y35.81963
G01 X15.84911 Y35.78077
G01 X15.82453 Y35.74697
G01 X15.79839 Y35.70173
G01 X15.78140 Y35.66350
G01 X15.77586 Y35.64651
G01 X15.32498 Y35.64377
G01 X15.34497 Y35.62398
G01 X15.34805 Y35.62106
G01 X15.39252 Y35.58054
G01 X15.39557 Y35.57790
G01 X15.41594 Y35.56081
G01 X15.44995 Y35.53010
G01 X15.44995 Y34.55799
G01 X15.44998 Y34.50544
G01 X15.44998 Y34.41649
G01 X15.44995 Y34.36155
G01 X15.44995 Y34.25535
G01 X15.44866 Y34.25306
G01 X15.39951 Y34.18542
G01 X15.36453 Y34.14656
G01 X15.30238 Y34.09063
G01 X15.26011 Y34.05990
G01 X15.25851 Y34.05898
G01 X15.22719 Y34.06305
G01 X15.17002 Y34.07364
G01 X15.08043 Y34.09497
G01 X15.02836 Y34.11039
G01 X14.96395 Y34.13292
G01 X14.93715 Y34.14329
G01 X14.91759 Y34.15139
G01 X14.91388 Y34.15139
G01 X14.89999 Y34.15002
G01 X14.19999 Y34.15002
G01 X14.18953 Y34.15030
G01 X14.16339 Y34.15167
G01 X14.13228 Y34.15576
G01 X14.08115 Y34.16663
G01 X14.04139 Y34.17953
G01 X13.99364 Y34.20079
G01 X13.95742 Y34.22170
G01 X13.91516 Y34.25243
G01 X13.88407 Y34.28039
G01 X13.85890 Y34.30831
G01 X13.85323 Y34.31052
G01 X13.80578 Y34.33165
G01 X13.74066 Y34.36493
G01 X13.69296 Y34.39249
G01 X13.61180 Y34.44537
G01 X13.56304 Y34.48080
G01 X13.55765 Y34.50623
G01 X13.55567 Y34.52502
G01 X13.59580 Y34.57242
G01 X13.55567 Y34.52502
G01 X13.47081 Y34.52505
G01 X13.33121 Y34.52502
G01 X13.25864 Y34.52502
G01 X13.23091 Y34.56322
G01 X13.25864 Y34.52502
G01 X13.24635 Y34.48720
G01 X13.15999 Y34.43089
G01 X13.03914 Y34.36112
G01 X12.97482 Y34.32825
G01 X12.92885 Y34.30778
G01 X12.85008 Y34.22030
G01 X12.81902 Y34.19233
G01 X12.72634 Y34.12502
G01 X12.81902 Y34.19233
G01 X12.85008 Y34.22030
G01 X12.92885 Y34.30778
G01 X12.93403 Y34.31352
G01 X12.95859 Y34.34735
G01 X13.02133 Y34.45596
G01 X13.03832 Y34.49416
G01 X13.07708 Y34.61346
G01 X13.08577 Y34.65436
G01 X13.09321 Y34.72502
G01 X13.74998 Y34.72502
G01 X13.74998 Y34.60000
G01 X13.75107 Y34.57910
G01 X13.75653 Y34.52713
G01 X13.76525 Y34.48624
G01 X13.78140 Y34.43653
G01 X13.79839 Y34.39833
G01 X13.82453 Y34.35306
G01 X13.84909 Y34.31923
G01 X13.85890 Y34.30831
G01 X13.88407 Y34.28039
G01 X13.91516 Y34.25243
G01 X13.95742 Y34.22170
G01 X13.99364 Y34.20079
G01 X14.04139 Y34.17953
G01 X14.08115 Y34.16663
G01 X14.13228 Y34.15576
G01 X14.16339 Y34.15167
G01 X14.18953 Y34.15030
G01 X14.19999 Y34.15002
G01 X14.89999 Y34.15002
G01 X14.91388 Y34.15139
G01 X14.91759 Y34.15139
G01 X14.92613 Y34.15139
G01 X14.96771 Y34.15576
G01 X15.01881 Y34.16663
G01 X15.05859 Y34.17953
G01 X15.10634 Y34.20079
G01 X15.14254 Y34.22170
G01 X15.18483 Y34.25243
G01 X15.21589 Y34.28039
G01 X15.25087 Y34.31923
G01 X15.27545 Y34.35306
G01 X15.30159 Y34.39833
G01 X15.31858 Y34.43653
G01 X15.33474 Y34.48624
G01 X15.34342 Y34.52713
G01 X15.34889 Y34.57910
G01 X15.34998 Y34.60000
G01 X15.34998 Y35.50000
G01 X15.34889 Y35.52093
G01 X15.34342 Y35.57290
G01 X15.33474 Y35.61379
G01 X15.32498 Y35.64377
G01 X15.31858 Y35.66350
G01 X15.30159 Y35.70173
G01 X15.27545 Y35.74697
G01 X15.25087 Y35.78077
G01 X15.21589 Y35.81963
G01 X15.18483 Y35.84760
G01 X15.14254 Y35.87833
G01 X15.10634 Y35.89924
G01 X15.05859 Y35.92050
G01 X15.01881 Y35.93340
G01 X14.96771 Y35.94427
G01 X14.93659 Y35.94836
G01 X14.91046 Y35.94973
G01 X14.89999 Y35.95001
G01 X14.19999 Y35.95001
G01 X14.18607 Y35.94864
G01 X14.17386 Y35.94864
G01 X14.13228 Y35.94427
G01 X14.08115 Y35.93340
G01 X14.04139 Y35.92050
G01 X13.99364 Y35.89924
G01 X13.95742 Y35.87833
G01 X13.91516 Y35.84760
G01 X13.88407 Y35.81963
G01 X13.84909 Y35.78077
G01 X13.82453 Y35.74697
G01 X13.79839 Y35.70173
G01 X13.78140 Y35.66350
G01 X13.76525 Y35.61379
G01 X13.75653 Y35.57290
G01 X13.75107 Y35.52093
G01 X13.74998 Y35.50000
G01 X13.74998 Y35.46739
G01 X13.74998 Y35.45824
G01 X13.74998 Y35.37503
G01 X13.64538 Y35.37503
G01 X13.67309 Y35.38286
G01 X13.69339 Y35.39109
G01 X13.71142 Y35.40353
G01 X13.72631 Y35.41958
G01 X13.73733 Y35.43853
G01 X13.74660 Y35.45944
G01 X13.74731 Y35.46106
G01 X13.74998 Y35.46739
G01 X13.74731 Y35.46106
G01 X13.74660 Y35.45944
G01 X13.74998 Y35.45824
G01 X13.74660 Y35.45944
G01 X13.73733 Y35.43853
G01 X13.72631 Y35.41958
G01 X13.71142 Y35.40353
G01 X13.71607 Y35.39855
G01 X13.71142 Y35.40353
G01 X13.69339 Y35.39109
G01 X13.67309 Y35.38286
G01 X13.67459 Y35.37701
G01 X13.67309 Y35.38286
G01 X13.64538 Y35.37503
G01 X12.85433 Y35.37503
G01 X12.85008 Y35.37973
G01 X12.81902 Y35.40770
G01 X12.71755 Y35.48143
G01 X12.68133 Y35.50234
G01 X12.56675 Y35.55337
G01 X12.52697 Y35.56630
G01 X12.40429 Y35.59238
G01 X12.36271 Y35.59672
G01 X12.23726 Y35.59672
G01 X12.19568 Y35.59238
G01 X12.07300 Y35.56630
G01 X12.03322 Y35.55337
G01 X11.91864 Y35.50234
G01 X11.88242 Y35.48143
G01 X11.78095 Y35.40770
G01 X11.74988 Y35.37973
G01 X11.66594 Y35.28651
G01 X11.64137 Y35.25268
G01 X11.57866 Y35.14405
G01 X11.56164 Y35.10587
G01 X11.52288 Y34.98657
G01 X11.51420 Y34.94567
G01 X11.50109 Y34.82091
G01 X11.50109 Y34.77910
G01 X11.51420 Y34.65436
G01 X11.52288 Y34.61346
G01 X11.56164 Y34.49416
G01 X11.57866 Y34.45596
G01 X11.58582 Y34.44354
G01 X11.64137 Y34.34735
G01 X11.66594 Y34.31352
G01 X11.67112 Y34.30775
G01 X11.66594 Y34.31352
G01 X11.64137 Y34.34735
G01 X11.58582 Y34.44354
G01 X11.58803 Y34.41044
G01 X11.58826 Y34.40483
G01 X11.58887 Y34.34676
G01 X11.62512 Y34.32825
G01 X11.67112 Y34.30775
G01 X11.74988 Y34.22030
G01 X11.78095 Y34.19233
G01 X11.87356 Y34.12505
G01 X11.88453 Y34.12147
G01 X11.92443 Y34.11075
G01 X12.04986 Y34.08408
G01 X12.08260 Y34.07890
G01 X12.20802 Y34.06571
G01 X12.23726 Y34.06416
G01 X12.36271 Y34.06416
G01 X12.39192 Y34.06571
G01 X12.51734 Y34.07890
G01 X12.55008 Y34.08408
G01 X12.67554 Y34.11075
G01 X12.71546 Y34.12149
G01 X12.72634 Y34.12502
G01 X13.01010 Y34.12502
G01 X13.77843 Y34.12502
G01 X14.54998 Y34.12502
G01 X14.56956 Y34.12406
G01 X14.59395 Y34.12164
G01 X14.63240 Y34.11400
G01 X14.65585 Y34.10689
G01 X14.69209 Y34.09188
G01 X14.71368 Y34.08034
G01 X14.74630 Y34.05855
G01 X14.76524 Y34.04301
G01 X14.77977 Y34.02982
G01 X14.84436 Y33.96523
G01 X14.86171 Y33.95804
G01 X14.86006 Y33.95507
G01 X14.86171 Y33.95804
G01 X14.86392 Y33.95718
G01 X14.89334 Y33.94580
G01 X14.89638 Y33.94468
G01 X14.96461 Y33.92081
G01 X14.96923 Y33.91931
G01 X15.02625 Y33.90244
G01 X15.03146 Y33.90105
G01 X15.03136 Y33.90066
G01 X15.03146 Y33.90105
G01 X15.12613 Y33.87849
G01 X15.13108 Y33.87745
G01 X15.19344 Y33.86589
G01 X15.19880 Y33.86505
G01 X15.23166 Y33.86079
G01 X16.04246 Y33.05002
G01 X16.03626 Y33.03534
G01 X16.04246 Y33.05002
G01 X16.75000 Y33.05002
G01 X16.77093 Y33.04946
G01 X16.79707 Y33.04809
G01 X16.85927 Y33.03991
G01 X16.91038 Y33.02904
G01 X16.98990 Y33.00321
G01 X17.03765 Y32.98195
G01 X17.11010 Y32.94014
G01 X17.15239 Y32.90940
G01 X17.17001 Y32.89353
G01 X17.18129 Y32.86828
G01 X17.19948 Y32.82091
G01 X17.22800 Y32.73326
G01 X17.23270 Y32.71583
G01 X17.23321 Y32.71398
G01 X17.24243 Y32.68207
G01 X17.24299 Y32.68022
G01 X17.24601 Y32.67044
G01 X17.25919 Y32.62246
G01 X17.26399 Y32.60272
G01 X17.26478 Y32.59958
G01 X17.27870 Y32.54913
G01 X17.27959 Y32.54601
G01 X17.28213 Y32.53793
G01 X17.29516 Y32.49063
G01 X17.29994 Y32.47087
G01 X17.30072 Y32.46777
G01 X17.30745 Y32.44326
G01 X17.26349 Y32.36046
G01 X17.26084 Y32.35510
G01 X17.22841 Y32.28411
G01 X17.22361 Y32.27131
G01 X17.19996 Y32.19269
G01 X17.19996 Y31.70001
G01 X17.19889 Y31.67910
G01 X17.19343 Y31.62714
G01 X17.18475 Y31.58624
G01 X17.16859 Y31.53653
G01 X17.15157 Y31.49833
G01 X17.12544 Y31.45307
G01 X17.10806 Y31.42914
G01 X17.10758 Y31.42676
G01 X17.10674 Y31.42249
G01 X17.09328 Y31.35845
G01 X17.09254 Y31.35454
G01 X17.08226 Y31.29348
G01 X17.08170 Y31.28975
G01 X17.06788 Y31.18363
G01 X17.06783 Y31.18330
G01 X17.06676 Y31.17491
G01 X17.06674 Y31.17458
G01 X17.06369 Y31.15002
G01 X17.01076 Y31.15002
G01 X16.91490 Y31.15002
G01 X16.86125 Y31.15005
G01 X15.73850 Y31.15005
G01 X15.68526 Y31.15002
G01 X15.50697 Y31.15002
G01 X15.48988 Y31.15990
G01 X15.44759 Y31.19061
G01 X15.38544 Y31.24657
G01 X15.35049 Y31.28540
G01 X15.30131 Y31.35307
G01 X15.27520 Y31.39833
G01 X15.27497 Y31.39882
G01 X15.27497 Y31.45320
G01 X15.27497 Y31.60283
G01 X15.27497 Y31.65536
G01 X15.27497 Y31.70001
G01 X15.27497 Y32.39721
G01 X15.27929 Y32.39810
G01 X15.27497 Y32.39721
G01 X15.27304 Y32.41672
G01 X15.26735 Y32.43547
G01 X15.26618 Y32.43829
G01 X15.26517 Y32.44067
G01 X15.24624 Y32.48319
G01 X15.24515 Y32.48561
G01 X15.22128 Y32.53567
G01 X15.21894 Y32.54024
G01 X15.17975 Y32.61253
G01 X15.18051 Y32.61296
G01 X15.17975 Y32.61253
G01 X15.17710 Y32.61715
G01 X15.14901 Y32.66297
G01 X15.14619 Y32.66732
G01 X15.10459 Y32.72790
G01 X15.10149 Y32.73219
G01 X15.06943 Y32.77397
G01 X15.06616 Y32.77804
G01 X15.06679 Y32.77857
G01 X15.06616 Y32.77804
G01 X15.02130 Y32.83059
G01 X15.01777 Y32.83447
G01 X14.98178 Y32.87242
G01 X14.97807 Y32.87613
G01 X14.92841 Y32.92325
G01 X14.92453 Y32.92675
G01 X14.88465 Y32.96079
G01 X14.88056 Y32.96409
G01 X14.88114 Y32.96478
G01 X14.88056 Y32.96409
G01 X14.82440 Y33.00717
G01 X14.82018 Y33.01022
G01 X14.77637 Y33.04032
G01 X14.77195 Y33.04321
G01 X14.70609 Y33.08350
G01 X14.70162 Y33.08609
G01 X14.70197 Y33.08675
G01 X14.70162 Y33.08609
G01 X14.65374 Y33.11210
G01 X14.64945 Y33.11428
G01 X14.57797 Y33.14875
G01 X14.57472 Y33.15025
G01 X14.54017 Y33.16541
G01 X14.53824 Y33.16625
G01 X14.37271 Y33.23480
G01 X14.33250 Y33.27501
G01 X14.33880 Y33.29025
G01 X14.33250 Y33.27501
G01 X13.82877 Y33.27501
G01 X13.34592 Y33.47501
G04 P0 ( dwell for no time -- G64 should not smooth over this point )
G00 Z1.00000 ( retract )

G00 X12.45633 Y32.79922 ( rapid move to begin. )
G01 F300.00000
( Mill infeed pass 1/1 )
G01 Z-0.05000
G04 P0 ( dwell for no time -- G64 should not smooth over this point )
G01 F600.00000
G01 X12.45633 Y32.79922
G01 X12.49255 Y32.77831
G01 X12.53482 Y32.74761
G01 X12.56591 Y32.71962
G01 X12.60086 Y32.68078
G01 X12.62545 Y32.64697
G01 X12.65158 Y32.60171
G01 X12.66858 Y32.56351
G01 X12.68473 Y32.51380
G01 X12.69342 Y32.47291
G01 X12.69890 Y32.42091
G01 X12.70000 Y32.40001
G01 X12.70000 Y31.70001
G01 X12.69890 Y31.67910
G01 X12.69342 Y31.62714
G01 X12.68473 Y31.58624
G01 X12.66858 Y31.53653
G01 X12.65158 Y31.49833
G01 X12.62545 Y31.45307
G01 X12.60086 Y31.41924
G01 X12.56591 Y31.38040
G01 X12.53482 Y31.35244
G01 X12.49255 Y31.32170
G01 X12.45633 Y31.30080
G01 X12.40858 Y31.27954
G01 X12.36883 Y31.26661
G01 X12.31770 Y31.25576
G01 X12.27612 Y31.25139
G01 X12.26390 Y31.25139
G01 X12.24998 Y31.25002
G01 X11.34999 Y31.25002
G01 X11.33952 Y31.25028
G01 X11.31338 Y31.25165
G01 X11.28227 Y31.25576
G01 X11.23114 Y31.26661
G01 X11.19139 Y31.27954
G01 X11.14364 Y31.30080
G01 X11.10744 Y31.32170
G01 X11.06515 Y31.35244
G01 X11.03409 Y31.38040
G01 X10.99911 Y31.41924
G01 X10.97452 Y31.45307
G01 X10.95187 Y31.49231
G01 X8.31004 Y28.85046
G01 X8.42317 Y28.68554
G01 X8.46597 Y28.70459
G01 X8.50572 Y28.71749
G01 X8.62330 Y28.74248
G01 X8.66488 Y28.74685
G01 X8.69302 Y28.74685
G01 X8.72500 Y28.75000
G01 X8.97496 Y28.75000
G01 X8.97496 Y28.80001
G01 X8.97592 Y28.81962
G01 X8.97834 Y28.84401
G01 X8.98598 Y28.88246
G01 X8.99309 Y28.90591
G01 X9.00811 Y28.94215
G01 X9.01964 Y28.96374
G01 X9.04143 Y28.99636
G01 X9.05697 Y29.01530
G01 X9.07016 Y29.02983
G01 X10.32017 Y30.27984
G01 X10.33470 Y30.29303
G01 X10.35364 Y30.30857
G01 X10.38626 Y30.33036
G01 X10.40785 Y30.34190
G01 X10.44409 Y30.35691
G01 X10.46754 Y30.36402
G01 X10.50597 Y30.37166
G01 X10.53038 Y30.37408
G01 X10.54999 Y30.37504
G01 X10.90000 Y30.37504
G01 X10.90000 Y30.40001
G01 X10.90109 Y30.42092
G01 X10.90655 Y30.47288
G01 X10.91524 Y30.51380
G01 X10.93139 Y30.56351
G01 X10.94839 Y30.60169
G01 X10.97452 Y30.64695
G01 X10.99911 Y30.68078
G01 X11.03409 Y30.71962
G01 X11.06515 Y30.74761
G01 X11.10744 Y30.77832
G01 X11.14364 Y30.79922
G01 X11.19139 Y30.82048
G01 X11.23114 Y30.83341
G01 X11.28227 Y30.84428
G01 X11.32385 Y30.84865
G01 X11.33609 Y30.84865
G01 X11.34999 Y30.85002
G01 X12.24998 Y30.85002
G01 X12.26045 Y30.84974
G01 X12.28658 Y30.84837
G01 X12.31770 Y30.84428
G01 X12.36883 Y30.83341
G01 X12.40858 Y30.82048
G01 X12.45633 Y30.79922
G01 X12.49255 Y30.77832
G01 X12.53482 Y30.74761
G01 X12.56591 Y30.71962
G01 X12.60086 Y30.68078
G01 X12.62545 Y30.64695
G01 X12.65158 Y30.60169
G01 X12.66858 Y30.56351
G01 X12.68473 Y30.51380
G01 X12.69342 Y30.47288
G01 X12.69890 Y30.42092
G01 X12.70000 Y30.40001
G01 X12.70000 Y29.70001
G01 X12.69890 Y29.67911
G01 X12.69342 Y29.62714
G01 X12.68473 Y29.58622
G01 X12.66858 Y29.53651
G01 X12.65158 Y29.49834
G01 X12.62545 Y29.45307
G01 X12.60086 Y29.41924
G01 X12.56591 Y29.38040
G01 X12.53482 Y29.35241
G01 X12.49255 Y29.32171
G01 X12.45633 Y29.30080
G01 X12.40858 Y29.27954
G01 X12.36883 Y29.26661
G01 X12.31770 Y29.25574
G01 X12.27612 Y29.25137
G01 X12.26390 Y29.25137
G01 X12.24998 Y29.25000
G01 X11.34999 Y29.25000
G01 X11.33952 Y29.25028
G01 X11.31338 Y29.25165
G01 X11.28227 Y29.25574
G01 X11.23114 Y29.26661
G01 X11.19139 Y29.27954
G01 X11.14364 Y29.30080
G01 X11.10744 Y29.32171
G01 X11.06515 Y29.35241
G01 X11.03409 Y29.38040
G01 X10.99911 Y29.41924
G01 X10.97452 Y29.45307
G01 X10.94839 Y29.49834
G01 X10.93139 Y29.53651
G01 X10.91524 Y29.58622
G01 X10.90655 Y29.62714
G01 X10.90109 Y29.67911
G01 X10.90000 Y29.70001
G01 X10.90000 Y29.72503
G01 X10.68458 Y29.72503
G01 X9.70958 Y28.75000
G01 X9.87498 Y28.75000
G01 X9.90696 Y28.74685
G01 X9.93510 Y28.74685
G01 X9.97668 Y28.74248
G01 X10.09426 Y28.71749
G01 X10.13401 Y28.70459
G01 X10.24384 Y28.65569
G01 X10.28004 Y28.63479
G01 X10.37729 Y28.56412
G01 X10.40836 Y28.53616
G01 X10.48880 Y28.44683
G01 X10.51339 Y28.41299
G01 X10.57348 Y28.30888
G01 X10.59045 Y28.27068
G01 X10.62763 Y28.15635
G01 X10.63630 Y28.11546
G01 X10.64889 Y27.99593
G01 X10.64999 Y27.97502
G01 X10.64999 Y26.12501
G01 X10.64889 Y26.10411
G01 X10.63630 Y25.98455
G01 X10.62763 Y25.94366
G01 X10.59045 Y25.82933
G01 X10.57785 Y25.80099
G01 X10.57348 Y25.79113
G01 X10.51339 Y25.68704
G01 X10.48880 Y25.65321
G01 X10.40836 Y25.56388
G01 X10.37729 Y25.53591
G01 X10.28004 Y25.46525
G01 X10.24384 Y25.44434
G01 X10.13401 Y25.39545
G01 X10.09426 Y25.38252
G01 X9.97668 Y25.35753
G01 X9.93510 Y25.35316
G01 X9.90696 Y25.35316
G01 X9.87498 Y25.35001
G01 X8.72500 Y25.35001
G01 X8.69302 Y25.35316
G01 X8.66488 Y25.35316
G01 X8.62330 Y25.35753
G01 X8.50572 Y25.38252
G01 X8.46597 Y25.39545
G01 X8.35614 Y25.44434
G01 X8.31992 Y25.46525
G01 X8.27979 Y25.49441
G01 X8.23714 Y25.50497
G01 X8.23193 Y25.50612
G01 X8.15868 Y25.52016
G01 X8.15367 Y25.52098
G01 X8.13241 Y25.52395
G01 X8.10475 Y25.59598
G01 X8.08428 Y25.65880
G01 X8.06815 Y25.71894
G01 X8.08659 Y25.68704
G01 X8.11118 Y25.65321
G01 X8.19160 Y25.56388
G01 X8.22269 Y25.53591
G01 X8.27979 Y25.49441
G01 X8.22269 Y25.53591
G01 X8.19160 Y25.56388
G01 X8.11118 Y25.65321
G01 X8.08659 Y25.68704
G01 X8.06815 Y25.71894
G01 X8.02650 Y25.79113
G01 X8.00948 Y25.82933
G01 X7.97234 Y25.94366
G01 X7.96366 Y25.98455
G01 X7.95108 Y26.10411
G01 X7.94999 Y26.12501
G01 X7.94999 Y27.97502
G01 X7.95108 Y27.99593
G01 X7.96366 Y28.11546
G01 X7.97234 Y28.15635
G01 X8.00948 Y28.27068
G01 X8.02650 Y28.30888
G01 X8.08659 Y28.41299
G01 X8.11118 Y28.44683
G01 X8.19160 Y28.53616
G01 X8.22269 Y28.56412
G01 X8.31992 Y28.63479
G01 X8.35614 Y28.65569
G01 X8.42317 Y28.68554
G01 X8.47554 Y28.72150
G01 X8.52942 Y28.75447
G01 X8.63498 Y28.81180
G01 X8.70552 Y28.84535
G01 X8.71352 Y28.84868
G01 X8.71639 Y28.84990
G01 X8.76470 Y28.87172
G01 X8.81113 Y28.89095
G01 X8.82827 Y28.90009
G01 X8.84331 Y28.91236
G01 X8.84608 Y28.90906
G01 X8.84331 Y28.91236
G01 X8.85571 Y28.92732
G01 X8.89650 Y28.98767
G01 X8.90851 Y29.00385
G01 X8.95690 Y29.06280
G01 X8.97089 Y29.07825
G01 X8.99655 Y29.10517
G01 X10.24481 Y30.35348
G01 X10.27176 Y30.37913
G01 X10.28717 Y30.39310
G01 X10.34615 Y30.44149
G01 X10.36210 Y30.45333
G01 X10.42908 Y30.49806
G01 X10.44653 Y30.50849
G01 X10.52436 Y30.55005
G01 X10.54460 Y30.55962
G01 X10.57940 Y30.57504
G01 X10.72492 Y30.57504
G01 X10.74836 Y30.54050
G01 X10.72492 Y30.57504
G01 X10.72502 Y30.57560
G01 X10.74117 Y30.62531
G01 X10.77518 Y30.70169
G01 X10.80132 Y30.74695
G01 X10.85047 Y30.81462
G01 X10.88544 Y30.85345
G01 X10.94760 Y30.90941
G01 X10.98986 Y30.94012
G01 X11.00701 Y30.95002
G01 X11.18504 Y30.95002
G01 X11.23848 Y30.95002
G01 X11.31587 Y30.95002
G01 X12.24998 Y30.95002
G01 X12.28407 Y30.95002
G01 X12.36124 Y30.95002
G01 X12.41465 Y30.95002
G01 X12.59296 Y30.95002
G01 X12.61010 Y30.94012
G01 X12.65240 Y30.90941
G01 X12.71452 Y30.85345
G01 X12.74950 Y30.81462
G01 X12.79865 Y30.74695
G01 X12.82479 Y30.70169
G01 X12.82499 Y30.70126
G01 X12.82499 Y29.39877
G01 X12.82479 Y29.39834
G01 X12.79865 Y29.35307
G01 X12.74950 Y29.28541
G01 X12.71452 Y29.24657
G01 X12.65240 Y29.19062
G01 X12.61010 Y29.15991
G01 X12.58117 Y29.14319
G01 X12.55049 Y29.13522
G01 X12.50297 Y29.12511
G01 X12.41005 Y29.11035
G01 X12.36273 Y29.10537
G01 X12.28272 Y29.10070
G01 X12.24894 Y29.10001
G01 X11.72497 Y29.10001
G01 X11.72202 Y29.09996
G01 X11.67025 Y29.09844
G01 X11.66489 Y29.09844
G01 X11.65961 Y29.09854
G01 X11.56472 Y29.09331
G01 X11.55951 Y29.09290
G01 X11.43929 Y29.08028
G01 X11.43406 Y29.07959
G01 X11.33439 Y29.06374
G01 X11.33121 Y29.06321
G01 X11.29385 Y29.05602
G01 X11.28379 Y29.05445
G01 X11.24069 Y29.06011
G01 X11.18956 Y29.07098
G01 X11.11003 Y29.09684
G01 X11.06231 Y29.11810
G01 X10.98986 Y29.15991
G01 X10.94760 Y29.19062
G01 X10.88544 Y29.24657
G01 X10.85047 Y29.28541
G01 X10.80132 Y29.35307
G01 X10.77518 Y29.39834
G01 X10.74117 Y29.47471
G01 X10.73528 Y29.49288
G01 X10.76053 Y29.63816
G01 X10.73528 Y29.49288
G01 X10.15070 Y28.90829
G01 X9.99086 Y28.87553
G01 X10.15070 Y28.90829
G01 X10.21537 Y28.88729
G01 X10.32517 Y28.83839
G01 X10.39761 Y28.79659
G01 X10.49484 Y28.72592
G01 X10.55700 Y28.66997
G01 X10.63744 Y28.58063
G01 X10.68659 Y28.51299
G01 X10.69997 Y28.48980
G01 X10.69997 Y28.43961
G01 X10.69997 Y28.33873
G01 X10.69997 Y25.90734
G01 X10.69997 Y25.90294
G01 X10.65898 Y25.87162
G01 X10.65458 Y25.86827
G01 X10.64968 Y25.86426
G01 X10.59472 Y25.81645
G01 X10.59256 Y25.81452
G01 X10.57785 Y25.80099
G01 X10.65898 Y25.87162
G01 X10.69997 Y25.90734
G01 X10.89997 Y26.08148
G01 X10.94999 Y26.12501
G01 X10.94999 Y27.97502
G01 X10.95108 Y27.99593
G01 X10.96365 Y28.11546
G01 X10.97234 Y28.15635
G01 X11.00950 Y28.27068
G01 X11.02649 Y28.30888
G01 X11.08659 Y28.41299
G01 X11.11117 Y28.44683
G01 X11.19162 Y28.53616
G01 X11.22268 Y28.56412
G01 X11.31994 Y28.63479
G01 X11.35613 Y28.65569
G01 X11.46596 Y28.70459
G01 X11.50571 Y28.71749
G01 X11.62329 Y28.74248
G01 X11.66489 Y28.74685
G01 X11.69301 Y28.74685
G01 X11.72499 Y28.75000
G01 X12.79034 Y28.75000
G01 X13.36034 Y29.32003
G01 X13.35742 Y29.32171
G01 X13.31516 Y29.35241
G01 X13.28407 Y29.38040
G01 X13.24909 Y29.41924
G01 X13.22453 Y29.45307
G01 X13.19839 Y29.49834
G01 X13.18140 Y29.53651
G01 X13.16525 Y29.58622
G01 X13.15653 Y29.62714
G01 X13.15107 Y29.67911
G01 X13.14998 Y29.70001
G01 X13.14998 Y30.40001
G01 X13.15107 Y30.42092
G01 X13.15653 Y30.47288
G01 X13.16525 Y30.51380
G01 X13.18140 Y30.56351
G01 X13.19839 Y30.60169
G01 X13.22453 Y30.64695
G01 X13.24909 Y30.68078
G01 X13.28407 Y30.71962
G01 X13.31516 Y30.74761
G01 X13.35742 Y30.77832
G01 X13.39364 Y30.79922
G01 X13.44140 Y30.82048
G01 X13.48115 Y30.83341
G01 X13.53228 Y30.84428
G01 X13.57386 Y30.84865
G01 X13.58607 Y30.84865
G01 X13.59999 Y30.85002
G01 X14.49999 Y30.85002
G01 X14.51046 Y30.84974
G01 X14.53659 Y30.84837
G01 X14.56771 Y30.84428
G01 X14.61881 Y30.83341
G01 X14.65859 Y30.82048
G01 X14.70634 Y30.79922
G01 X14.74254 Y30.77832
G01 X14.78483 Y30.74761
G01 X14.81589 Y30.71962
G01 X14.85087 Y30.68078
G01 X14.87545 Y30.64695
G01 X14.90159 Y30.60169
G01 X14.91858 Y30.56351
G01 X14.93474 Y30.51380
G01 X14.94343 Y30.47288
G01 X14.94889 Y30.42092
G01 X14.94998 Y30.40001
G01 X14.94998 Y29.70001
G01 X14.94889 Y29.67911
G01 X14.94343 Y29.62714
G01 X14.93474 Y29.58622
G01 X14.91858 Y29.53651
G01 X14.90159 Y29.49834
G01 X14.87545 Y29.45307
G01 X14.85087 Y29.41924
G01 X14.81589 Y29.38040
G01 X14.78483 Y29.35241
G01 X14.74254 Y29.32171
G01 X14.70634 Y29.30080
G01 X14.65859 Y29.27954
G01 X14.61881 Y29.26661
G01 X14.56771 Y29.25574
G01 X14.52613 Y29.25137
G01 X14.51389 Y29.25137
G01 X14.49999 Y29.25000
G01 X14.20959 Y29.25000
G01 X13.44975 Y28.49019
G01 X13.48879 Y28.44683
G01 X13.51338 Y28.41299
G01 X13.57348 Y28.30888
G01 X13.59049 Y28.27068
G01 X13.62763 Y28.15635
G01 X13.63632 Y28.11546
G01 X13.64889 Y27.99593
G01 X13.64998 Y27.97502
G01 X13.64998 Y26.12501
G01 X13.64889 Y26.10411
G01 X13.63632 Y25.98455
G01 X13.62763 Y25.94366
G01 X13.59049 Y25.82933
G01 X13.57787 Y25.80099
G01 X13.57348 Y25.79113
G01 X13.51338 Y25.68704
G01 X13.48879 Y25.65321
G01 X13.40838 Y25.56388
G01 X13.37729 Y25.53591
G01 X13.28006 Y25.46525
G01 X13.24383 Y25.44434
G01 X13.13403 Y25.39545
G01 X13.09425 Y25.38252
G01 X12.97668 Y25.35753
G01 X12.93510 Y25.35316
G01 X12.90698 Y25.35316
G01 X12.87498 Y25.35001
G01 X11.72499 Y25.35001
G01 X11.69301 Y25.35316
G01 X11.66489 Y25.35316
G01 X11.62329 Y25.35753
G01 X11.50571 Y25.38252
G01 X11.46596 Y25.39545
G01 X11.35613 Y25.44434
G01 X11.31994 Y25.46525
G01 X11.22268 Y25.53591
G01 X11.19162 Y25.56388
G01 X11.11117 Y25.65321
G01 X11.08659 Y25.68704
G01 X11.02649 Y25.79113
G01 X11.02151 Y25.80228
G01 X11.00950 Y25.82933
G01 X10.97234 Y25.94366
G01 X10.96365 Y25.98455
G01 X10.95108 Y26.10411
G01 X10.94999 Y26.12501
G01 X10.89997 Y25.90223
G01 X10.92959 Y25.87907
G01 X10.93050 Y25.87833
G01 X10.94552 Y25.86631
G01 X10.94643 Y25.86558
G01 X11.00363 Y25.81861
G01 X11.00813 Y25.81470
G01 X11.02151 Y25.80228
G01 X11.00813 Y25.81470
G01 X11.00363 Y25.81861
G01 X10.94643 Y25.86558
G01 X10.94552 Y25.86631
G01 X10.93050 Y25.87833
G01 X10.92959 Y25.87907
G01 X10.89997 Y25.90223
G01 X10.89997 Y26.08148
G01 X10.89997 Y28.48975
G01 X10.91338 Y28.51299
G01 X10.96253 Y28.58063
G01 X11.04298 Y28.66997
G01 X11.10513 Y28.72592
G01 X11.20236 Y28.79659
G01 X11.27480 Y28.83839
G01 X11.31709 Y28.85722
G01 X11.32652 Y28.85871
G01 X11.32987 Y28.85930
G01 X11.36723 Y28.86646
G01 X11.46281 Y28.88165
G01 X11.57782 Y28.89372
G01 X11.66751 Y28.89844
G01 X11.67173 Y28.89844
G01 X11.67470 Y28.89849
G01 X11.72646 Y28.90001
G01 X12.24998 Y28.90001
G01 X12.25202 Y28.90004
G01 X12.28869 Y28.90078
G01 X12.29248 Y28.90093
G01 X12.37670 Y28.90586
G01 X12.37673 Y28.90548
G01 X12.37670 Y28.90586
G01 X12.38133 Y28.90624
G01 X12.43360 Y28.91172
G01 X12.43883 Y28.91241
G01 X12.53693 Y28.92801
G01 X12.54203 Y28.92894
G01 X12.59428 Y28.94007
G01 X12.59862 Y28.94109
G01 X12.63296 Y28.95000
G01 X12.70751 Y28.95000
G01 X12.71244 Y28.94002
G01 X12.70751 Y28.95000
G01 X13.07625 Y29.31876
G01 X13.13261 Y29.31266
G01 X13.07625 Y29.31876
G01 X13.05133 Y29.35307
G01 X13.02519 Y29.39834
G01 X13.02499 Y29.39882
G01 X13.02499 Y30.70120
G01 X13.02519 Y30.70169
G01 X13.05133 Y30.74695
G01 X13.10048 Y30.81462
G01 X13.13545 Y30.85345
G01 X13.19758 Y30.90941
G01 X13.23987 Y30.94012
G01 X13.25702 Y30.95002
G01 X13.43507 Y30.95002
G01 X13.48851 Y30.95002
G01 X13.56588 Y30.95002
G01 X14.49999 Y30.95002
G01 X14.53408 Y30.95002
G01 X14.61129 Y30.95002
G01 X14.66469 Y30.95002
G01 X14.84297 Y30.95002
G01 X14.86011 Y30.94012
G01 X14.90238 Y30.90941
G01 X14.96453 Y30.85345
G01 X14.99951 Y30.81462
G01 X15.04866 Y30.74695
G01 X15.07479 Y30.70169
G01 X15.07497 Y30.70128
G01 X15.07497 Y29.39874
G01 X15.07479 Y29.39834
G01 X15.04866 Y29.35307
G01 X14.99951 Y29.28541
G01 X14.96453 Y29.24657
G01 X14.90238 Y29.19062
G01 X14.86011 Y29.15991
G01 X14.83212 Y29.14375
G01 X14.79999 Y29.13512
G01 X14.75153 Y29.12480
G01 X14.70776 Y29.11663
G01 X14.65780 Y29.10852
G01 X14.65442 Y29.10817
G01 X14.65206 Y29.10789
G01 X14.60865 Y29.10227
G01 X14.60632 Y29.10194
G01 X14.55529 Y29.09412
G01 X14.52425 Y29.08993
G01 X14.48851 Y29.08543
G01 X14.43929 Y29.08028
G01 X14.43405 Y29.07957
G01 X14.33443 Y29.06377
G01 X14.32935 Y29.06283
G01 X14.30865 Y29.05843
G01 X14.28998 Y29.05249
G01 X14.27281 Y29.04302
G01 X14.27078 Y29.04779
G01 X14.27281 Y29.04302
G01 X14.18938 Y28.98569
G01 X14.18516 Y28.98264
G01 X14.10736 Y28.92298
G01 X14.10324 Y28.91965
G01 X14.10309 Y28.91985
G01 X14.10324 Y28.91965
G01 X14.01155 Y28.84134
G01 X14.00766 Y28.83784
G01 X13.93977 Y28.77340
G01 X13.93941 Y28.77375
G01 X13.93977 Y28.77340
G01 X13.93604 Y28.76969
G01 X13.85328 Y28.68249
G01 X13.84978 Y28.67858
G01 X13.78813 Y28.60639
G01 X13.78485 Y28.60233
G01 X13.72064 Y28.51863
G01 X13.70934 Y28.50002
G01 X13.69735 Y28.50443
G01 X13.70934 Y28.50002
G01 X13.70233 Y28.47942
G01 X13.69997 Y28.45777
G01 X13.69997 Y28.43961
G01 X13.69997 Y28.33880
G01 X13.69997 Y28.21241
G01 X13.69997 Y28.13271
G01 X13.69997 Y28.01178
G01 X13.69997 Y26.08829
G01 X13.69997 Y25.96741
G01 X13.69997 Y25.90294
G01 X13.65455 Y25.86824
G01 X13.64963 Y25.86421
G01 X13.59471 Y25.81645
G01 X13.59255 Y25.81452
G01 X13.57787 Y25.80099
G01 X14.02153 Y25.80228
G01 X14.02649 Y25.79113
G01 X14.08661 Y25.68704
G01 X14.11117 Y25.65321
G01 X14.19161 Y25.56388
G01 X14.22267 Y25.53591
G01 X14.31993 Y25.46525
G01 X14.35615 Y25.44434
G01 X14.46596 Y25.39545
G01 X14.50573 Y25.38252
G01 X14.62331 Y25.35753
G01 X14.66489 Y25.35316
G01 X14.69301 Y25.35316
G01 X14.72498 Y25.35001
G01 X15.87500 Y25.35001
G01 X15.90697 Y25.35316
G01 X15.93509 Y25.35316
G01 X15.97667 Y25.35753
G01 X16.09425 Y25.38252
G01 X16.13402 Y25.39545
G01 X16.24383 Y25.44434
G01 X16.28005 Y25.46525
G01 X16.37731 Y25.53591
G01 X16.40837 Y25.56388
G01 X16.48881 Y25.65321
G01 X16.51337 Y25.68704
G01 X16.57347 Y25.79113
G01 X16.57786 Y25.80099
G01 X16.59049 Y25.82933
G01 X16.62762 Y25.94366
G01 X16.63633 Y25.98455
G01 X16.64888 Y26.10411
G01 X16.64997 Y26.12501
G01 X16.64997 Y27.97502
G01 X16.64888 Y27.99593
G01 X16.63633 Y28.11546
G01 X16.62762 Y28.15635
G01 X16.59049 Y28.27068
G01 X16.57347 Y28.30888
G01 X16.51337 Y28.41299
G01 X16.48881 Y28.44683
G01 X16.40837 Y28.53616
G01 X16.37731 Y28.56412
G01 X16.28005 Y28.63479
G01 X16.24383 Y28.65569
G01 X16.15488 Y28.69529
G01 X16.52978 Y29.07022
G01 X16.54296 Y29.08475
G01 X16.55851 Y29.10370
G01 X16.58030 Y29.13631
G01 X16.59183 Y29.15790
G01 X16.60685 Y29.19415
G01 X16.61396 Y29.21759
G01 X16.62041 Y29.25000
G01 X16.75000 Y29.25000
G01 X16.76387 Y29.25137
G01 X16.77611 Y29.25137
G01 X16.81769 Y29.25574
G01 X16.86880 Y29.26661
G01 X16.90860 Y29.27954
G01 X16.95632 Y29.30080
G01 X16.99254 Y29.32171
G01 X17.03481 Y29.35241
G01 X17.06590 Y29.38040
G01 X17.10088 Y29.41924
G01 X17.12544 Y29.45307
G01 X17.15157 Y29.49834
G01 X17.16859 Y29.53651
G01 X17.18475 Y29.58622
G01 X17.19343 Y29.62714
G01 X17.19889 Y29.67911
G01 X17.19996 Y29.70001
G01 X17.19996 Y30.40001
G01 X17.19889 Y30.42092
G01 X17.19343 Y30.47288
G01 X17.18475 Y30.51380
G01 X17.16859 Y30.56351
G01 X17.15157 Y30.60169
G01 X17.12544 Y30.64695
G01 X17.10088 Y30.68078
G01 X17.06590 Y30.71962
G01 X17.03481 Y30.74761
G01 X16.99254 Y30.77832
G01 X16.95632 Y30.79922
G01 X16.90860 Y30.82048
G01 X16.86880 Y30.83341
G01 X16.81769 Y30.84428
G01 X16.78658 Y30.84837
G01 X16.76044 Y30.84974
G01 X16.75000 Y30.85002
G01 X15.84998 Y30.85002
G01 X15.83608 Y30.84865
G01 X15.82387 Y30.84865
G01 X15.78229 Y30.84428
G01 X15.73116 Y30.83341
G01 X15.69138 Y30.82048
G01 X15.64365 Y30.79922
G01 X15.60743 Y30.77832
G01 X15.56514 Y30.74761
G01 X15.53408 Y30.71962
G01 X15.49910 Y30.68078
G01 X15.47454 Y30.64695
G01 X15.44840 Y30.60169
G01 X15.43138 Y30.56351
G01 X15.41523 Y30.51380
G01 X15.40654 Y30.47288
G01 X15.40108 Y30.42092
G01 X15.39999 Y30.40001
G01 X15.39999 Y29.70001
G01 X15.40108 Y29.67911
G01 X15.40654 Y29.62714
G01 X15.41523 Y29.58622
G01 X15.43138 Y29.53651
G01 X15.44840 Y29.49834
G01 X15.47454 Y29.45307
G01 X15.49910 Y29.41924
G01 X15.53408 Y29.38040
G01 X15.56514 Y29.35241
G01 X15.60743 Y29.32171
G01 X15.64365 Y29.30080
G01 X15.69138 Y29.27954
G01 X15.73116 Y29.26661
G01 X15.78229 Y29.25574
G01 X15.79448 Y29.25414
G01 X15.32016 Y28.77982
G01 X15.30698 Y28.76529
G01 X15.29445 Y28.75000
G01 X14.72498 Y28.75000
G01 X14.69301 Y28.74685
G01 X14.66489 Y28.74685
G01 X14.62331 Y28.74248
G01 X14.50573 Y28.71749
G01 X14.46596 Y28.70459
G01 X14.35615 Y28.65569
G01 X14.31993 Y28.63479
G01 X14.22267 Y28.56412
G01 X14.19161 Y28.53616
G01 X14.11117 Y28.44683
G01 X14.08661 Y28.41299
G01 X14.02649 Y28.30888
G01 X14.00949 Y28.27068
G01 X13.97233 Y28.15635
G01 X13.96365 Y28.11546
G01 X13.95107 Y27.99593
G01 X13.94998 Y27.97502
G01 X13.94998 Y26.12501
G01 X13.89997 Y26.08829
G01 X13.94998 Y26.12501
G01 X13.95107 Y26.10411
G01 X13.96365 Y25.98455
G01 X13.97233 Y25.94366
G01 X14.00949 Y25.82933
G01 X14.02153 Y25.80228
G01 X14.00817 Y25.81468
G01 X14.00368 Y25.81859
G01 X13.94642 Y25.86558
G01 X13.94551 Y25.86631
G01 X13.93050 Y25.87833
G01 X13.92958 Y25.87907
G01 X13.89999 Y25.90220
G01 X13.89999 Y25.96743
G01 X13.89997 Y26.08829
G01 X13.89997 Y28.01178
G01 X13.89999 Y28.13260
G01 X13.89999 Y28.21241
G01 X13.89997 Y28.33873
G01 X13.89997 Y28.42382
G01 X13.94193 Y28.47850
G01 X14.00017 Y28.54673
G01 X14.07932 Y28.63014
G01 X14.14343 Y28.69097
G01 X14.23113 Y28.76588
G01 X14.30479 Y28.82234
G01 X14.36954 Y28.86684
G01 X14.46281 Y28.88165
G01 X14.51043 Y28.88665
G01 X14.51244 Y28.88688
G01 X14.54965 Y28.89156
G01 X14.55059 Y28.89166
G01 X14.58300 Y28.89605
G01 X14.58475 Y28.89631
G01 X14.63548 Y28.90408
G01 X14.67652 Y28.90939
G01 X14.68155 Y28.90992
G01 X14.68722 Y28.91068
G01 X14.68953 Y28.91106
G01 X14.74096 Y28.91939
G01 X14.74337 Y28.91980
G01 X14.78953 Y28.92846
G01 X14.79191 Y28.92892
G01 X14.84419 Y28.94004
G01 X14.84934 Y28.94129
G01 X14.88183 Y28.95000
G01 X15.20751 Y28.95000
G01 X15.21381 Y28.93479
G01 X15.20751 Y28.95000
G01 X15.44789 Y29.19041
G01 X15.53250 Y29.19092
G01 X15.44789 Y29.19041
G01 X15.44759 Y29.19062
G01 X15.38544 Y29.24657
G01 X15.35049 Y29.28541
G01 X15.30131 Y29.35307
G01 X15.27520 Y29.39834
G01 X15.27497 Y29.39882
G01 X15.27497 Y30.70120
G01 X15.27520 Y30.70169
G01 X15.30131 Y30.74695
G01 X15.35049 Y30.81462
G01 X15.38544 Y30.85345
G01 X15.44759 Y30.90941
G01 X15.48988 Y30.94012
G01 X15.50703 Y30.95002
G01 X15.68508 Y30.95002
G01 X15.73852 Y30.95002
G01 X15.81586 Y30.95002
G01 X16.86123 Y30.95002
G01 X16.91464 Y30.95002
G01 X17.09295 Y30.95002
G01 X17.11010 Y30.94012
G01 X17.15239 Y30.90941
G01 X17.19874 Y30.86768
G01 X17.20502 Y30.84019
G01 X17.20535 Y30.83872
G01 X17.22290 Y30.76679
G01 X17.22869 Y30.74146
G01 X17.23428 Y30.71515
G01 X17.23458 Y30.71365
G01 X17.24065 Y30.68716
G01 X17.24103 Y30.68563
G01 X17.24487 Y30.66991
G01 X17.25762 Y30.60674
G01 X17.26519 Y30.55912
G01 X17.27311 Y30.48388
G01 X17.27563 Y30.43557
G01 X17.27659 Y30.39872
G01 X17.27659 Y29.76671
G01 X17.27659 Y29.76410
G01 X17.27768 Y29.72463
G01 X17.27779 Y29.72203
G01 X17.27916 Y29.69562
G01 X17.28000 Y29.67220
G01 X17.28028 Y29.65813
G01 X17.28038 Y29.65472
G01 X17.28322 Y29.60189
G01 X17.28343 Y29.59854
G01 X17.28454 Y29.58604
G01 X17.28731 Y29.53529
G01 X17.28764 Y29.51812
G01 X17.28779 Y29.51500
G01 X17.29077 Y29.45907
G01 X17.29097 Y29.45602
G01 X17.29252 Y29.43748
G01 X17.29554 Y29.38185
G01 X17.29625 Y29.35445
G01 X17.29635 Y29.35178
G01 X17.29646 Y29.35005
G01 X17.24949 Y29.28541
G01 X17.21452 Y29.24657
G01 X17.15239 Y29.19062
G01 X17.11010 Y29.15991
G01 X17.03765 Y29.11810
G01 X16.98990 Y29.09684
G01 X16.91038 Y29.07098
G01 X16.85927 Y29.06011
G01 X16.77611 Y29.05137
G01 X16.76387 Y29.05137
G01 X16.76156 Y29.05114
G01 X16.75168 Y29.06725
G01 X16.76156 Y29.05114
G01 X16.75668 Y29.04203
G01 X16.71312 Y28.97682
G01 X16.69757 Y28.95788
G01 X16.67121 Y28.92879
G01 X16.47949 Y28.73707
G01 X16.39686 Y28.73664
G01 X16.47949 Y28.73707
G01 X16.49486 Y28.72592
G01 X16.55699 Y28.66997
G01 X16.63743 Y28.58063
G01 X16.68658 Y28.51299
G01 X16.69996 Y28.48980
G01 X16.69996 Y28.43961
G01 X16.69996 Y28.33883
G01 X16.69996 Y28.21241
G01 X16.69996 Y28.13263
G01 X16.69996 Y28.01178
G01 X16.69996 Y27.97505
G01 X16.69996 Y26.12501
G01 X16.69996 Y26.08829
G01 X16.69996 Y25.96741
G01 X16.69996 Y25.90731
G01 X16.69996 Y25.90294
G01 X16.65892 Y25.87155
G01 X16.65455 Y25.86822
G01 X16.64962 Y25.86421
G01 X16.59470 Y25.81645
G01 X16.59255 Y25.81452
G01 X16.57786 Y25.80099
G01 X16.65892 Y25.87155
G01 X16.69996 Y25.90731
G01 X16.89999 Y26.08148
G01 X16.95000 Y26.12501
G01 X16.95000 Y27.97502
G01 X16.95107 Y27.99593
G01 X16.96361 Y28.11546
G01 X16.97235 Y28.15635
G01 X17.00949 Y28.27068
G01 X17.02648 Y28.30888
G01 X17.08660 Y28.41299
G01 X17.11116 Y28.44683
G01 X17.19160 Y28.53616
G01 X17.22267 Y28.56412
G01 X17.31990 Y28.63479
G01 X17.35615 Y28.65569
G01 X17.46595 Y28.70459
G01 X17.50573 Y28.71749
G01 X17.62330 Y28.74248
G01 X17.66488 Y28.74685
G01 X17.69300 Y28.74685
G01 X17.72498 Y28.75000
G01 X18.87499 Y28.75000
G01 X18.90697 Y28.74685
G01 X18.93509 Y28.74685
G01 X18.97667 Y28.74248
G01 X19.09424 Y28.71749
G01 X19.13402 Y28.70459
G01 X19.24382 Y28.65569
G01 X19.28004 Y28.63479
G01 X19.37730 Y28.56412
G01 X19.40836 Y28.53616
G01 X19.48881 Y28.44683
G01 X19.51337 Y28.41299
G01 X19.57349 Y28.30888
G01 X19.59048 Y28.27068
G01 X19.62764 Y28.15635
G01 X19.63633 Y28.11546
G01 X19.64890 Y27.99593
G01 X19.64999 Y27.97502
G01 X19.64999 Y26.12501
G01 X19.64890 Y26.10411
G01 X19.63633 Y25.98455
G01 X19.62764 Y25.94366
G01 X19.59048 Y25.82933
G01 X19.57796 Y25.80119
G01 X19.57349 Y25.79113
G01 X19.51337 Y25.68704
G01 X19.48881 Y25.65321
G01 X19.40836 Y25.56388
G01 X19.37730 Y25.53591
G01 X19.28004 Y25.46525
G01 X19.24382 Y25.44434
G01 X19.13402 Y25.39545
G01 X19.09424 Y25.38252
G01 X18.97667 Y25.35753
G01 X18.93509 Y25.35316
G01 X18.90697 Y25.35316
G01 X18.87499 Y25.35001
G01 X17.72498 Y25.35001
G01 X17.69300 Y25.35316
G01 X17.66488 Y25.35316
G01 X17.62330 Y25.35753
G01 X17.50573 Y25.38252
G01 X17.46595 Y25.39545
G01 X17.35615 Y25.44434
G01 X17.31990 Y25.46525
G01 X17.22267 Y25.53591
G01 X17.19160 Y25.56388
G01 X17.11116 Y25.65321
G01 X17.08660 Y25.68704
G01 X17.02648 Y25.79113
G01 X17.02153 Y25.80231
G01 X17.00949 Y25.82933
G01 X16.97235 Y25.94366
G01 X16.96361 Y25.98455
G01 X16.95107 Y26.10411
G01 X16.95000 Y26.12501
G01 X16.89999 Y25.90223
G01 X16.92958 Y25.87909
G01 X16.93052 Y25.87835
G01 X16.94558 Y25.86626
G01 X16.94652 Y25.86550
G01 X17.00364 Y25.81861
G01 X17.00814 Y25.81470
G01 X17.02153 Y25.80231
G01 X17.00814 Y25.81470
G01 X17.00364 Y25.81861
G01 X16.94652 Y25.86550
G01 X16.94558 Y25.86626
G01 X16.93052 Y25.87835
G01 X16.92958 Y25.87909
G01 X16.89999 Y25.90223
G01 X16.89999 Y26.08148
G01 X16.89999 Y28.48975
G01 X16.91340 Y28.51299
G01 X16.96255 Y28.58063
G01 X17.04296 Y28.66997
G01 X17.10512 Y28.72592
G01 X17.20237 Y28.79659
G01 X17.27479 Y28.83839
G01 X17.38462 Y28.88729
G01 X17.46415 Y28.91312
G01 X17.58172 Y28.93811
G01 X17.66488 Y28.94685
G01 X17.69300 Y28.94685
G01 X17.72498 Y28.95000
G01 X17.78238 Y28.95000
G01 X17.80768 Y28.94609
G01 X17.81256 Y28.94545
G01 X17.86481 Y28.93994
G01 X17.86940 Y28.93959
G01 X17.95940 Y28.93430
G01 X17.96331 Y28.93415
G01 X18.00125 Y28.93326
G01 X18.00321 Y28.93336
G01 X18.87354 Y28.93336
G01 X18.92731 Y28.93184
G01 X18.93016 Y28.93179
G01 X18.93244 Y28.93179
G01 X19.02917 Y28.92671
G01 X19.11372 Y28.91782
G01 X19.13585 Y28.91312
G01 X19.21537 Y28.88729
G01 X19.32518 Y28.83839
G01 X19.39759 Y28.79659
G01 X19.49485 Y28.72592
G01 X19.55700 Y28.66997
G01 X19.63742 Y28.58063
G01 X19.68657 Y28.51299
G01 X19.69998 Y28.48978
G01 X19.69998 Y28.43969
G01 X19.69998 Y28.33883
G01 X19.69996 Y28.21233
G01 X19.69996 Y28.13271
G01 X19.69998 Y28.01185
G01 X19.69998 Y27.97502
G01 X19.69998 Y26.08831
G01 X19.69996 Y25.96736
G01 X19.69996 Y25.90317
G01 X19.65439 Y25.86830
G01 X19.64944 Y25.86426
G01 X19.59452 Y25.81640
G01 X19.59239 Y25.81452
G01 X19.57796 Y25.80119
G01 X19.71225 Y25.65341
G01 X19.74941 Y25.66154
G01 X19.78741 Y25.66248
G01 X19.85822 Y25.65748
G01 X19.89114 Y25.65237
G01 X19.92274 Y25.64188
G01 X19.95215 Y25.62628
G01 X19.99724 Y25.59735
G01 X20.03051 Y25.57058
G01 X20.16074 Y25.44061
G01 X20.30046 Y25.34620
G01 X20.45530 Y25.28001
G01 X20.62347 Y25.24348
G01 X20.64786 Y25.24203
G01 X20.84595 Y25.24203
G01 X20.84595 Y25.35001
G01 X20.72500 Y25.35001
G01 X20.69299 Y25.35316
G01 X20.66488 Y25.35316
G01 X20.62330 Y25.35753
G01 X20.50572 Y25.38252
G01 X20.46594 Y25.39545
G01 X20.35614 Y25.44434
G01 X20.31992 Y25.46525
G01 X20.22269 Y25.53591
G01 X20.19160 Y25.56388
G01 X20.11118 Y25.65321
G01 X20.08659 Y25.68704
G01 X20.02650 Y25.79113
G01 X20.00948 Y25.82933
G01 X19.97235 Y25.94366
G01 X19.96366 Y25.98455
G01 X19.95109 Y26.10411
G01 X19.94999 Y26.12501
G01 X19.94999 Y27.97502
G01 X19.95109 Y27.99593
G01 X19.96366 Y28.11546
G01 X19.97235 Y28.15635
G01 X20.00948 Y28.27068
G01 X20.02650 Y28.30888
G01 X20.08659 Y28.41299
G01 X20.11118 Y28.44683
G01 X20.19160 Y28.53616
G01 X20.22269 Y28.56412
G01 X20.31992 Y28.63479
G01 X20.35614 Y28.65569
G01 X20.46594 Y28.70459
G01 X20.50572 Y28.71749
G01 X20.62330 Y28.74248
G01 X20.66488 Y28.74685
G01 X20.69299 Y28.74685
G01 X20.72500 Y28.75000
G01 X20.84595 Y28.75000
G01 X20.84595 Y28.77347
G01 X20.82035 Y28.81332
G01 X20.80120 Y28.85158
G01 X20.79063 Y28.89300
G01 X20.78553 Y28.92851
G01 X20.78347 Y28.95696
G01 X20.78347 Y29.20230
G01 X20.75728 Y29.20575
G01 X20.70615 Y29.21663
G01 X20.66638 Y29.22953
G01 X20.61865 Y29.25079
G01 X20.58243 Y29.27169
G01 X20.54014 Y29.30243
G01 X20.50907 Y29.33039
G01 X20.47410 Y29.36923
G01 X20.44954 Y29.40306
G01 X20.42340 Y29.44832
G01 X20.40638 Y29.48653
G01 X20.39023 Y29.53623
G01 X20.38154 Y29.57713
G01 X20.37608 Y29.62910
G01 X20.37499 Y29.65000
G01 X20.37499 Y29.84601
G01 X20.15126 Y29.84601
G01 X20.09848 Y29.81210
G01 X20.06023 Y29.79295
G01 X20.01880 Y29.78238
G01 X19.98329 Y29.77728
G01 X19.95485 Y29.77522
G01 X19.70323 Y29.77522
G01 X19.70323 Y29.76671
G01 X19.70214 Y29.74581
G01 X19.69668 Y29.69384
G01 X19.68799 Y29.65295
G01 X19.67184 Y29.60324
G01 X19.65482 Y29.56504
G01 X19.62871 Y29.51977
G01 X19.60412 Y29.48594
G01 X19.56915 Y29.44710
G01 X19.53808 Y29.41911
G01 X19.49579 Y29.38841
G01 X19.45960 Y29.36750
G01 X19.41184 Y29.34624
G01 X19.37207 Y29.33331
G01 X19.32096 Y29.32247
G01 X19.27938 Y29.31807
G01 X19.26714 Y29.31807
G01 X19.25325 Y29.31673
G01 X18.00324 Y29.31673
G01 X17.99277 Y29.31698
G01 X17.96663 Y29.31835
G01 X17.93552 Y29.32247
G01 X17.88441 Y29.33331
G01 X17.84464 Y29.34624
G01 X17.79689 Y29.36750
G01 X17.76069 Y29.38841
G01 X17.71840 Y29.41911
G01 X17.68734 Y29.44710
G01 X17.65236 Y29.48594
G01 X17.62777 Y29.51977
G01 X17.60164 Y29.56504
G01 X17.58464 Y29.60324
G01 X17.56849 Y29.65295
G01 X17.55980 Y29.69384
G01 X17.55434 Y29.74581
G01 X17.55325 Y29.76671
G01 X17.55325 Y30.69170
G01 X17.55434 Y30.71261
G01 X17.55980 Y30.76460
G01 X17.56849 Y30.80550
G01 X17.58464 Y30.85520
G01 X17.60164 Y30.89341
G01 X17.62777 Y30.93867
G01 X17.65236 Y30.97248
G01 X17.68734 Y31.01134
G01 X17.71840 Y31.03930
G01 X17.76069 Y31.07004
G01 X17.79689 Y31.09094
G01 X17.84464 Y31.11218
G01 X17.88441 Y31.12511
G01 X17.93552 Y31.13598
G01 X17.97710 Y31.14035
G01 X17.98934 Y31.14035
G01 X18.00324 Y31.14172
G01 X18.17420 Y31.14172
G01 X18.17420 Y31.24972
G01 X17.96318 Y31.24972
G01 X17.88967 Y31.24210
G01 X17.76077 Y31.19910
G01 X17.75150 Y31.19475
G01 X17.71459 Y31.18170
G01 X17.69216 Y31.17845
G01 X17.66280 Y31.17037
G01 X17.62533 Y31.16381
G01 X17.58731 Y31.16448
G01 X17.55010 Y31.17232
G01 X17.48233 Y31.19351
G01 X17.44731 Y31.20824
G01 X17.41568 Y31.22935
G01 X17.38863 Y31.25604
G01 X17.34304 Y31.31050
G01 X17.32153 Y31.34187
G01 X17.30634 Y31.37677
G01 X17.30382 Y31.38797
G04 P0 ( dwell for no time -- G64 should not smooth over this point )
G00 Z1.00000 ( retract )

G00 X20.54128 Y31.80120 ( rapid move to begin. )
