( pcb2gcode 2.4.0 )
( Software-independent Gcode )

G94 ( Millimeters per minute feed rate. )
G21 ( Units == Millimeters. )

G90 ( Absolute coordinates. )
G00 S10000 ( RPM spindle speed. )
G64 P0.01000 ( set maximum deviation from commanded toolpath )
G01 F600.00000 ( Feedrate. )


G00 Z50.00000 (Retract to tool change height)
T0
M5      (Spindle stop.)
G04 P1.00000 (Wait for spindle to stop)
(MSG, Change tool bit to cutter diameter 4.00000mm)
M6      (Tool change.)
M0      (Temporary machine stop.)
M3 ( Spindle on clockwise. )
G04 P1.00000 (Wait for spindle to get up to speed)
G04 P0 ( dwell for no time -- G64 should not smooth over this point )
G00 Z1.00000 ( retract )

G00 X2.05000 Y4.05000 ( rapid move to begin. )
G01 Z-0.43333 F60.00000 ( plunge. )
G04 P0 ( dwell for no time -- G64 should not smooth over this point )
G01 F600.00000
G01 X2.05000 Y48.80000
G01 X2.08843 Y49.19017
G01 X2.20225 Y49.56535
G01 X2.38706 Y49.91112
G01 X2.63580 Y50.21420
G01 X2.93888 Y50.46294
G01 X3.28465 Y50.64775
G01 X3.65983 Y50.76157
G01 X4.05000 Y50.80000
G01 X29.79999 Y50.80000
G01 X30.19016 Y50.76157
G01 X30.56534 Y50.64775
G01 X30.91111 Y50.46294
G01 X31.21418 Y50.21420
G01 X31.46292 Y49.91112
G01 X31.64773 Y49.56535
G01 X31.76155 Y49.19017
G01 X31.79998 Y48.80000
G01 X31.79998 Y4.05000
G01 X31.76155 Y3.65983
G01 X31.64773 Y3.28465
G01 X31.46292 Y2.93888
G01 X31.21418 Y2.63580
G01 X30.91111 Y2.38706
G01 X30.56534 Y2.20225
G01 X30.19016 Y2.08843
G01 X29.79999 Y2.05000
G01 X4.05000 Y2.05000
G01 X3.65983 Y2.08843
G01 X3.28465 Y2.20225
G01 X2.93888 Y2.38706
G01 X2.63580 Y2.63580
G01 X2.38706 Y2.93888
G01 X2.20225 Y3.28465
G01 X2.08843 Y3.65983
G01 X2.05000 Y4.05000
G01 Z-0.86667 F60.00000 ( plunge. )
G04 P0 ( dwell for no time -- G64 should not smooth over this point )
G01 F600.00000
G01 X2.05000 Y48.80000
G01 X2.08843 Y49.19017
G01 X2.20225 Y49.56535
G01 X2.38706 Y49.91112
G01 X2.63580 Y50.21420
G01 X2.93888 Y50.46294
G01 X3.28465 Y50.64775
G01 X3.65983 Y50.76157
G01 X4.05000 Y50.80000
G01 X29.79999 Y50.80000
G01 X30.19016 Y50.76157
G01 X30.56534 Y50.64775
G01 X30.91111 Y50.46294
G01 X31.21418 Y50.21420
G01 X31.46292 Y49.91112
G01 X31.64773 Y49.56535
G01 X31.76155 Y49.19017
G01 X31.79998 Y48.80000
G01 X31.79998 Y4.05000
G01 X31.76155 Y3.65983
G01 X31.64773 Y3.28465
G01 X31.46292 Y2.93888
G01 X31.21418 Y2.63580
G01 X30.91111 Y2.38706
G01 X30.56534 Y2.20225
G01 X30.19016 Y2.08843
G01 X29.79999 Y2.05000
G01 X4.05000 Y2.05000
G01 X3.65983 Y2.08843
G01 X3.28465 Y2.20225
G01 X2.93888 Y2.38706
G01 X2.63580 Y2.63580
G01 X2.38706 Y2.93888
G01 X2.20225 Y3.28465
G01 X2.08843 Y3.65983
G01 X2.05000 Y4.05000
G01 Z-1.30000 F60.00000 ( plunge. )
G04 P0 ( dwell for no time -- G64 should not smooth over this point )
G01 F600.00000
G01 X2.05000 Y48.80000
G01 X2.08843 Y49.19017
G01 X2.20225 Y49.56535
G01 X2.38706 Y49.91112
G01 X2.63580 Y50.21420
G01 X2.93888 Y50.46294
G01 X3.28465 Y50.64775
G01 X3.65983 Y50.76157
G01 X4.05000 Y50.80000
G01 X29.79999 Y50.80000
G01 X30.19016 Y50.76157
G01 X30.56534 Y50.64775
G01 X30.91111 Y50.46294
G01 X31.21418 Y50.21420
G01 X31.46292 Y49.91112
G01 X31.64773 Y49.56535
G01 X31.76155 Y49.19017
G01 X31.79998 Y48.80000
G01 X31.79998 Y4.05000
G01 X31.76155 Y3.65983
G01 X31.64773 Y3.28465
G01 X31.46292 Y2.93888
G01 X31.21418 Y2.63580
G01 X30.91111 Y2.38706
G01 X30.56534 Y2.20225
G01 X30.19016 Y2.08843
G01 X29.79999 Y2.05000
G01 X4.05000 Y2.05000
G01 X3.65983 Y2.08843
G01 X3.28465 Y2.20225
G01 X2.93888 Y2.38706
G01 X2.63580 Y2.63580
G01 X2.38706 Y2.93888
G01 X2.20225 Y3.28465
G01 X2.08843 Y3.65983
G01 X2.05000 Y4.05000

G04 P0 ( dwell for no time -- G64 should not smooth over this point )
G00 Z50.000000 ( retract )

M5 ( Spindle off. )
G04 P1.000000
M9 ( Coolant off. )
M2 ( Program end. )

