( pcb2gcode 2.4.0 )
( Software-independent Gcode )

G94 ( Millimeters per minute feed rate. )
G21 ( Units == Millimeters. )

G90 ( Absolute coordinates. )
G00 S10000 ( RPM spindle speed. )
G64 P0.01000 ( set maximum deviation from commanded toolpath )
G01 F600.00000 ( Feedrate. )


G00 Z50.00000 (Retract to tool change height)
T0
M5      (Spindle stop.)
G04 P1.00000 (Wait for spindle to stop)
(MSG, Change tool bit to mill diameter 0.40000mm)
M6      (Tool change.)
M0      (Temporary machine stop.)
M3 ( Spindle on clockwise. )
G04 P1.00000 (Wait for spindle to get up to speed)
G04 P0 ( dwell for no time -- G64 should not smooth over this point )
G00 Z1.00000 ( retract )

G00 X5.01698 Y59.41284 ( rapid move to begin. )
G01 F300.00000
( Mill infeed pass 1/1 )
G01 Z-0.05000
G04 P0 ( dwell for no time -- G64 should not smooth over this point )
G01 F600.00000
G01 X5.01698 Y59.41284
G01 X5.01698 Y59.74602
G01 X5.12498 Y59.74602
G01 X5.12498 Y59.45001
G01 X5.12884 Y59.41099
G01 X5.14022 Y59.37347
G01 X5.15868 Y59.33891
G01 X5.18358 Y59.30860
G01 X5.21388 Y59.28371
G01 X5.24845 Y59.26525
G01 X5.28596 Y59.25387
G01 X5.32498 Y59.25001
G01 X6.27095 Y59.25001
G01 X6.27095 Y59.14203
G01 X5.28779 Y59.14203
G01 X5.26140 Y59.14487
G01 X5.17552 Y59.17708
G01 X5.10494 Y59.22999
G01 X5.05203 Y59.30058
G01 X5.01982 Y59.38645
G01 X5.01698 Y59.41284
G04 P0 ( dwell for no time -- G64 should not smooth over this point )
G00 Z1.00000 ( retract )

G00 X7.17898 Y59.14203 ( rapid move to begin. )
G01 F300.00000
( Mill infeed pass 1/1 )
G01 Z-0.05000
G04 P0 ( dwell for no time -- G64 should not smooth over this point )
G01 F600.00000
G01 X7.17898 Y59.14203
G01 X7.17898 Y59.25001
G01 X8.12500 Y59.25001
G01 X8.16401 Y59.25387
G01 X8.20153 Y59.26525
G01 X8.23610 Y59.28371
G01 X8.26640 Y59.30860
G01 X8.29129 Y59.33891
G01 X8.30976 Y59.37347
G01 X8.32114 Y59.41099
G01 X8.32500 Y59.45001
G01 X8.32500 Y59.74602
G01 X8.43297 Y59.74602
G01 X8.43297 Y59.41290
G01 X8.43010 Y59.38638
G01 X8.39792 Y59.30058
G01 X8.34504 Y59.23002
G01 X8.27443 Y59.17708
G01 X8.18855 Y59.14487
G01 X8.16216 Y59.14203
G01 X7.17898 Y59.14203
G04 P0 ( dwell for no time -- G64 should not smooth over this point )
G00 Z1.00000 ( retract )

G00 X26.36233 Y58.05605 ( rapid move to begin. )
G01 F300.00000
( Mill infeed pass 1/1 )
G01 Z-0.05000
G04 P0 ( dwell for no time -- G64 should not smooth over this point )
G01 F600.00000
G01 X26.36233 Y58.05605
G01 X26.37759 Y57.88834
G01 X26.41732 Y57.75346
G01 X26.42514 Y57.72684
G01 X26.50314 Y57.57767
G01 X26.60868 Y57.44640
G01 X26.69585 Y57.37325
G01 X26.73761 Y57.33822
G01 X26.78447 Y57.31247
G01 X26.88516 Y57.25710
G01 X27.04561 Y57.20622
G01 X27.10883 Y57.19913
G01 X27.17657 Y57.19154
G01 X27.26738 Y57.19154
G01 X27.39252 Y57.20378
G01 X27.50571 Y57.23794
G01 X27.55376 Y57.25247
G01 X27.70233 Y57.33149
G01 X27.75572 Y57.37503
G01 X27.83286 Y57.43794
G01 X27.94015 Y57.56761
G01 X28.02023 Y57.71572
G01 X28.07002 Y57.87653
G01 X28.08762 Y58.04396
G01 X28.07235 Y58.21163
G01 X28.02481 Y58.37325
G01 X27.94680 Y58.52237
G01 X27.82905 Y58.66888
G01 X27.80789 Y58.70111
G01 X27.77639 Y58.76106
G01 X27.76209 Y58.79585
G01 X27.75455 Y58.83279
G01 X27.75409 Y58.87048
G01 X27.75991 Y58.94122
G01 X27.76885 Y58.98607
G01 X27.77096 Y58.99075
G01 X27.77096 Y59.25001
G01 X26.82499 Y59.25001
G01 X26.78597 Y59.25387
G01 X26.74846 Y59.26525
G01 X26.71386 Y59.28371
G01 X26.68356 Y59.30860
G01 X26.65869 Y59.33891
G01 X26.64020 Y59.37347
G01 X26.62882 Y59.41099
G01 X26.62499 Y59.45001
G01 X26.62499 Y59.74602
G01 X26.51699 Y59.74602
G01 X26.51699 Y59.41284
G01 X26.51983 Y59.38645
G01 X26.55204 Y59.30058
G01 X26.60492 Y59.22999
G01 X26.64048 Y59.20335
G01 X26.68079 Y59.16301
G01 X26.72328 Y59.10614
G01 X26.74305 Y59.07368
G01 X26.75628 Y59.03807
G01 X26.76258 Y59.00058
G01 X26.76761 Y58.92976
G01 X26.76667 Y58.89174
G01 X26.75857 Y58.85458
G01 X26.74358 Y58.81968
G01 X26.70952 Y58.75735
G01 X26.69108 Y58.72948
G01 X26.66827 Y58.70507
G01 X26.65887 Y58.69656
G01 X26.65100 Y58.68978
G01 X26.61711 Y58.66217
G01 X26.61686 Y58.66184
G01 X26.50980 Y58.53243
G01 X26.42974 Y58.38437
G01 X26.37993 Y58.22352
G01 X26.37579 Y58.18415
G01 X26.36233 Y58.05605
G01 X26.56232 Y58.05466
G01 X26.56329 Y58.05466
G01 X26.57500 Y57.92601
G01 X26.57406 Y57.92583
G01 X26.57500 Y57.92601
G01 X26.60916 Y57.80995
G01 X26.61147 Y57.80210
G01 X26.61058 Y57.80175
G01 X26.61147 Y57.80210
G01 X26.67129 Y57.68770
G01 X26.67048 Y57.68719
G01 X26.67129 Y57.68770
G01 X26.75227 Y57.58699
G01 X26.75158 Y57.58633
G01 X26.75227 Y57.58699
G01 X26.82440 Y57.52646
G01 X26.85112 Y57.50406
G01 X26.85059 Y57.50327
G01 X26.85112 Y57.50406
G01 X26.88079 Y57.48775
G01 X26.96433 Y57.44181
G01 X26.96395 Y57.44094
G01 X26.96433 Y57.44181
G01 X27.08737 Y57.40279
G01 X27.08719 Y57.40185
G01 X27.08737 Y57.40279
G01 X27.13111 Y57.39789
G01 X27.18775 Y57.39154
G01 X27.18772 Y57.39083
G01 X27.18775 Y57.39154
G01 X27.25760 Y57.39154
G01 X27.35351 Y57.40091
G01 X27.35374 Y57.39954
G01 X27.35351 Y57.40091
G01 X27.44790 Y57.42941
G01 X27.47716 Y57.43825
G01 X27.47751 Y57.43736
G01 X27.47716 Y57.43825
G01 X27.59113 Y57.49888
G01 X27.59166 Y57.49807
G01 X27.59113 Y57.49888
G01 X27.62933 Y57.53002
G01 X27.69128 Y57.58054
G01 X27.69194 Y57.57985
G01 X27.69128 Y57.58054
G01 X27.77355 Y57.67998
G01 X27.77434 Y57.67945
G01 X27.77355 Y57.67998
G01 X27.83497 Y57.79360
G01 X27.83586 Y57.79321
G01 X27.83497 Y57.79360
G01 X27.87317 Y57.91694
G01 X27.87411 Y57.91676
G01 X27.87317 Y57.91694
G01 X27.88666 Y58.04536
G01 X27.88762 Y58.04536
G01 X27.88666 Y58.04536
G01 X27.87495 Y58.17399
G01 X27.87589 Y58.17416
G01 X27.87495 Y58.17399
G01 X27.83847 Y58.29796
G01 X27.83936 Y58.29832
G01 X27.83847 Y58.29796
G01 X27.77865 Y58.41234
G01 X27.77924 Y58.41269
G01 X27.77865 Y58.41234
G01 X27.67317 Y58.54358
G01 X27.63088 Y58.60802
G01 X27.59938 Y58.66791
G01 X27.57076 Y58.73764
G01 X27.55569 Y58.81150
G01 X27.55475 Y58.88686
G01 X27.56057 Y58.95760
G01 X27.57096 Y59.00975
G01 X27.57096 Y59.05001
G01 X27.64358 Y59.11577
G01 X27.57096 Y59.05001
G01 X26.95615 Y59.05001
G01 X26.87251 Y59.12080
G01 X26.95615 Y59.05001
G01 X26.96207 Y59.01475
G01 X26.96710 Y58.94394
G01 X26.96524 Y58.86789
G01 X26.94904 Y58.79359
G01 X26.91904 Y58.72372
G01 X26.88498 Y58.66139
G01 X26.84813 Y58.60563
G01 X26.80251 Y58.55681
G01 X26.79311 Y58.54831
G01 X26.77736 Y58.53477
G01 X26.75869 Y58.51955
G01 X26.67640 Y58.42006
G01 X26.67510 Y58.42097
G01 X26.67640 Y58.42006
G01 X26.61498 Y58.30650
G01 X26.61409 Y58.30685
G01 X26.61498 Y58.30650
G01 X26.57680 Y58.18313
G01 X26.57586 Y58.18331
G01 X26.57680 Y58.18313
G01 X26.57469 Y58.16327
G01 X26.56329 Y58.05466
G04 P0 ( dwell for no time -- G64 should not smooth over this point )
G00 Z1.00000 ( retract )

G00 X29.07499 Y57.25501 ( rapid move to begin. )
G01 F300.00000
( Mill infeed pass 1/1 )
G01 Z-0.05000
G04 P0 ( dwell for no time -- G64 should not smooth over this point )
G01 F600.00000
G01 X29.07499 Y57.25501
G01 X29.07499 Y57.95501
G01 X29.07883 Y57.99403
G01 X29.09021 Y58.03154
G01 X29.10870 Y58.06614
G01 X29.13357 Y58.09644
G01 X29.16387 Y58.12131
G01 X29.19844 Y58.13980
G01 X29.23598 Y58.15118
G01 X29.27499 Y58.15501
G01 X30.77499 Y58.15501
G01 X30.81401 Y58.15118
G01 X30.85152 Y58.13980
G01 X30.88609 Y58.12131
G01 X30.91642 Y58.09644
G01 X30.94128 Y58.06614
G01 X30.95975 Y58.03154
G01 X30.97116 Y57.99403
G01 X30.97499 Y57.95501
G01 X30.97499 Y57.25501
G01 X30.97116 Y57.21600
G01 X30.95975 Y57.17848
G01 X30.94128 Y57.14389
G01 X30.91642 Y57.11359
G01 X30.88609 Y57.08872
G01 X30.85152 Y57.07023
G01 X30.81401 Y57.05885
G01 X30.77499 Y57.05501
G01 X29.27499 Y57.05501
G01 X29.23598 Y57.05885
G01 X29.19844 Y57.07023
G01 X29.16387 Y57.08872
G01 X29.13357 Y57.11359
G01 X29.10870 Y57.14389
G01 X29.09021 Y57.17848
G01 X29.07883 Y57.21600
G01 X29.07499 Y57.25501
G04 P0 ( dwell for no time -- G64 should not smooth over this point )
G00 Z1.00000 ( retract )

G00 X28.96699 Y52.62904 ( rapid move to begin. )
G01 F300.00000
( Mill infeed pass 1/1 )
G01 Z-0.05000
G04 P0 ( dwell for no time -- G64 should not smooth over this point )
G01 F600.00000
G01 X28.96699 Y52.62904
G01 X29.07499 Y52.62904
G01 X29.07499 Y52.67501
G01 X29.07883 Y52.71403
G01 X29.09021 Y52.75154
G01 X29.10870 Y52.78614
G01 X29.13357 Y52.81644
G01 X29.16387 Y52.84131
G01 X29.19844 Y52.85980
G01 X29.23598 Y52.87118
G01 X29.27499 Y52.87501
G01 X29.57093 Y52.87501
G01 X29.57093 Y52.98301
G01 X29.23781 Y52.98301
G01 X29.21142 Y52.98017
G01 X29.12554 Y52.94796
G01 X29.05488 Y52.89503
G01 X29.00202 Y52.82447
G01 X28.96984 Y52.73856
G01 X28.96699 Y52.71240
G01 X28.96699 Y52.62904
G04 P0 ( dwell for no time -- G64 should not smooth over this point )
G00 Z1.00000 ( retract )

G00 X28.96699 Y51.63765 ( rapid move to begin. )
G01 F300.00000
( Mill infeed pass 1/1 )
G01 Z-0.05000
G04 P0 ( dwell for no time -- G64 should not smooth over this point )
G01 F600.00000
G01 X28.96699 Y51.63765
G01 X28.96984 Y51.61149
G01 X29.00202 Y51.52559
G01 X29.05488 Y51.45502
G01 X29.12554 Y51.40209
G01 X29.21144 Y51.36988
G01 X29.23761 Y51.36704
G01 X29.57093 Y51.36704
G01 X29.57093 Y51.47501
G01 X29.27499 Y51.47501
G01 X29.23598 Y51.47885
G01 X29.19844 Y51.49023
G01 X29.16387 Y51.50872
G01 X29.13357 Y51.53359
G01 X29.10870 Y51.56389
G01 X29.09021 Y51.59848
G01 X29.07883 Y51.63600
G01 X29.07499 Y51.67501
G01 X29.07499 Y51.72101
G01 X28.96699 Y51.72101
G01 X28.96699 Y51.63765
G04 P0 ( dwell for no time -- G64 should not smooth over this point )
G00 Z1.00000 ( retract )

G00 X30.47898 Y51.36704 ( rapid move to begin. )
G01 F300.00000
( Mill infeed pass 1/1 )
G01 Z-0.05000
G04 P0 ( dwell for no time -- G64 should not smooth over this point )
G01 F600.00000
G01 X30.47898 Y51.36704
G01 X30.81215 Y51.36704
G01 X30.83854 Y51.36988
G01 X30.92442 Y51.40209
G01 X30.99501 Y51.45500
G01 X31.04791 Y51.52559
G01 X31.08012 Y51.61146
G01 X31.08297 Y51.63785
G01 X31.08297 Y51.72101
G01 X30.97499 Y51.72101
G01 X30.97499 Y51.67501
G01 X30.97116 Y51.63600
G01 X30.95975 Y51.59848
G01 X30.94128 Y51.56389
G01 X30.91642 Y51.53359
G01 X30.88609 Y51.50872
G01 X30.85152 Y51.49023
G01 X30.81401 Y51.47885
G01 X30.77499 Y51.47501
G01 X30.47898 Y51.47501
G01 X30.47898 Y51.36704
G04 P0 ( dwell for no time -- G64 should not smooth over this point )
G00 Z1.00000 ( retract )

G00 X30.47898 Y52.87501 ( rapid move to begin. )
G01 F300.00000
( Mill infeed pass 1/1 )
G01 Z-0.05000
G04 P0 ( dwell for no time -- G64 should not smooth over this point )
G01 F600.00000
G01 X30.47898 Y52.87501
G01 X30.77499 Y52.87501
G01 X30.81401 Y52.87118
G01 X30.85152 Y52.85980
G01 X30.88609 Y52.84131
G01 X30.91642 Y52.81644
G01 X30.94128 Y52.78614
G01 X30.95975 Y52.75154
G01 X30.97116 Y52.71403
G01 X30.97499 Y52.67501
G01 X30.97499 Y52.62904
G01 X31.08297 Y52.62904
G01 X31.08297 Y52.71220
G01 X31.08012 Y52.73859
G01 X31.04791 Y52.82447
G01 X30.99501 Y52.89505
G01 X30.92442 Y52.94796
G01 X30.83854 Y52.98017
G01 X30.81215 Y52.98301
G01 X30.47898 Y52.98301
G01 X30.47898 Y52.87501
G04 P0 ( dwell for no time -- G64 should not smooth over this point )
G00 Z1.00000 ( retract )

G00 X34.58174 Y53.38184 ( rapid move to begin. )
G01 F300.00000
( Mill infeed pass 1/1 )
G01 Z-0.05000
G04 P0 ( dwell for no time -- G64 should not smooth over this point )
G01 F600.00000
G01 X34.58174 Y53.38184
G01 X34.57201 Y53.38718
G01 X34.55812 Y53.39343
G01 X34.35845 Y53.46579
G01 X34.34565 Y53.46947
G01 X34.34588 Y53.47036
G01 X34.34565 Y53.46947
G01 X34.26317 Y53.48743
G01 X34.25080 Y53.48931
G01 X34.18565 Y53.49513
G01 X32.02574 Y55.65502
G01 X32.03204 Y55.67023
G01 X32.02574 Y55.65502
G01 X31.14548 Y55.65502
G01 X31.13100 Y55.68072
G01 X31.14548 Y55.65502
G01 X31.14454 Y55.65194
G01 X31.10758 Y55.58280
G01 X31.08479 Y55.55502
G01 X30.77497 Y55.55502
G01 X29.27014 Y55.55502
G01 X29.22099 Y55.61339
G01 X29.19844 Y55.62027
G01 X29.23598 Y55.60889
G01 X29.27499 Y55.60500
G01 X30.77499 Y55.60500
G01 X30.81401 Y55.60889
G01 X30.85152 Y55.62027
G01 X30.88609 Y55.63871
G01 X30.91642 Y55.66360
G01 X30.94128 Y55.69390
G01 X30.95975 Y55.72847
G01 X30.97116 Y55.76599
G01 X30.97499 Y55.80500
G01 X30.97499 Y55.85502
G01 X32.10857 Y55.85502
G01 X34.57366 Y53.38990
G01 X34.57201 Y53.38718
G01 X34.57366 Y53.38990
G01 X34.58174 Y53.38184
G01 X34.73178 Y53.23183
G01 X34.74633 Y53.21865
G01 X34.78420 Y53.18756
G01 X34.81682 Y53.16577
G01 X34.86002 Y53.14268
G01 X34.89624 Y53.12767
G01 X34.94316 Y53.11344
G01 X34.98161 Y53.10580
G01 X35.03038 Y53.10100
G01 X35.04999 Y53.10003
G01 X35.52063 Y53.10003
G01 X35.64999 Y53.10003
G01 X35.64999 Y52.98479
G01 X35.64305 Y53.00341
G01 X35.64239 Y53.00511
G01 X35.63363 Y53.02734
G01 X35.62530 Y53.04379
G01 X35.61410 Y53.05845
G01 X35.60041 Y53.07080
G01 X35.58466 Y53.08042
G01 X35.56744 Y53.08700
G01 X35.52063 Y53.10003
G01 X35.56744 Y53.08700
G01 X35.58466 Y53.08042
G01 X35.58707 Y53.08466
G01 X35.58466 Y53.08042
G01 X35.60041 Y53.07080
G01 X35.61410 Y53.05845
G01 X35.62530 Y53.04379
G01 X35.62936 Y53.04667
G01 X35.62530 Y53.04379
G01 X35.63363 Y53.02734
G01 X35.64239 Y53.00511
G01 X35.64305 Y53.00341
G01 X35.64999 Y52.98479
G01 X35.64999 Y52.92502
G01 X35.65108 Y52.90409
G01 X35.65654 Y52.85213
G01 X35.66523 Y52.81123
G01 X35.68138 Y52.76152
G01 X35.69840 Y52.72332
G01 X35.72454 Y52.67806
G01 X35.74910 Y52.64423
G01 X35.78407 Y52.60539
G01 X35.81514 Y52.57743
G01 X35.85743 Y52.54669
G01 X35.89365 Y52.52579
G01 X35.94138 Y52.50453
G01 X35.98115 Y52.49162
G01 X36.03228 Y52.48075
G01 X36.06340 Y52.47666
G01 X36.08951 Y52.47529
G01 X36.10000 Y52.47501
G01 X36.90000 Y52.47501
G01 X36.91389 Y52.47638
G01 X36.92611 Y52.47638
G01 X36.96771 Y52.48075
G01 X37.01882 Y52.49162
G01 X37.05860 Y52.50453
G01 X37.10632 Y52.52579
G01 X37.14254 Y52.54669
G01 X37.18483 Y52.57743
G01 X37.21590 Y52.60539
G01 X37.25087 Y52.64423
G01 X37.27544 Y52.67806
G01 X37.30157 Y52.72332
G01 X37.31859 Y52.76152
G01 X37.33474 Y52.81123
G01 X37.34343 Y52.85213
G01 X37.34889 Y52.90409
G01 X37.34998 Y52.92502
G01 X37.34998 Y54.17501
G01 X37.34889 Y54.19591
G01 X37.34343 Y54.24791
G01 X37.33474 Y54.28880
G01 X37.31859 Y54.33851
G01 X37.30157 Y54.37669
G01 X37.27544 Y54.42195
G01 X37.25087 Y54.45578
G01 X37.21590 Y54.49462
G01 X37.18483 Y54.52261
G01 X37.14254 Y54.55332
G01 X37.10632 Y54.57422
G01 X37.05860 Y54.59548
G01 X37.01882 Y54.60841
G01 X36.96771 Y54.61928
G01 X36.93660 Y54.62337
G01 X36.91046 Y54.62474
G01 X36.90000 Y54.62502
G01 X36.10000 Y54.62502
G01 X36.08608 Y54.62365
G01 X36.07386 Y54.62365
G01 X36.03228 Y54.61928
G01 X35.98115 Y54.60841
G01 X35.94138 Y54.59548
G01 X35.89365 Y54.57422
G01 X35.85743 Y54.55332
G01 X35.81514 Y54.52261
G01 X35.78407 Y54.49462
G01 X35.74910 Y54.45578
G01 X35.72454 Y54.42195
G01 X35.69840 Y54.37669
G01 X35.68138 Y54.33851
G01 X35.66523 Y54.28880
G01 X35.65654 Y54.24791
G01 X35.65108 Y54.19591
G01 X35.65070 Y54.18837
G01 X35.64999 Y54.17501
G01 X35.64999 Y54.00003
G01 X35.23637 Y54.00003
G01 X35.18237 Y54.05403
G01 X35.23808 Y54.02545
G01 X35.25459 Y54.01877
G01 X35.27201 Y54.01512
G01 X35.28979 Y54.01461
G01 X35.38928 Y54.02065
G01 X35.39705 Y54.02144
G01 X35.46807 Y54.03137
G01 X35.47216 Y54.03203
G01 X35.52748 Y54.04212
G01 X35.54788 Y54.04814
G01 X35.56652 Y54.05835
G01 X35.58260 Y54.07224
G01 X35.59540 Y54.08923
G01 X35.61600 Y54.12378
G01 X35.61732 Y54.12606
G01 X35.63513 Y54.15779
G01 X35.63721 Y54.16167
G01 X35.65070 Y54.18837
G01 X35.63721 Y54.16167
G01 X35.63513 Y54.15779
G01 X35.61732 Y54.12606
G01 X35.61600 Y54.12378
G01 X35.59540 Y54.08923
G01 X35.58260 Y54.07224
G01 X35.56652 Y54.05835
G01 X35.57582 Y54.04491
G01 X35.56652 Y54.05835
G01 X35.54788 Y54.04814
G01 X35.52748 Y54.04212
G01 X35.47216 Y54.03203
G01 X35.46807 Y54.03137
G01 X35.39705 Y54.02144
G01 X35.39718 Y54.02048
G01 X35.39705 Y54.02144
G01 X35.38928 Y54.02065
G01 X35.28979 Y54.01461
G01 X35.27201 Y54.01512
G01 X35.25459 Y54.01877
G01 X35.25334 Y54.01319
G01 X35.25459 Y54.01877
G01 X35.23808 Y54.02545
G01 X35.18237 Y54.05403
G01 X32.61316 Y56.62321
G01 X32.59861 Y56.63640
G01 X32.56074 Y56.66749
G01 X32.52812 Y56.68928
G01 X32.48492 Y56.71237
G01 X32.44870 Y56.72738
G01 X32.40178 Y56.74160
G01 X32.36333 Y56.74925
G01 X32.31456 Y56.75405
G01 X32.29498 Y56.75501
G01 X31.14873 Y56.75501
G01 X30.97499 Y56.75501
G01 X30.97499 Y56.80500
G01 X30.97116 Y56.84404
G01 X30.95975 Y56.88156
G01 X30.94128 Y56.91613
G01 X30.92988 Y56.93002
G01 X30.94192 Y56.93002
G01 X30.97291 Y56.88161
G01 X31.00318 Y56.82875
G01 X31.01527 Y56.81196
G01 X31.03057 Y56.79799
G01 X31.04840 Y56.78750
G01 X31.05721 Y56.78346
G01 X31.07001 Y56.77866
G01 X31.14873 Y56.75501
G01 X31.07001 Y56.77866
G01 X31.05721 Y56.78346
G01 X31.04840 Y56.78750
G01 X31.03057 Y56.79799
G01 X31.02416 Y56.78984
G01 X31.03057 Y56.79799
G01 X31.01527 Y56.81196
G01 X31.00318 Y56.82875
G01 X30.97291 Y56.88161
G01 X30.94192 Y56.93002
G01 X30.92988 Y56.93002
G01 X30.91642 Y56.94643
G01 X30.88609 Y56.97130
G01 X30.85152 Y56.98979
G01 X30.81401 Y57.00117
G01 X30.77499 Y57.00500
G01 X29.27499 Y57.00500
G01 X29.23598 Y57.00117
G01 X29.19844 Y56.98979
G01 X29.16387 Y56.97130
G01 X29.13357 Y56.94643
G01 X29.10870 Y56.91613
G01 X29.09021 Y56.88156
G01 X29.07883 Y56.84404
G01 X29.07499 Y56.80500
G01 X29.07499 Y55.80500
G01 X29.07883 Y55.76599
G01 X29.09021 Y55.72847
G01 X29.10870 Y55.69390
G01 X29.13357 Y55.66360
G01 X29.16387 Y55.63871
G01 X29.19844 Y55.62027
G01 X29.22046 Y55.29647
G01 X29.25010 Y55.33416
G01 X29.26859 Y55.35502
G01 X31.08477 Y55.35502
G01 X31.10758 Y55.32723
G01 X31.14454 Y55.25809
G01 X31.14548 Y55.25502
G01 X31.13100 Y55.22931
G01 X31.14548 Y55.25502
G01 X31.49498 Y55.25502
G01 X31.53417 Y55.25309
G01 X31.58294 Y55.24829
G01 X31.65985 Y55.23300
G01 X31.70674 Y55.21877
G01 X31.77921 Y55.18875
G01 X31.82241 Y55.16566
G01 X31.88761 Y55.12210
G01 X31.92551 Y55.09101
G01 X31.95459 Y55.06464
G01 X33.85080 Y53.16841
G01 X33.86414 Y53.06881
G01 X33.86703 Y53.05487
G01 X33.90422 Y52.92335
G01 X33.90320 Y52.92302
G01 X33.90422 Y52.92335
G01 X33.90676 Y52.91560
G01 X33.93404 Y52.84250
G01 X33.93968 Y52.83005
G01 X33.97852 Y52.75787
G01 X35.37656 Y51.35983
G01 X42.31505 Y51.35983
G01 X46.99883 Y51.35983
G01 X47.01842 Y51.35886
G01 X47.06719 Y51.35406
G01 X47.10564 Y51.34641
G01 X47.15256 Y51.33219
G01 X47.18878 Y51.31718
G01 X47.23198 Y51.29409
G01 X47.26459 Y51.27230
G01 X47.30247 Y51.24121
G01 X47.31702 Y51.22803
G01 X49.01427 Y49.53080
G01 X49.02746 Y49.51627
G01 X49.05855 Y49.47837
G01 X49.08031 Y49.44578
G01 X49.10343 Y49.40255
G01 X49.11844 Y49.36633
G01 X49.13266 Y49.31942
G01 X49.14031 Y49.28096
G01 X49.14511 Y49.23219
G01 X49.14607 Y49.21259
G01 X49.14607 Y31.58509
G01 X49.14511 Y31.56550
G01 X49.14031 Y31.51674
G01 X49.13266 Y31.47828
G01 X49.11844 Y31.43137
G01 X49.10343 Y31.39515
G01 X49.08204 Y31.35512
G01 X49.12304 Y31.22893
G01 X49.13172 Y31.18803
G01 X49.15029 Y31.01130
G01 X49.15029 Y30.96949
G01 X49.13172 Y30.79276
G01 X49.12304 Y30.75187
G01 X49.06812 Y30.58288
G01 X49.05110 Y30.54468
G01 X48.96225 Y30.39078
G01 X48.93769 Y30.35695
G01 X48.81880 Y30.22489
G01 X48.78771 Y30.19693
G01 X48.64394 Y30.09248
G01 X48.60775 Y30.07158
G01 X48.44542 Y29.99929
G01 X48.40564 Y29.98636
G01 X48.23183 Y29.94943
G01 X48.19025 Y29.94506
G01 X48.01255 Y29.94506
G01 X47.97097 Y29.94943
G01 X47.79716 Y29.98636
G01 X47.75738 Y29.99929
G01 X47.59505 Y30.07158
G01 X47.55883 Y30.09248
G01 X47.41509 Y30.19693
G01 X47.38400 Y30.22489
G01 X47.32502 Y30.29040
G01 X47.26510 Y30.35695
G01 X47.24052 Y30.39078
G01 X47.15167 Y30.54468
G01 X47.13831 Y30.57470
G01 X47.13833 Y30.21869
G01 X47.18591 Y30.09474
G01 X47.18796 Y30.08979
G01 X47.22131 Y30.01511
G01 X47.22091 Y30.01491
G01 X47.22131 Y30.01511
G01 X47.22352 Y30.01052
G01 X47.27006 Y29.91918
G01 X47.28062 Y29.90267
G01 X47.29421 Y29.88855
G01 X47.29160 Y29.88628
G01 X47.29421 Y29.88855
G01 X47.36010 Y29.83228
G01 X47.36419 Y29.82896
G01 X47.43671 Y29.77336
G01 X47.44092 Y29.77028
G01 X47.44074 Y29.77005
G01 X47.44092 Y29.77028
G01 X47.58984 Y29.66792
G01 X47.59220 Y29.66635
G01 X47.63851 Y29.63643
G01 X47.65548 Y29.62764
G01 X47.67130 Y29.62296
G01 X47.67188 Y29.62238
G01 X47.66955 Y29.61438
G01 X47.67188 Y29.62238
G01 X47.67247 Y29.62263
G01 X47.67379 Y29.62223
G01 X47.69279 Y29.62040
G01 X48.53531 Y29.62040
G01 X48.68908 Y29.55194
G01 X48.76152 Y29.51014
G01 X48.90528 Y29.40567
G01 X48.96741 Y29.34971
G01 X49.08631 Y29.21766
G01 X49.13548 Y29.15002
G01 X49.22431 Y28.99612
G01 X49.25834 Y28.91974
G01 X49.27137 Y28.87958
G01 X49.27137 Y28.76968
G01 X49.27137 Y28.67328
G01 X49.27137 Y28.49454
G01 X49.27137 Y28.40628
G01 X49.27137 Y28.28461
G01 X49.25123 Y28.26513
G01 X49.21747 Y28.23417
G01 X49.19192 Y28.21199
G01 X49.18392 Y28.20422
G01 X49.08600 Y28.09787
G01 X49.06812 Y28.04288
G01 X49.05110 Y28.00468
G01 X48.96225 Y27.85078
G01 X48.93769 Y27.81695
G01 X48.81880 Y27.68489
G01 X48.78771 Y27.65693
G01 X48.64394 Y27.55248
G01 X48.60775 Y27.53158
G01 X48.44542 Y27.45929
G01 X48.40564 Y27.44636
G01 X48.23183 Y27.40943
G01 X48.19025 Y27.40506
G01 X48.01255 Y27.40506
G01 X47.97097 Y27.40943
G01 X47.79716 Y27.44636
G01 X47.75738 Y27.45929
G01 X47.59505 Y27.53158
G01 X47.55883 Y27.55248
G01 X47.41509 Y27.65693
G01 X47.38400 Y27.68489
G01 X47.26510 Y27.81695
G01 X47.24052 Y27.85078
G01 X47.15167 Y28.00468
G01 X47.13467 Y28.04288
G01 X47.11494 Y28.10359
G01 X47.10490 Y28.11527
G01 X47.10270 Y28.11776
G01 X47.04986 Y28.17524
G01 X47.04641 Y28.17882
G01 X46.99243 Y28.23198
G01 X46.98900 Y28.23521
G01 X46.93137 Y28.28685
G01 X46.93137 Y28.40623
G01 X46.93137 Y28.49454
G01 X46.93140 Y28.67321
G01 X46.93140 Y28.76968
G01 X46.93137 Y28.85444
G01 X46.92970 Y28.87267
G01 X46.92944 Y28.87356
G01 X46.93102 Y28.87834
G01 X46.93645 Y28.87963
G01 X46.93102 Y28.87834
G01 X46.92698 Y28.88238
G01 X46.92474 Y28.89027
G01 X46.91664 Y28.90668
G01 X46.91710 Y28.90696
G01 X46.91664 Y28.90668
G01 X46.86449 Y28.99180
G01 X46.86167 Y28.99614
G01 X46.80691 Y29.07590
G01 X46.80379 Y29.08019
G01 X46.69469 Y29.22238
G01 X46.69505 Y29.22268
G01 X46.69469 Y29.22238
G01 X46.69142 Y29.22644
G01 X46.63429 Y29.29335
G01 X46.63076 Y29.29726
G01 X46.50831 Y29.42632
G01 X46.50640 Y29.42832
G01 X46.47862 Y29.45741
G01 X46.47758 Y29.45847
G01 X46.46033 Y29.47600
G01 X46.45929 Y29.47704
G01 X46.44684 Y29.48933
G01 X46.40508 Y29.53378
G01 X46.39144 Y29.54946
G01 X46.33808 Y29.61722
G01 X46.33765 Y29.61783
G01 X46.32352 Y29.63716
G01 X46.32279 Y29.63815
G01 X46.29226 Y29.67892
G01 X46.29025 Y29.69926
G01 X46.28832 Y29.73846
G01 X46.28832 Y29.76983
G01 X46.33274 Y29.84648
G01 X46.33531 Y29.85123
G01 X46.42586 Y30.02893
G01 X46.42807 Y30.03355
G01 X46.45941 Y30.10371
G01 X46.46147 Y30.10864
G01 X46.48827 Y30.17856
G01 X46.48827 Y30.50513
G01 X46.48827 Y30.17856
G01 X46.48832 Y29.73846
G01 X46.48929 Y29.71887
G01 X46.49170 Y29.69449
G01 X46.49934 Y29.65603
G01 X46.50646 Y29.63259
G01 X46.52147 Y29.59634
G01 X46.53300 Y29.57475
G01 X46.55479 Y29.54214
G01 X46.57034 Y29.52319
G01 X46.58352 Y29.50866
G01 X47.16792 Y28.92426
G01 X47.15167 Y28.89612
G01 X47.13467 Y28.85792
G01 X47.07976 Y28.68893
G01 X47.07107 Y28.64803
G01 X47.05248 Y28.47130
G01 X47.05248 Y28.42949
G01 X47.07107 Y28.25276
G01 X47.07976 Y28.21187
G01 X47.11494 Y28.10359
G01 X47.13467 Y28.04288
G01 X47.15167 Y28.00468
G01 X47.24052 Y27.85078
G01 X47.26510 Y27.81695
G01 X47.38400 Y27.68489
G01 X47.41509 Y27.65693
G01 X47.55883 Y27.55248
G01 X47.59505 Y27.53158
G01 X47.75738 Y27.45929
G01 X47.79716 Y27.44636
G01 X47.97097 Y27.40943
G01 X48.01255 Y27.40506
G01 X48.19025 Y27.40506
G01 X48.23183 Y27.40943
G01 X48.40564 Y27.44636
G01 X48.44542 Y27.45929
G01 X48.60775 Y27.53158
G01 X48.64394 Y27.55248
G01 X48.78771 Y27.65693
G01 X48.81880 Y27.68489
G01 X48.93769 Y27.81695
G01 X48.96225 Y27.85078
G01 X49.05110 Y28.00468
G01 X49.06812 Y28.04288
G01 X49.08600 Y28.09787
G01 X49.12304 Y28.21187
G01 X49.13172 Y28.25276
G01 X49.15029 Y28.42949
G01 X49.15029 Y28.47130
G01 X49.13172 Y28.64803
G01 X49.12304 Y28.68893
G01 X49.06812 Y28.85792
G01 X49.05110 Y28.89612
G01 X48.96225 Y29.05002
G01 X48.93769 Y29.08385
G01 X48.81880 Y29.21590
G01 X48.78771 Y29.24387
G01 X48.64394 Y29.34831
G01 X48.60775 Y29.36922
G01 X48.44542 Y29.44151
G01 X48.40564 Y29.45443
G01 X48.23183 Y29.49137
G01 X48.19025 Y29.49573
G01 X48.01255 Y29.49573
G01 X47.97097 Y29.49137
G01 X47.79716 Y29.45443
G01 X47.75738 Y29.44151
G01 X47.62766 Y29.38375
G01 X47.13833 Y29.87308
G01 X47.13833 Y30.21869
G01 X47.13831 Y30.57470
G01 X47.13643 Y30.58349
G01 X47.10831 Y30.76116
G01 X47.10460 Y30.79629
G01 X47.09528 Y30.97399
G01 X47.09528 Y31.00683
G01 X47.10460 Y31.18453
G01 X47.10831 Y31.21966
G01 X47.13643 Y31.39733
G01 X47.13831 Y31.40607
G01 X47.13833 Y32.81983
G01 X47.86817 Y33.54968
G01 X47.88136 Y33.56423
G01 X47.91245 Y33.60210
G01 X47.93424 Y33.63472
G01 X47.95733 Y33.67792
G01 X47.97234 Y33.71414
G01 X47.98656 Y33.76105
G01 X47.99421 Y33.79951
G01 X47.99901 Y33.84828
G01 X47.99998 Y33.86786
G01 X47.99998 Y48.55000
G01 X47.99901 Y48.56961
G01 X47.99421 Y48.61838
G01 X47.98656 Y48.65683
G01 X47.97234 Y48.70375
G01 X47.95733 Y48.73999
G01 X47.93424 Y48.78317
G01 X47.91245 Y48.81579
G01 X47.88136 Y48.85366
G01 X47.86817 Y48.86821
G01 X46.74318 Y49.99323
G01 X46.72865 Y50.00641
G01 X46.69076 Y50.03750
G01 X46.65817 Y50.05927
G01 X46.61494 Y50.08238
G01 X46.57872 Y50.09739
G01 X46.53180 Y50.11162
G01 X46.49337 Y50.11926
G01 X46.44458 Y50.12407
G01 X46.42500 Y50.12503
G01 X34.54989 Y50.12503
G01 X34.66447 Y50.16404
G01 X34.67702 Y50.16930
G01 X34.67727 Y50.16869
G01 X34.67702 Y50.16930
G01 X34.74803 Y50.20484
G01 X34.75377 Y50.20796
G01 X34.81725 Y50.24512
G01 X34.82921 Y50.24172
G01 X34.83229 Y50.24090
G01 X34.88131 Y50.22861
G01 X34.88606 Y50.22754
G01 X34.96310 Y50.21218
G01 X34.96797 Y50.21134
G01 X35.01697 Y50.20405
G01 X35.01692 Y50.20359
G01 X35.01697 Y50.20405
G01 X35.02182 Y50.20347
G01 X35.09525 Y50.19623
G01 X35.10018 Y50.19585
G01 X35.14920 Y50.19346
G01 X35.15164 Y50.19336
G01 X35.18771 Y50.19247
G01 X35.19015 Y50.19234
G01 X46.42375 Y50.19244
G01 X46.45738 Y50.19160
G01 X46.50270 Y50.18939
G01 X46.57120 Y50.18264
G01 X46.61535 Y50.17608
G01 X46.68423 Y50.16234
G01 X46.69116 Y50.15721
G01 X46.74778 Y50.11076
G01 X46.78139 Y50.08030
G01 X46.80729 Y50.05561
G01 X47.93056 Y48.93235
G01 X47.95522 Y48.90644
G01 X47.96558 Y48.89504
G01 X47.98395 Y48.83463
G01 X47.99502 Y48.79039
G01 X48.00762 Y48.72724
G01 X48.01417 Y48.68310
G01 X48.02007 Y48.62338
G01 X48.02230 Y48.57804
G01 X48.02301 Y48.54878
G01 X48.02301 Y33.86911
G01 X48.02230 Y33.83982
G01 X48.02007 Y33.79451
G01 X48.01417 Y33.73482
G01 X48.00762 Y33.69067
G01 X47.99502 Y33.62753
G01 X47.98395 Y33.58328
G01 X47.96289 Y33.51409
G01 X47.94658 Y33.46855
G01 X47.93185 Y33.43032
G01 X47.86127 Y33.25991
G01 X47.33833 Y32.73698
G01 X47.32309 Y32.74330
G01 X47.33833 Y32.73698
G01 X47.33833 Y32.19017
G01 X47.31664 Y32.15275
G01 X47.31407 Y32.14800
G01 X47.22352 Y31.97030
G01 X47.22114 Y31.96578
G01 X47.18796 Y31.89103
G01 X47.18591 Y31.88608
G01 X47.13833 Y31.76213
G01 X47.13831 Y31.40607
G01 X47.15167 Y31.43612
G01 X47.24052 Y31.59002
G01 X47.26510 Y31.62385
G01 X47.32502 Y31.69037
G01 X47.38400 Y31.75590
G01 X47.41509 Y31.78387
G01 X47.55883 Y31.88831
G01 X47.59505 Y31.90922
G01 X47.75738 Y31.98151
G01 X47.79716 Y31.99443
G01 X47.97097 Y32.03137
G01 X48.01255 Y32.03573
G01 X48.19025 Y32.03573
G01 X48.23183 Y32.03137
G01 X48.24608 Y32.02834
G01 X48.24608 Y49.02620
G01 X46.81242 Y50.45983
G01 X35.19017 Y50.45983
G01 X35.17056 Y50.46079
G01 X35.12179 Y50.46559
G01 X35.08334 Y50.47324
G01 X35.03643 Y50.48746
G01 X35.00020 Y50.50247
G01 X34.95700 Y50.52556
G01 X34.92439 Y50.54736
G01 X34.88651 Y50.57845
G01 X34.87196 Y50.59163
G01 X34.78047 Y50.68312
G01 X31.85685 Y53.60674
G01 X31.32521 Y54.13838
G01 X31.30857 Y54.15502
G01 X31.27987 Y54.15502
G01 X31.29737 Y54.15139
G01 X31.31543 Y54.14372
G01 X31.32521 Y54.13838
G01 X31.31543 Y54.14372
G01 X31.29737 Y54.15139
G01 X31.27987 Y54.15502
G01 X31.23016 Y54.15502
G01 X30.97499 Y54.15502
G01 X30.97499 Y54.10501
G01 X30.97258 Y54.08060
G01 X31.00418 Y54.11476
G01 X31.02038 Y54.12888
G01 X31.03923 Y54.13922
G01 X31.05983 Y54.14527
G01 X31.07705 Y54.14839
G01 X31.09117 Y54.14991
G01 X31.23016 Y54.15502
G01 X31.09117 Y54.14991
G01 X31.07705 Y54.14839
G01 X31.05983 Y54.14527
G01 X31.03923 Y54.13922
G01 X31.03491 Y54.14961
G01 X31.03923 Y54.13922
G01 X31.02038 Y54.12888
G01 X31.00418 Y54.11476
G01 X30.97258 Y54.08060
G01 X30.97116 Y54.06599
G01 X30.95975 Y54.02848
G01 X30.94128 Y53.99391
G01 X30.91642 Y53.96358
G01 X30.88609 Y53.93871
G01 X30.85152 Y53.92025
G01 X30.81401 Y53.90887
G01 X30.77499 Y53.90501
G01 X29.27499 Y53.90501
G01 X29.23598 Y53.90887
G01 X29.19844 Y53.92025
G01 X29.16387 Y53.93871
G01 X29.13357 Y53.96358
G01 X29.10870 Y53.99391
G01 X29.09021 Y54.02848
G01 X29.07883 Y54.06599
G01 X29.07499 Y54.10501
G01 X29.07499 Y55.10500
G01 X29.07883 Y55.14402
G01 X29.09021 Y55.18156
G01 X29.10870 Y55.21613
G01 X29.13357 Y55.24643
G01 X29.16387 Y55.27130
G01 X29.19844 Y55.28979
G01 X29.22046 Y55.29647
G01 X29.23598 Y55.30117
G01 X29.27499 Y55.30500
G01 X30.77499 Y55.30500
G01 X30.81401 Y55.30117
G01 X30.85152 Y55.28979
G01 X30.88609 Y55.27130
G01 X30.91642 Y55.24643
G01 X30.94128 Y55.21613
G01 X30.95975 Y55.18156
G01 X30.97116 Y55.14402
G01 X30.97499 Y55.10500
G01 X30.97499 Y55.05502
G01 X31.49498 Y55.05502
G01 X31.51456 Y55.05405
G01 X31.56333 Y55.04925
G01 X31.60179 Y55.04161
G01 X31.64870 Y55.02738
G01 X31.68492 Y55.01237
G01 X31.72813 Y54.98928
G01 X31.76074 Y54.96749
G01 X31.79861 Y54.93640
G01 X31.81317 Y54.92322
G01 X33.97852 Y52.75787
G04 P0 ( dwell for no time -- G64 should not smooth over this point )
G00 Z1.00000 ( retract )

G00 X38.75062 Y46.72504 ( rapid move to begin. )
G01 F300.00000
( Mill infeed pass 1/1 )
G01 Z-0.05000
G04 P0 ( dwell for no time -- G64 should not smooth over this point )
G01 F600.00000
G01 X38.75062 Y46.72504
G01 X38.82918 Y46.70147
G01 X38.84195 Y46.69664
G01 X38.84551 Y46.69501
G01 X38.84770 Y46.69885
G01 X38.84551 Y46.69501
G01 X38.86248 Y46.68516
G01 X38.87716 Y46.67221
G01 X38.88905 Y46.65661
G01 X38.89380 Y46.65994
G01 X38.88905 Y46.65661
G01 X38.89768 Y46.63901
G01 X38.92283 Y46.57154
G01 X38.92499 Y46.56456
G01 X38.92499 Y46.35001
G01 X38.92608 Y46.32910
G01 X38.93154 Y46.27713
G01 X38.94023 Y46.23624
G01 X38.95638 Y46.18653
G01 X38.97340 Y46.14833
G01 X38.99954 Y46.10307
G01 X39.02410 Y46.06923
G01 X39.05907 Y46.03040
G01 X39.09014 Y46.00243
G01 X39.13243 Y45.97170
G01 X39.16865 Y45.95079
G01 X39.21638 Y45.92953
G01 X39.25615 Y45.91663
G01 X39.30728 Y45.90576
G01 X39.33840 Y45.90165
G01 X39.36451 Y45.90030
G01 X39.37500 Y45.90002
G01 X40.32498 Y45.90002
G01 X40.33890 Y45.90139
G01 X40.35112 Y45.90139
G01 X40.39270 Y45.90576
G01 X40.44383 Y45.91663
G01 X40.48358 Y45.92953
G01 X40.53133 Y45.95079
G01 X40.56755 Y45.97170
G01 X40.60982 Y46.00243
G01 X40.64091 Y46.03040
G01 X40.67586 Y46.06923
G01 X40.70045 Y46.10307
G01 X40.72658 Y46.14833
G01 X40.74358 Y46.18653
G01 X40.75973 Y46.23624
G01 X40.76842 Y46.27713
G01 X40.77390 Y46.32910
G01 X40.77500 Y46.35001
G01 X40.77500 Y47.75000
G01 X40.77390 Y47.77091
G01 X40.76842 Y47.82290
G01 X40.75973 Y47.86380
G01 X40.74358 Y47.91350
G01 X40.72658 Y47.95170
G01 X40.70045 Y47.99697
G01 X40.67586 Y48.03077
G01 X40.64091 Y48.06964
G01 X40.60982 Y48.09760
G01 X40.56755 Y48.12831
G01 X40.53133 Y48.14924
G01 X40.48358 Y48.17047
G01 X40.44383 Y48.18340
G01 X40.39270 Y48.19427
G01 X40.36159 Y48.19836
G01 X40.33545 Y48.19974
G01 X40.32498 Y48.20002
G01 X39.37500 Y48.20002
G01 X39.36108 Y48.19864
G01 X39.34886 Y48.19864
G01 X39.30728 Y48.19427
G01 X39.25615 Y48.18340
G01 X39.21638 Y48.17047
G01 X39.16865 Y48.14924
G01 X39.13243 Y48.12831
G01 X39.09014 Y48.09760
G01 X39.05907 Y48.06964
G01 X39.02410 Y48.03077
G01 X38.99954 Y47.99697
G01 X38.97340 Y47.95170
G01 X38.95638 Y47.91350
G01 X38.94023 Y47.86380
G01 X38.93154 Y47.82290
G01 X38.92608 Y47.77091
G01 X38.92499 Y47.75000
G01 X38.92499 Y47.71739
G01 X38.92499 Y47.62504
G01 X38.82039 Y47.62504
G01 X38.84810 Y47.63286
G01 X38.86840 Y47.64109
G01 X38.88643 Y47.65353
G01 X38.90131 Y47.66961
G01 X38.91234 Y47.68854
G01 X38.92161 Y47.70944
G01 X38.92232 Y47.71106
G01 X38.92499 Y47.71739
G01 X38.92232 Y47.71106
G01 X38.92161 Y47.70944
G01 X38.91234 Y47.68854
G01 X38.91937 Y47.68495
G01 X38.91234 Y47.68854
G01 X38.90131 Y47.66961
G01 X38.88643 Y47.65353
G01 X38.86840 Y47.64109
G01 X38.87190 Y47.63568
G01 X38.86840 Y47.64109
G01 X38.84810 Y47.63286
G01 X38.82039 Y47.62504
G01 X37.99898 Y47.62504
G01 X37.97129 Y47.62504
G01 X37.92499 Y47.62504
G01 X37.92499 Y47.67502
G01 X37.92420 Y47.68993
G01 X37.93012 Y47.67817
G01 X37.94175 Y47.66011
G01 X37.95697 Y47.64495
G01 X37.97508 Y47.63339
G01 X37.99522 Y47.62598
G01 X37.99898 Y47.62504
G01 X37.99522 Y47.62598
G01 X37.97508 Y47.63339
G01 X37.97129 Y47.62504
G01 X37.97508 Y47.63339
G01 X37.95697 Y47.64495
G01 X37.94175 Y47.66011
G01 X37.93012 Y47.67817
G01 X37.92420 Y47.68993
G01 X37.92390 Y47.69593
G01 X37.91844 Y47.74789
G01 X37.90972 Y47.78879
G01 X37.89359 Y47.83850
G01 X37.87658 Y47.87670
G01 X37.85044 Y47.92196
G01 X37.82588 Y47.95579
G01 X37.79090 Y47.99463
G01 X37.75984 Y48.02260
G01 X37.71755 Y48.05333
G01 X37.68133 Y48.07423
G01 X37.63360 Y48.09549
G01 X37.59382 Y48.10840
G01 X37.54269 Y48.11927
G01 X37.51158 Y48.12336
G01 X37.48544 Y48.12473
G01 X37.47498 Y48.12501
G01 X35.62499 Y48.12501
G01 X35.61107 Y48.12364
G01 X35.59886 Y48.12364
G01 X35.55728 Y48.11927
G01 X35.50615 Y48.10840
G01 X35.46640 Y48.09549
G01 X35.41864 Y48.07423
G01 X35.38242 Y48.05333
G01 X35.34016 Y48.02260
G01 X35.30907 Y47.99463
G01 X35.27409 Y47.95579
G01 X35.24953 Y47.92196
G01 X35.22339 Y47.87670
G01 X35.20640 Y47.83850
G01 X35.19025 Y47.78879
G01 X35.18154 Y47.74789
G01 X35.17607 Y47.69593
G01 X35.17498 Y47.67502
G01 X35.17498 Y47.65028
G01 X35.17498 Y47.56253
G01 X35.07519 Y47.56253
G01 X35.09896 Y47.56918
G01 X35.11900 Y47.57721
G01 X35.13688 Y47.58935
G01 X35.15172 Y47.60507
G01 X35.16284 Y47.62359
G01 X35.16724 Y47.63316
G01 X35.16757 Y47.63387
G01 X35.17498 Y47.65028
G01 X35.16757 Y47.63387
G01 X35.16724 Y47.63316
G01 X35.16284 Y47.62359
G01 X35.16751 Y47.62148
G01 X35.16284 Y47.62359
G01 X35.15172 Y47.60507
G01 X35.13688 Y47.58935
G01 X35.14105 Y47.58406
G01 X35.13688 Y47.58935
G01 X35.11900 Y47.57721
G01 X35.09896 Y47.56918
G01 X35.07519 Y47.56253
G01 X34.17544 Y47.56253
G01 X34.14715 Y47.56253
G01 X34.14443 Y47.58841
G01 X34.15352 Y47.57797
G01 X34.16777 Y47.56662
G01 X34.17544 Y47.56253
G01 X34.16777 Y47.56662
G01 X34.15352 Y47.57797
G01 X34.14443 Y47.58841
G01 X34.14344 Y47.59791
G01 X34.13473 Y47.63880
G01 X34.11860 Y47.68851
G01 X34.10158 Y47.72669
G01 X34.07544 Y47.77195
G01 X34.05088 Y47.80578
G01 X34.01590 Y47.84462
G01 X33.98481 Y47.87261
G01 X33.94255 Y47.90332
G01 X33.90633 Y47.92422
G01 X33.85858 Y47.94548
G01 X33.81883 Y47.95841
G01 X33.76770 Y47.96928
G01 X33.73658 Y47.97337
G01 X33.71044 Y47.97474
G01 X33.69998 Y47.97502
G01 X32.39998 Y47.97502
G01 X32.38609 Y47.97365
G01 X32.37384 Y47.97365
G01 X32.33226 Y47.96928
G01 X32.28116 Y47.95841
G01 X32.24138 Y47.94548
G01 X32.19363 Y47.92422
G01 X32.15744 Y47.90332
G01 X32.11515 Y47.87261
G01 X32.08408 Y47.84462
G01 X32.04911 Y47.80578
G01 X32.02452 Y47.77195
G01 X31.99841 Y47.72669
G01 X31.98139 Y47.68851
G01 X31.96523 Y47.63880
G01 X31.96379 Y47.63197
G01 X31.96231 Y47.62504
G01 X31.95474 Y47.62504
G01 X31.96379 Y47.63197
G01 X31.95474 Y47.62504
G01 X31.00941 Y47.62504
G01 X30.97499 Y47.62504
G01 X30.97499 Y47.65714
G01 X30.98683 Y47.64208
G01 X31.00184 Y47.62928
G01 X31.00941 Y47.62504
G01 X31.00184 Y47.62928
G01 X30.98683 Y47.64208
G01 X30.97499 Y47.65714
G01 X30.97499 Y47.67502
G01 X30.97116 Y47.71404
G01 X30.95975 Y47.75155
G01 X30.94128 Y47.78612
G01 X30.91642 Y47.81642
G01 X30.88609 Y47.84132
G01 X30.85152 Y47.85978
G01 X30.81401 Y47.87116
G01 X30.77499 Y47.87502
G01 X29.27499 Y47.87502
G01 X29.23598 Y47.87116
G01 X29.19844 Y47.85978
G01 X29.16387 Y47.84132
G01 X29.13357 Y47.81642
G01 X29.10870 Y47.78612
G01 X29.09021 Y47.75155
G01 X29.07883 Y47.71404
G01 X29.07499 Y47.67502
G01 X29.07499 Y46.67502
G01 X29.07883 Y46.63598
G01 X29.09021 Y46.59847
G01 X29.10870 Y46.56390
G01 X29.13357 Y46.53360
G01 X29.16387 Y46.50873
G01 X29.19844 Y46.49024
G01 X29.23598 Y46.47886
G01 X29.27499 Y46.47502
G01 X30.77499 Y46.47502
G01 X30.81401 Y46.47886
G01 X30.85152 Y46.49024
G01 X30.88609 Y46.50873
G01 X30.91642 Y46.53360
G01 X30.94128 Y46.56390
G01 X30.95975 Y46.59847
G01 X30.97116 Y46.63598
G01 X30.97499 Y46.67502
G01 X30.97499 Y46.68917
G01 X30.97499 Y46.72504
G01 X31.01383 Y46.72504
G01 X31.00895 Y46.72280
G01 X30.99150 Y46.70952
G01 X30.97738 Y46.69273
G01 X30.97499 Y46.68917
G01 X30.97738 Y46.69273
G01 X30.99150 Y46.70952
G01 X31.00895 Y46.72280
G01 X31.01383 Y46.72504
G01 X31.89127 Y46.72504
G01 X31.94999 Y46.72504
G01 X31.94999 Y46.70002
G01 X31.95104 Y46.67962
G01 X31.95109 Y46.67911
G01 X31.95177 Y46.67254
G01 X31.94872 Y46.67812
G01 X31.93691 Y46.69529
G01 X31.92180 Y46.70962
G01 X31.90405 Y46.72049
G01 X31.89127 Y46.72504
G01 X31.90405 Y46.72049
G01 X31.92180 Y46.70962
G01 X31.93691 Y46.69529
G01 X31.94872 Y46.67812
G01 X31.95104 Y46.67962
G01 X31.94872 Y46.67812
G01 X31.95177 Y46.67254
G01 X31.95655 Y46.62712
G01 X31.96523 Y46.58623
G01 X31.98139 Y46.53652
G01 X31.99841 Y46.49832
G01 X32.02452 Y46.45305
G01 X32.04911 Y46.41925
G01 X32.08408 Y46.38041
G01 X32.11515 Y46.35242
G01 X32.15744 Y46.32171
G01 X32.19363 Y46.30081
G01 X32.24138 Y46.27955
G01 X32.28116 Y46.26662
G01 X32.33226 Y46.25575
G01 X32.36338 Y46.25166
G01 X32.38952 Y46.25029
G01 X32.39998 Y46.25001
G01 X33.69998 Y46.25001
G01 X33.71390 Y46.25138
G01 X33.72612 Y46.25138
G01 X33.76770 Y46.25575
G01 X33.81883 Y46.26662
G01 X33.85858 Y46.27955
G01 X33.90633 Y46.30081
G01 X33.94255 Y46.32171
G01 X33.98481 Y46.35242
G01 X34.01590 Y46.38041
G01 X34.05088 Y46.41925
G01 X34.07544 Y46.45305
G01 X34.10158 Y46.49832
G01 X34.11860 Y46.53652
G01 X34.13473 Y46.58623
G01 X34.14344 Y46.62712
G01 X34.14425 Y46.63494
G01 X34.14715 Y46.66253
G01 X34.17722 Y46.66253
G01 X34.16724 Y46.65709
G01 X34.15268 Y46.64510
G01 X34.14425 Y46.63494
G01 X34.15268 Y46.64510
G01 X34.16724 Y46.65709
G01 X34.17722 Y46.66253
G01 X35.13769 Y46.66253
G01 X35.17564 Y46.66253
G01 X35.17607 Y46.65412
G01 X35.17897 Y46.62641
G01 X35.16698 Y46.64162
G01 X35.15227 Y46.65425
G01 X35.13769 Y46.66253
G01 X35.15227 Y46.65425
G01 X35.16698 Y46.64162
G01 X35.17897 Y46.62641
G01 X35.18154 Y46.60213
G01 X35.19025 Y46.56123
G01 X35.20640 Y46.51152
G01 X35.22339 Y46.47332
G01 X35.24953 Y46.42806
G01 X35.27409 Y46.39425
G01 X35.30907 Y46.35539
G01 X35.34016 Y46.32743
G01 X35.38242 Y46.29669
G01 X35.41864 Y46.27579
G01 X35.46640 Y46.25453
G01 X35.50615 Y46.24162
G01 X35.55728 Y46.23075
G01 X35.58839 Y46.22666
G01 X35.61453 Y46.22529
G01 X35.62499 Y46.22501
G01 X37.47498 Y46.22501
G01 X37.48890 Y46.22638
G01 X37.50111 Y46.22638
G01 X37.54269 Y46.23075
G01 X37.59382 Y46.24162
G01 X37.63360 Y46.25453
G01 X37.68133 Y46.27579
G01 X37.71755 Y46.29669
G01 X37.75984 Y46.32743
G01 X37.79090 Y46.35539
G01 X37.82588 Y46.39425
G01 X37.85044 Y46.42806
G01 X37.87658 Y46.47332
G01 X37.89359 Y46.51152
G01 X37.90972 Y46.56123
G01 X37.91844 Y46.60213
G01 X37.92390 Y46.65412
G01 X37.92499 Y46.67502
G01 X37.92499 Y46.72504
G01 X37.97129 Y46.72504
G01 X37.99926 Y46.72504
G01 X37.99530 Y46.72405
G01 X37.97510 Y46.71660
G01 X37.95697 Y46.70502
G01 X37.94175 Y46.68983
G01 X37.93012 Y46.67172
G01 X37.92420 Y46.65986
G01 X37.92390 Y46.65412
G01 X37.92420 Y46.65986
G01 X37.93012 Y46.67172
G01 X37.94175 Y46.68983
G01 X37.95697 Y46.70502
G01 X37.97510 Y46.71660
G01 X37.97129 Y46.72504
G01 X37.97510 Y46.71660
G01 X37.99530 Y46.72405
G01 X37.99926 Y46.72504
G01 X38.75062 Y46.72504
G01 X38.92499 Y46.72504
G01 X38.92499 Y46.56456
G01 X38.75671 Y46.47383
G01 X38.71021 Y46.52750
G01 X38.68267 Y46.55374
G01 X38.71021 Y46.52750
G01 X38.75671 Y46.47383
G01 X38.78323 Y46.43469
G01 X38.79984 Y46.39042
G01 X38.81043 Y46.34716
G01 X38.80993 Y46.34703
G01 X38.81528 Y46.32138
G01 X38.81564 Y46.31813
G01 X38.81577 Y46.31701
G01 X38.82412 Y46.23629
G01 X38.84797 Y46.16487
G01 X38.86578 Y46.11147
G01 X38.93428 Y46.00076
G01 X39.02654 Y45.90871
G01 X39.13736 Y45.84041
G01 X39.19494 Y45.82128
G01 X39.26232 Y45.79895
G01 X39.29042 Y45.79606
G01 X39.33479 Y45.79154
G01 X40.36509 Y45.79154
G01 X40.43867 Y45.79916
G01 X40.55648 Y45.83848
G01 X40.56349 Y45.84081
G01 X40.67426 Y45.90934
G01 X40.76626 Y46.00149
G01 X40.77876 Y46.02179
G01 X40.83461 Y46.11239
G01 X40.87540 Y46.23538
G01 X40.87606 Y46.23738
G01 X40.88345 Y46.30985
G01 X40.88345 Y47.79011
G01 X40.87723 Y47.85036
G01 X40.87583 Y47.86374
G01 X40.87520 Y47.86565
G01 X40.83423 Y47.98848
G01 X40.76565 Y48.09930
G01 X40.67347 Y48.19130
G01 X40.66070 Y48.19918
G01 X40.56265 Y48.25963
G01 X40.43768 Y48.30108
G01 X40.40964 Y48.30395
G01 X40.36512 Y48.30852
G01 X39.33507 Y48.30852
G01 X39.26128 Y48.30090
G01 X39.14348 Y48.26158
G01 X39.13647 Y48.25925
G01 X39.02570 Y48.19069
G01 X38.93367 Y48.09852
G01 X38.92115 Y48.07820
G01 X38.86537 Y47.98770
G01 X38.86128 Y47.97538
G01 X38.85511 Y47.95678
G01 X38.82971 Y47.90596
G01 X38.78928 Y47.84759
G01 X38.76474 Y47.81853
G01 X38.73517 Y47.79466
G01 X38.70159 Y47.77680
G01 X38.63604 Y47.74957
G01 X38.60373 Y47.73926
G01 X38.57015 Y47.73456
G01 X38.55656 Y47.73382
G01 X38.54574 Y47.73352
G01 X38.27637 Y47.73352
G01 X38.22004 Y47.74162
G01 X38.15191 Y47.76161
G01 X38.11689 Y47.77561
G01 X38.08511 Y47.79593
G01 X38.05770 Y47.82183
G01 X38.02821 Y47.85557
G01 X38.02026 Y47.86255
G01 X37.99647 Y47.89372
G01 X37.91564 Y48.02435
G01 X37.82347 Y48.11630
G01 X37.71262 Y48.18465
G01 X37.58765 Y48.22610
G01 X37.55953 Y48.22900
G01 X37.51516 Y48.23352
G01 X35.58486 Y48.23352
G01 X35.51130 Y48.22590
G01 X35.39347 Y48.18658
G01 X35.38646 Y48.18424
G01 X35.27569 Y48.11571
G01 X35.18372 Y48.02359
G01 X35.14506 Y47.96087
G01 X35.11534 Y47.91264
G01 X35.10927 Y47.89435
G01 X35.08387 Y47.84350
G01 X35.04346 Y47.78513
G01 X35.01892 Y47.75605
G01 X34.98933 Y47.73215
G01 X34.95573 Y47.71427
G01 X34.89015 Y47.68704
G01 X34.85784 Y47.67675
G01 X34.82428 Y47.67205
G01 X34.81070 Y47.67131
G01 X34.79988 Y47.67101
G01 X34.44808 Y47.67101
G01 X34.39170 Y47.67914
G01 X34.32357 Y47.69915
G01 X34.29203 Y47.71140
G01 X34.26302 Y47.72877
G01 X34.23734 Y47.75082
G01 X34.19833 Y47.79049
G01 X34.17087 Y47.82547
G01 X34.14067 Y47.87429
G01 X34.04847 Y47.96634
G01 X33.93765 Y48.03466
G01 X33.88004 Y48.05376
G01 X33.81263 Y48.07611
G01 X33.78227 Y48.07921
G01 X33.74021 Y48.08351
G01 X32.35985 Y48.08351
G01 X32.28632 Y48.07589
G01 X32.19709 Y48.04612
G01 X32.16145 Y48.03423
G01 X32.05071 Y47.96570
G01 X31.95490 Y47.86971
G01 X31.95393 Y47.86837
G01 X31.94941 Y47.86263
G01 X31.92206 Y47.83418
G01 X31.87463 Y47.79374
G01 X31.83453 Y47.76715
G01 X31.78921 Y47.75089
G01 X31.73470 Y47.73850
G01 X31.69038 Y47.73352
G01 X31.27979 Y47.73352
G01 X31.22345 Y47.74162
G01 X31.15533 Y47.76161
G01 X31.11273 Y47.77970
G01 X31.07545 Y47.80708
G01 X31.04273 Y47.83751
G01 X31.01886 Y47.86405
G01 X30.99539 Y47.89539
G01 X30.92465 Y47.94840
G01 X30.83867 Y47.98066
G01 X30.81228 Y47.98351
G01 X29.23768 Y47.98351
G01 X29.21129 Y47.98066
G01 X29.12529 Y47.94840
G01 X29.05457 Y47.89542
G01 X29.00159 Y47.82470
G01 X28.96933 Y47.73870
G01 X28.96649 Y47.71234
G01 X28.96649 Y46.63771
G01 X28.96933 Y46.61135
G01 X29.00159 Y46.52534
G01 X29.05457 Y46.45463
G01 X29.12529 Y46.40164
G01 X29.21129 Y46.36939
G01 X29.23768 Y46.36654
G01 X30.81228 Y46.36654
G01 X30.83867 Y46.36939
G01 X30.92465 Y46.40164
G01 X30.99536 Y46.45463
G01 X31.01891 Y46.48605
G01 X31.05919 Y46.52628
G01 X31.11606 Y46.56880
G01 X31.15612 Y46.59204
G01 X31.20044 Y46.60545
G01 X31.24441 Y46.61335
G01 X31.27979 Y46.61653
G01 X31.61322 Y46.61653
G01 X31.66953 Y46.60843
G01 X31.73765 Y46.58844
G01 X31.76922 Y46.57617
G01 X31.79828 Y46.55877
G01 X31.82399 Y46.53672
G01 X31.86300 Y46.49702
G01 X31.89041 Y46.46207
G01 X31.95932 Y46.35072
G01 X31.97992 Y46.33017
G01 X32.05142 Y46.25877
G01 X32.16234 Y46.19039
G01 X32.20224 Y46.17716
G01 X32.28728 Y46.14894
G01 X32.31532 Y46.14609
G01 X32.35980 Y46.14155
G01 X33.74009 Y46.14155
G01 X33.81375 Y46.14919
G01 X33.93147 Y46.18846
G01 X33.93854 Y46.19082
G01 X34.04923 Y46.25935
G01 X34.14125 Y46.35153
G01 X34.17059 Y46.39908
G01 X34.20704 Y46.44279
G01 X34.25982 Y46.49029
G01 X34.28685 Y46.51076
G01 X34.31694 Y46.52636
G01 X34.34925 Y46.53665
G01 X34.40374 Y46.54904
G01 X34.44811 Y46.55404
G01 X34.86142 Y46.55404
G01 X34.91778 Y46.54592
G01 X34.98590 Y46.52590
G01 X35.01745 Y46.51366
G01 X35.04648 Y46.49626
G01 X35.07219 Y46.47421
G01 X35.11120 Y46.43451
G01 X35.13861 Y46.39956
G01 X35.18430 Y46.32575
G01 X35.27648 Y46.23375
G01 X35.38730 Y46.16542
G01 X35.44493 Y46.14630
G01 X35.51232 Y46.12395
G01 X35.54041 Y46.12105
G01 X35.58479 Y46.11653
G01 X37.51486 Y46.11653
G01 X37.58867 Y46.12415
G01 X37.70647 Y46.16347
G01 X37.71348 Y46.16581
G01 X37.82425 Y46.23433
G01 X37.91628 Y46.32654
G01 X37.99685 Y46.45722
G01 X38.02123 Y46.48912
G01 X38.06324 Y46.53390
G01 X38.08986 Y46.55763
G01 X38.12029 Y46.57627
G01 X38.15354 Y46.58920
G01 X38.22082 Y46.60865
G01 X38.27640 Y46.61653
G01 X38.49095 Y46.61653
G01 X38.54726 Y46.60843
G01 X38.61539 Y46.58844
G01 X38.65069 Y46.57431
G01 X38.68267 Y46.55374
G01 X38.70891 Y46.52875
G01 X38.72740 Y46.52318
G01 X38.73345 Y46.50703
G01 X38.73563 Y46.49816
G01 X38.75671 Y46.47383
G04 P0 ( dwell for no time -- G64 should not smooth over this point )
G00 Z1.00000 ( retract )

G00 X37.00399 Y44.87500 ( rapid move to begin. )
G01 F300.00000
( Mill infeed pass 1/1 )
G01 Z-0.05000
G04 P0 ( dwell for no time -- G64 should not smooth over this point )
G01 F600.00000
G01 X37.00399 Y44.87500
G01 X37.47498 Y44.87500
G01 X37.48544 Y44.87475
G01 X37.51158 Y44.87338
G01 X37.54269 Y44.86926
G01 X37.59382 Y44.85842
G01 X37.63360 Y44.84549
G01 X37.68133 Y44.82423
G01 X37.71755 Y44.80332
G01 X37.75984 Y44.77259
G01 X37.79090 Y44.74462
G01 X37.82588 Y44.70579
G01 X37.85044 Y44.67196
G01 X37.87658 Y44.62669
G01 X37.89359 Y44.58849
G01 X37.90972 Y44.53878
G01 X37.91844 Y44.49789
G01 X37.92390 Y44.44592
G01 X37.92499 Y44.42502
G01 X37.92499 Y44.37904
G01 X38.03296 Y44.37904
G01 X38.03296 Y44.46510
G01 X38.02534 Y44.53861
G01 X37.98374 Y44.66332
G01 X37.91526 Y44.77396
G01 X37.82316 Y44.86593
G01 X37.71237 Y44.93421
G01 X37.58755 Y44.97561
G01 X37.51511 Y44.98300
G01 X37.00399 Y44.98300
G01 X37.00399 Y44.87500
G04 P0 ( dwell for no time -- G64 should not smooth over this point )
G00 Z1.00000 ( retract )

G00 X37.00399 Y42.86703 ( rapid move to begin. )
G01 F300.00000
( Mill infeed pass 1/1 )
G01 Z-0.05000
G04 P0 ( dwell for no time -- G64 should not smooth over this point )
G01 F600.00000
G01 X37.00399 Y42.86703
G01 X37.00399 Y42.97501
G01 X37.47498 Y42.97501
G01 X37.48890 Y42.97638
G01 X37.50111 Y42.97638
G01 X37.54269 Y42.98075
G01 X37.59382 Y42.99162
G01 X37.63360 Y43.00455
G01 X37.68133 Y43.02581
G01 X37.71755 Y43.04671
G01 X37.75984 Y43.07742
G01 X37.79090 Y43.10541
G01 X37.82588 Y43.14425
G01 X37.85044 Y43.17808
G01 X37.87658 Y43.22332
G01 X37.89359 Y43.26152
G01 X37.90972 Y43.31123
G01 X37.91844 Y43.35212
G01 X37.92390 Y43.40411
G01 X37.92499 Y43.42502
G01 X37.92499 Y43.47102
G01 X38.03296 Y43.47102
G01 X38.03296 Y43.38491
G01 X38.02555 Y43.31237
G01 X37.98417 Y43.18763
G01 X37.91590 Y43.07684
G01 X37.82392 Y42.98473
G01 X37.71331 Y42.91628
G01 X37.58857 Y42.87465
G01 X37.51483 Y42.86703
G01 X37.00399 Y42.86703
G04 P0 ( dwell for no time -- G64 should not smooth over this point )
G00 Z1.00000 ( retract )

G00 X35.06698 Y43.38496 ( rapid move to begin. )
G01 F300.00000
( Mill infeed pass 1/1 )
G01 Z-0.05000
G04 P0 ( dwell for no time -- G64 should not smooth over this point )
G01 F600.00000
G01 X35.06698 Y43.38496
G01 X35.06698 Y43.47102
G01 X35.17498 Y43.47102
G01 X35.17498 Y43.42502
G01 X35.17607 Y43.40411
G01 X35.18154 Y43.35212
G01 X35.19025 Y43.31123
G01 X35.20640 Y43.26152
G01 X35.22339 Y43.22332
G01 X35.24953 Y43.17808
G01 X35.27409 Y43.14425
G01 X35.30907 Y43.10541
G01 X35.34016 Y43.07742
G01 X35.38242 Y43.04671
G01 X35.41864 Y43.02581
G01 X35.46640 Y43.00455
G01 X35.50615 Y42.99162
G01 X35.55728 Y42.98075
G01 X35.58839 Y42.97666
G01 X35.61453 Y42.97529
G01 X35.62499 Y42.97501
G01 X36.09596 Y42.97501
G01 X36.09596 Y42.86703
G01 X35.58486 Y42.86703
G01 X35.51242 Y42.87445
G01 X35.38758 Y42.91582
G01 X35.27679 Y42.98410
G01 X35.18468 Y43.07607
G01 X35.11623 Y43.18669
G01 X35.07460 Y43.31145
G01 X35.06698 Y43.38496
G04 P0 ( dwell for no time -- G64 should not smooth over this point )
G00 Z1.00000 ( retract )

G00 X35.06698 Y44.37904 ( rapid move to begin. )
G01 F300.00000
( Mill infeed pass 1/1 )
G01 Z-0.05000
G04 P0 ( dwell for no time -- G64 should not smooth over this point )
G01 F600.00000
G01 X35.06698 Y44.37904
G01 X35.06698 Y44.46515
G01 X35.07440 Y44.53761
G01 X35.11580 Y44.66246
G01 X35.18405 Y44.77317
G01 X35.27602 Y44.86530
G01 X35.38674 Y44.93380
G01 X35.51138 Y44.97541
G01 X35.58489 Y44.98300
G01 X36.09596 Y44.98300
G01 X36.09596 Y44.87500
G01 X35.62499 Y44.87500
G01 X35.61107 Y44.87363
G01 X35.59886 Y44.87363
G01 X35.55728 Y44.86926
G01 X35.50615 Y44.85842
G01 X35.46640 Y44.84549
G01 X35.41864 Y44.82423
G01 X35.38242 Y44.80332
G01 X35.34016 Y44.77259
G01 X35.30907 Y44.74462
G01 X35.27409 Y44.70579
G01 X35.24953 Y44.67196
G01 X35.22339 Y44.62669
G01 X35.20640 Y44.58849
G01 X35.19025 Y44.53878
G01 X35.18154 Y44.49789
G01 X35.17607 Y44.44592
G01 X35.17498 Y44.42502
G01 X35.17498 Y44.37904
G01 X35.06698 Y44.37904
G04 P0 ( dwell for no time -- G64 should not smooth over this point )
G00 Z1.00000 ( retract )

G00 X33.50399 Y44.85001 ( rapid move to begin. )
G01 F300.00000
( Mill infeed pass 1/1 )
G01 Z-0.05000
G04 P0 ( dwell for no time -- G64 should not smooth over this point )
G01 F600.00000
G01 X33.50399 Y44.85001
G01 X33.69998 Y44.85001
G01 X33.71044 Y44.84973
G01 X33.73658 Y44.84836
G01 X33.76770 Y44.84427
G01 X33.81883 Y44.83340
G01 X33.85858 Y44.82049
G01 X33.90633 Y44.79923
G01 X33.94255 Y44.77833
G01 X33.98481 Y44.74760
G01 X34.01590 Y44.71963
G01 X34.05088 Y44.68079
G01 X34.07544 Y44.64696
G01 X34.10158 Y44.60170
G01 X34.11860 Y44.56350
G01 X34.13473 Y44.51379
G01 X34.14344 Y44.47290
G01 X34.14674 Y44.44153
G01 X34.25784 Y44.44153
G01 X34.25035 Y44.51359
G01 X34.20872 Y44.63835
G01 X34.14026 Y44.74897
G01 X34.04814 Y44.84094
G01 X33.93742 Y44.90919
G01 X33.81255 Y44.95062
G01 X33.74011 Y44.95801
G01 X33.50399 Y44.95801
G01 X33.50399 Y44.85001
G04 P0 ( dwell for no time -- G64 should not smooth over this point )
G00 Z1.00000 ( retract )

G00 X31.84212 Y44.44153 ( rapid move to begin. )
G01 F300.00000
( Mill infeed pass 1/1 )
G01 Z-0.05000
G04 P0 ( dwell for no time -- G64 should not smooth over this point )
G01 F600.00000
G01 X31.84212 Y44.44153
G01 X31.84939 Y44.51262
G01 X31.89081 Y44.63746
G01 X31.95906 Y44.74818
G01 X32.05104 Y44.84031
G01 X32.16168 Y44.90878
G01 X32.28642 Y44.95039
G01 X32.35990 Y44.95801
G01 X32.59597 Y44.95801
G01 X32.59597 Y44.85001
G01 X32.39998 Y44.85001
G01 X32.38609 Y44.84864
G01 X32.37384 Y44.84864
G01 X32.33226 Y44.84427
G01 X32.28116 Y44.83340
G01 X32.24138 Y44.82049
G01 X32.19363 Y44.79923
G01 X32.15744 Y44.77833
G01 X32.11515 Y44.74760
G01 X32.08408 Y44.71963
G01 X32.04911 Y44.68079
G01 X32.02452 Y44.64696
G01 X31.99841 Y44.60170
G01 X31.98139 Y44.56350
G01 X31.96523 Y44.51379
G01 X31.95655 Y44.47290
G01 X31.95325 Y44.44153
G01 X31.84212 Y44.44153
G04 P0 ( dwell for no time -- G64 should not smooth over this point )
G00 Z1.00000 ( retract )

G00 X30.47898 Y45.37500 ( rapid move to begin. )
G01 F300.00000
( Mill infeed pass 1/1 )
G01 Z-0.05000
G04 P0 ( dwell for no time -- G64 should not smooth over this point )
G01 F600.00000
G01 X30.47898 Y45.37500
G01 X30.47898 Y45.48300
G01 X30.81233 Y45.48300
G01 X30.83862 Y45.48016
G01 X30.92442 Y45.44798
G01 X30.99498 Y45.39509
G01 X31.04791 Y45.32448
G01 X31.08012 Y45.23858
G01 X31.08297 Y45.21221
G01 X31.08297 Y45.12903
G01 X30.97499 Y45.12903
G01 X30.97499 Y45.17500
G01 X30.97116 Y45.21404
G01 X30.95975 Y45.25156
G01 X30.94128 Y45.28613
G01 X30.91642 Y45.31643
G01 X30.88609 Y45.34130
G01 X30.85152 Y45.35979
G01 X30.81401 Y45.37117
G01 X30.77499 Y45.37500
G01 X30.47898 Y45.37500
G04 P0 ( dwell for no time -- G64 should not smooth over this point )
G00 Z1.00000 ( retract )

G00 X28.96699 Y44.13767 ( rapid move to begin. )
G01 F300.00000
( Mill infeed pass 1/1 )
G01 Z-0.05000
G04 P0 ( dwell for no time -- G64 should not smooth over this point )
G01 F600.00000
G01 X28.96699 Y44.13767
G01 X28.96699 Y44.22100
G01 X29.07499 Y44.22100
G01 X29.07499 Y44.17500
G01 X29.07883 Y44.13599
G01 X29.09021 Y44.09847
G01 X29.10870 Y44.06390
G01 X29.13357 Y44.03360
G01 X29.16387 Y44.00871
G01 X29.19844 Y43.99024
G01 X29.23598 Y43.97887
G01 X29.27499 Y43.97500
G01 X29.57093 Y43.97500
G01 X29.57093 Y43.86703
G01 X29.23781 Y43.86703
G01 X29.21142 Y43.86987
G01 X29.12554 Y43.90208
G01 X29.05488 Y43.95501
G01 X29.00202 Y44.02558
G01 X28.96984 Y44.11148
G01 X28.96699 Y44.13767
G04 P0 ( dwell for no time -- G64 should not smooth over this point )
G00 Z1.00000 ( retract )

G00 X28.96699 Y45.12903 ( rapid move to begin. )
G01 F300.00000
( Mill infeed pass 1/1 )
G01 Z-0.05000
G04 P0 ( dwell for no time -- G64 should not smooth over this point )
G01 F600.00000
G01 X28.96699 Y45.12903
G01 X28.96699 Y45.21239
G01 X28.96984 Y45.23860
G01 X29.00202 Y45.32448
G01 X29.05493 Y45.39507
G01 X29.12554 Y45.44798
G01 X29.21137 Y45.48016
G01 X29.23761 Y45.48300
G01 X29.57093 Y45.48300
G01 X29.57093 Y45.37500
G01 X29.27499 Y45.37500
G01 X29.23598 Y45.37117
G01 X29.19844 Y45.35979
G01 X29.16387 Y45.34130
G01 X29.13357 Y45.31643
G01 X29.10870 Y45.28613
G01 X29.09021 Y45.25156
G01 X29.07883 Y45.21404
G01 X29.07499 Y45.17500
G01 X29.07499 Y45.12903
G01 X28.96699 Y45.12903
G04 P0 ( dwell for no time -- G64 should not smooth over this point )
G00 Z1.00000 ( retract )

G00 X30.47898 Y43.86703 ( rapid move to begin. )
G01 F300.00000
( Mill infeed pass 1/1 )
G01 Z-0.05000
G04 P0 ( dwell for no time -- G64 should not smooth over this point )
G01 F600.00000
G01 X30.47898 Y43.86703
G01 X30.81215 Y43.86703
G01 X30.83854 Y43.86987
G01 X30.92442 Y43.90208
G01 X30.99501 Y43.95499
G01 X31.04791 Y44.02558
G01 X31.08012 Y44.11145
G01 X31.08297 Y44.13784
G01 X31.08297 Y44.22100
G01 X30.97499 Y44.22100
G01 X30.97499 Y44.17500
G01 X30.97116 Y44.13599
G01 X30.95975 Y44.09847
G01 X30.94128 Y44.06390
G01 X30.91642 Y44.03360
G01 X30.88609 Y44.00871
G01 X30.85152 Y43.99024
G01 X30.81401 Y43.97887
G01 X30.77499 Y43.97500
G01 X30.47898 Y43.97500
G01 X30.47898 Y43.86703
G04 P0 ( dwell for no time -- G64 should not smooth over this point )
G00 Z1.00000 ( retract )

G00 X31.84212 Y43.53350 ( rapid move to begin. )
G01 F300.00000
( Mill infeed pass 1/1 )
G01 Z-0.05000
G04 P0 ( dwell for no time -- G64 should not smooth over this point )
G01 F600.00000
G01 X31.84212 Y43.53350
G01 X31.95325 Y43.53350
G01 X31.95655 Y43.50213
G01 X31.96523 Y43.46124
G01 X31.98139 Y43.41153
G01 X31.99841 Y43.37333
G01 X32.02452 Y43.32807
G01 X32.04911 Y43.29423
G01 X32.08408 Y43.25540
G01 X32.11515 Y43.22743
G01 X32.15744 Y43.19670
G01 X32.19363 Y43.17579
G01 X32.24138 Y43.15453
G01 X32.28116 Y43.14163
G01 X32.33226 Y43.13076
G01 X32.36338 Y43.12664
G01 X32.38952 Y43.12530
G01 X32.39998 Y43.12502
G01 X32.59597 Y43.12502
G01 X32.59597 Y43.01704
G01 X32.35982 Y43.01704
G01 X32.28738 Y43.02443
G01 X32.16254 Y43.06586
G01 X32.05182 Y43.13411
G01 X31.95970 Y43.22609
G01 X31.89122 Y43.33673
G01 X31.84964 Y43.46137
G01 X31.84212 Y43.53350
G04 P0 ( dwell for no time -- G64 should not smooth over this point )
G00 Z1.00000 ( retract )

G00 X33.50399 Y43.01704 ( rapid move to begin. )
G01 F300.00000
( Mill infeed pass 1/1 )
G01 Z-0.05000
G04 P0 ( dwell for no time -- G64 should not smooth over this point )
G01 F600.00000
G01 X33.50399 Y43.01704
G01 X33.74003 Y43.01704
G01 X33.81364 Y43.02466
G01 X33.93831 Y43.06629
G01 X34.04892 Y43.13475
G01 X34.14090 Y43.22687
G01 X34.20915 Y43.33759
G01 X34.24341 Y43.44087
G01 X34.25055 Y43.46243
G01 X34.25784 Y43.53350
G01 X34.14674 Y43.53350
G01 X34.14344 Y43.50213
G01 X34.13473 Y43.46124
G01 X34.11860 Y43.41153
G01 X34.10158 Y43.37333
G01 X34.07544 Y43.32807
G01 X34.05088 Y43.29423
G01 X34.01590 Y43.25540
G01 X33.98481 Y43.22743
G01 X33.94255 Y43.19670
G01 X33.90633 Y43.17579
G01 X33.85858 Y43.15453
G01 X33.81883 Y43.14163
G01 X33.76770 Y43.13076
G01 X33.72612 Y43.12639
G01 X33.71390 Y43.12639
G01 X33.69998 Y43.12502
G01 X33.50399 Y43.12502
G01 X33.50399 Y43.01704
G04 P0 ( dwell for no time -- G64 should not smooth over this point )
G00 Z1.00000 ( retract )

G00 X44.46567 Y33.21986 ( rapid move to begin. )
G01 F300.00000
( Mill infeed pass 1/1 )
G01 Z-0.05000
G04 P0 ( dwell for no time -- G64 should not smooth over this point )
G01 F600.00000
G01 X44.46567 Y33.21986
G01 X44.47235 Y33.20375
G01 X44.48657 Y33.15684
G01 X44.49422 Y33.11838
G01 X44.49902 Y33.06962
G01 X44.49902 Y33.06060
G01 X44.52528 Y33.03434
G01 X44.53846 Y33.01981
G01 X44.55401 Y33.00086
G01 X44.57580 Y32.96824
G01 X44.58733 Y32.94665
G01 X44.60234 Y32.91041
G01 X44.60946 Y32.88696
G01 X44.61710 Y32.84851
G01 X44.61951 Y32.82413
G01 X44.62048 Y32.80452
G01 X44.62043 Y31.45131
G01 X44.61573 Y31.43375
G01 X44.60722 Y31.39383
G01 X44.57910 Y31.21615
G01 X44.57565 Y31.18339
G01 X44.56633 Y31.00566
G01 X44.56633 Y30.97516
G01 X44.57565 Y30.79743
G01 X44.57910 Y30.76467
G01 X44.60722 Y30.58699
G01 X44.61573 Y30.54707
G01 X44.62045 Y30.52946
G01 X44.70052 Y30.39078
G01 X44.72510 Y30.35695
G01 X44.80717 Y30.26579
G01 X44.84400 Y30.22489
G01 X44.87509 Y30.19693
G01 X45.01883 Y30.09248
G01 X45.05505 Y30.07158
G01 X45.21738 Y29.99929
G01 X45.25716 Y29.98636
G01 X45.43097 Y29.94943
G01 X45.47255 Y29.94506
G01 X45.65025 Y29.94506
G01 X45.69183 Y29.94943
G01 X45.86564 Y29.98636
G01 X45.90542 Y29.99929
G01 X46.06775 Y30.07158
G01 X46.10394 Y30.09248
G01 X46.24771 Y30.19693
G01 X46.27880 Y30.22489
G01 X46.30158 Y30.25019
G01 X46.39769 Y30.35695
G01 X46.42225 Y30.39078
G01 X46.48827 Y30.50513
G01 X46.50051 Y30.55080
G01 X46.50869 Y30.58918
G01 X46.53686 Y30.76688
G01 X46.54016 Y30.79820
G01 X46.54946 Y30.97589
G01 X46.54946 Y31.00493
G01 X46.54016 Y31.18262
G01 X46.53686 Y31.21394
G01 X46.50869 Y31.39164
G01 X46.50051 Y31.43002
G01 X46.48829 Y31.47564
G01 X46.48832 Y31.80218
G01 X46.48832 Y32.72034
G01 X46.45639 Y32.74655
G01 X46.42866 Y32.77429
G01 X46.39757 Y32.81216
G01 X46.37577 Y32.84478
G01 X46.35268 Y32.88798
G01 X46.33767 Y32.92420
G01 X46.32345 Y32.97111
G01 X46.31580 Y33.00957
G01 X46.31100 Y33.05834
G01 X46.31100 Y33.09753
G01 X46.31580 Y33.14630
G01 X46.32345 Y33.18475
G01 X46.33767 Y33.23167
G01 X46.35268 Y33.26789
G01 X46.37577 Y33.31109
G01 X46.39757 Y33.34371
G01 X46.42866 Y33.38158
G01 X46.44184 Y33.39613
G01 X47.09998 Y34.05427
G01 X47.09998 Y37.11106
G01 X47.09998 Y48.36362
G01 X46.23859 Y49.22503
G01 X31.01383 Y49.22503
G01 X30.97499 Y49.22503
G01 X30.97499 Y49.18917
G01 X30.97738 Y49.19277
G01 X30.99150 Y49.20954
G01 X31.00898 Y49.22280
G01 X31.01383 Y49.22503
G01 X31.00898 Y49.22280
G01 X30.99150 Y49.20954
G01 X30.97738 Y49.19277
G01 X30.97499 Y49.18917
G01 X30.97499 Y49.17502
G01 X30.97116 Y49.13601
G01 X30.95975 Y49.09846
G01 X30.94128 Y49.06389
G01 X30.91642 Y49.03359
G01 X30.88609 Y49.00873
G01 X30.85152 Y48.99026
G01 X30.81401 Y48.97888
G01 X30.77499 Y48.97505
G01 X29.27499 Y48.97505
G01 X29.23598 Y48.97888
G01 X29.19844 Y48.99026
G01 X29.16387 Y49.00873
G01 X29.13357 Y49.03359
G01 X29.10870 Y49.06389
G01 X29.09021 Y49.09846
G01 X29.07883 Y49.13601
G01 X29.07499 Y49.17502
G01 X29.07499 Y50.17502
G01 X29.07883 Y50.21403
G01 X29.09021 Y50.25155
G01 X29.10870 Y50.28612
G01 X29.13357 Y50.31644
G01 X29.16387 Y50.34131
G01 X29.19844 Y50.35978
G01 X29.23598 Y50.37118
G01 X29.27499 Y50.37502
G01 X30.77499 Y50.37502
G01 X30.81401 Y50.37118
G01 X30.85152 Y50.35978
G01 X30.88609 Y50.34131
G01 X30.91642 Y50.31644
G01 X30.94128 Y50.28612
G01 X30.95975 Y50.25155
G01 X30.97116 Y50.21403
G01 X30.97499 Y50.17502
G01 X30.97499 Y50.15714
G01 X30.97499 Y50.12503
G01 X31.00941 Y50.12503
G01 X31.00184 Y50.12927
G01 X30.98683 Y50.14207
G01 X30.97499 Y50.15714
G01 X30.98683 Y50.14207
G01 X31.00184 Y50.12927
G01 X31.00941 Y50.12503
G01 X34.54989 Y50.12503
G01 X34.65631 Y50.38264
G01 X34.67491 Y50.42762
G01 X34.78047 Y50.68312
G01 X34.81931 Y50.61096
G01 X34.82494 Y50.59851
G01 X34.85222 Y50.52541
G01 X34.85243 Y50.52483
G01 X34.85570 Y50.51589
G01 X34.85591 Y50.51530
G01 X34.86962 Y50.47713
G01 X34.87066 Y50.47410
G01 X34.88357 Y50.43422
G01 X34.92756 Y50.42320
G01 X34.99977 Y50.40880
G01 X35.04392 Y50.40225
G01 X35.11245 Y50.39549
G01 X35.15779 Y50.39325
G01 X35.19139 Y50.39244
G01 X46.42500 Y50.39244
G01 X46.42744 Y50.39242
G01 X46.46353 Y50.39153
G01 X46.46597 Y50.39143
G01 X46.51496 Y50.38904
G01 X46.51989 Y50.38866
G01 X46.59330 Y50.38142
G01 X46.59335 Y50.38188
G01 X46.59330 Y50.38142
G01 X46.59815 Y50.38083
G01 X46.64715 Y50.37354
G01 X46.65202 Y50.37271
G01 X46.72906 Y50.35734
G01 X46.73381 Y50.35627
G01 X46.75179 Y50.35178
G01 X46.77023 Y50.34517
G01 X46.77242 Y50.34995
G01 X46.77023 Y50.34517
G01 X46.78705 Y50.33509
G01 X46.81227 Y50.31639
G01 X46.81613 Y50.31337
G01 X46.87653 Y50.26382
G01 X46.88027 Y50.26059
G01 X46.88055 Y50.26092
G01 X46.88027 Y50.26059
G01 X46.91661 Y50.22765
G01 X46.91842 Y50.22597
G01 X46.94608 Y50.19963
G01 X46.94786 Y50.19790
G01 X48.07285 Y49.07294
G01 X48.07455 Y49.07116
G01 X48.10092 Y49.04350
G01 X48.10259 Y49.04167
G01 X48.12789 Y49.01375
G01 X48.13957 Y48.99801
G01 X48.14547 Y49.00144
G01 X48.13957 Y48.99801
G01 X48.14796 Y48.98028
G01 X48.15202 Y48.96892
G01 X48.15354 Y48.96438
G01 X48.17602 Y48.89046
G01 X48.17734 Y48.88566
G01 X48.18964 Y48.83664
G01 X48.19070 Y48.83189
G01 X48.20424 Y48.76392
G01 X48.20508 Y48.76407
G01 X48.20424 Y48.76392
G01 X48.20511 Y48.75904
G01 X48.21237 Y48.71005
G01 X48.21298 Y48.70520
G01 X48.21936 Y48.64058
G01 X48.21971 Y48.63565
G01 X48.22212 Y48.58663
G01 X48.22220 Y48.58416
G01 X48.22299 Y48.55247
G01 X48.22301 Y48.55000
G01 X48.22301 Y33.86789
G01 X48.22299 Y33.86542
G01 X48.22220 Y33.83370
G01 X48.22212 Y33.83123
G01 X48.21971 Y33.78224
G01 X48.22042 Y33.78219
G01 X48.21971 Y33.78224
G01 X48.21936 Y33.77731
G01 X48.21298 Y33.71272
G01 X48.21237 Y33.70787
G01 X48.20511 Y33.65887
G01 X48.20424 Y33.65399
G01 X48.19070 Y33.58602
G01 X48.18964 Y33.58127
G01 X48.17734 Y33.53225
G01 X48.17602 Y33.52745
G01 X48.17689 Y33.52720
G01 X48.17602 Y33.52745
G01 X48.15354 Y33.45356
G01 X48.15202 Y33.44899
G01 X48.13449 Y33.39997
G01 X48.13363 Y33.39766
G01 X48.11798 Y33.35714
G01 X48.11707 Y33.35491
G01 X48.04608 Y33.18346
G01 X48.04608 Y32.23573
G01 X48.09406 Y32.19471
G01 X48.04608 Y32.23573
G01 X48.01255 Y32.23573
G01 X47.92939 Y32.22700
G01 X47.75558 Y32.19006
G01 X47.67602 Y32.16421
G01 X47.51369 Y32.09194
G01 X47.51199 Y32.09095
G01 X47.49104 Y32.05481
G01 X47.40290 Y31.88179
G01 X47.37166 Y31.81191
G01 X47.32502 Y31.69037
G01 X47.26510 Y31.62385
G01 X47.24052 Y31.59002
G01 X47.15167 Y31.43612
G01 X47.13831 Y31.40607
G01 X47.13643 Y31.39733
G01 X47.10831 Y31.21966
G01 X47.10460 Y31.18453
G01 X47.09528 Y31.00683
G01 X47.09528 Y30.97399
G01 X47.10460 Y30.79629
G01 X47.10831 Y30.76116
G01 X47.13643 Y30.58349
G01 X47.13831 Y30.57470
G01 X47.15167 Y30.54468
G01 X47.24052 Y30.39078
G01 X47.26510 Y30.35695
G01 X47.32502 Y30.29040
G01 X47.37166 Y30.16891
G01 X47.40290 Y30.09904
G01 X47.43925 Y30.02769
G01 X47.48799 Y29.98606
G01 X47.55634 Y29.93366
G01 X47.70198 Y29.83355
G01 X47.72230 Y29.82042
G01 X48.46213 Y29.82042
G01 X48.53536 Y29.82042
G01 X48.68908 Y29.88885
G01 X48.76152 Y29.93066
G01 X48.90528 Y30.03513
G01 X48.96741 Y30.09106
G01 X49.08631 Y30.22314
G01 X49.13548 Y30.29078
G01 X49.19817 Y30.39936
G01 X49.20457 Y30.42332
G01 X49.22481 Y30.51824
G01 X49.25214 Y30.69075
G01 X49.26119 Y30.77655
G01 X49.27023 Y30.94902
G01 X49.27023 Y31.03180
G01 X49.26119 Y31.20427
G01 X49.25214 Y31.29007
G01 X49.24709 Y31.32192
G01 X49.24587 Y31.33774
G01 X49.24516 Y31.33777
G01 X49.24587 Y31.33774
G01 X49.24714 Y31.35357
G01 X49.25087 Y31.37655
G01 X49.25768 Y31.42248
G01 X49.26553 Y31.50195
G01 X49.26777 Y31.54727
G01 X49.26871 Y31.58633
G01 X49.26871 Y31.84041
G01 X49.26926 Y31.85090
G01 X49.26896 Y31.85092
G01 X49.26926 Y31.85090
G01 X49.28801 Y32.02893
G01 X49.29212 Y32.04859
G01 X49.29121 Y32.04879
G01 X49.29212 Y32.04859
G01 X49.34607 Y32.21938
G01 X49.34607 Y35.95706
G01 X49.34183 Y35.97289
G01 X49.34061 Y35.97794
G01 X49.31915 Y36.07865
G01 X49.31818 Y36.08386
G01 X49.29337 Y36.24065
G01 X49.29268 Y36.24578
G01 X49.29238 Y36.24573
G01 X49.29268 Y36.24578
G01 X49.28296 Y36.33801
G01 X49.28255 Y36.34327
G01 X49.27434 Y36.50006
G01 X49.27419 Y36.50527
G01 X49.27384 Y36.50527
G01 X49.27419 Y36.50527
G01 X49.27419 Y36.59473
G01 X49.27434 Y36.59996
G01 X49.28255 Y36.75678
G01 X49.28290 Y36.76151
G01 X49.28997 Y36.83209
G01 X49.28595 Y36.85922
G01 X49.28534 Y36.86407
G01 X49.27694 Y36.94929
G01 X49.27655 Y36.95419
G01 X49.27417 Y37.00321
G01 X49.27406 Y37.00565
G01 X49.27305 Y37.04759
G01 X49.27287 Y37.05002
G01 X49.27300 Y49.21139
G01 X49.27219 Y49.24454
G01 X49.26619 Y49.25721
G01 X49.22951 Y49.32597
G01 X49.20607 Y49.36506
G01 X49.16744 Y49.42297
G01 X49.14084 Y49.45881
G01 X49.09964 Y49.50903
G01 X49.06919 Y49.54263
G01 X49.04732 Y49.56560
G01 X47.35179 Y51.26110
G01 X47.32886 Y51.28297
G01 X47.29523 Y51.31342
G01 X47.25258 Y51.34842
G01 X47.23770 Y51.35216
G01 X47.17514 Y51.36463
G01 X47.13102 Y51.37118
G01 X47.07188 Y51.37700
G01 X47.02657 Y51.37923
G01 X46.99759 Y51.37994
G01 X43.04997 Y51.37994
G01 X43.04753 Y51.37979
G01 X43.01611 Y51.38076
G01 X43.01368 Y51.38083
G01 X42.96463 Y51.38324
G01 X42.95973 Y51.38360
G01 X42.89569 Y51.38992
G01 X42.89084 Y51.39053
G01 X42.84185 Y51.39780
G01 X42.83694 Y51.39864
G01 X42.83679 Y51.39780
G01 X42.83694 Y51.39864
G01 X42.76958 Y51.41207
G01 X42.76483 Y51.41314
G01 X42.71581 Y51.42543
G01 X42.71101 Y51.42675
G01 X42.63776 Y51.44903
G01 X42.63318 Y51.45055
G01 X42.58419 Y51.46811
G01 X42.58185 Y51.46894
G01 X42.57118 Y51.47308
G01 X42.51866 Y51.44258
G01 X42.51322 Y51.43966
G01 X42.44223 Y51.40410
G01 X42.44246 Y51.40354
G01 X42.44223 Y51.40410
G01 X42.42968 Y51.39887
G01 X42.31505 Y51.35983
G04 P0 ( dwell for no time -- G64 should not smooth over this point )
G00 Z1.00000 ( retract )

G00 X42.54566 Y51.91794 ( rapid move to begin. )
G01 F300.00000
( Mill infeed pass 1/1 )
G01 Z-0.05000
G04 P0 ( dwell for no time -- G64 should not smooth over this point )
G01 F600.00000
G01 X42.54566 Y51.91794
G01 X41.36357 Y53.10003
G01 X40.57342 Y53.10003
G01 X40.53039 Y53.08738
G01 X40.51322 Y53.08057
G01 X40.51079 Y53.08474
G01 X40.51322 Y53.08057
G01 X40.49760 Y53.07072
G01 X40.48406 Y53.05815
G01 X40.47307 Y53.04331
G01 X40.46913 Y53.04606
G01 X40.47307 Y53.04331
G01 X40.46499 Y53.02670
G01 X40.44998 Y52.98690
G01 X40.46499 Y53.02670
G01 X40.47307 Y53.04331
G01 X40.48406 Y53.05815
G01 X40.49760 Y53.07072
G01 X40.51322 Y53.08057
G01 X40.53039 Y53.08738
G01 X40.57342 Y53.10003
G01 X40.44998 Y53.10003
G01 X40.44998 Y52.98690
G01 X40.44998 Y52.92502
G01 X40.44889 Y52.90409
G01 X40.44342 Y52.85213
G01 X40.43474 Y52.81123
G01 X40.41858 Y52.76152
G01 X40.40159 Y52.72332
G01 X40.37545 Y52.67806
G01 X40.35087 Y52.64423
G01 X40.31589 Y52.60539
G01 X40.28483 Y52.57743
G01 X40.24254 Y52.54669
G01 X40.20634 Y52.52579
G01 X40.15859 Y52.50453
G01 X40.11881 Y52.49162
G01 X40.06771 Y52.48075
G01 X40.02613 Y52.47638
G01 X40.01389 Y52.47638
G01 X39.99999 Y52.47501
G01 X39.19999 Y52.47501
G01 X39.18953 Y52.47529
G01 X39.16339 Y52.47666
G01 X39.13228 Y52.48075
G01 X39.08115 Y52.49162
G01 X39.04140 Y52.50453
G01 X38.99364 Y52.52579
G01 X38.95742 Y52.54669
G01 X38.91516 Y52.57743
G01 X38.88407 Y52.60539
G01 X38.84909 Y52.64423
G01 X38.82453 Y52.67806
G01 X38.79839 Y52.72332
G01 X38.78140 Y52.76152
G01 X38.76525 Y52.81123
G01 X38.75653 Y52.85213
G01 X38.75107 Y52.90409
G01 X38.74998 Y52.92502
G01 X38.74998 Y54.17501
G01 X38.75107 Y54.19591
G01 X38.75653 Y54.24791
G01 X38.76525 Y54.28880
G01 X38.78140 Y54.33851
G01 X38.79839 Y54.37669
G01 X38.82453 Y54.42195
G01 X38.84909 Y54.45578
G01 X38.88407 Y54.49462
G01 X38.91516 Y54.52261
G01 X38.95742 Y54.55332
G01 X38.99364 Y54.57422
G01 X39.04140 Y54.59548
G01 X39.08115 Y54.60841
G01 X39.13228 Y54.61928
G01 X39.17386 Y54.62365
G01 X39.18607 Y54.62365
G01 X39.19999 Y54.62502
G01 X39.99999 Y54.62502
G01 X40.01046 Y54.62474
G01 X40.03659 Y54.62337
G01 X40.06771 Y54.61928
G01 X40.11881 Y54.60841
G01 X40.15859 Y54.59548
G01 X40.20634 Y54.57422
G01 X40.24254 Y54.55332
G01 X40.28483 Y54.52261
G01 X40.31589 Y54.49462
G01 X40.35087 Y54.45578
G01 X40.37545 Y54.42195
G01 X40.40159 Y54.37669
G01 X40.41858 Y54.33851
G01 X40.43474 Y54.28880
G01 X40.44342 Y54.24791
G01 X40.44889 Y54.19591
G01 X40.44998 Y54.17501
G01 X40.44998 Y54.11517
G01 X40.45686 Y54.09675
G01 X40.45468 Y54.09617
G01 X40.45686 Y54.09675
G01 X40.45752 Y54.09502
G01 X40.46631 Y54.07275
G01 X40.47462 Y54.05629
G01 X40.47091 Y54.05360
G01 X40.47462 Y54.05629
G01 X40.48582 Y54.04163
G01 X40.49953 Y54.02926
G01 X40.51526 Y54.01964
G01 X40.51287 Y54.01542
G01 X40.51526 Y54.01964
G01 X40.53250 Y54.01308
G01 X40.57937 Y54.00003
G01 X40.53250 Y54.01308
G01 X40.51526 Y54.01964
G01 X40.49953 Y54.02926
G01 X40.48582 Y54.04163
G01 X40.47462 Y54.05629
G01 X40.46631 Y54.07275
G01 X40.45752 Y54.09502
G01 X40.45686 Y54.09675
G01 X40.44998 Y54.11517
G01 X40.44998 Y54.00003
G01 X40.57937 Y54.00003
G01 X41.54998 Y54.00003
G01 X41.56956 Y53.99906
G01 X41.61833 Y53.99426
G01 X41.65678 Y53.98662
G01 X41.70370 Y53.97239
G01 X41.73992 Y53.95738
G01 X41.78312 Y53.93429
G01 X41.81574 Y53.91250
G01 X41.85361 Y53.88141
G01 X41.86816 Y53.86823
G01 X43.23638 Y52.50003
G01 X47.54999 Y52.50003
G01 X47.56957 Y52.49907
G01 X47.61834 Y52.49427
G01 X47.65680 Y52.48662
G01 X47.70371 Y52.47240
G01 X47.73993 Y52.45739
G01 X47.78314 Y52.43430
G01 X47.81575 Y52.41250
G01 X47.85362 Y52.38141
G01 X47.86817 Y52.36823
G01 X50.36817 Y49.86824
G01 X50.38135 Y49.85368
G01 X50.41244 Y49.81581
G01 X50.43424 Y49.78320
G01 X50.45732 Y49.73999
G01 X50.47234 Y49.70377
G01 X50.48656 Y49.65686
G01 X50.49420 Y49.61840
G01 X50.49901 Y49.56963
G01 X50.49997 Y49.55003
G01 X50.49997 Y37.60552
G01 X50.50950 Y37.57314
G01 X50.51778 Y37.55327
G01 X50.51244 Y37.54982
G01 X50.51778 Y37.55327
G01 X50.53009 Y37.53562
G01 X50.54589 Y37.52104
G01 X50.56449 Y37.51015
G01 X50.56108 Y37.50364
G01 X50.56449 Y37.51015
G01 X50.58742 Y37.49986
G01 X50.58920 Y37.49907
G01 X50.59664 Y37.49590
G01 X50.58920 Y37.49907
G01 X50.58742 Y37.49986
G01 X50.56449 Y37.51015
G01 X50.54589 Y37.52104
G01 X50.53009 Y37.53562
G01 X50.51778 Y37.55327
G01 X50.50950 Y37.57314
G01 X50.49997 Y37.60552
G01 X50.49997 Y37.49590
G01 X50.59664 Y37.49590
G01 X50.62839 Y37.49590
G01 X50.66997 Y37.49153
G01 X50.82334 Y37.45894
G01 X50.86309 Y37.44601
G01 X51.00635 Y37.38223
G01 X51.04254 Y37.36133
G01 X51.16939 Y37.26918
G01 X51.20045 Y37.24119
G01 X51.30538 Y37.12468
G01 X51.32997 Y37.09084
G01 X51.40835 Y36.95505
G01 X51.42537 Y36.91688
G01 X51.47381 Y36.76775
G01 X51.48249 Y36.72686
G01 X51.49890 Y36.57096
G01 X51.49890 Y36.52910
G01 X51.48249 Y36.37317
G01 X51.47381 Y36.33227
G01 X51.42537 Y36.18315
G01 X51.40835 Y36.14497
G01 X51.32997 Y36.00918
G01 X51.30538 Y35.97535
G01 X51.20045 Y35.85882
G01 X51.16939 Y35.83088
G01 X51.09138 Y35.77418
G01 X51.09138 Y32.20157
G01 X51.09382 Y32.19362
G01 X51.11882 Y32.12662
G01 X51.12745 Y32.10899
G01 X51.12227 Y32.10531
G01 X51.12745 Y32.10899
G01 X51.13934 Y32.09342
G01 X51.15402 Y32.08044
G01 X51.17099 Y32.07058
G01 X51.17495 Y32.06878
G01 X51.17299 Y32.06520
G01 X51.17495 Y32.06878
G01 X51.18773 Y32.06398
G01 X51.26626 Y32.04041
G01 X51.18773 Y32.06398
G01 X51.17495 Y32.06878
G01 X51.17099 Y32.07058
G01 X51.15402 Y32.08044
G01 X51.13934 Y32.09342
G01 X51.12745 Y32.10899
G01 X51.11882 Y32.12662
G01 X51.09382 Y32.19362
G01 X51.09138 Y32.20157
G01 X51.09138 Y32.04041
G01 X51.26626 Y32.04041
G01 X51.49138 Y32.04041
G01 X51.53042 Y32.03655
G01 X51.56794 Y32.02517
G01 X51.60251 Y32.00670
G01 X51.63281 Y31.98181
G01 X51.65768 Y31.95151
G01 X51.67617 Y31.91694
G01 X51.68755 Y31.87942
G01 X51.69138 Y31.84041
G01 X51.69138 Y31.47653
G01 X51.69380 Y31.46870
G01 X51.71881 Y31.40162
G01 X51.72743 Y31.38400
G01 X51.72435 Y31.38207
G01 X51.72743 Y31.38400
G01 X51.73931 Y31.36843
G01 X51.75402 Y31.35545
G01 X51.75079 Y31.35054
G01 X51.75402 Y31.35545
G01 X51.77096 Y31.34559
G01 X51.77490 Y31.34381
G01 X51.78767 Y31.33899
G01 X51.86624 Y31.31542
G01 X51.78767 Y31.33899
G01 X51.77490 Y31.34381
G01 X51.77096 Y31.34559
G01 X51.75402 Y31.35545
G01 X51.73931 Y31.36843
G01 X51.72743 Y31.38400
G01 X51.71881 Y31.40162
G01 X51.69380 Y31.46870
G01 X51.69138 Y31.47653
G01 X51.69138 Y31.31542
G01 X51.86624 Y31.31542
G01 X53.10959 Y31.31542
G01 X53.12918 Y31.31445
G01 X53.15356 Y31.31204
G01 X53.19201 Y31.30439
G01 X53.21546 Y31.29728
G01 X53.25171 Y31.28227
G01 X53.27329 Y31.27074
G01 X53.30591 Y31.24894
G01 X53.32486 Y31.23340
G01 X53.33939 Y31.22022
G01 X53.77977 Y30.77983
G01 X53.79295 Y30.76530
G01 X53.80850 Y30.74635
G01 X53.83029 Y30.71374
G01 X53.84182 Y30.69215
G01 X53.85683 Y30.65590
G01 X53.86395 Y30.63246
G01 X53.87159 Y30.59400
G01 X53.87400 Y30.56962
G01 X53.87497 Y30.55001
G01 X53.87497 Y15.05002
G01 X53.87400 Y15.03043
G01 X53.87159 Y15.00605
G01 X53.86395 Y14.96759
G01 X53.85683 Y14.94415
G01 X53.84182 Y14.90790
G01 X53.83029 Y14.88631
G01 X53.80850 Y14.85370
G01 X53.79295 Y14.83475
G01 X53.77977 Y14.82022
G01 X51.77977 Y12.82023
G01 X51.76525 Y12.80705
G01 X51.74630 Y12.79150
G01 X51.71368 Y12.76971
G01 X51.69209 Y12.75818
G01 X51.65585 Y12.74316
G01 X51.63240 Y12.73605
G01 X51.59395 Y12.72841
G01 X51.56956 Y12.72599
G01 X51.54998 Y12.72503
G01 X35.04999 Y12.72503
G01 X35.03038 Y12.72599
G01 X35.00600 Y12.72841
G01 X34.96754 Y12.73605
G01 X34.94410 Y12.74316
G01 X34.90785 Y12.75818
G01 X34.88626 Y12.76971
G01 X34.85365 Y12.79150
G01 X34.83470 Y12.80705
G01 X34.82017 Y12.82023
G01 X33.32017 Y14.32023
G01 X33.30699 Y14.33475
G01 X33.29145 Y14.35370
G01 X33.26965 Y14.38632
G01 X33.25812 Y14.40791
G01 X33.24311 Y14.44415
G01 X33.23600 Y14.46760
G01 X33.22835 Y14.50605
G01 X33.22594 Y14.53044
G01 X33.22497 Y14.55002
G01 X33.22497 Y22.55000
G01 X33.22594 Y22.56961
G01 X33.22835 Y22.59400
G01 X33.23600 Y22.63245
G01 X33.24311 Y22.65590
G01 X33.25812 Y22.69212
G01 X33.26965 Y22.71373
G01 X33.29145 Y22.74634
G01 X33.30699 Y22.76527
G01 X33.32017 Y22.77982
G01 X33.88266 Y23.34233
G01 X33.89718 Y23.35551
G01 X33.91613 Y23.37106
G01 X33.94872 Y23.39285
G01 X33.97034 Y23.40438
G01 X34.00656 Y23.41939
G01 X34.03003 Y23.42651
G01 X34.06848 Y23.43415
G01 X34.09287 Y23.43656
G01 X34.11247 Y23.43753
G01 X34.85969 Y23.43753
G01 X34.87585 Y23.44195
G01 X34.89518 Y23.44949
G01 X34.89970 Y23.44291
G01 X34.89518 Y23.44949
G01 X34.91255 Y23.46085
G01 X34.92718 Y23.47553
G01 X34.93848 Y23.49293
G01 X34.94730 Y23.51020
G01 X34.94928 Y23.51426
G01 X34.94999 Y23.51586
G01 X34.94928 Y23.51426
G01 X34.94730 Y23.51020
G01 X34.93848 Y23.49293
G01 X34.92718 Y23.47553
G01 X34.91255 Y23.46085
G01 X34.89518 Y23.44949
G01 X34.87585 Y23.44195
G01 X34.85969 Y23.43753
G01 X34.94999 Y23.43753
G01 X34.94999 Y23.51586
G01 X34.94999 Y23.52501
G01 X34.95108 Y23.54591
G01 X34.95654 Y23.59791
G01 X34.96523 Y23.63880
G01 X34.98138 Y23.68851
G01 X34.99840 Y23.72671
G01 X35.02454 Y23.77197
G01 X35.04910 Y23.80578
G01 X35.08408 Y23.84462
G01 X35.11514 Y23.87261
G01 X35.15743 Y23.90331
G01 X35.19365 Y23.92422
G01 X35.24138 Y23.94548
G01 X35.28115 Y23.95841
G01 X35.33228 Y23.96928
G01 X35.37386 Y23.97365
G01 X35.38608 Y23.97365
G01 X35.39998 Y23.97502
G01 X36.70000 Y23.97502
G01 X36.71046 Y23.97474
G01 X36.73657 Y23.97337
G01 X36.76769 Y23.96928
G01 X36.81882 Y23.95841
G01 X36.85860 Y23.94548
G01 X36.90632 Y23.92422
G01 X36.94254 Y23.90331
G01 X36.98483 Y23.87261
G01 X37.01590 Y23.84462
G01 X37.05087 Y23.80578
G01 X37.07544 Y23.77197
G01 X37.10157 Y23.72671
G01 X37.11859 Y23.68851
G01 X37.13474 Y23.63880
G01 X37.14343 Y23.59791
G01 X37.14889 Y23.54591
G01 X37.14998 Y23.52501
G01 X37.14998 Y23.51792
G01 X37.15174 Y23.51409
G01 X37.15260 Y23.51223
G01 X37.14998 Y23.51114
G01 X37.15260 Y23.51223
G01 X37.16083 Y23.49524
G01 X37.17231 Y23.47687
G01 X37.18745 Y23.46143
G01 X37.18323 Y23.45660
G01 X37.18745 Y23.46143
G01 X37.20556 Y23.44959
G01 X37.22580 Y23.44195
G01 X37.22474 Y23.43753
G01 X37.22580 Y23.44195
G01 X37.24287 Y23.43753
G01 X37.22580 Y23.44195
G01 X37.20556 Y23.44959
G01 X37.18745 Y23.46143
G01 X37.17231 Y23.47687
G01 X37.16083 Y23.49524
G01 X37.15260 Y23.51223
G01 X37.15174 Y23.51409
G01 X37.14998 Y23.51792
G01 X37.14998 Y23.51114
G01 X37.14998 Y23.43753
G01 X37.22474 Y23.43753
G01 X37.24287 Y23.43753
G01 X38.48374 Y23.43753
G01 X38.49176 Y23.43997
G01 X38.49227 Y23.43753
G01 X38.49176 Y23.43997
G01 X38.55880 Y23.46499
G01 X38.57640 Y23.47360
G01 X38.59199 Y23.48548
G01 X38.60266 Y23.47512
G01 X38.59199 Y23.48548
G01 X38.60495 Y23.50019
G01 X38.61480 Y23.51713
G01 X38.61661 Y23.52110
G01 X38.62141 Y23.53387
G01 X38.64498 Y23.61238
G01 X38.62141 Y23.53387
G01 X38.61661 Y23.52110
G01 X38.61480 Y23.51713
G01 X38.60495 Y23.50019
G01 X38.59199 Y23.48548
G01 X38.57640 Y23.47360
G01 X38.55880 Y23.46499
G01 X38.49176 Y23.43997
G01 X38.48374 Y23.43753
G01 X38.49227 Y23.43753
G01 X38.59786 Y23.43753
G01 X38.64498 Y23.48467
G01 X38.64498 Y23.61238
G01 X38.64498 Y24.35002
G01 X38.64610 Y24.37093
G01 X38.64937 Y24.40209
G01 X38.65806 Y24.44301
G01 X38.66774 Y24.47283
G01 X38.68475 Y24.51104
G01 X38.70043 Y24.53819
G01 X38.72501 Y24.57200
G01 X38.74599 Y24.59531
G01 X38.77706 Y24.62328
G01 X38.80243 Y24.64172
G01 X38.83629 Y24.66125
G01 X38.87345 Y24.71855
G01 X38.87472 Y24.72061
G01 X38.89466 Y24.75297
G01 X38.89585 Y24.75498
G01 X38.90512 Y24.77088
G01 X38.94688 Y24.83603
G01 X38.95313 Y24.84497
G01 X38.95387 Y24.84606
G01 X38.96466 Y24.86194
G01 X38.96634 Y24.86204
G01 X38.99583 Y24.86252
G01 X39.29413 Y24.86252
G01 X39.32288 Y24.86204
G01 X39.39974 Y24.85731
G01 X39.42633 Y24.85452
G01 X39.52118 Y24.83946
G01 X39.54741 Y24.83389
G01 X39.55694 Y24.83133
G01 X39.60510 Y24.80352
G01 X39.63047 Y24.78510
G01 X39.67998 Y24.74052
G01 X39.67998 Y24.64809
G01 X39.67998 Y24.52419
G01 X39.67995 Y24.49122
G01 X39.67995 Y24.49092
G01 X39.67995 Y22.70002
G01 X39.67995 Y22.66484
G01 X39.67995 Y22.63329
G01 X39.67995 Y22.56052
G01 X39.67792 Y22.55950
G01 X39.64480 Y22.54241
G01 X39.64266 Y22.54127
G01 X39.58986 Y22.51236
G01 X39.60522 Y22.53900
G01 X39.62224 Y22.57721
G01 X39.63192 Y22.60703
G01 X39.64061 Y22.64792
G01 X39.64388 Y22.67911
G01 X39.64498 Y22.70002
G01 X39.64498 Y24.35002
G01 X39.64388 Y24.37093
G01 X39.64061 Y24.40209
G01 X39.63192 Y24.44301
G01 X39.62224 Y24.47283
G01 X39.60522 Y24.51104
G01 X39.58955 Y24.53819
G01 X39.56497 Y24.57200
G01 X39.54399 Y24.59531
G01 X39.51292 Y24.62328
G01 X39.48755 Y24.64172
G01 X39.45133 Y24.66262
G01 X39.42267 Y24.67537
G01 X39.38292 Y24.68830
G01 X39.35224 Y24.69483
G01 X39.32113 Y24.69892
G01 X39.30545 Y24.69973
G01 X39.29499 Y24.70001
G01 X38.99499 Y24.70001
G01 X38.98663 Y24.69920
G01 X38.97932 Y24.69920
G01 X38.93774 Y24.69483
G01 X38.90705 Y24.68830
G01 X38.86728 Y24.67537
G01 X38.83863 Y24.66262
G01 X38.83629 Y24.66125
G01 X38.83863 Y24.66262
G01 X38.86728 Y24.67537
G01 X38.90705 Y24.68830
G01 X38.93774 Y24.69483
G01 X38.97932 Y24.69920
G01 X38.98663 Y24.69920
G01 X38.99499 Y24.70001
G01 X39.29499 Y24.70001
G01 X39.30545 Y24.69973
G01 X39.32113 Y24.69892
G01 X39.35224 Y24.69483
G01 X39.38292 Y24.68830
G01 X39.42267 Y24.67537
G01 X39.45133 Y24.66262
G01 X39.48755 Y24.64172
G01 X39.51292 Y24.62328
G01 X39.54399 Y24.59531
G01 X39.56497 Y24.57200
G01 X39.58955 Y24.53819
G01 X39.60522 Y24.51104
G01 X39.62224 Y24.47283
G01 X39.63192 Y24.44301
G01 X39.64061 Y24.40209
G01 X39.64388 Y24.37093
G01 X39.64498 Y24.35002
G01 X39.64498 Y22.70002
G01 X39.64388 Y22.67911
G01 X39.64061 Y22.64792
G01 X39.63192 Y22.60703
G01 X39.62224 Y22.57721
G01 X39.60522 Y22.53900
G01 X39.58986 Y22.51236
G01 X39.58955 Y22.51185
G01 X39.56497 Y22.47802
G01 X39.54399 Y22.45473
G01 X39.51292 Y22.42674
G01 X39.48755 Y22.40830
G01 X39.45133 Y22.38739
G01 X39.42267 Y22.37464
G01 X39.38292 Y22.36171
G01 X39.35224 Y22.35521
G01 X39.31066 Y22.35084
G01 X39.30332 Y22.35084
G01 X39.29499 Y22.35000
G01 X38.99499 Y22.35000
G01 X38.98452 Y22.35028
G01 X38.96885 Y22.35112
G01 X38.93774 Y22.35521
G01 X38.90705 Y22.36171
G01 X38.86728 Y22.37464
G01 X38.83863 Y22.38739
G01 X38.80243 Y22.40830
G01 X38.77706 Y22.42674
G01 X38.74599 Y22.45473
G01 X38.72501 Y22.47802
G01 X38.70043 Y22.51185
G01 X38.68475 Y22.53900
G01 X38.66774 Y22.57721
G01 X38.65806 Y22.60703
G01 X38.64937 Y22.64792
G01 X38.64610 Y22.67911
G01 X38.64498 Y22.70002
G01 X38.64498 Y22.71614
G01 X38.63647 Y22.73344
G01 X38.62486 Y22.75165
G01 X38.60962 Y22.76697
G01 X38.61419 Y22.77238
G01 X38.60962 Y22.76697
G01 X38.59143 Y22.77863
G01 X38.57119 Y22.78615
G01 X38.56568 Y22.78752
G01 X38.57119 Y22.78615
G01 X38.59143 Y22.77863
G01 X38.60962 Y22.76697
G01 X38.62486 Y22.75165
G01 X38.63647 Y22.73344
G01 X38.64498 Y22.71614
G01 X38.64498 Y22.78752
G01 X38.56568 Y22.78752
G01 X37.24021 Y22.78752
G01 X37.22410 Y22.78312
G01 X37.22253 Y22.78752
G01 X37.22410 Y22.78312
G01 X37.20477 Y22.77558
G01 X37.18742 Y22.76423
G01 X37.17277 Y22.74955
G01 X37.16147 Y22.73215
G01 X37.15138 Y22.73834
G01 X37.16147 Y22.73215
G01 X37.15265 Y22.71485
G01 X37.15067 Y22.71076
G01 X37.14998 Y22.70926
G01 X37.15067 Y22.71076
G01 X37.15265 Y22.71485
G01 X37.16147 Y22.73215
G01 X37.17277 Y22.74955
G01 X37.18742 Y22.76423
G01 X37.20477 Y22.77558
G01 X37.22410 Y22.78312
G01 X37.24021 Y22.78752
G01 X37.22253 Y22.78752
G01 X37.14998 Y22.78752
G01 X37.14998 Y22.70926
G01 X37.14998 Y22.70002
G01 X37.14889 Y22.67911
G01 X37.14343 Y22.62712
G01 X37.13474 Y22.58622
G01 X37.11859 Y22.53652
G01 X37.10157 Y22.49834
G01 X37.07544 Y22.45308
G01 X37.05087 Y22.41924
G01 X37.01590 Y22.38041
G01 X36.98483 Y22.35242
G01 X36.94254 Y22.32171
G01 X36.90632 Y22.30080
G01 X36.85860 Y22.27954
G01 X36.81882 Y22.26661
G01 X36.76769 Y22.25574
G01 X36.72611 Y22.25137
G01 X36.71389 Y22.25137
G01 X36.70000 Y22.25000
G01 X35.39998 Y22.25000
G01 X35.38951 Y22.25028
G01 X35.36340 Y22.25165
G01 X35.33228 Y22.25574
G01 X35.28115 Y22.26661
G01 X35.24138 Y22.27954
G01 X35.19365 Y22.30080
G01 X35.15743 Y22.32171
G01 X35.11514 Y22.35242
G01 X35.08408 Y22.38041
G01 X35.04910 Y22.41924
G01 X35.02454 Y22.45308
G01 X34.99840 Y22.49834
G01 X34.98138 Y22.53652
G01 X34.96523 Y22.58622
G01 X34.95654 Y22.62712
G01 X34.95108 Y22.67911
G01 X34.94999 Y22.70002
G01 X34.94999 Y22.70708
G01 X34.94821 Y22.71096
G01 X34.94735 Y22.71279
G01 X34.93912 Y22.72983
G01 X34.94382 Y22.73207
G01 X34.93912 Y22.72983
G01 X34.92764 Y22.74817
G01 X34.91250 Y22.76364
G01 X34.91633 Y22.76865
G01 X34.91250 Y22.76364
G01 X34.89436 Y22.77548
G01 X34.87412 Y22.78312
G01 X34.85713 Y22.78752
G01 X34.87412 Y22.78312
G01 X34.89436 Y22.77548
G01 X34.91250 Y22.76364
G01 X34.92764 Y22.74817
G01 X34.93912 Y22.72983
G01 X34.94735 Y22.71279
G01 X34.94821 Y22.71096
G01 X34.94999 Y22.70708
G01 X34.94999 Y22.78752
G01 X34.85713 Y22.78752
G01 X34.24709 Y22.78752
G01 X33.87498 Y22.41541
G01 X33.87498 Y14.68464
G01 X35.18458 Y13.37504
G01 X51.41536 Y13.37504
G01 X53.22496 Y15.18464
G01 X53.22496 Y30.41542
G01 X52.97497 Y30.66540
G01 X51.85257 Y30.66540
G01 X51.84460 Y30.66297
G01 X51.77757 Y30.63797
G01 X51.75996 Y30.62934
G01 X51.75509 Y30.63574
G01 X51.75996 Y30.62934
G01 X51.74437 Y30.61745
G01 X51.73139 Y30.60274
G01 X51.72156 Y30.58580
G01 X51.71973 Y30.58184
G01 X51.71493 Y30.56906
G01 X51.71216 Y30.57046
G01 X51.71493 Y30.56906
G01 X51.69138 Y30.49065
G01 X51.71493 Y30.56906
G01 X51.71973 Y30.58184
G01 X51.72156 Y30.58580
G01 X51.73139 Y30.60274
G01 X51.74437 Y30.61745
G01 X51.75996 Y30.62934
G01 X51.77757 Y30.63797
G01 X51.84460 Y30.66297
G01 X51.85257 Y30.66540
G01 X51.69138 Y30.66540
G01 X51.69138 Y30.49065
G01 X51.69138 Y30.14039
G01 X51.68755 Y30.10137
G01 X51.67617 Y30.06386
G01 X51.65768 Y30.02929
G01 X51.63281 Y29.99898
G01 X51.60251 Y29.97409
G01 X51.56794 Y29.95563
G01 X51.53042 Y29.94425
G01 X51.49138 Y29.94039
G01 X51.36835 Y29.94039
G01 X49.79139 Y29.94039
G01 X49.75237 Y29.94425
G01 X49.71486 Y29.95563
G01 X49.68029 Y29.97409
G01 X49.64998 Y29.99898
G01 X49.62509 Y30.02929
G01 X49.60663 Y30.06386
G01 X49.59525 Y30.10137
G01 X49.59139 Y30.14039
G01 X49.59139 Y31.84041
G01 X49.59525 Y31.87942
G01 X49.60663 Y31.91694
G01 X49.62509 Y31.95151
G01 X49.64998 Y31.98181
G01 X49.68029 Y32.00670
G01 X49.71486 Y32.02517
G01 X49.75237 Y32.03655
G01 X49.79139 Y32.04041
G01 X50.19139 Y32.04041
G01 X50.19139 Y35.67426
G01 X50.09365 Y35.71779
G01 X50.05743 Y35.73870
G01 X49.93058 Y35.83088
G01 X49.89951 Y35.85882
G01 X49.79459 Y35.97535
G01 X49.77003 Y36.00918
G01 X49.69162 Y36.14497
G01 X49.67462 Y36.18315
G01 X49.62616 Y36.33227
G01 X49.61747 Y36.37317
G01 X49.60109 Y36.52910
G01 X49.60109 Y36.57096
G01 X49.61747 Y36.72686
G01 X49.62616 Y36.76775
G01 X49.65105 Y36.84431
G01 X49.64262 Y36.86008
G01 X49.62761 Y36.89630
G01 X49.61338 Y36.94322
G01 X49.60574 Y36.98167
G01 X49.60094 Y37.03044
G01 X49.59997 Y37.05002
G01 X49.59997 Y49.36364
G01 X47.36358 Y51.60003
G01 X43.05000 Y51.60003
G01 X43.03039 Y51.60100
G01 X42.98162 Y51.60580
G01 X42.94317 Y51.61344
G01 X42.89625 Y51.62767
G01 X42.86003 Y51.64268
G01 X42.81683 Y51.66577
G01 X42.78421 Y51.68756
G01 X42.74634 Y51.71865
G01 X42.73179 Y51.73183
G01 X42.54566 Y51.91794
G01 X42.58457 Y51.84568
G01 X42.59021 Y51.83321
G01 X42.59092 Y51.83351
G01 X42.59021 Y51.83321
G01 X42.61746 Y51.76008
G01 X42.62015 Y51.75182
G01 X42.64596 Y51.65861
G01 X42.65274 Y51.65599
G01 X42.69828 Y51.63968
G01 X42.76684 Y51.61883
G01 X42.81109 Y51.60773
G01 X42.87365 Y51.59526
G01 X42.91777 Y51.58871
G01 X42.97690 Y51.58289
G01 X43.02224 Y51.58065
G01 X43.05122 Y51.57994
G01 X46.99883 Y51.57994
G01 X47.00127 Y51.57992
G01 X47.03272 Y51.57913
G01 X47.03516 Y51.57905
G01 X47.08415 Y51.57664
G01 X47.08908 Y51.57628
G01 X47.15309 Y51.56996
G01 X47.15794 Y51.56935
G01 X47.15799 Y51.56976
G01 X47.15794 Y51.56935
G01 X47.20694 Y51.56209
G01 X47.21184 Y51.56125
G01 X47.27920 Y51.54781
G01 X47.28395 Y51.54674
G01 X47.32169 Y51.53727
G01 X47.32408 Y51.54245
G01 X47.32169 Y51.53727
G01 X47.34016 Y51.53067
G01 X47.35697 Y51.52061
G01 X47.36612 Y51.51380
G01 X47.36998 Y51.51080
G01 X47.42401 Y51.46648
G01 X47.42774 Y51.46325
G01 X47.46409 Y51.43031
G01 X47.46586 Y51.42866
G01 X47.49060 Y51.40511
G01 X47.49236 Y51.40339
G01 X47.49259 Y51.40367
G01 X47.49236 Y51.40339
G01 X49.18961 Y49.70616
G01 X49.19131 Y49.70441
G01 X49.21486 Y49.67967
G01 X49.21653 Y49.67786
G01 X49.24948 Y49.64152
G01 X49.25270 Y49.63778
G01 X49.29703 Y49.58378
G01 X49.30002 Y49.57992
G01 X49.32954 Y49.54012
G01 X49.33241 Y49.53605
G01 X49.33312 Y49.53656
G01 X49.33241 Y49.53605
G01 X49.37379 Y49.47408
G01 X49.37638 Y49.46999
G01 X49.40233 Y49.42666
G01 X49.40480 Y49.42231
G01 X49.44379 Y49.34924
G01 X49.44597 Y49.34489
G01 X49.46167 Y49.31172
G01 X49.46827 Y49.29323
G01 X49.47475 Y49.29491
G01 X49.46827 Y49.29323
G01 X49.47114 Y49.27388
G01 X49.47185 Y49.25940
G01 X49.47196 Y49.25696
G01 X49.47297 Y49.21505
G01 X49.47302 Y49.21259
G01 X49.47302 Y37.05127
G01 X49.47399 Y37.01180
G01 X49.47620 Y36.96648
G01 X49.48412 Y36.88614
G01 X49.48961 Y36.84916
G01 X49.49022 Y36.82452
G01 X49.49060 Y36.82455
G01 X49.49022 Y36.82452
G01 X49.48214 Y36.74395
G01 X49.47419 Y36.59214
G01 X49.47419 Y36.50789
G01 X49.48214 Y36.35638
G01 X49.49131 Y36.26933
G01 X49.51531 Y36.11774
G01 X49.53568 Y36.02216
G01 X49.53924 Y36.00893
G01 X49.59682 Y35.90918
G01 X49.64597 Y35.84152
G01 X49.75087 Y35.72503
G01 X49.81303 Y35.66905
G01 X49.93988 Y35.57688
G01 X49.99139 Y35.54716
G01 X50.01280 Y35.55795
G01 X49.99139 Y35.54716
G01 X49.99139 Y32.24041
G01 X50.04996 Y32.18181
G01 X49.99139 Y32.24041
G01 X49.79139 Y32.24041
G01 X49.71336 Y32.23271
G01 X49.63833 Y32.20995
G01 X49.56916 Y32.17300
G01 X49.53137 Y32.14196
G01 X49.48585 Y31.99796
G01 X49.46873 Y31.83518
G01 X49.46873 Y31.58509
G01 X49.46868 Y31.58265
G01 X49.46766 Y31.54115
G01 X49.46759 Y31.53868
G01 X49.46517 Y31.48969
G01 X49.46482 Y31.48476
G01 X49.45649 Y31.40040
G01 X49.45588 Y31.39555
G01 X49.44861 Y31.34656
G01 X49.44841 Y31.34524
G01 X49.44714 Y31.33739
G01 X49.45009 Y31.31879
G01 X49.45077 Y31.31364
G01 X49.46035 Y31.22260
G01 X49.46078 Y31.21735
G01 X49.47008 Y31.03965
G01 X49.47023 Y31.03442
G01 X49.47023 Y30.94640
G01 X49.47008 Y30.94117
G01 X49.47051 Y30.94117
G01 X49.47008 Y30.94117
G01 X49.46078 Y30.76347
G01 X49.46035 Y30.75822
G01 X49.45077 Y30.66718
G01 X49.45009 Y30.66203
G01 X49.45039 Y30.66198
G01 X49.45009 Y30.66203
G01 X49.42194 Y30.48435
G01 X49.42098 Y30.47915
G01 X49.39964 Y30.37910
G01 X49.39842 Y30.37404
G01 X49.39139 Y30.34778
G01 X49.39139 Y30.14039
G01 X49.39908 Y30.06236
G01 X49.42184 Y29.98733
G01 X49.45880 Y29.91816
G01 X49.50856 Y29.85756
G01 X49.56916 Y29.80780
G01 X49.63833 Y29.77084
G01 X49.71336 Y29.74808
G01 X49.79139 Y29.74039
G01 X49.99598 Y29.74039
G01 X50.17051 Y29.77750
G01 X50.17561 Y29.77844
G01 X50.27041 Y29.79350
G01 X50.27038 Y29.79378
G01 X50.27041 Y29.79350
G01 X50.27564 Y29.79418
G01 X50.45334 Y29.81285
G01 X50.45854 Y29.81329
G01 X50.54729 Y29.81793
G01 X50.55255 Y29.81809
G01 X50.55252 Y29.81834
G01 X50.55255 Y29.81809
G01 X50.73025 Y29.81809
G01 X50.73548 Y29.81793
G01 X50.82423 Y29.81329
G01 X50.82425 Y29.81354
G01 X50.82423 Y29.81329
G01 X50.82943 Y29.81285
G01 X51.00713 Y29.79418
G01 X51.01236 Y29.79350
G01 X51.07868 Y29.78298
G01 X51.23281 Y29.88123
G01 X51.24394 Y29.88735
G01 X51.31493 Y29.92080
G01 X51.32392 Y29.92454
G01 X51.32359 Y29.92527
G01 X51.32392 Y29.92454
G01 X51.36835 Y29.94039
G01 X51.28907 Y29.67991
G01 X51.26243 Y29.59233
G01 X51.18742 Y29.34580
G01 X51.32771 Y29.24387
G01 X51.35880 Y29.21590
G01 X51.47769 Y29.08385
G01 X51.50225 Y29.05002
G01 X51.59110 Y28.89612
G01 X51.60812 Y28.85792
G01 X51.66304 Y28.68893
G01 X51.67172 Y28.64803
G01 X51.69029 Y28.47130
G01 X51.69029 Y28.42949
G01 X51.67172 Y28.25276
G01 X51.66304 Y28.21187
G01 X51.60812 Y28.04288
G01 X51.59110 Y28.00468
G01 X51.50225 Y27.85078
G01 X51.47769 Y27.81695
G01 X51.35880 Y27.68489
G01 X51.32771 Y27.65693
G01 X51.18394 Y27.55248
G01 X51.14775 Y27.53158
G01 X50.98542 Y27.45929
G01 X50.94564 Y27.44636
G01 X50.77183 Y27.40943
G01 X50.73025 Y27.40506
G01 X50.55255 Y27.40506
G01 X50.51097 Y27.40943
G01 X50.33716 Y27.44636
G01 X50.29738 Y27.45929
G01 X50.13505 Y27.53158
G01 X50.09883 Y27.55248
G01 X49.95509 Y27.65693
G01 X49.92400 Y27.68489
G01 X49.80510 Y27.81695
G01 X49.78052 Y27.85078
G01 X49.69167 Y28.00468
G01 X49.67467 Y28.04288
G01 X49.65494 Y28.10359
G01 X49.61976 Y28.21187
G01 X49.61107 Y28.25276
G01 X49.59248 Y28.42949
G01 X49.47137 Y28.40628
G01 X49.59248 Y28.42949
G01 X49.59248 Y28.47130
G01 X49.61107 Y28.64803
G01 X49.61976 Y28.68893
G01 X49.67467 Y28.85792
G01 X49.69167 Y28.89612
G01 X49.78052 Y29.05002
G01 X49.80510 Y29.08385
G01 X49.92400 Y29.21590
G01 X49.95509 Y29.24387
G01 X50.09883 Y29.34831
G01 X50.13505 Y29.36922
G01 X50.29738 Y29.44151
G01 X50.33716 Y29.45443
G01 X50.51097 Y29.49137
G01 X50.55255 Y29.49573
G01 X50.73025 Y29.49573
G01 X50.77183 Y29.49137
G01 X50.94564 Y29.45443
G01 X50.98542 Y29.44151
G01 X51.14775 Y29.36922
G01 X51.18394 Y29.34831
G01 X51.18742 Y29.34580
G01 X51.16626 Y29.37397
G01 X51.16327 Y29.37816
G01 X51.12136 Y29.44036
G01 X51.11925 Y29.44364
G01 X51.08468 Y29.49954
G01 X51.08277 Y29.50274
G01 X51.03919 Y29.57943
G01 X51.03799 Y29.58164
G01 X51.03489 Y29.58743
G01 X50.98359 Y29.59556
G01 X50.81112 Y29.61369
G01 X50.72761 Y29.61806
G01 X50.55516 Y29.61806
G01 X50.47165 Y29.61369
G01 X50.29918 Y29.59556
G01 X50.20955 Y29.58133
G01 X50.04346 Y29.54603
G01 X49.98128 Y29.51014
G01 X49.83751 Y29.40567
G01 X49.77538 Y29.34971
G01 X49.65646 Y29.21766
G01 X49.60731 Y29.15002
G01 X49.51846 Y28.99612
G01 X49.48445 Y28.91974
G01 X49.47137 Y28.87948
G01 X49.47140 Y28.76968
G01 X49.47140 Y28.67321
G01 X49.47137 Y28.49454
G01 X49.47137 Y28.40628
G01 X49.47137 Y28.28685
G01 X49.52900 Y28.23521
G01 X49.53243 Y28.23198
G01 X49.58641 Y28.17882
G01 X49.58986 Y28.17524
G01 X49.64270 Y28.11776
G01 X49.64490 Y28.11527
G01 X49.65494 Y28.10359
G04 P0 ( dwell for no time -- G64 should not smooth over this point )
G00 Z1.00000 ( retract )

G00 X46.52812 Y28.04288 ( rapid move to begin. )
G01 F300.00000
( Mill infeed pass 1/1 )
G01 Z-0.05000
G04 P0 ( dwell for no time -- G64 should not smooth over this point )
G01 F600.00000
G01 X46.52812 Y28.04288
G01 X46.58304 Y28.21187
G01 X46.59172 Y28.25276
G01 X46.61029 Y28.42949
G01 X46.61029 Y28.47130
G01 X46.59172 Y28.64803
G01 X46.58304 Y28.68893
G01 X46.52812 Y28.85792
G01 X46.51110 Y28.89612
G01 X46.42225 Y29.05002
G01 X46.39769 Y29.08385
G01 X46.27880 Y29.21590
G01 X46.24771 Y29.24387
G01 X46.10394 Y29.34831
G01 X46.06775 Y29.36922
G01 X45.90542 Y29.44151
G01 X45.86564 Y29.45443
G01 X45.69183 Y29.49137
G01 X45.65025 Y29.49573
G01 X45.47255 Y29.49573
G01 X45.43097 Y29.49137
G01 X45.25716 Y29.45443
G01 X45.21738 Y29.44151
G01 X45.08766 Y29.38375
G01 X44.62048 Y29.85093
G01 X44.62048 Y30.19411
G01 X44.62045 Y30.52946
G01 X44.70052 Y30.39078
G01 X44.72510 Y30.35695
G01 X44.80717 Y30.26579
G01 X44.84110 Y30.17742
G01 X44.87108 Y30.11031
G01 X44.92393 Y30.00660
G01 X44.94799 Y29.98606
G01 X45.01634 Y29.93366
G01 X45.16198 Y29.83355
G01 X45.18230 Y29.82042
G01 X45.92213 Y29.82042
G01 X45.99536 Y29.82042
G01 X46.11817 Y29.87508
G01 X46.15835 Y29.94443
G01 X46.24651 Y30.11745
G01 X46.27570 Y30.18283
G01 X46.30158 Y30.25019
G01 X46.39769 Y30.35695
G01 X46.42225 Y30.39078
G01 X46.48827 Y30.50513
G01 X46.50051 Y30.55080
G01 X46.50869 Y30.58918
G01 X46.53686 Y30.76688
G01 X46.54016 Y30.79820
G01 X46.54946 Y30.97589
G01 X46.54946 Y31.00493
G01 X46.54016 Y31.18262
G01 X46.53686 Y31.21394
G01 X46.50869 Y31.39164
G01 X46.50051 Y31.43002
G01 X46.48829 Y31.47564
G01 X46.42225 Y31.59002
G01 X46.39769 Y31.62385
G01 X46.30158 Y31.73058
G01 X46.27880 Y31.75590
G01 X46.24771 Y31.78387
G01 X46.10394 Y31.88831
G01 X46.06775 Y31.90922
G01 X46.01138 Y31.93431
G01 X46.01138 Y33.03860
G01 X46.01042 Y33.05821
G01 X46.00562 Y33.10698
G01 X45.99797 Y33.14543
G01 X45.98375 Y33.19235
G01 X45.96874 Y33.22857
G01 X45.94565 Y33.27177
G01 X45.92386 Y33.30439
G01 X45.89277 Y33.34226
G01 X45.87958 Y33.35681
G01 X43.04855 Y36.18785
G01 X38.86817 Y40.36823
G01 X38.85361 Y40.38141
G01 X38.81574 Y40.41250
G01 X38.78313 Y40.43430
G01 X38.73992 Y40.45738
G01 X38.70370 Y40.47240
G01 X38.65679 Y40.48662
G01 X38.61833 Y40.49426
G01 X38.56957 Y40.49907
G01 X38.54998 Y40.50003
G01 X32.33638 Y40.50003
G01 X30.97499 Y41.86139
G01 X30.97499 Y42.67501
G01 X30.97116 Y42.71402
G01 X30.95975 Y42.75154
G01 X30.94128 Y42.78613
G01 X30.91642 Y42.81643
G01 X30.88609 Y42.84130
G01 X30.85152 Y42.85979
G01 X30.81401 Y42.87117
G01 X30.77499 Y42.87501
G01 X29.27499 Y42.87501
G01 X29.23598 Y42.87117
G01 X29.19844 Y42.85979
G01 X29.16387 Y42.84130
G01 X29.13357 Y42.81643
G01 X29.10870 Y42.78613
G01 X29.09021 Y42.75154
G01 X29.07883 Y42.71402
G01 X29.07499 Y42.67501
G01 X29.07499 Y41.67501
G01 X29.07883 Y41.63599
G01 X29.09021 Y41.59848
G01 X29.10870 Y41.56391
G01 X29.13357 Y41.53358
G01 X29.16387 Y41.50872
G01 X29.19844 Y41.49025
G01 X29.23598 Y41.47884
G01 X29.27499 Y41.47501
G01 X30.08858 Y41.47501
G01 X30.63046 Y40.93315
G01 X31.83178 Y39.73183
G01 X31.84634 Y39.71865
G01 X31.87964 Y39.69132
G01 X31.84634 Y39.71865
G01 X31.83178 Y39.73183
G01 X30.63046 Y40.93315
G01 X30.66935 Y40.86086
G01 X30.67502 Y40.84839
G01 X30.67573 Y40.84870
G01 X30.67502 Y40.84839
G01 X30.70227 Y40.77526
G01 X30.70496 Y40.76701
G01 X30.73105 Y40.67278
G01 X30.81324 Y40.63874
G01 X30.82152 Y40.63485
G01 X30.94319 Y40.57087
G01 X30.94395 Y40.57204
G01 X30.94319 Y40.57087
G01 X30.95970 Y40.55997
G01 X31.06214 Y40.47676
G01 X31.07672 Y40.46218
G01 X31.07756 Y40.46302
G01 X31.07672 Y40.46218
G01 X31.15993 Y40.35975
G01 X31.17082 Y40.34324
G01 X31.17215 Y40.34405
G01 X31.17082 Y40.34324
G01 X31.23481 Y40.22157
G01 X31.23869 Y40.21329
G01 X31.35975 Y39.92101
G01 X31.39594 Y39.88482
G01 X31.77291 Y39.72868
G01 X31.80290 Y39.71710
G01 X31.84847 Y39.70079
G01 X31.87964 Y39.69132
G01 X31.88421 Y39.68756
G01 X31.91682 Y39.66577
G01 X31.96003 Y39.64268
G01 X31.99625 Y39.62767
G01 X32.04316 Y39.61344
G01 X32.08162 Y39.60580
G01 X32.13039 Y39.60100
G01 X32.14999 Y39.60003
G01 X38.36357 Y39.60003
G01 X44.63061 Y33.33299
G04 P0 ( dwell for no time -- G64 should not smooth over this point )
G00 Z1.00000 ( retract )

G00 X47.09998 Y37.11106 ( rapid move to begin. )
G01 F300.00000
( Mill infeed pass 1/1 )
G01 Z-0.05000
G04 P0 ( dwell for no time -- G64 should not smooth over this point )
G01 F600.00000
G01 X47.09998 Y37.11106
G01 X47.07641 Y37.03257
G01 X47.07161 Y37.01980
G01 X47.03920 Y36.94881
G01 X47.03551 Y36.94157
G01 X47.03648 Y36.94108
G01 X47.03551 Y36.94157
G01 X46.96896 Y36.82247
G01 X46.96117 Y36.81055
G01 X46.89998 Y36.73042
G01 X46.89998 Y34.13710
G01 X46.91494 Y34.13098
G01 X46.89998 Y34.13710
G01 X46.30041 Y33.53756
G01 X46.27405 Y33.50848
G01 X46.24684 Y33.47533
G01 X46.24875 Y33.43748
G01 X46.24885 Y33.43502
G01 X46.25014 Y33.38376
G01 X46.25019 Y33.38120
G01 X46.25019 Y33.37749
G01 X46.25144 Y33.33030
G01 X46.25342 Y33.29286
G01 X46.25352 Y33.29022
G01 X46.25469 Y33.24691
G01 X46.25474 Y33.24424
G01 X46.25474 Y33.23733
G01 X46.25583 Y33.19753
G01 X46.25751 Y33.16741
G01 X46.25761 Y33.16466
G01 X46.25873 Y33.12484
G01 X46.25875 Y33.12207
G01 X46.25875 Y33.11389
G01 X46.25980 Y33.07711
G01 X46.26137 Y33.04925
G01 X46.26140 Y33.04889
G01 X46.26165 Y33.04389
G01 X46.26168 Y33.04353
G01 X46.26371 Y33.00200
G01 X46.27011 Y32.93708
G01 X46.27666 Y32.89293
G01 X46.29033 Y32.82440
G01 X46.30143 Y32.78016
G01 X46.32419 Y32.70535
G01 X46.34082 Y32.65885
G01 X46.34382 Y32.65057
G01 X46.34832 Y32.63375
G01 X46.34984 Y32.61640
G01 X46.35131 Y32.61661
G01 X46.34984 Y32.61640
G01 X46.34984 Y32.10109
G01 X46.42586 Y31.95189
G01 X46.42807 Y31.94727
G01 X46.45941 Y31.87711
G01 X46.46147 Y31.87218
G01 X46.48832 Y31.80218
G01 X46.48829 Y31.47564
G01 X46.42225 Y31.59002
G01 X46.39769 Y31.62385
G01 X46.30158 Y31.73058
G01 X46.27570 Y31.79799
G01 X46.24651 Y31.86337
G01 X46.16074 Y32.03170
G01 X46.15261 Y32.05374
G01 X46.14806 Y32.05273
G01 X46.15261 Y32.05374
G01 X46.14984 Y32.07709
G01 X46.14984 Y32.59893
G01 X46.13506 Y32.64023
G01 X46.13353 Y32.64483
G01 X46.10935 Y32.72433
G01 X46.10801 Y32.72913
G01 X46.09574 Y32.77815
G01 X46.09467 Y32.78290
G01 X46.08004 Y32.85626
G01 X46.07918 Y32.86113
G01 X46.07191 Y32.91013
G01 X46.07133 Y32.91498
G01 X46.07034 Y32.91485
G01 X46.07133 Y32.91498
G01 X46.06442 Y32.98481
G01 X46.06406 Y32.98973
G01 X46.06190 Y33.03352
G01 X46.06168 Y33.03820
G01 X46.06003 Y33.06728
G01 X46.05992 Y33.07010
G01 X46.05881 Y33.10970
G01 X46.05876 Y33.11249
G01 X46.05876 Y33.12067
G01 X46.05774 Y33.15770
G01 X46.05606 Y33.18783
G01 X46.05594 Y33.19062
G01 X46.05477 Y33.23322
G01 X46.05474 Y33.23596
G01 X46.05474 Y33.24289
G01 X46.05365 Y33.28351
G01 X46.05164 Y33.32100
G01 X46.05154 Y33.32369
G01 X46.05022 Y33.37355
G01 X46.05020 Y33.37617
G01 X46.05020 Y33.37993
G01 X46.04895 Y33.42870
G01 X46.04689 Y33.46967
G01 X46.02101 Y33.49824
G01 X44.27921 Y35.24005
G01 X44.17446 Y35.29689
G01 X44.16999 Y35.29948
G01 X44.08728 Y35.35008
G01 X44.08284 Y35.35297
G01 X43.95144 Y35.44330
G01 X43.95111 Y35.44284
G01 X43.95144 Y35.44330
G01 X43.94723 Y35.44634
G01 X43.87954 Y35.49824
G01 X43.87545 Y35.50156
G01 X43.75586 Y35.60370
G01 X43.75198 Y35.60720
G01 X43.69343 Y35.66273
G01 X43.69318 Y35.66245
G01 X43.69343 Y35.66273
G01 X43.68972 Y35.66644
G01 X43.58175 Y35.78023
G01 X43.57824 Y35.78414
G01 X43.52485 Y35.84667
G01 X43.52460 Y35.84647
G01 X43.52485 Y35.84667
G01 X43.52155 Y35.85076
G01 X43.42528 Y35.97619
G01 X43.42218 Y35.98048
G01 X43.37121 Y36.05473
G01 X43.36839 Y36.05907
G01 X43.35686 Y36.07789
G01 X43.20809 Y36.11614
G01 X43.19727 Y36.11957
G01 X43.19701 Y36.11884
G01 X43.19727 Y36.11957
G01 X43.12462 Y36.14733
G01 X43.11238 Y36.15297
G01 X43.04855 Y36.18785
G01 X43.25127 Y36.31304
G01 X43.39917 Y36.40441
G01 X43.60108 Y36.52910
G01 X43.61177 Y36.42719
G01 X43.58774 Y36.33474
G01 X43.58439 Y36.32422
G01 X43.56953 Y36.28531
G01 X43.55581 Y36.24647
G01 X43.54276 Y36.20644
G01 X43.54154 Y36.20293
G01 X43.53153 Y36.17565
G01 X43.53755 Y36.16580
G01 X43.58558 Y36.09585
G01 X43.67865 Y35.97454
G01 X43.72864 Y35.91599
