( pcb2gcode 2.4.0 )
( Software-independent Gcode )

G94 ( Millimeters per minute feed rate. )
G21 ( Units == Millimeters. )

G90 ( Absolute coordinates. )
G00 S10000 ( RPM spindle speed. )
G64 P0.01000 ( set maximum deviation from commanded toolpath )
G01 F600.00000 ( Feedrate. )


G00 Z50.00000 (Retract to tool change height)
T0
M5      (Spindle stop.)
G04 P1.00000 (Wait for spindle to stop)
(MSG, Change tool bit to cutter diameter 4.00000mm)
M6      (Tool change.)
M0      (Temporary machine stop.)
M3 ( Spindle on clockwise. )
G04 P1.00000 (Wait for spindle to get up to speed)
G04 P0 ( dwell for no time -- G64 should not smooth over this point )
G00 Z1.00000 ( retract )

G00 X2.05000 Y4.05001 ( rapid move to begin. )
G01 Z-0.43333 F60.00000 ( plunge. )
G04 P0 ( dwell for no time -- G64 should not smooth over this point )
G01 F600.00000
G01 X2.05000 Y62.05000
G01 X2.08843 Y62.44017
G01 X2.20225 Y62.81535
G01 X2.38706 Y63.16112
G01 X2.63580 Y63.46420
G01 X2.93888 Y63.71294
G01 X3.28465 Y63.89775
G01 X3.65983 Y64.01157
G01 X4.05000 Y64.05000
G01 X59.04999 Y64.05000
G01 X59.44016 Y64.01157
G01 X59.81534 Y63.89775
G01 X60.16111 Y63.71294
G01 X60.46419 Y63.46420
G01 X60.71293 Y63.16112
G01 X60.89774 Y62.81535
G01 X61.01156 Y62.44017
G01 X61.04999 Y62.05000
G01 X61.04999 Y4.05001
G01 X61.01156 Y3.65985
G01 X60.89774 Y3.28466
G01 X60.71293 Y2.93889
G01 X60.46419 Y2.63582
G01 X60.16111 Y2.38708
G01 X59.81534 Y2.20227
G01 X59.44016 Y2.08845
G01 X59.04999 Y2.05002
G01 X4.05000 Y2.05002
G01 X3.65983 Y2.08845
G01 X3.28465 Y2.20227
G01 X2.93888 Y2.38708
G01 X2.63580 Y2.63582
G01 X2.38706 Y2.93889
G01 X2.20225 Y3.28466
G01 X2.08843 Y3.65985
G01 X2.05000 Y4.05001
G01 Z-0.86667 F60.00000 ( plunge. )
G04 P0 ( dwell for no time -- G64 should not smooth over this point )
G01 F600.00000
G01 X2.05000 Y62.05000
G01 X2.08843 Y62.44017
G01 X2.20225 Y62.81535
G01 X2.38706 Y63.16112
G01 X2.63580 Y63.46420
G01 X2.93888 Y63.71294
G01 X3.28465 Y63.89775
G01 X3.65983 Y64.01157
G01 X4.05000 Y64.05000
G01 X59.04999 Y64.05000
G01 X59.44016 Y64.01157
G01 X59.81534 Y63.89775
G01 X60.16111 Y63.71294
G01 X60.46419 Y63.46420
G01 X60.71293 Y63.16112
G01 X60.89774 Y62.81535
G01 X61.01156 Y62.44017
G01 X61.04999 Y62.05000
G01 X61.04999 Y4.05001
G01 X61.01156 Y3.65985
G01 X60.89774 Y3.28466
G01 X60.71293 Y2.93889
G01 X60.46419 Y2.63582
G01 X60.16111 Y2.38708
G01 X59.81534 Y2.20227
G01 X59.44016 Y2.08845
G01 X59.04999 Y2.05002
G01 X4.05000 Y2.05002
G01 X3.65983 Y2.08845
G01 X3.28465 Y2.20227
G01 X2.93888 Y2.38708
G01 X2.63580 Y2.63582
G01 X2.38706 Y2.93889
G01 X2.20225 Y3.28466
G01 X2.08843 Y3.65985
G01 X2.05000 Y4.05001
G01 Z-1.30000 F60.00000 ( plunge. )
G04 P0 ( dwell for no time -- G64 should not smooth over this point )
G01 F600.00000
G01 X2.05000 Y62.05000
G01 X2.08843 Y62.44017
G01 X2.20225 Y62.81535
G01 X2.38706 Y63.16112
G01 X2.63580 Y63.46420
G01 X2.93888 Y63.71294
G01 X3.28465 Y63.89775
G01 X3.65983 Y64.01157
G01 X4.05000 Y64.05000
G01 X59.04999 Y64.05000
G01 X59.44016 Y64.01157
G01 X59.81534 Y63.89775
G01 X60.16111 Y63.71294
G01 X60.46419 Y63.46420
G01 X60.71293 Y63.16112
G01 X60.89774 Y62.81535
G01 X61.01156 Y62.44017
G01 X61.04999 Y62.05000
G01 X61.04999 Y4.05001
G01 X61.01156 Y3.65985
G01 X60.89774 Y3.28466
G01 X60.71293 Y2.93889
G01 X60.46419 Y2.63582
G01 X60.16111 Y2.38708
G01 X59.81534 Y2.20227
G01 X59.44016 Y2.08845
G01 X59.04999 Y2.05002
G01 X4.05000 Y2.05002
G01 X3.65983 Y2.08845
G01 X3.28465 Y2.20227
G01 X2.93888 Y2.38708
G01 X2.63580 Y2.63582
G01 X2.38706 Y2.93889
G01 X2.20225 Y3.28466
G01 X2.08843 Y3.65985
G01 X2.05000 Y4.05001

G04 P0 ( dwell for no time -- G64 should not smooth over this point )
G00 Z50.000000 ( retract )

M5 ( Spindle off. )
G04 P1.000000
M9 ( Coolant off. )
M2 ( Program end. )

